DSAA
220 102
-636.434375589 1066.43437559
237.542524411 1022.31023334
8.49365277814 1680.87316244
65.5557935923 65.555825031 65.5559158542 65.5560551171 65.5562256066 65.5564066562 65.5565774059 65.5567194645 65.5568183969 65.5566452086 65.5566222653 65.5565443485 65.5564102891 65.5562205032 65.555976996 65.5556838028 65.5553478962 65.5549805195 65.5545987463 65.5542267671 65.553895992 65.5536427548 65.5535035101 65.5535030217 65.5536585096 65.5539564336 65.554359866 65.5546018209 65.5549936206 65.5553499427 65.5556403616 65.5560958759 65.5561981521 65.5562108215 65.5560952187 65.5558935786 65.5556068336 65.5553606213 65.5551569899 65.5550576569 65.555114886 65.5553509941 65.5557358009 65.5561965189 65.5566428173 65.556995381 65.5572036382 65.5573125933 65.5571982034 65.5569790548 65.5567322144 65.5565577111 65.5565563007 65.5567902764 65.5572119741 65.5576865311 65.558048462 65.5582038277 65.5581483062 65.5579562699 65.5577572955 65.5577228935 65.5578912122 65.5583782709 65.5586345146 65.5587472388 65.5587668751 65.5586906297 65.558708641 65.5589684651 65.5593262169 65.5595362354 65.5594860886 65.5595098655 65.5598428612 65.5601167583 65.5601036061 65.5602543421 65.5605938476 65.5605980474 65.5608936455 65.5609829703 65.5612542926 65.5613776682 65.5615443511 65.5617911822 65.5620307578 65.5621929816 65.5623567966 65.5625917396 65.5628553162 65.5630595487 65.563215672 65.5634173538 65.5636805364 65.5639182769 65.564084447 65.5642499493 65.5644816652 65.5647304053 65.5649151444 65.5650560698 65.5652382491 65.5654651773 65.5656583723 65.5657886317 65.5659205904 65.5660986787 65.5662759176 65.5663978441 65.5664904853 65.5666096763 65.5667449625 65.566846125 65.5669086198 65.5669742515 65.5670541779 65.567116665 65.5671473275 65.5671699546 65.5671975892 65.5672109249 65.5672004892 65.5671845858 65.5671714518 65.5671400491 65.5670827709 65.5670245919 65.5669789384 65.5669173871 65.5668198318 65.5667155091 65.5666364726 65.5665605384 65.5664379027 65.5662944033 65.5661873273 65.5661088812 65.5659335068 65.5658543853 65.5656524762 65.5656298348 65.5653603835 65.5652513364 65.5652346782 65.5649807036 65.5647047628 65.5646845162 65.5646973282 65.5644658972 65.5641168704 65.5638788783 65.5638621989 65.5639119027 65.563849612 65.5637999586 65.5635786517 65.5629328864 65.5627302226 65.5627790175 65.5630992363 65.5634274723 65.5635682396 65.5633950797 65.5628985444 65.5622534315 65.5615975227 65.5612237596 65.561227883 65.5615295198 65.5619712043 65.5623872053 65.5626443432 65.5626205436 65.5623502593 65.5618203307 65.561109621 65.5603508365 65.5597017506 65.5592957756 65.5591959376 65.5593754583 65.5597502284 65.5602144262 65.5608563491 65.5612961705 65.5615862729 65.5616870919 65.5615797205 65.560793392 65.5603261479 65.5597267268 65.559049788 65.5586848651 65.5579406147 65.55738689 65.5570964941 65.5570974531 65.5573595711 65.557834942 65.5584529178 65.5591423832 65.5598414631 65.5605021596 65.5610902884 65.5615830792 65.5619662311 65.5622314181 65.5623746602 65.5623956571 65.5622980291 65.5624670243 65.5621191689 65.5616883915 65.5612094398 65.5607256104 65.5602849126 65.5599336435 65.5597088468 65.5596321292
65.5558307567 65.5558588287 65.5559521747 65.556094983 65.5562693856 65.5564541635 65.5566281645 65.5567729854 65.5568743759 65.5569224423 65.5566758752 65.5566010165 65.5564703173 65.5562841085 65.5560442133 65.5557544023 65.5554213322 65.5550559408 65.554675106 65.5543030565 65.5539715745 65.55371768 65.55357777 65.5535832475 65.5537416363 65.5540426028 65.5544482404 65.5549061385 65.5550621527 65.5554162684 65.5557045663 65.5561713028 65.5562732581 65.5562630381 65.5561708435 65.5559700124 65.5556771257 65.5554342183 65.5552346152 65.5551433373 65.5552061473 65.5554466367 65.5558330989 65.5562922687 65.5567347701 65.5570829734 65.5572877447 65.5573973469 65.5572836092 65.5570677957 65.5568273285 65.5566616974 65.5566771888 65.5569134139 65.5573278066 65.5577816564 65.5581352919 65.5582836012 65.5582303766 65.5580504651 65.5578744968 65.5578431186 65.5580518928 65.5584758943 65.5588280311 65.5588911617 65.5588763068 65.5587628949 65.5588056291 65.5590410285 65.5593523702 65.5595654997 65.5595696239 65.5596334756 65.5599043355 65.5601392744 65.5602183355 65.5603708149 65.560619183 65.5607218786 65.5609423446 65.5610936337 65.5612706878 65.5614491185 65.5616201052 65.5618041327 65.5620111142 65.5621950863 65.5624027906 65.5626187241 65.5628152765 65.5630308235 65.5632429238 65.5634583424 65.5636550531 65.5638716897 65.5640810323 65.5642881454 65.5644977407 65.5646838913 65.564882999 65.5650743442 65.565263913 65.5654322933 65.5656118096 65.5657797832 65.5659408046 65.5660978628 65.5662316247 65.566368508 65.5664942551 65.5666127937 65.5667120084 65.5668106562 65.5668961291 65.5669715373 65.5670375845 65.5670863751 65.5671283533 65.5671590658 65.5671795499 65.5671878326 65.5671853982 65.5671722699 65.5671493248 65.5671151311 65.5670743669 65.5670202853 65.5669582986 65.5668865814 65.5668127445 65.5667227598 65.5666280414 65.5665377229 65.5664288512 65.5663245803 65.5662216589 65.5661084322 65.5659911927 65.5658808419 65.5657249373 65.5656384816 65.5654420701 65.5653251974 65.5652425305 65.5650279754 65.5648001372 65.5647429082 65.5647135504 65.5644860611 65.5641815857 65.5639630701 65.5639207962 65.5640802245 65.5641039204 65.5641448314 65.56371737 65.5631785027 65.5628980242 65.5629658031 65.5632523207 65.5635674786 65.5637072395 65.5635440009 65.5631283733 65.562446297 65.5617995504 65.5614222328 65.5614052132 65.5616963321 65.5621318375 65.5625459436 65.562804189 65.5627830366 65.5625172037 65.5619920041 65.5612844625 65.5605251614 65.5598709811 65.5594567073 65.5593482158 65.5595175103 65.5598886998 65.5603510032 65.5610153309 65.5614567921 65.5617462358 65.5618496428 65.5617421852 65.5609322969 65.5604662482 65.5598673816 65.5596981688 65.5588587152 65.5581068502 65.5575448478 65.5572477268 65.557238343 65.5575029589 65.5579819476 65.5586042075 65.5592969375 65.5599972626 65.5606569312 65.5612420523 65.5617304323 65.5621084112 65.5623682221 65.5625062786 65.5625224607 65.5628424138 65.5625985575 65.5622462367 65.5618099109 65.5613239136 65.560831609 65.5603817442 65.5600219579 65.5597908532 65.5597225202
65.5559453448 65.5559819291 65.5560523046 65.5561930187 65.5563642798 65.55654521 65.5567152352 65.5568566364 65.556955814 65.557003398 65.5569936562 65.5566777867 65.5565534858 65.5563758364 65.5561466458 65.5558696031 65.5555511907 65.5552020338 65.5548384963 65.5544840165 65.5541692347 65.5539296452 65.5537998289 65.5538196961 65.5539758248 65.554266491 65.5546552557 65.5550925167 65.5555267211 65.5555317254 65.555807892 65.5562866101 65.5563886696 65.5565168549 65.5563063398 65.5561245128 65.5558934147 65.5556263418 65.5555495811 65.5554547314 65.5554664811 65.5557012262 65.5560665468 65.55649546 65.5569076104 65.557233458 65.5574289421 65.5574798083 65.5574589951 65.5572787472 65.5570814255 65.5569555238 65.5570964554 65.5572347258 65.5576014287 65.5579961273 65.5585564857 65.5584425544 65.5584144482 65.5582877045 65.558172617 65.5581839767 65.5583359968 65.5587011032 65.5589793293 65.5591135836 65.5590247467 65.5590196886 65.5589987278 65.5591890177 65.559421231 65.5596412468 65.5597213307 65.5598298296 65.5600209001 65.560204275 65.5603760448 65.5605208052 65.5606928342 65.5608374103 65.5610328003 65.5611810078 65.5613278985 65.5615161923 65.5616684587 65.5618272196 65.5620329671 65.5621995424 65.5624144357 65.5626332739 65.562804846 65.563026085 65.5632474949 65.5634687056 65.5636403801 65.5638598138 65.5640772218 65.5642921081 65.5645039521 65.5646663391 65.5648708663 65.5650703182 65.5652641746 65.565410915 65.565593117 65.5657677494 65.5659343218 65.566092337 65.5662090874 65.566350283 65.5664813533 65.5666019562 65.5666883488 65.5667892799 65.566878679 65.566956381 65.5670222268 65.5670650295 65.5671093571 65.5671415885 65.5671617837 65.5671689961 65.5671679561 65.5671552639 65.5671311727 65.5670959336 65.5670607011 65.5670064886 65.5669421944 65.5668681965 65.5668038688 65.566714046 65.5666169667 65.5665354029 65.5664277789 65.5663388729 65.5662488038 65.5661309705 65.5660333533 65.5659298468 65.5657890125 65.5656774275 65.5655422668 65.5654262091 65.5652772785 65.5651142133 65.5649487835 65.5648494408 65.5647615944 65.5645392114 65.564311 65.5641290725 65.5642444499 65.5642604182 65.5644983705 65.5643668792 65.5640338075 65.5635792687 65.5634323936 65.5634334949 65.5636374563 65.5638766763 65.5639779965 65.5642566321 65.5634883317 65.5628976018 65.5623284436 65.5621206695 65.5619103876 65.562142306 65.5625108515 65.5628680271 65.5630537495 65.5630522673 65.562797981 65.5623065448 65.5616474116 65.5609382233 65.5603207926 65.5599188639 65.5599345635 65.5601209894 65.5602482243 65.5608440324 65.561331515 65.561739405 65.5623105415 65.5620948641 65.5619844266 65.5611472555 65.56069941 65.5608483237 65.5600626806 65.5592582371 65.5585350437 65.5579903812 65.5576966944 65.55766221 65.5579090113 65.5583630453 65.5589563305 65.5596186594 65.560289102 65.5609207849 65.5614807644 65.5619474862 65.5623077141 65.5625539505 65.5626827485 65.5631514359 65.5630321502 65.5627930031 65.562448739 65.5620225473 65.5615471943 65.5610644263 65.5606216715 65.5602658592 65.5600925611 65.5600001098
65.5561360313 65.55617109 65.5562702304 65.5563476703 65.5565088314 65.5566785836 65.5568377396 65.5569698727 65.5570624136 65.557106712 65.5570974868 65.557032084 65.5566587286 65.5564938272 65.5562813889 65.5560251787 65.5557316168 65.555410983 65.5550788038 65.5547569393 65.5544735029 65.5542605145 65.5541485604 65.5541890288 65.5543379625 65.5546069748 65.5549632748 65.5553628656 65.5557601555 65.5561155424 65.5563992944 65.5564414468 65.5567052722 65.5566997908 65.556602831 65.5563502947 65.556160303 65.5561384386 65.5559654872 65.5559050549 65.555995623 65.5560781154 65.5564068836 65.5567873544 65.5571530265 65.5574461654 65.5576299018 65.557692593 65.5577172121 65.5575914897 65.5574562786 65.5573827127 65.5576565591 65.557880679 65.558225365 65.5583032656 65.5588635513 65.5589869233 65.5589662754 65.5586232497 65.5585718104 65.5586089619 65.5590130172 65.5592697555 65.5594882831 65.5593231062 65.5593628586 65.5592681601 65.5593616239 65.5593333001 65.5595111205 65.5597395633 65.5598553316 65.5599798139 65.5601319147 65.5602856181 65.5604938002 65.5606295545 65.5607723364 65.560910945 65.5611119337 65.5612439712 65.5613760188 65.5615719694 65.561706745 65.5618465289 65.5620562005 65.5622026647 65.5624221389 65.5626460756 65.5627969467 65.5630234068 65.5632500648 65.5634764096 65.5636273112 65.5638518165 65.5640742566 65.5642940148 65.5645104536 65.5646531154 65.5648623473 65.5650662889 65.5652642803 65.5653932163 65.5655797056 65.5657583312 65.5659284891 65.5660895966 65.5661921177 65.5663367166 65.5664707358 65.5665937417 65.5666696997 65.5667733741 65.5668650138 65.566944388 65.5670113164 65.5670489234 65.567094734 65.567127873 65.5671483879 65.5671548594 65.5671545148 65.5671419493 65.5671174192 65.5670812196 65.567050326 65.5669954641 65.5669299884 65.566854336 65.566797954 65.5667067596 65.5666079648 65.5665366154 65.5664275305 65.5663497598 65.5662708886 65.5661494239 65.5660623981 65.5659715054 65.5658272745 65.5657222243 65.565610743 65.5655013306 65.5653269184 65.5651926591 65.5650586464 65.5649443659 65.5648306442 65.5646083139 65.5644330046 65.5646361636 65.5645462592 65.5648213545 65.5648137804 65.5651955272 65.5649325601 65.5645990483 65.5640987508 65.5640728826 65.5641892049 65.5648121595 65.5649034529 65.5647687828 65.564008341 65.5639451949 65.5634109836 65.5630629918 65.5626531451 65.5628054806 65.5630748183 65.5633418766 65.5634608163 65.5634338996 65.5631939426 65.5627535585 65.5621712009 65.561545127 65.5609933906 65.5609314059 65.5607805153 65.5609115184 65.561260509 65.5613800521 65.5617931962 65.5624316153 65.562700067 65.5627961833 65.5623072314 65.562416918 65.561938861 65.5613116942 65.5605916167 65.5598549375 65.5591906257 65.5586854665 65.5584050074 65.5583344876 65.5585483144 65.5589533861 65.5594891178 65.5600917312 65.5607049766 65.5612849286 65.5618002561 65.5622301458 65.5625616111 65.5627871678 65.5633845105 65.5633894125 65.5632749086 65.5630485121 65.5627238857 65.5623224546 65.5618744754 65.5614186007 65.5609990199 65.5608036746 65.5605518319 65.560459874
65.5563935575 65.5564255145 65.5565154417 65.5566513142 65.556696905 65.5568493936 65.5569920351 65.5571101354 65.5571924149 65.5572310674 65.5572213122 65.5571607865 65.5571729143 65.5566347093 65.5564433728 65.5562137968 65.5559523616 65.555668893 65.5553777435 65.5550985334 65.5548558243 65.5546768681 65.5545869807 65.5546504671 65.5547885348 65.5550287189 65.5553432741 65.5556953928 65.5560468298 65.5563639839 65.5566211847 65.5568016025 65.5569166871 65.5569283201 65.5568625814 65.5567370548 65.5567113466 65.5565909774 65.5564744803 65.5564512851 65.5565494856 65.556769931 65.5568158395 65.5571427835 65.5574581279 65.5577167706 65.5578895502 65.5579673924 65.5583502015 65.5582606056 65.5581685232 65.558226376 65.5582951558 65.5584852123 65.5587568818 65.5590377079 65.5592558636 65.5593817221 65.559402087 65.5593701672 65.5593520908 65.5595117774 65.5596406851 65.5597181092 65.5598751949 65.5599694635 65.55965097 65.5598543443 65.5596067096 65.5597284517 65.5600245162 65.5598414478 65.5599651106 65.5600906977 65.5602250875 65.5603616498 65.5605864562 65.5607120026 65.5608391497 65.5609654099 65.561176086 65.5612941975 65.5614130408 65.5616187666 65.561737978 65.5618610165 65.5620765499 65.5622042806 65.5624288769 65.5626579868 65.5627892747 65.5630208112 65.5632525252 65.5634838738 65.56361515 65.5638446559 65.5640719844 65.564296481 65.5645174682 65.5646415226 65.5648553776 65.5650636884 65.5652657541 65.5653778967 65.5655686441 65.5657511723 65.5659248399 65.5660890287 65.5661781404 65.5663260848 65.5664629739 65.5665883475 65.5666544503 65.5667608295 65.5668546377 65.5669356299 65.567003615 65.5670363068 65.5670835356 65.5671175222 65.5671383167 65.567144043 65.5671443301 65.5671318346 65.567106828 65.5670696235 65.5670427843 65.5669872215 65.5669205439 65.5668432151 65.5667942786 65.5667015639 65.5666006194 65.5665386292 65.5664267701 65.5663586155 65.5662894758 65.5661627224 65.5660850023 65.5660045584 65.5658543303 65.5657594439 65.5656608254 65.5655603327 65.5653743776 65.5652562422 65.5651374459 65.5650228044 65.5649055587 65.5653429708 65.5650595454 65.5649465167 65.5654605797 65.5652561226 65.5658807284 65.5658006526 65.5656225282 65.5656885602 65.5655335716 65.5653739714 65.5654471514 65.5655488476 65.5655725228 65.5655565376 65.5652591786 65.5648464887 65.5644359553 65.5641515516 65.5640663392 65.5640484612 65.5642487684 65.5644547779 65.5639855532 65.5639269644 65.5636999979 65.5633144126 65.5628167201 65.5622841509 65.5623506058 65.5619730452 65.5618167288 65.5618875801 65.5621393816 65.5624310053 65.5626661327 65.5629807404 65.5631864209 65.5632454841 65.563152578 65.5628766858 65.5624437938 65.561884601 65.5612478057 65.5605984685 65.560011654 65.5595604273 65.5593005993 65.5591896961 65.5593619081 65.5597029003 65.5601620797 65.5606847186 65.5612213241 65.5617322621 65.5621885076 65.5625702286 65.5628646718 65.5639906924 65.5636712827 65.5636729551 65.5635667285 65.5633594961 65.5630637205 65.5626987492 65.562291686 65.5618770215 65.5617522042 65.5613994112 65.5611661955 65.5610776223
65.5567022872 65.55672962 65.5568073012 65.5569245599 65.5570661545 65.5570499092 65.5571722529 65.5572731302 65.5573426831 65.5573740093 65.5573628502 65.5573071444 65.5573377494 65.5571965118 65.556626046 65.5564262049 65.5562006849 65.5559586872 65.5557130872 65.5554808249 65.5552823817 65.5551397528 65.5550727008 65.5550939689 65.5552839792 65.5554930361 65.5557634145 65.556065825 65.5563695917 65.5566472947 65.5568774929 65.5570457594 65.557164619 65.5571955365 65.5571637607 65.5570844002 65.5571385673 65.5570903452 65.5570286414 65.5570400793 65.5571440467 65.5573395433 65.5576035318 65.5575395723 65.5578098883 65.5580385021 65.5582033313 65.5582974494 65.5587943665 65.5587702363 65.5587451124 65.5588786377 65.5589607362 65.5591230009 65.5593380029 65.5595585067 65.5597381844 65.5598606831 65.5599116408 65.5599273196 65.5599484684 65.5601426747 65.5602358396 65.5603515053 65.5603394261 65.5604194865 65.5604687012 65.5605092391 65.5603184681 65.560543247 65.5606201712 65.5603599414 65.5604524474 65.5601779333 65.5603013706 65.5604259407 65.5606629792 65.5607777678 65.5608928908 65.5610074524 65.561228847 65.5613347558 65.5614415709 65.5616578713 65.5617631504 65.5618713377 65.5620937545 65.5622046756 65.5624346328 65.5626686796 65.5627821749 65.5630184013 65.5632547945 65.5634907751 65.563604236 65.5638383767 65.5640702453 65.5642991445 65.5645243526 65.5646315348 65.5648496948 65.5650620765 65.5652679342 65.5653648457 65.565559564 65.5657457341 65.5659226733 65.5660897243 65.5661666886 65.566317755 65.5664573183 65.5665848887 65.5666420418 65.5667509406 65.5668467634 65.5669292482 65.5669981918 65.5670264246 65.5670749611 65.5671097152 65.567130739 65.5671357562 65.5671366127 65.5671241552 65.5670986701 65.5670604895 65.5670373095 65.5669810671 65.5669132372 65.5668343112 65.5667920928 65.5666978578 65.5665945237 65.5665408326 65.5664254587 65.5663657059 65.5663051053 65.5661723345 65.5661029092 65.5660314413 65.5658742937 65.5657886962 65.5656999982 65.5656089078 65.565414111 65.5653070065 65.5651982375 65.5657990471 65.5657303458 65.5663418778 65.5662968135 65.5660955163 65.5666145202 65.5666150551 65.5666016932 65.5665402541 65.5667841092 65.5666617648 65.5665675426 65.5663727224 65.566388577 65.5664159867 65.5663888252 65.5663975203 65.566160435 65.565847198 65.565534096 65.5653023852 65.565202577 65.5650761683 65.5651668402 65.5652624575 65.5646160886 65.5645244902 65.564306356 65.5639692026 65.5635484653 65.5638712644 65.5634290846 65.5631047607 65.5629463238 65.5629613224 65.5631182594 65.5632843925 65.5633949883 65.5636192011 65.5637562384 65.5637737017 65.5636698213 65.5634116065 65.5630253421 65.5625373731 65.5619884842 65.5614319957 65.5609284552 65.5605363871 65.5601907493 65.5601506209 65.5602790253 65.560550452 65.5609249968 65.561358075 65.5618080884 65.5622406274 65.5626296079 65.5629565371 65.5641671705 65.56435845 65.563997703 65.5639966469 65.5639010481 65.5637171614 65.5634561955 65.5631352702 65.5627780121 65.5627958394 65.5624150885 65.5621039966 65.5618961732 65.561814144
65.557042959 65.5570644726 65.5571280979 65.5572245977 65.5573412188 65.5574636807 65.5573711253 65.5574533242 65.5575089666 65.5575320582 65.5575188628 65.5574676174 65.5575172557 65.557394986 65.557236843 65.5566524816 65.5564633099 65.5562630165 65.556062802 65.5558767642 65.5557212786 65.5556132945 65.5555674961 65.555592897 65.5557862446 65.5559660585 65.5561953858 65.5564518629 65.5567117716 65.5569534434 65.5571594633 65.5573177549 65.5574421512 65.557492932 65.5574946897 65.5574597683 65.5577837127 65.5576060013 65.5575928824 65.5576344037 65.5577435332 65.5579187014 65.5581432027 65.5583894615 65.5581968476 65.55840312 65.5585641546 65.5586746435 65.5592828559 65.559313874 65.5593436708 65.5595389146 65.5596327249 65.5597773234 65.5599548896 65.5601358055 65.5602910892 65.5604039965 65.5604864997 65.5605341704 65.5605808068 65.5608018464 65.5608719654 65.5609524241 65.5614756217 65.5609436267 65.5609895293 65.5610255799 65.5610614678 65.5615806932 65.5610112969 65.5610554846 65.5606855255 65.5607626725 65.5603639502 65.5604786751 65.5607272482 65.5608316553 65.5609362119 65.5610402579 65.5612727845 65.5613677467 65.5614636259 65.5616904983 65.5617833633 65.5618784421 65.5621080402 65.562204224 65.5624394503 65.5626780122 65.5627758508 65.56301625 65.5632568126 65.56349692 65.5635947135 65.5638329864 65.5640689097 65.5643017414 65.5645307138 65.5646230701 65.5648450814 65.5650611067 65.5652703535 65.5653538768 65.5655521515 65.565741585 65.5659214518 65.566091055 65.5661573533 65.5663112182 65.5664531749 65.5665827031 65.5666319811 65.5667431374 65.566840761 65.5669245714 65.5669943533 65.5670186686 65.5670683701 65.5671037981 65.5671250062 65.5671293782 65.5671307371 65.5671182991 65.5670923643 65.5670532837 65.5670333116 65.5669764481 65.566907568 65.5668271903 65.5667908541 65.566695188 65.5665894223 65.5665429487 65.5664237753 65.5663713635 65.5663182462 65.5661792939 65.5661172774 65.5660537103 65.5658891449 65.5658117576 65.5657317009 65.5656495247 65.5654460437 65.5653478608 65.5661663841 65.5661212356 65.5669333661 65.5669383597 65.5679570896 65.5674406401 65.567453567 65.5674630511 65.5674550092 65.568389416 65.5677888612 65.5677232933 65.5676691272 65.5674466815 65.5674250708 65.5674022454 65.5674927928 65.5673694629 65.5671716679 65.5669251495 65.5666779566 65.5664813354 65.5663681977 65.5661532574 65.5661537514 65.5661561689 65.5653386611 65.5652150848 65.5650000896 65.5646996238 65.5653010475 65.5649056286 65.5645411553 65.5642613484 65.564101162 65.5640677025 65.5641402049 65.5646491499 65.5641871413 65.5643239579 65.564393099 65.5643680539 65.5642501773 65.564006276 65.5636623086 65.5632403108 65.5627734401 65.5623039548 65.5618788903 65.561543205 65.5611947813 65.5611463547 65.5612332802 65.5614372712 65.5617283297 65.5620717478 65.5624339951 65.5627862891 65.5631059274 65.5643624524 65.5646033731 65.564761036 65.5643564273 65.5643530332 65.5642691465 65.564110381 65.5638866868 65.5636129452 65.5638088468 65.5634602288 65.5631375714 65.5628731083 65.5626948581 65.5626221413
65.5573956029 65.5574106714 65.5574598088 65.5575354107 65.5576272018 65.5577237053 65.5578136783 65.5576445106 65.5576862575 65.5577009445 65.5576853366 65.5576379548 65.5577062043 65.5576017978 65.5574684532 65.5573109117 65.5571358018 65.556566304 65.5564077829 65.5562636873 65.5561466568 65.556069264 65.5560419967 65.5560709766 65.5562668044 65.5564220592 65.5566169959 65.5568350919 65.5570585229 65.5572705802 65.5574574125 65.5576090807 65.5577201316 65.5578112324 65.5578442582 65.5578496025 65.5582690161 65.5582610785 65.5589691129 65.5582127685 65.5583277783 65.5584891879 65.5586854934 65.5588979027 65.5590435701 65.5592574686 65.5594371089 65.5595780879 65.5598034815 65.5598797724 65.5599541272 65.5601994745 65.56030592 65.5604433692 65.5606007916 65.5607601324 65.5609035911 65.5610204351 65.5617371014 65.561191725 65.5612566491 65.5621655731 65.5622466686 65.5623327261 65.5622232852 65.5622978218 65.5623546646 65.5623989845 65.562616007 65.5622353782 65.5622622074 65.5622792001 65.5617341683 65.5617769707 65.5610697068 65.5613953164 65.5614476479 65.560876459 65.5609714673 65.5610660324 65.5613096436 65.5613947644 65.56148075 65.5617177205 65.5617996171 65.5618832086 65.5621198014 65.5622032636 65.5624434345 65.5626860023 65.5627703598 65.5630143795 65.5632585634 65.5635022545 65.5635865633 65.5638284263 65.564067877 65.5643041298 65.5645363726 65.5646159761 65.5648413423 65.5650605418 65.5652727373 65.5653447408 65.5655461161 65.5657383954 65.5659208119 65.5660926306 65.5661497599 65.5663060666 65.5664501084 65.5665813357 65.5666238319 65.5667369583 65.56683615 65.5669211086 65.5669916066 65.5670125541 65.5670632688 65.5670992763 65.5671206308 65.5671244332 65.567126228 65.5671137991 65.5670874591 65.5670475768 65.5670303609 65.5669729502 65.5669031439 65.5668214871 65.5667901974 65.5666932381 65.5665851406 65.5665448639 65.5664219138 65.5663758921 65.5663292974 65.566184342 65.5661289369 65.5660723522 65.5659002435 65.5658301664 65.5657578248 65.5668205424 65.566808115 65.5665482054 65.5678109501 65.5678110829 65.5689267586 65.5689666351 65.5689875064 65.5698785203 65.5697085317 65.5697014385 65.5696721385 65.5696120754 65.5700747842 65.5699994315 65.5699286495 65.5686083509 65.5685596315 65.5694911436 65.5685850039 65.5684551276 65.5682775619 65.5680689989 65.567859132 65.5676793765 65.5675502063 65.5672629291 65.5671901866 65.5671161558 65.5669445783 65.5667666266 65.5665185933 65.5662057983 65.5662905308 65.56596059 65.5656532833 65.5654054033 65.5652411742 65.5668430242 65.5655698269 65.5656472007 65.5650157973 65.5650732341 65.5650791354 65.5650287767 65.5648778077 65.5646429563 65.5643330718 65.5639662226 65.563568721 65.5631731528 65.5628149444 65.5625274489 65.5621774107 65.5621215783 65.5621716395 65.5623149769 65.5625298974 65.562790394 65.5630704017 65.5643178762 65.5646167778 65.5648694047 65.5650627001 65.5651878116 65.564738546 65.5647330552 65.5646607692 65.5645266772 65.5643395125 65.5647149393 65.5644319236 65.56414504 65.5638800042 65.5636625327 65.5635150489 65.563453396
65.5577417743 65.5577504691 65.557786002 65.5578423275 65.5579114223 65.5579843014 65.5580520327 65.5581065471 65.5578691873 65.5578759264 65.557857765 65.5578134794 65.5578990865 65.557810399 65.5576988761 65.5575690644 65.5574270521 65.5572804936 65.556732905 65.5566243801 65.5565396297 65.5564877327 65.556475976 65.5565084119 65.556584777 65.5568430556 65.5570119405 65.5572009976 65.5573970774 65.5575874777 65.5577612967 65.5579104003 65.5580300584 65.558141019 65.5582023819 65.5593138411 65.5587436213 65.5587778712 65.5596320944 65.5597202447 65.5598490046 65.5590407911 65.5592198425 65.5594111469 65.5596005048 65.5597237647 65.5599116165 65.5600744968 65.5603458974 65.5604599746 65.5605715556 65.5608582855 65.560979698 65.5611193176 65.5612706083 65.5614228207 65.5615651378 65.5616905889 65.5625162518 65.5626321265 65.5627427577 65.5630218302 65.5631067372 65.5631919001 65.5632707162 65.5631310279 65.5631923371 65.5632399676 65.5634656776 65.5634528839 65.5639563096 65.5630050563 65.5629941909 65.5629717397 65.5635158085 65.5625106263 65.562694003 65.5617731887 65.5618929879 65.5610864161 65.5613407223 65.5614170318 65.561494127 65.5617404591 65.5618127442 65.5618863371 65.5621294592 65.5622020477 65.562446712 65.5626927624 65.5627656674 65.5630127796 65.5632600589 65.563506813 65.5635796694 65.5638246021 65.5640670714 65.5643062518 65.5645412901 65.5646100681 65.5648383081 65.5650602266 65.5652749452 65.5653371668 65.5655412004 65.5657359195 65.5659205193 65.56609423 65.5661435798 65.5663019813 65.5664478091 65.566580487 65.5666172207 65.566732038 65.5668325731 65.5669185106 65.5669896121 65.5670077027 65.5670592853 65.5670957845 65.567117255 65.5671205643 65.5671227326 65.5671103072 65.5670836116 65.5670430307 65.5670281535 65.566970271 65.5668996647 65.5668169029 65.5667898883 65.5666917914 65.5665815443 65.5665465454 65.5664200241 65.5663795398 65.5663385977 65.5661880164 65.5661384903 65.5660880658 65.565908574 65.5673052552 65.5672394145 65.5687951454 65.5686957036 65.5703676968 65.5699075769 65.57001149 65.5700947191 65.5716617248 65.5711865267 65.5712761344 65.571099372 65.5710869858 65.5710501276 65.571586526 65.5715279587 65.5714565143 65.571382759 65.571086625 65.570965249 65.5708336772 65.5697801414 65.5696373909 65.5694636439 65.5692698316 65.5690740602 65.568895109 65.5687451854 65.5683972664 65.5682633874 65.5681258099 65.5678882361 65.5676720328 65.5674097937 65.5675806608 65.5673033803 65.5670163218 65.5667461467 65.5684774361 65.568290058 65.568179261 65.5666348468 65.5666344946 65.5679842121 65.5658473139 65.5657961272 65.5657055183 65.5655348808 65.5653026436 65.5650164827 65.5646910602 65.5643469238 65.5640087031 65.5637024465 65.5632449498 65.5631007457 65.5630376435 65.5630561405 65.5631477363 65.563297187 65.5634855726 65.5647038459 65.5649543445 65.5651855009 65.5653819751 65.565532001 65.5656273079 65.5651341595 65.5651266549 65.5650648503 65.564953153 65.565488332 65.5652795473 65.5650503312 65.5648193657 65.5646068731 65.5644327671 65.5643143633 65.5642641318
65.5583901715 65.5580688416 65.5580927604 65.5581328116 65.55818285 65.5582359368 65.5582850288 65.5583235807 65.5583460053 65.5580521493 65.5580314931 65.5579894296 65.5580904791 65.558014613 65.5579208749 65.5578135764 65.5576982797 65.557581673 65.5574713655 65.5569465049 65.5568872094 65.5568554601 65.5568562863 65.5568923727 65.5569634286 65.5572167597 65.5573683302 65.5575381362 65.5577165017 65.5578937458 65.5580612303 65.5582122179 65.5583425101 65.5595784286 65.5597397327 65.5598022357 65.5598553421 65.5592665831 65.560249878 65.5603611807 65.5604998553 65.5606649618 65.5608502256 65.5599192682 65.5601011826 65.5601994744 65.5604000909 65.5605856593 65.5607570884 65.5610476327 65.5611919897 65.5621020413 65.562263557 65.5624388017 65.5626239102 65.5628121683 65.562996547 65.5631721751 65.563335443 65.5634774999 65.5636139809 65.563917421 65.5640153113 65.5641107661 65.5641999129 65.5642794113 65.5651246936 65.5641784892 65.565481672 65.565510626 65.5655321415 65.5650348347 65.5650503514 65.5652559885 65.5651773092 65.5643883235 65.5643370202 65.5633561748 65.5647872179 65.5636890807 65.5636745317 65.5625873236 65.5615046565 65.5617594936 65.5618234103 65.5618883446 65.562137399 65.5622007449 65.5624494062 65.5626984466 65.562761693 65.5630114236 65.5632613252 65.5635106738 65.5635738738 65.5638214079 65.5640664367 65.564308099 65.5645455055 65.564605159 65.5648358377 65.5650600631 65.5652769206 65.565330895 65.5655371861 65.5657339766 65.5659204281 65.5660957401 65.5661385355 65.5662987166 65.5664460599 65.5665799652 65.5666118376 65.5667280926 65.5668297679 65.5669165327 65.5669881395 65.5670038238 65.5670561431 65.5670930567 65.5671146193 65.5671175066 65.5671199928 65.567107568 65.5670805652 65.5670393833 65.5670264772 65.5669681932 65.5668969039 65.5668131982 65.5667897815 65.5666907 65.5665785219 65.566547998 65.5664182033 65.5663825006 65.5663464353 65.5661907052 65.5679832744 65.5698180121 65.5698870354 65.5717852814 65.569760425 65.571550015 65.5716845883 65.573230558 65.5734154621 65.5732951452 65.5733304777 65.5744592363 65.5744955305 65.5745184191 65.5726626469 65.5741995488 65.5732212904 65.5731665223 65.5730943006 65.5730096135 65.5729185484 65.5725897836 65.5724293298 65.5722575071 65.5722833491 65.572061693 65.5718228785 65.5715745134 65.5713282466 65.5710956906 65.5708840336 65.5695499835 65.5693623747 65.5690975667 65.5688685687 65.5686139695 65.5683309703 65.5685805569 65.5683207988 65.5703222293 65.5700404504 65.5697924338 65.5695914789 65.5694409581 65.5676565871 65.5690583777 65.5690222587 65.5689697611 65.5687571873 65.5663957576 65.5662028163 65.5659660868 65.5656923778 65.5653936466 65.5650858951 65.564787585 65.5645175991 65.5640731104 65.5639398814 65.5638691109 65.5638612577 65.5639106017 65.5640065749 65.5651922748 65.5653757767 65.5655623697 65.5657366766 65.5658855614 65.5659985374 65.5660679897 65.5655330723 65.5655234834 65.5654702577 65.5661370933 65.5659954692 65.5658258158 65.5656413423 65.5654570238 65.5652885769 65.5651511269 65.5650576964 65.5656305472
65.558708085 65.5587049742 65.5583688017 65.5583965818 65.5584322689 65.5584704501 65.558505486 65.5585319669 65.5585451227 65.5585411631 65.5582020873 65.5581613237 65.5582754078 65.558208958 65.558128257 65.5580373922 65.5579414918 65.5578465066 65.5577589272 65.5576854185 65.557632356 65.5571635929 65.5571742218 65.5572142712 65.5572835457 65.5575343495 65.5576770836 65.557837196 65.5580073674 65.5581799823 65.5583479579 65.5585055036 65.5586487292 65.559978891 65.5601694786 65.5602643759 65.5603510401 65.560437479 65.5608149384 65.5609468489 65.5610974046 65.5612666112 65.5614509307 65.5616440999 65.5618385279 65.5607766121 65.5608907544 65.5611007066 65.5613022704 65.5616357345 65.5626134827 65.5627904234 65.5629753158 65.5631689576 65.5633696721 65.563573995 65.5637779401 65.5639783258 65.5641736352 65.5643513962 65.5655655294 65.565725543 65.5658885645 65.566053193 65.566217268 65.5663787174 65.5662542052 65.5663876126 65.5666598297 65.5667099731 65.5667514851 65.5675272729 65.5676263102 65.5678559754 65.5678404333 65.5669474001 65.5669385887 65.568663387 65.5674827919 65.5674505174 65.5661095465 65.5662719181 65.5664508932 65.5649496634 65.565263447 65.5652594252 65.563800087 65.5640863744 65.562451626 65.5644263894 65.56275834 65.5630102791 65.5632623933 65.5635139311 65.5656578587 65.5638187413 65.5640659312 65.564309689 65.5665698406 65.564601077 65.5648338162 65.5650599905 65.5652786535 65.5676777489 65.5655338933 65.5657324348 65.56592045 65.5684017988 65.5661343994 65.5662960856 65.5664447091 65.5665796488 65.5691392503 65.5667249038 65.5668275426 65.5669150044 65.5695022044 65.5670006959 65.5670536384 65.5670909003 65.5671125364 65.5696958545 65.5671178203 65.5671053947 65.5670781287 65.5696269049 65.5670251847 65.5669665609 65.566894692 65.5668101848 65.5692755739 65.5666898631 65.5691324886 65.5690041008 65.5713530833 65.5713938735 65.5712385092 65.5736479376 65.5735816067 65.5735335583 65.5758151967 65.5759010824 65.5780089687 65.5756021005 65.5756638937 65.5774017878 65.5774874238 65.5773248017 65.5772297148 65.5764575278 65.5764657145 65.5764587814 65.5762142371 65.5760687976 65.5766275034 65.5764476663 65.5762616393 65.5760723227 65.5758829256 65.575695592 65.5739557755 65.5739672816 65.5737196165 65.573461543 65.5731950315 65.5729249139 65.5726576152 65.5723990188 65.5721523137 65.571916705 65.5704756452 65.5701461596 65.5698667356 65.5695718288 65.5698299368 65.5721127725 65.5718295566 65.5715437335 65.5712694771 65.5710190584 65.570800079 65.5706137046 65.5702197461 65.570117473 65.5700157112 65.5698992093 65.5696285019 65.56708188 65.5668634742 65.5666147407 65.5663419769 65.5660552129 65.5657671625 65.5654918494 65.565243034 65.5648066087 65.5646780261 65.5645990406 65.5645698218 65.5656619383 65.5657432421 65.5658564114 65.5659884004 65.5661258144 65.5662559028 65.5663673199 65.5664506922 65.5664990362 65.5659255352 65.5659136442 65.5666844213 65.5665964817 65.5664775585 65.5663370272 65.5661860367 65.5660367646 65.5659015373 65.5657918638 65.566380848 65.5663520205
65.5589706641 65.5589647916 65.5589753035 65.5586253459 65.5586521395 65.5586810543 65.5587073319 65.5587262728 65.5587336162 65.5587258925 65.5587007176 65.5583253089 65.5584496879 65.5583889256 65.5583160477 65.558234968 65.5581505319 65.5580682551 65.5579940071 65.5579336462 65.5578926153 65.5578755164 65.5574232468 65.5574674978 65.5575383138 65.5577887067 65.5579306684 65.5580902714 65.5582615172 65.5584379344 65.5586132823 65.55878224 65.5589409807 65.5603546316 65.5605696589 65.5606912726 65.5608047946 65.5609163311 65.5613202721 65.5614701757 65.5616337268 65.561811842 65.5620028868 65.5622030766 65.562407295 65.5626101618 65.5620820927 65.5616094072 65.5618417461 65.5634995925 65.5638556862 65.563452291 65.5636621416 65.5638781049 65.5641001455 65.5643269613 65.5645564472 65.5647863576 65.5650149106 65.5652397669 65.5665224655 65.5667155471 65.5669115172 65.567109633 65.5673086996 65.5675072969 65.5677040496 65.5689658325 65.5691189144 65.5692740993 65.5694297453 65.5695842232 65.5707473142 65.5708529226 65.5709609776 65.5710694785 65.5720678028 65.5721339719 65.5722031588 65.5709858435 65.5730813967 65.5716087634 65.5738258615 65.5721753783 65.5723519581 65.5727127485 65.5732268822 65.5713381476 65.5737782281 65.574306216 65.57483492 65.5753632886 65.5753891128 65.5759169599 65.5764418028 65.5769621355 65.5747144262 65.57750193 65.5780089413 65.5785060345 65.5789912418 65.5790146494 65.5794864502 65.5799420949 65.5803794634 65.577761738 65.5808168825 65.5812115376 65.5815815508 65.581924978 65.5819409212 65.58225589 65.5825406497 65.5827936781 65.579845143 65.5830240736 65.5832096121 65.5833600143 65.5834746266 65.5834791143 65.5835572578 65.5835990287 65.583604508 65.580448547 65.583572247 65.5835061341 65.5834053518 65.5832708157 65.5832633881 65.5830961432 65.5828974719 65.5826686583 65.5794917318 65.5823986981 65.5821283157 65.5819343243 65.5818307727 65.5845146795 65.58149869 65.583988399 65.5811155997 65.5832941838 65.5832424095 65.5831943006 65.5822946764 65.5821984376 65.5821020846 65.5820074447 65.5808287333 65.5806707415 65.5805097242 65.5803473994 65.5801855866 65.578759578 65.5785322093 65.5783001678 65.5780650987 65.5778287839 65.5775927864 65.5773581276 65.5755216851 65.5754684424 65.5751714144 65.5748701561 65.5745671169 65.5742654388 65.5739681258 65.573677105 65.5733925457 65.5746725368 65.5742211813 65.571195068 65.5708645789 65.5722291998 65.5735608155 65.5732723856 65.5729774141 65.5726850127 65.5724042418 65.5721421992 65.571902467 65.5716842485 65.57125255 65.5711013576 65.5709464894 65.570776932 65.5704574288 65.5677478399 65.5675002164 65.5672316365 65.5669482821 65.5666590749 65.5663746972 65.5661063787 65.5658646253 65.5654320695 65.5653023497 65.5652148267 65.5662867351 65.5663001667 65.5663511522 65.5664306124 65.5665279529 65.5666319391 65.5667315239 65.5668165917 65.5668785961 65.5669110779 65.5663029626 65.5671548212 65.5671073747 65.5670276485 65.5669221541 65.5667993794 65.5666691281 65.5665417576 65.5664273881 65.5670339098 65.5669693671 65.5669458155
65.5591691173 65.5591630116 65.5591722726 65.5591936649 65.5590147758 65.5590508668 65.5590853759 65.5591135187 65.5591308471 65.559133633 65.5591192019 65.5590861847 65.5586102209 65.5585512228 65.5584806354 65.558402269 65.5583208693 65.5582418604 65.5581710338 65.5581141905 65.5580767486 65.5580633323 65.5580773717 65.5579625712 65.5580523463 65.5581704502 65.5581222924 65.5582904305 65.5584719799 65.5586606948 65.558850447 65.5590358856 65.5605667338 65.5607464457 65.5613873866 65.5615437612 65.5616921691 65.5618388661 65.5619901986 65.5619228158 65.5620994804 65.5622899705 65.5624939319 65.5627089293 65.5629309726 65.563155328 65.5633774327 65.5635270411 65.563961548 65.5641790212 65.565181185 65.5653911771 65.5643148727 65.5645551777 65.564802056 65.5650558722 65.5653156915 65.5655795592 65.5658450824 65.5672068299 65.5674515404 65.5676809851 65.5679138239 65.5681500067 65.5683890799 65.5686299924 65.5702561211 65.5702171756 65.570416004 65.5706182898 65.5708222407 65.5726982112 65.572883343 65.5739905338 65.5742467741 65.574672546 65.5748087273 65.5758011157 65.576026042 65.5782236998 65.5771280025 65.5794111874 65.5795868271 65.5804363822 65.5828304002 65.5830106304 65.5838338272 65.5862879227 65.5847008213 65.5854617451 65.5862232885 65.5888174919 65.589614793 65.5878311732 65.5885833256 65.589329816 65.5920882397 65.5901549524 65.5908796853 65.5915918062 65.5944593286 65.5951791276 65.59304524 65.5936984072 65.5943279674 65.5972937998 65.5950000285 65.5955670645 65.5961017222 65.5991117524 65.5996129397 65.5971131623 65.5975270447 65.5978985495 65.6009094599 65.598260432 65.5985325946 65.5987572184 65.6017326446 65.6018877885 65.599068468 65.5991359355 65.5991535393 65.602031617 65.5991125165 65.5990219502 65.5988831339 65.6016575349 65.6014339387 65.5984304029 65.598145032 65.5978167923 65.6004088843 65.5973809153 65.5968887173 65.5967601921 65.5936797512 65.5930833264 65.5928953139 65.589866181 65.5918769152 65.5889403914 65.5886744195 65.5877369776 65.5876202555 65.5871665621 65.5868631778 65.5857112156 65.5855293208 65.5829378402 65.5827116641 65.5824854408 65.5822611755 65.5827143018 65.5804377943 65.5801470926 65.5798565875 65.5795673067 65.5792794711 65.5789929597 65.5789148829 65.576961927 65.5766103355 65.5762597018 65.5759134198 65.575573816 65.5752414442 65.5749149564 65.5772836478 65.5770037293 65.5756307983 65.575332751 65.574744702 65.574990025 65.5746759759 65.5743553926 65.5740352341 65.5737228565 65.573424583 65.5731444064 65.5728831211 65.573254709 65.5730319268 65.5728153548 65.5725946663 65.5723594527 65.5713489358 65.5710650787 65.5680988226 65.5678021685 65.5674965201 65.5671905447 65.5668941614 65.5666174144 65.5667394095 65.5665343056 65.5663725356 65.566845334 65.5668038997 65.5668043661 65.566840373 65.5669034783 65.5669838558 65.5670710418 65.5671546835 65.5672252498 65.5672746665 65.5672968451 65.5680719508 65.568035511 65.5679640299 65.5678620051 65.5677363875 65.5675959937 65.5674507622 65.5673109322 65.5675712794 65.5674777995 65.56741676 65.5673938664
65.5592966754 65.5592930134 65.5593060109 65.5593321332 65.5593668092 65.5591934305 65.5592320434 65.5592637925 65.5592840034 65.5592887723 65.5592752816 65.559242033 65.5591889892 65.5586939784 65.5586199182 65.5585368235 65.5584495203 65.5583636929 65.5582856224 65.5582218476 65.5581787362 65.5581619654 65.5581759485 65.5582232861 65.5581491191 65.5582791231 65.5593257427 65.5595606661 65.5586330443 65.5588429474 65.5590544897 65.5606253661 65.5608444778 65.5610450353 65.5617001721 65.5618705984 65.5620307371 65.5621875621 65.5623484399 65.562520165 65.5624832968 65.562688737 65.5629111603 65.5631484217 65.56339633 65.5636495069 65.5639023926 65.5650176886 65.5652546341 65.5655956486 65.5657877923 65.5660210926 65.5662573105 65.5665004627 65.565461321 65.5657452517 65.5660394907 65.56634163 65.5666479392 65.5680259747 65.5683309165 65.5695196525 65.5698400664 65.5701717787 65.5705156038 65.5708711655 65.5713492773 65.5716358683 65.5728745773 65.5731991611 65.5735362818 65.5754123283 65.5757409055 65.5754690108 65.5773541382 65.5777820929 65.5780688075 65.5801949276 65.5812807043 65.5815819745 65.5836884626 65.5839901983 65.5849584618 65.5870217895 65.5890766271 65.5892946775 65.5901955971 65.590403828 65.5912858997 65.5921592927 65.592362863 65.5932312313 65.5940963092 65.5949566392 65.59515756 65.5960096966 65.5968526727 65.597684412 65.5985026617 65.5986928502 65.5994908442 65.60026935 65.6010256845 65.6012003543 65.6019253992 65.6026216184 65.6032861782 65.6039162531 65.604059617 65.6046429974 65.6051855113 65.6056846487 65.6057959484 65.6062381254 65.6066317059 65.6069748439 65.6072659296 65.6073268551 65.6075516133 65.6077216297 65.607836244 65.6078550275 65.6079006156 65.6078903719 65.6078245961 65.6077038274 65.6076671933 65.6074796374 65.607239256 65.606947281 65.6068709539 65.6065138015 65.6060971999 65.605991918 65.6054922248 65.605364699 65.6029064417 65.6003722439 65.5996363413 65.5993624657 65.5966707164 65.5963420088 65.5953650184 65.5925572985 65.5922443055 65.5917939812 65.5891974966 65.5900501893 65.5896755111 65.5871314125 65.586721574 65.5863262459 65.5848990484 65.5845650051 65.5840117008 65.583558054 65.5831186858 65.5826933311 65.5822799668 65.5807851696 65.5803904532 65.5784199855 65.5780083315 65.5776024127 65.5772076615 65.5768265289 65.5791527099 65.5788334045 65.5785182375 65.5782012371 65.5784000557 65.5780790247 65.5777565347 65.5760625432 65.5757004103 65.5753360686 65.5749776773 65.5746329557 65.5743077373 65.574004766 65.5743231767 65.5740661494 65.5738233192 65.573584323 65.5733378273 65.5730729664 65.5720325993 65.5717091949 65.5713539851 65.5683148182 65.5679746555 65.5676371008 65.5695712914 65.5691716846 65.5671106457 65.5668896593 65.5673017844 65.5672071851 65.5671624137 65.5671626969 65.5672003964 65.5672658367 65.5673481845 65.5674362887 65.5675194369 65.5675880132 65.567634053 65.568439756 65.5684352985 65.5683929418 65.568314537 65.5682047584 65.5680707453 65.5679215504 65.5677674275 65.5680075426 65.5678795505 65.567777645 65.567710137 65.5676830556
65.5593482981 65.5593497354 65.5593717243 65.5594098432 65.5594582997 65.5595104555 65.559346354 65.5593882725 65.5594165507 65.5594268334 65.5594159873 65.5593822743 65.559325453 65.5592468225 65.5587334727 65.5586378755 65.5585351687 65.5584316163 65.5583345569 65.5582521183 65.5581927188 65.5581643089 65.5581733955 65.5582240264 65.5588102166 65.5589866945 65.5593608261 65.5596320607 65.5599222868 65.5602192883 65.5605118034 65.5608361213 65.5610807231 65.561300737 65.5619579818 65.5621337636 65.5622951771 65.5624514449 65.5626126441 65.5627883501 65.5629861712 65.5629940358 65.5632408739 65.5635087785 65.5637917589 65.5640822216 65.5643723717 65.5654854803 65.5657524231 65.5661262131 65.5674229222 65.5665703728 65.566825641 65.5670905144 65.5673698955 65.5663796684 65.567493838 65.5678815676 65.568433242 65.5687785516 65.5691246023 65.5703322217 65.5706876507 65.5710566151 65.5714406339 65.5718386589 65.5734412037 65.5738424833 65.5739625099 65.5755698902 65.5761294722 65.5764893284 65.5782535584 65.5787071074 65.5800228835 65.5803929924 65.5823173142 65.5826676155 65.5845435777 65.5855924958 65.5859067266 65.5876128744 65.587880822 65.5888010883 65.5890446782 65.5892914024 65.5901718333 65.5904099184 65.5912785053 65.592142182 65.5923762641 65.5932361286 65.5940927725 65.5949448092 65.5951758557 65.5960196698 65.5968544819 65.5976783029 65.5984889723 65.5987077118 65.5994979484 65.6002690728 65.6010185039 65.6012193813 65.6019372234 65.602626763 65.6032852713 65.6039100223 65.6040749467 65.6046525109 65.6051899826 65.6056849398 65.6058129302 65.6062503075 65.6066399901 65.6069802005 65.6072693818 65.607339496 65.607561613 65.6077300303 65.6078441128 65.6078656757 65.6079099683 65.6078995028 65.6078345755 65.6077157062 65.6076736003 65.6074872219 65.6072490554 65.6069602919 65.6068724664 65.6065186311 65.6061090246 65.6059885985 65.6055011509 65.6053568187 65.6052100309 65.6046038498 65.6044189034 65.6023838896 65.6021124474 65.6012459458 65.5988954658 65.5985462603 65.5960685607 65.5956627836 65.5943428837 65.5938165397 65.5914354859 65.591027931 65.5903744564 65.5881518599 65.5883555516 65.5878654515 65.5856762157 65.5851688779 65.5846788405 65.5842061633 65.5837469392 65.5822239648 65.5817689451 65.5813125052 65.5805898052 65.5800586418 65.5784235073 65.5806818562 65.5803182978 65.5799690143 65.5796252316 65.5816429025 65.5794762529 65.5790903022 65.5787193993 65.5770332193 65.5766130942 65.5761917386 65.57578044 65.5753898106 65.5750278277 65.5752693414 65.5749730158 65.5747069126 65.5744594764 65.5742162624 65.5739620509 65.5736828349 65.5726331136 65.5722731997 65.5718726672 65.5713389252 65.5708474616 65.5703488112 65.5698614063 65.5694048753 65.5687661509 65.568458142 65.5674882372 65.5673876371 65.5673484393 65.5673634791 65.5674218717 65.5675105377 65.5676156621 65.5677238592 65.5678230001 65.567902762 65.5687356532 65.5687711226 65.5687643202 65.5687144177 65.5686235976 65.5684969359 65.5683421385 65.568169111 65.5683788663 65.5682054903 65.5680499261 65.5679247426 65.56784042 65.5678044476
65.5593208959 65.559329899 65.559366327 65.5594242149 65.559495615 65.5595715673 65.5596430749 65.5594870742 65.5595290535 65.559548748 65.5595425582 65.5595084108 65.559445778 65.5593556969 65.5592408147 65.5587066636 65.5585785322 65.5584454413 65.5583163143 65.5582017687 65.5581135536 65.5580634194 65.5580614464 65.5581141682 65.5582230884 65.5588894522 65.5592939432 65.5596165038 65.5599601953 65.5603083204 65.5606460773 65.5610042406 65.5612763954 65.5615134967 65.5621596871 65.5623297335 65.5624790136 65.5626208257 65.5627701348 65.5629414341 65.5631461892 65.5631898345 65.5634687389 65.5637781041 65.5641079042 65.56444619 65.5655661537 65.5658824211 65.5661777588 65.5683177947 65.5685445463 65.568123437 65.5672945306 65.5675786489 65.5678856139 65.5682175489 65.5680551256 65.5684881759 65.5690656313 65.569455392 65.5698397599 65.571038823 65.5714250754 65.5718290051 65.5722528708 65.5737895423 65.5742209257 65.5746632123 65.5759576809 65.576413839 65.5780857004 65.5785353179 65.5790010045 65.5807568629 65.581200911 65.5823764397 65.5840234576 65.5844058043 65.5859587833 65.5863015203 65.5872460287 65.5875437013 65.5878425407 65.5887296754 65.5890055098 65.5892853955 65.5901430316 65.5904162836 65.591269572 65.5921218698 65.5923921897 65.5932419735 65.5940886223 65.5949308302 65.5951976614 65.5960316179 65.596856764 65.5976712094 65.5984728988 65.5987255667 65.5995066279 65.6002690214 65.6010102822 65.6012422997 65.6019516318 65.6026332794 65.6032846324 65.6039030793 65.6040936402 65.6046643403 65.6051958559 65.6056858662 65.6058336868 65.606265407 65.6066504904 65.6069872374 65.607274152 65.607355201 65.6075742067 65.6077407331 65.6078541736 65.6078790253 65.6079218002 65.6079110742 65.6078471398 65.6077304946 65.6076818944 65.6074969143 65.6072613615 65.6069763805 65.6068748759 65.6065249072 65.6061231787 65.6059848815 65.6055109692 65.6053471623 65.6051802439 65.6045958255 65.6043890313 65.6041765813 65.603452203 65.6031779676 65.6013322086 65.6009744998 65.5989413105 65.5977867914 65.5973180945 65.5950598485 65.5945300661 65.5940179042 65.591815633 65.591261122 65.5897762216 65.5892358879 65.5887084817 65.5866133159 65.5860754992 65.5855612517 65.5850637595 65.5835476326 65.5830349705 65.5825106706 65.5817442922 65.581149497 65.582149859 65.5817198261 65.5813209946 65.5809462448 65.582930849 65.584061528 65.5837545499 65.5799683481 65.5795515742 65.5791029319 65.5773987916 65.5769039067 65.5764209686 65.5759669327 65.5755555965 65.5757235928 65.575414718 65.575153211 65.5749215822 65.574697777 65.5744589793 65.5741848267 65.5731482216 65.5727565566 65.5723076385 65.5717159324 65.5711491347 65.5705664078 65.5699920019 65.5694527715 65.5687655584 65.5676636455 65.5674743257 65.5673703239 65.567347972 65.5673958878 65.5674973474 65.5676331813 65.567784316 65.567933498 65.5680661896 65.5689295882 65.5690230942 65.5690681181 65.5690611625 65.5690018218 65.5688927453 65.5687396015 65.5685509947 65.5687293699 65.5685033755 65.5682805247 65.5680785229 65.56791442 65.5678027277 65.5677536486
65.559214235 65.5592329083 65.5592893016 65.5593751645 65.5594792953 65.5595892428 65.5596929059 65.5595621809 65.559623818 65.5596570981 65.5596578532 65.5596236119 65.559553484 65.5594481272 65.5593098377 65.559142791 65.5585830032 65.5584078343 65.5582322489 65.5580702604 65.5579384234 65.5578542212 65.5578333216 65.5578862535 65.5580156687 65.5586754592 65.558993466 65.5595141013 65.5599284387 65.5603424854 65.5607364683 65.5611347344 65.5614358466 65.5616862664 65.562306949 65.562456957 65.5625766674 65.562685667 65.5628067238 65.5629623375 65.5631701843 65.5634389485 65.5650301332 65.5654855017 65.5643386671 65.564738287 65.5658534152 65.5662097474 65.5665293572 65.5686076744 65.5688223631 65.5690325197 65.5693213166 65.5696535239 65.5700314307 65.5686598922 65.5690651097 65.5708938148 65.5713125749 65.5707730412 65.5712184094 65.5716276187 65.5720381245 65.5733081952 65.5739196051 65.5743861977 65.5757849115 65.5762988873 65.5768204296 65.5781272746 65.5785935972 65.580097583 65.5806465056 65.5821337825 65.5826073611 65.5840750203 65.5850812689 65.5854657861 65.5858478248 65.586224949 65.587127645 65.587460042 65.5877934036 65.5886443838 65.5889571723 65.5892752514 65.590108055 65.5904225732 65.5912587892 65.5920978775 65.5924110269 65.593248926 65.5940837969 65.5949144213 65.5952235561 65.5960459029 65.5968596724 65.5976630831 65.5984541957 65.5987469936 65.5995172697 65.6002694012 65.6010010522 65.6012698986 65.6019692409 65.6026416252 65.6032845734 65.6038956013 65.6041165084 65.6046791628 65.605203691 65.6056878846 65.6058591565 65.6062842552 65.6066639498 65.6069966268 65.6072808582 65.607374863 65.6075902299 65.6077545346 65.6078672024 65.6078959241 65.6079369342 65.6079259038 65.6078631203 65.6077490579 65.6076927862 65.6075094559 65.6072769651 65.6069964071 65.6068787005 65.6065331885 65.6061401619 65.6059808376 65.6055215351 65.6053352281 65.605145005 65.6045841491 65.6043527282 65.6041139866 65.6034211966 65.6031185804 65.6028032567 65.6024773575 65.6015813504 65.5998246887 65.5993469708 65.597491087 65.596894931 65.5949554819 65.5944299658 65.5929744645 65.5923438553 65.5917149292 65.5898179967 65.5892481151 65.5884925316 65.5867383405 65.5862142803 65.5858461115 65.5852421356 65.5868617228 65.5863042646 65.5835830774 65.5830538117 65.5859268023 65.5854111268 65.5849534914 65.5845507108 65.5846715699 65.5843849654 65.5807080575 65.5802522427 65.5797408134 65.5780498112 65.5774600172 65.5798221293 65.5791077508 65.5763387122 65.5759323114 65.575616463 65.575377976 65.57518966 65.575016685 65.5748236048 65.5745797438 65.5735813371 65.573165258 65.5726660759 65.5720058316 65.5713447711 65.5706522768 65.5699610295 65.569086993 65.568551884 65.5674662035 65.5672442695 65.5671406827 65.5671495039 65.5672524843 65.567423537 65.567634004 65.5678569299 65.5680695399 65.5689722322 65.5691524007 65.5692759874 65.5693366364 65.5693314164 65.5692605164 65.5691271695 65.5689377573 65.5687020168 65.5688232899 65.5685287704 65.568235401 65.5679671114 65.5677478065 65.5675982008 65.5675326093
65.5590326604 65.5590625767 65.5591443281 65.5592665465 65.5594134976 65.5595679008 65.5597134609 65.5598364664 65.5597050135 65.5597560984 65.5597662494 65.5597325874 65.5596538024 65.5595300321 65.5593629906 65.5591563881 65.5589166655 65.5583256947 65.5580885331 65.557862269 65.5576698679 65.5575369129 65.5574873327 65.5575377876 65.5576928111 65.5583456484 65.558739711 65.559330902 65.5598347888 65.5603305568 65.5607920208 65.5612363935 65.5615668249 65.5618251264 65.5624047368 65.5625168837 65.562584975 65.5626374513 65.5627087324 65.562833784 65.5630400948 65.5633400082 65.5648979152 65.5654557305 65.5660375058 65.5672583948 65.5677541664 65.5681591846 65.5685623559 65.5687647555 65.5689396759 65.5691304291 65.5693858658 65.5697445986 65.5701801167 65.5706681869 65.57193647 65.5724034706 65.5716929811 65.5721122378 65.5716486378 65.5727302323 65.5731877814 65.5736943318 65.5750524169 65.5756013651 65.5761426391 65.5766722856 65.5780790417 65.5792268466 65.5797467771 65.5802775624 65.5816383978 65.5829520994 65.5834298022 65.5839057641 65.5848667898 65.5852907967 65.585711758 65.5861270055 65.5869870181 65.5873581987 65.5877298873 65.5885423651 65.5888971972 65.589259002 65.5900656286 65.5904282048 65.5912458449 65.5920698303 65.5924330884 65.5932571307 65.5940782793 65.5948954053 65.5952540494 65.5960628777 65.5968634139 65.59765399 65.5984327885 65.5987725842 65.599530336 65.6002705541 65.6009910391 65.6013030151 65.6019907755 65.602652425 65.6032856255 65.603888029 65.604144512 65.6046978578 65.6052142952 65.605691736 65.6058904709 65.6063079208 65.6066813841 65.6070093391 65.6072904315 65.6073996418 65.6076108081 65.6077725349 65.6078842817 65.6079175076 65.6079564923 65.6079451085 65.6078836379 65.6077725304 65.6077072856 65.6075258762 65.6072969242 65.6070214685 65.6068847541 65.6065442813 65.606160582 65.6059766694 65.6055325569 65.6053203624 65.6051032989 65.6045672404 65.6043081673 65.6040396104 65.6033785948 65.603044198 65.6026948793 65.6023329099 65.6014754997 65.6010345719 65.6005813345 65.5990089653 65.5973445584 65.5967624671 65.5961890857 65.5949331628 65.5931051149 65.5924577442 65.5917898797 65.5911168669 65.5893145792 65.5886877469 65.5881111469 65.586745532 65.5881924723 65.5876305655 65.5893973506 65.5887953258 65.5869973077 65.5863297887 65.5857284806 65.5852298348 65.585235304 65.5849890545 65.584768616 65.5845062148 65.584049286 65.5834587188 65.5827153689 65.5808223219 65.5799073535 65.5790222078 65.5763214543 65.5758613537 65.5755449795 65.5753539803 65.5752455803 65.575164572 65.5750560923 65.5748744376 65.5739419041 65.5735119144 65.5729624637 65.5722234244 65.5714483551 65.5706181947 65.5697767396 65.5687842637 65.568123745 65.5670531274 65.5667899069 65.566691941 65.5667496913 65.566934274 65.5672055338 65.5675211354 65.5678433576 65.5687969348 65.5691019449 65.5693411884 65.5695043829 65.5695859449 65.5695838746 65.5694991693 65.5693357251 65.5691006512 65.5692021997 65.5688490948 65.5684659978 65.5680808701 65.567726114 65.567435187 65.5672375184 65.5671530939
65.5587876453 65.5588297077 65.558941708 65.5591082583 65.5593076733 65.5595164054 65.5597128768 65.559879673 65.5600040832 65.5598515268 65.5598734645 65.5598413675 65.5597534825 65.559609284 65.5594096216 65.5591573279 65.5588583506 65.5585234037 65.5578987676 65.5575913352 65.5573204858 65.5571225621 65.5570330523 65.5570775646 65.5572635721 65.5575773097 65.5584015733 65.5592310172 65.5596947247 65.5602873012 65.5613494452 65.5625388213 65.5616802922 65.5619394508 65.5624622888 65.5625160448 65.5625065468 65.5624737414 65.5624684528 65.5625442409 65.5627436976 65.5630845764 65.564601681 65.5652990392 65.5660196319 65.5672864951 65.5678546721 65.5682772108 65.5685589007 65.5687860112 65.5688805633 65.5690080749 65.5692294429 65.5696228363 65.5701444077 65.5707441084 65.5720061971 65.5725437125 65.572977013 65.5729656328 65.5733353942 65.5736745907 65.5733841741 65.574596538 65.5752040421 65.5758138532 65.5763835838 65.57761486 65.5781228441 65.5793538253 65.5797697394 65.5810016057 65.5821573003 65.5826608975 65.5831781546 65.5836973049 65.5846125195 65.5850787551 65.5855431858 65.5860009125 65.5868189374 65.5872333513 65.587647346 65.5884202865 65.5888225454 65.5892340523 65.5900144818 65.5904323318 65.5912304961 65.5920376186 65.5924584901 65.5932666776 65.5940721412 65.5948738359 65.595289431 65.5960828195 65.5968682643 65.597644207 65.5984089488 65.598802857 65.5995463583 65.6002730289 65.6009808045 65.6013424408 65.6020170512 65.6026665225 65.6032886567 65.6038812434 65.6041787434 65.6047215504 65.6052288218 65.6056985905 65.6059289505 65.606337755 65.6067041696 65.6070267639 65.6073042596 65.6074310232 65.6076374439 65.6077962414 65.6079069097 65.6079452834 65.6079819906 65.6079702011 65.6079101894 65.6078023828 65.607726817 65.607547593 65.6073226389 65.6070529399 65.6068942913 65.6065593475 65.6061852048 65.605972835 65.6055435873 65.6053017373 65.6050539434 65.6045428782 65.6042528266 65.6039504559 65.6033200168 65.6029497626 65.6025621104 65.6021609643 65.6013415493 65.6008586054 65.6003661512 65.5998729494 65.5985064649 65.5970197848 65.5967601188 65.5952285333 65.5946460169 65.593036109 65.5923237644 65.5915731527 65.5908461213 65.5892658275 65.5904213349 65.5901216494 65.5896348289 65.5902731181 65.5897314777 65.5890324625 65.5872550271 65.5864206428 65.5856858821 65.5851294508 65.5851279881 65.5849822376 65.5848963176 65.5847099484 65.5843350372 65.583727168 65.5828723883 65.5809055729 65.5797593583 65.578637597 65.5760182389 65.5754850954 65.5751753332 65.5750630056 65.5750808964 65.5751427264 65.5751656064 65.5750837207 65.5742459021 65.5738156037 65.5760677841 65.5736054801 65.5714848733 65.5704896658 65.5699740094 65.5683186309 65.5669577226 65.5664356174 65.566121603 65.5660357541 65.5661630158 65.5664588552 65.5668631707 65.5673151716 65.5683277928 65.5688011761 65.5692016291 65.5695117042 65.5697219665 65.5698282964 65.5698300974 65.5697294077 65.5695308091 65.5696513518 65.5692729601 65.5688255105 65.5683356889 65.5678391149 65.5673788927 65.5670009104 65.5667460829 65.5666417481
65.5585008384 65.5585552234 65.5587012828 65.5589187086 65.5591784522 65.5594493472 65.5597036241 65.5599197715 65.5600828881 65.5601835463 65.5599863007 65.5599569906 65.5598604761 65.5596954556 65.5594616395 65.5591605301 65.5587969679 65.5583815325 65.5579336321 65.5572841246 65.5569188986 65.556640686 65.5565000693 65.556534846 65.5567567312 65.5571461039 65.5582268645 65.5589489784 65.560008536 65.5607387092 65.5613717794 65.5626195026 65.5629834571 65.5631739193 65.5631899286 65.5624695082 65.5623557268 65.562206914 65.5620953996 65.5621008501 65.5622879561 65.5626822748 65.5641621457 65.5650409839 65.5659373643 65.5672795443 65.5679257842 65.5683520299 65.568567667 65.5686779029 65.568638433 65.5686582326 65.5691880691 65.5692730563 65.5699233179 65.5722037757 65.5719931084 65.5726126323 65.5730430449 65.5733191876 65.5732837969 65.5747989322 65.5758063837 65.5765147976 65.5763763501 65.5772811036 65.5770374388 65.5780190922 65.578506547 65.5796236637 65.5802988265 65.5812735162 65.5817827238 65.5822987805 65.5828689256 65.5834446496 65.5843080002 65.5848165615 65.5853325684 65.5858373631 65.5866160388 65.5870791292 65.5875396901 65.5882743146 65.5887296911 65.5891973344 65.5899536937 65.590433922 65.5912126936 65.5920016199 65.5924869808 65.5932775466 65.5940656016 65.5948501683 65.5953295579 65.5961058326 65.5968745836 65.5976343465 65.5983835284 65.5988381289 65.5995659188 65.6002776669 65.6009714321 65.601388779 65.6020489342 65.6026850367 65.6032950165 65.6038767923 65.6042203824 65.6047516504 65.6052488826 65.6057102252 65.6059760759 65.60637543 65.6067341361 65.6070508475 65.6073243586 65.6074708741 65.6076721064 65.6078276811 65.6079371245 65.6079812211 65.6080154421 65.6080031921 65.6079447382 65.6078404889 65.6077533503 65.6075765213 65.6073559276 65.6070925057 65.6069091844 65.6065800439 65.6062150658 65.605970277 65.6055541278 65.605278383 65.604995547 65.6045079418 65.6041831418 65.6038420006 65.6032393204 65.6028285255 65.6023952497 65.6019543636 65.6011759862 65.6006371428 65.6000943714 65.5995858247 65.5990609502 65.5980473164 65.5973335029 65.5960039321 65.5954544662 65.5941812192 65.5951769832 65.5940342187 65.5949656084 65.594075529 65.5927267225 65.5902184546 65.590756712 65.5904526927 65.5899290653 65.5891193689 65.590009964 65.5861964327 65.5852545705 65.585389037 65.584606813 65.5846343422 65.5847754517 65.5847753902 65.5845286026 65.5839307014 65.5829565651 65.5808649026 65.579421259 65.5779866835 65.5754404568 65.5748092067 65.5745132656 65.574515592 65.5747124797 65.5749730782 65.5751768773 65.5770810495 65.5771654966 65.576893114 65.5762989745 65.5737348392 65.5726597431 65.5714101073 65.5695658348 65.568316668 65.566310283 65.5656586694 65.5652846167 65.565217831 65.5654353706 65.5658711854 65.5664387968 65.5675011422 65.5681800924 65.5687892039 65.5692963493 65.5696843255 65.5699456039 65.5700783247 65.570083787 65.5699652759 65.5701514127 65.5697968769 65.5693330966 65.5687805672 65.5681706484 65.5675474468 65.566966606 65.5664891205 65.5661701288 65.5660459971
65.558206667 65.5582728849 65.5584549225 65.5587268053 65.5590510125 65.559387828 65.5597028299 65.5599703937 65.5601736697 65.5603026545 65.5601123016 65.5600871014 65.5599834804 65.5597993218 65.5595330192 65.5591843889 65.5587565972 65.558259327 65.557713154 65.5571543041 65.5568632201 65.5564109786 65.5561662374 65.5561981626 65.5565314066 65.5571344772 65.5579392932 65.5588297518 65.5598456158 65.5606959198 65.5614179178 65.5627271187 65.5631051914 65.5632648211 65.5642565664 65.5638812813 65.5629174915 65.5624643086 65.5620942939 65.5619608727 65.5621872916 65.5628115692 65.5638142537 65.5649401096 65.5662882116 65.5672810242 65.5680039909 65.5684162478 65.5685318884 65.5684214088 65.5689827836 65.5687313029 65.5684366405 65.5698440709 65.5706625806 65.5718790791 65.5729270181 65.5740790018 65.5743116017 65.5742370851 65.5744452869 65.57456517 65.5750375728 65.5760080143 65.5774257625 65.5780703705 65.5786966159 65.5784808406 65.578864441 65.5791006886 65.5799433898 65.5808904471 65.5813323141 65.5818215609 65.5824905198 65.583156232 65.5839331412 65.5844792737 65.5850724308 65.5856212578 65.5863669925 65.5868869678 65.5873988181 65.588100232 65.5886150796 65.5891460348 65.5898834169 65.5904320572 65.591192741 65.5919629174 65.5925177836 65.5932895618 65.5940590701 65.5948254153 65.5953736384 65.5961317636 65.596882825 65.5976254603 65.5983581879 65.598878394 65.5995896326 65.6002856674 65.6009646944 65.6014422955 65.6020873051 65.6027094032 65.6033066549 65.6038771094 65.6042706504 65.6047898826 65.6052766369 65.6057291817 65.6060334492 65.6064229693 65.6067736411 65.6070842083 65.6073535356 65.6075214875 65.6077173032 65.6078694904 65.6079776114 65.6080278318 65.6080594402 65.6080466706 65.6079897886 65.6078891813 65.6077895153 65.6076151594 65.6073990867 65.6071421827 65.6069320892 65.6066086632 65.6062516885 65.6059708504 65.6055640456 65.6052493962 65.6049264826 65.6044578992 65.6040940393 65.6037066122 65.6031265734 65.6026752076 65.6021744172 65.6016997354 65.6009873205 65.6003572805 65.5997267423 65.5992437183 65.598764936 65.5977571866 65.5968686878 65.5971591045 65.59675279 65.5975400292 65.5968596117 65.5961540405 65.594315661 65.5930377648 65.5926860939 65.5926466955 65.5925016824 65.5928092845 65.5926574148 65.5910776476 65.5895596169 65.5877067091 65.5865884874 65.5841905418 65.5848462647 65.5853388617 65.5844346839 65.5847452072 65.5846904433 65.5841362763 65.583045606 65.5814774458 65.5794216743 65.5775424152 65.5758612804 65.5747947214 65.5744120646 65.5746572072 65.5753215154 65.5761392338 65.5783673515 65.5791558273 65.5773916262 65.5771869284 65.5765740638 65.5738984631 65.5726644342 65.5711980458 65.5694371328 65.5678826415 65.5664709 65.5654153617 65.5648310721 65.56476918 65.5651818035 65.5659437119 65.5663124558 65.5672016472 65.5680518011 65.568801836 65.5694175525 65.5698833092 65.5701945022 65.5703522028 65.5703599729 65.5702224642 65.5703829504 65.569963591 65.569412628 65.568751939 65.5680170836 65.5672606764 65.5665517846 65.5659682977 65.5655816928 65.5654387525
65.557952774 65.55802982 65.558246883 65.5585719769 65.5589587536 65.5593588912 65.5597316096 65.5600476563 65.5602887191 65.5604446001 65.5605100483 65.5602394621 65.5601313337 65.5599320615 65.5596387382 65.5592494047 65.5587652781 65.5581945965 65.5575582468 65.5568964045 65.5565099813 65.5558788239 65.5555604619 65.5555738767 65.5559517904 65.5566538176 65.5575887593 65.5586206908 65.5604832261 65.5607146705 65.5615150805 65.5628866461 65.5637387285 65.5638095591 65.5642642635 65.5637376109 65.5630118552 65.5619829188 65.5614315368 65.5611772065 65.561387838 65.5621153954 65.5632991509 65.5646592706 65.5659888218 65.5673444238 65.5681312892 65.5685123834 65.568505643 65.5689757732 65.5682484672 65.5677469081 65.56791924 65.5687861151 65.5702700803 65.5719352185 65.5732833503 65.5740131947 65.574086662 65.573947194 65.5734316992 65.5738139775 65.5750475252 65.5766914974 65.578188545 65.5787718996 65.5780526463 65.5779428405 65.5778994576 65.5788726908 65.5803636207 65.5805584703 65.5807888015 65.5811603391 65.5820509869 65.5828824508 65.5834393902 65.5840153214 65.5847857935 65.5853098367 65.5860615218 65.586639752 65.5872164906 65.5878932952 65.588475429 65.5890798693 65.5898074384 65.5904265484 65.5911701052 65.5919228204 65.5925507308 65.5933032604 65.5940523015 65.5947999875 65.5954206593 65.5961614877 65.5968935183 65.5976177666 65.5983350121 65.5989244297 65.5996188965 65.6002977691 65.6009620804 65.6015033878 65.6021341404 65.6027412729 65.6033251018 65.6038853342 65.6043317078 65.60483875 65.6053141533 65.6057582098 65.6061032262 65.6064833727 65.606825397 65.607129623 65.6073954696 65.6075860388 65.6077761362 65.6079246321 65.6080317079 65.6080884298 65.6081171556 65.6081036186 65.6080485128 65.6079515422 65.6078384819 65.6076662388 65.6074550374 65.6072048492 65.6069664467 65.6066475871 65.6062972711 65.605978735 65.6055750571 65.605214027 65.6048444376 65.6043874842 65.6039753306 65.6035354739 65.6029533971 65.6025082804 65.6018543818 65.601364015 65.6008206981 65.600017584 65.5991990379 65.5988358936 65.5985285202 65.5987544811 65.5971274374 65.596021218 65.5963403455 65.5966197914 65.5981890495 65.5976350824 65.5956349651 65.5934577111 65.5915831195 65.5909917336 65.5919403949 65.5924271825 65.5925760091 65.591654636 65.5896726137 65.5872627656 65.5848320688 65.5833872483 65.5831347515 65.5840546729 65.585413638 65.5847224357 65.5849030371 65.5844234892 65.5832362827 65.5812083387 65.5790017872 65.576700179 65.5746790782 65.5734160805 65.5730514703 65.5735073737 65.5744963222 65.576679913 65.5781241625 65.5792101904 65.57864346 65.5786387563 65.5769428449 65.5741477065 65.572771051 65.5729402764 65.5691215324 65.5673067245 65.5656574638 65.5644220885 65.5637578685 65.5637316712 65.5642803878 65.5654915828 65.5659237712 65.5669975164 65.5680082456 65.5688876948 65.5696010249 65.570135134 65.570488892 65.5706665523 65.5706740162 65.5709724187 65.570657429 65.5701779767 65.5695463376 65.5687850196 65.5679327741 65.5670496773 65.566217521 65.5655310758 65.565078756 65.5649183999
65.5578012868 65.5578826423 65.558129968 65.5585005225 65.5589400215 65.5593927806 65.5598129275 65.5601685907 65.5604406424 65.560619025 65.5606989187 65.560677772 65.5603122862 65.560104179 65.5597931293 65.5593757025 65.5588513928 65.558226966 65.5575230793 65.5567825276 65.5562722109 65.5555913263 65.5551918272 65.5551928572 65.5556084997 65.5567011108 65.5579679488 65.559353902 65.5605436499 65.5617020404 65.5616902559 65.5636338109 65.5639873137 65.5640243712 65.5637555267 65.5637473712 65.5628651282 65.5618980004 65.5610085322 65.5606603935 65.5608655181 65.5616862869 65.5630273142 65.5645775241 65.5660724931 65.5675286483 65.5683535479 65.5686943461 65.5685721139 65.5687468755 65.5677564343 65.5670393632 65.5670582954 65.5680659603 65.5698458303 65.5717992044 65.5733527806 65.5740973055 65.5748981829 65.5739645465 65.5727883263 65.5726035478 65.5739510787 65.5762465597 65.5779756448 65.5785381144 65.577915998 65.5769986304 65.5771339911 65.578278069 65.5804624416 65.580668201 65.580280416 65.5804306611 65.5816610699 65.5827276957 65.5828431773 65.5834208041 65.5846007485 65.5847980747 65.5857732026 65.5862465667 65.5870610977 65.5876318743 65.5882613117 65.5890168612 65.5897900547 65.5904209139 65.5910898822 65.5918603907 65.5926340583 65.593355663 65.5940100236 65.5947253415 65.5954899248 65.5962497415 65.596906708 65.5975584278 65.598297355 65.5990235765 65.5996863627 65.6002806721 65.6009233543 65.6015931235 65.6022361942 65.6027781176 65.6033088292 65.603893814 65.6044424158 65.6049198221 65.6053366701 65.6057749562 65.6062046683 65.6065847951 65.6068847302 65.607167412 65.607453915 65.6076850512 65.6078535568 65.607983781 65.6081008986 65.6081748018 65.6081905419 65.6081691067 65.6081283287 65.6080406835 65.6078965761 65.6077176183 65.6075325504 65.6073041814 65.6070127975 65.606673123 65.6063492966 65.6060299782 65.6056052588 65.6051445381 65.6047292304 65.6043396844 65.603769993 65.6033700789 65.6026449975 65.6024227176 65.6014162494 65.6009566748 65.6007545279 65.5997009936 65.5985994656 65.5984579296 65.59902638 65.5992759091 65.5964468558 65.5951750768 65.5950049683 65.5965756533 65.5978370418 65.5973635113 65.5952393539 65.591740525 65.5896009255 65.5899360251 65.5920010469 65.59384606 65.5927576605 65.5918401844 65.589738974 65.5865942541 65.5836280346 65.5819110201 65.5818890949 65.5831867041 65.585021728 65.5848691131 65.5852739172 65.584881797 65.583636988 65.5814266407 65.5789192195 65.5762664324 65.5739459189 65.5725032463 65.5721407682 65.5727641337 65.5745312194 65.5764198543 65.578172993 65.5784543273 65.5791058682 65.5791740831 65.578633668 65.5745344012 65.5752391571 65.5731113073 65.5708948381 65.5683051017 65.5659324556 65.5638282464 65.563093894 65.5630914876 65.563834339 65.565076611 65.5657656569 65.5669848818 65.5681199225 65.5690974695 65.569882936 65.5704658452 65.570848235 65.5710371384 65.5715060594 65.5713436807 65.57099497 65.5704665269 65.569769992 65.5689278253 65.5679805995 65.5669936925 65.5660589101 65.5652852509 65.5647761902 65.5646125492
65.5577983534 65.5579119633 65.5582375509 65.5587261713 65.5593070486 65.5595179115 65.5599679993 65.560348711 65.5606407816 65.5608344874 65.5609254157 65.5609112821 65.5610991519 65.5603242818 65.5600078879 65.559579801 65.5590385503 65.5583900188 65.5576546035 65.5568763697 65.5563340603 65.5556129888 65.5551938038 65.5551891602 65.5557597158 65.5567794741 65.558111029 65.5595611933 65.5609607067 65.5623216011 65.5633221575 65.5639887349 65.5643413221 65.5643597673 65.5640533112 65.5639991363 65.5630435472 65.5619954355 65.5611038585 65.5606531084 65.560938645 65.5619902687 65.5636240932 65.5654850718 65.5663923435 65.569221279 65.5700889005 65.5702842246 65.5698436135 65.5689378275 65.5678360789 65.5670625495 65.5670546969 65.5681424766 65.5700485894 65.5721129511 65.5753715452 65.5756568764 65.5754368671 65.5740872086 65.5727976511 65.5725870456 65.5740280011 65.5764545052 65.5782252588 65.5787457847 65.5780120393 65.577035476 65.5771267133 65.578828486 65.5805770205 65.5809721643 65.5803509793 65.5804068414 65.5816494986 65.5827246028 65.5828215567 65.583397931 65.5845973599 65.5847734635 65.5857648425 65.5862241204 65.5870597756 65.587617917 65.58824617 65.5890153826 65.5897955154 65.5904209048 65.5910804925 65.5918553163 65.5926428655 65.5933619191 65.5940044086 65.5947168926 65.5954951348 65.5962594457 65.5969073062 65.5975502126 65.598293825 65.5990329796 65.59969283 65.6002763918 65.6009173688 65.6015993911 65.6022456657 65.6027795028 65.6033037212 65.6038932784 65.6044514193 65.604925725 65.6053350613 65.6057733103 65.6062112088 65.6065922721 65.6068868946 65.6071670103 65.6074568203 65.6076915861 65.6078575403 65.607985439 65.608104094 65.608179831 65.608194007 65.6081715199 65.6081326549 65.6080459862 65.6078987386 65.6077186336 65.6075369419 65.6073110674 65.6070148297 65.6066717444 65.6063512989 65.6060357706 65.6056081531 65.605138331 65.6047220986 65.6043411916 65.6037576473 65.6033653249 65.6026296911 65.6024221615 65.6013989158 65.6009418577 65.6007539896 65.5996913738 65.598579693 65.5986183377 65.5996804073 65.5994912061 65.5974048857 65.5951756325 65.5951071685 65.5967587309 65.5982263738 65.5978308636 65.5956347195 65.5918925374 65.5895787702 65.5899587517 65.592235489 65.594743489 65.5955228533 65.5955553437 65.5903444308 65.5869872394 65.5837793841 65.5819084996 65.5819276633 65.5833430399 65.5853944059 65.5872161059 65.5882111081 65.5880901955 65.5867686085 65.5820626551 65.5809576132 65.5776098238 65.5746192801 65.5726699269 65.5721289988 65.5730038469 65.5747317564 65.576787021 65.5786922841 65.5790789808 65.5798107235 65.5799190066 65.5793809379 65.5782463011 65.5764353127 65.573940485 65.5713243451 65.5686010713 65.5660948669 65.564174125 65.5630888213 65.5631059904 65.5638810831 65.5652063479 65.5659556154 65.5672506842 65.568449321 65.5694753536 65.5702944401 65.5708977166 65.5712891398 65.5730189724 65.5719647892 65.5717858512 65.571412844 65.5708521434 65.5701148579 65.569222991 65.568217472 65.5678464686 65.5665821904 65.5655346821 65.5648448298 65.5646060467
65.5580324932 65.5581513408 65.5584846667 65.558981568 65.5595697214 65.5601765251 65.5607435309 65.5612309578 65.5608974564 65.5610973416 65.5611947184 65.561187432 65.5613969013 65.5611777711 65.5613092729 65.5598715381 65.5593405302 65.5587031616 65.5579798612 65.5572146306 65.5567501918 65.5560498685 65.5556489827 65.5557661808 65.5563176833 65.5573317532 65.5586485108 65.5600798457 65.5614614931 65.5628074998 65.5637984598 65.5644909745 65.5648219664 65.5648440113 65.5645442052 65.5645512744 65.5636296201 65.5626253935 65.5617847043 65.5614533063 65.5617526173 65.5628045598 65.5644075351 65.5662194685 65.5682332533 65.5696364988 65.5707240997 65.5709245149 65.5705184734 65.5696652427 65.568834967 65.5680824462 65.5684434685 65.5697416499 65.5719050929 65.5745416134 65.576223745 65.576811157 65.5763686927 65.5752359632 65.5742040456 65.5745174206 65.5755450854 65.5776142931 65.5799036686 65.5795290261 65.5790305614 65.5784056314 65.578660385 65.5805098246 65.581933052 65.5816220958 65.5811728962 65.5815132583 65.5820304768 65.5828719877 65.5834130075 65.5839900203 65.5847736658 65.5852916106 65.5860466145 65.5866263343 65.5872073713 65.5878829346 65.5884683014 65.5890765985 65.5898041276 65.5904262298 65.5911688295 65.5919209141 65.5925524341 65.59330405 65.5940518717 65.5947986643 65.5954229171 65.5961631196 65.5968940717 65.5976172796 65.5983339875 65.5989268277 65.5996204864 65.6002983235 65.6009619544 65.6015064253 65.6021366548 65.6027429202 65.6033259957 65.6038859227 65.6043349044 65.6048413358 65.6053160476 65.605759744 65.6061067966 65.6064865667 65.6068280725 65.6071319592 65.6073977545 65.607589427 65.6077792038 65.607927477 65.6080345538 65.6080916143 65.6081201667 65.6081065629 65.6080515863 65.6079547999 65.6078410556 65.6076688649 65.607457963 65.6072081344 65.6069683412 65.6066495682 65.6062995922 65.6059794611 65.6055756969 65.6052121851 65.6048402792 65.6043838873 65.6039687105 65.6035269735 65.6029428654 65.602501573 65.6018363274 65.6013460434 65.6008150315 65.6000012996 65.5999462149 65.5996261698 65.6007113121 65.6018181611 65.6000690286 65.5976104422 65.5973250265 65.5984947497 65.5996085972 65.6007961009 65.5975894833 65.5944089794 65.5928403098 65.5923962179 65.5942812694 65.5964458199 65.5977658952 65.5971238537 65.5945343768 65.5902552506 65.5865867268 65.5843543551 65.5837493801 65.5851306731 65.586807274 65.5885100587 65.5894478697 65.5893140388 65.5877851501 65.5854515007 65.5823719775 65.5791007882 65.5761584586 65.574206836 65.5736540045 65.5743213143 65.5759661319 65.5779511494 65.5798027458 65.5800957172 65.5808176193 65.5809184583 65.5804371515 65.5792226133 65.5774205382 65.5749401971 65.5723453492 65.569644838 65.5671547108 65.5652352581 65.5641910693 65.5639579434 65.564701493 65.5659941779 65.5665680173 65.5678502328 65.5690365447 65.5700501143 65.5708562465 65.5738847906 65.5734004497 65.5736187311 65.5725014829 65.5723089617 65.5719230828 65.5713503804 65.5721625539 65.5710125099 65.5697244325 65.5683825134 65.5671074446 65.566046142 65.5653417311 65.5650909917
65.5585192188 65.5586390788 65.5589624438 65.5594399946 65.5600030518 65.5605833876 65.5611263235 65.5615945693 65.5619657995 65.5622279542 65.5623747901 65.5624026308 65.5617462818 65.5615456005 65.5617157247 65.5612746082 65.5607012513 65.5600038724 65.5584983297 65.5577953778 65.5575126601 65.5568906137 65.5567938027 65.55684442 65.5573783012 65.5583306986 65.5595590245 65.5608957632 65.5621931151 65.5634757964 65.5644237922 65.5650980692 65.5654424249 65.5654928222 65.5664521241 65.5657995249 65.5646259024 65.5637781579 65.563092959 65.5629632003 65.5633007728 65.5642891142 65.5657503918 65.5673909759 65.5689161248 65.570562609 65.5716314535 65.5718786603 65.5716033004 65.5722036243 65.5712654582 65.5706399455 65.5708460344 65.5720170691 65.5741863496 65.5761551129 65.5775853958 65.5781589132 65.5788680432 65.5772271381 65.5766192954 65.577642125 65.5788139612 65.5805160775 65.5815706498 65.5820107993 65.5817197324 65.5813924471 65.5820083108 65.5825009959 65.5834130708 65.5837528421 65.5831407942 65.5835200767 65.5832717429 65.5842374872 65.5846539028 65.5844614196 65.5850594964 65.5856097068 65.5863543103 65.5868771198 65.587391446 65.5880915608 65.5886092911 65.5891433248 65.5898800183 65.5904318819 65.5911917893 65.5919611162 65.5925192242 65.593290133 65.5940587804 65.5948242836 65.5953757197 65.5961330107 65.5968832548 65.5976250994 65.5983570727 65.5988803447 65.5995908236 65.6002861348 65.6009644866 65.6014449051 65.6020892241 65.60271068 65.6033073487 65.6038772887 65.604273168 65.6047918511 65.6052781258 65.6057302704 65.6060363356 65.6064254087 65.6067757131 65.6070859997 65.6073551376 65.6075240935 65.6077196613 65.6078716926 65.607979753 65.6080302581 65.6080617458 65.6080489506 65.6079921393 65.6078916965 65.6077914438 65.6076171987 65.6074013319 65.6071447249 65.6069333774 65.6066102011 65.606253552 65.6059710003 65.6055644952 65.6052479323 65.6049230525 65.6044551604 65.6040894039 65.6036996269 65.6031203763 65.6026675418 65.6021624791 65.6031055853 65.6027999197 65.6019431718 65.6030169929 65.6027108748 65.6043740562 65.604228523 65.6031775284 65.6030646826 65.6024325029 65.6032146846 65.604020979 65.6036691331 65.6026386872 65.6000206203 65.5981914314 65.5966378389 65.5978490381 65.6009699916 65.6002776526 65.599620727 65.5974270874 65.5942125156 65.5906237269 65.5886326057 65.5883256867 65.5895105731 65.5921064248 65.5905860492 65.5912846862 65.5910535676 65.5895503937 65.58730507 65.5846205593 65.5816582346 65.5789786295 65.5771526898 65.5765410602 65.5768660725 65.5782288048 65.5799265858 65.5824284403 65.5838200588 65.582159978 65.5822007872 65.5816821736 65.5804924583 65.578760989 65.5763865865 65.5739393267 65.5714060277 65.5690723001 65.5672603676 65.5662429891 65.5661420968 65.5662888004 65.5674377716 65.5676116482 65.5687923556 65.5718942731 65.5730847549 65.5740185389 65.5746819754 65.5741306841 65.5743161182 65.5753294709 65.5750563165 65.5745514918 65.5738255728 65.5728948206 65.5717875753 65.5705528817 65.5692693521 65.5680491547 65.5670292837 65.5663445769 65.5660882132
65.5592360656 65.5593515882 65.5596480135 65.5600810796 65.5605903383 65.5611160254 65.5616099794 65.562038783 65.5623817535 65.5626270869 65.5627682182 65.5628011645 65.5627229226 65.5633882984 65.5630916231 65.5618115595 65.5613125339 65.5607080576 65.5600230345 65.5594820521 65.5587735852 65.5582260825 65.5582277175 65.5583173905 65.5588153808 65.5596676048 65.5607580741 65.5619495941 65.5631182845 65.564169169 65.5651898449 65.5658390607 65.5676008297 65.5676867918 65.5674694995 65.5669904159 65.5663362198 65.5670600687 65.5661029043 65.5661252164 65.5665639297 65.5676400317 65.569165771 65.5708466458 65.5723868251 65.5753402841 65.5758469008 65.5752989126 65.574986379 65.574357858 65.574887421 65.5747974879 65.5750957806 65.576187386 65.5767037401 65.5782545411 65.5794292532 65.5800039381 65.581241272 65.5808685688 65.5806061688 65.5812363714 65.5821081332 65.583278865 65.5842195278 65.5843265151 65.5843534385 65.5843417322 65.5850556368 65.5855973875 65.5854530954 65.5857617103 65.5859125497 65.5851827042 65.5855960993 65.5863148242 65.5855509681 65.5859444973 65.5853218101 65.5858288166 65.5866058003 65.5870712747 65.5875340648 65.5882670266 65.588724967 65.5891953311 65.58995069 65.5904339175 65.5912118273 65.591999904 65.5924883421 65.593278071 65.5940653001 65.5948490541 65.5953314893 65.5961069529 65.5968749135 65.5976339108 65.598382356 65.5988398564 65.5995669041 65.6002779478 65.6009710515 65.6013910608 65.6020505347 65.6026860075 65.6032954149 65.6038766809 65.6042224757 65.6047532012 65.6052499614 65.6057109073 65.6059784546 65.6063773648 65.6067357087 65.6070521433 65.607325466 65.6074729271 65.6076739155 65.6078293382 65.6079387228 65.6079830915 65.6080171954 65.6080049232 65.6079465413 65.6078424578 65.607754766 65.6075780494 65.6073576601 65.6070945327 65.6069100304 65.6065811556 65.6062165733 65.6059702159 65.6055545909 65.6052771903 65.6049926453 65.6045060319 65.6041795499 65.6038364922 65.6032349831 65.6028222478 65.6045693116 65.6043224442 65.6063761595 65.6058775872 65.6055889228 65.607646822 65.6077554907 65.6076244886 65.6087662318 65.6081983256 65.6075306388 65.6078316806 65.6081027331 65.6087365973 65.6074733985 65.6057452844 65.6044589801 65.6037464396 65.6044030423 65.6052936111 65.6037157989 65.6030170417 65.60123107 65.5987239331 65.5988119251 65.5969369885 65.5965113531 65.5969410851 65.5963782087 65.597809613 65.5986709321 65.6006688745 65.6000835294 65.5948434528 65.5920190986 65.5888562351 65.5859452477 65.5838849556 65.5830699354 65.5831562048 65.5852431222 65.583454162 65.5848348246 65.5858884217 65.5864401521 65.5864039087 65.5831973375 65.5820434788 65.5801889673 65.5782142667 65.5760003035 65.57373229 65.5716506319 65.570020333 65.5690641269 65.5688841905 65.568817467 65.5698235178 65.5711002547 65.5720469032 65.5732424438 65.5742618193 65.5750589295 65.5778312602 65.5782238134 65.5761774549 65.5761169877 65.5758368364 65.5753463201 65.5746572009 65.573786789 65.5727630418 65.5716314675 65.5704622434 65.5693534407 65.5684239391 65.567791213 65.5675381135
65.5601361306 65.5602340769 65.5604903058 65.5608606135 65.5612958184 65.5617471644 65.5621746894 65.5625497289 65.5628535627 65.5630746549 65.5632060149 65.5632432608 65.5631834588 65.5639155282 65.5636768989 65.5633236651 65.5628611281 65.5623033186 65.5611948043 65.5606117123 65.5600629961 65.5596561131 65.5598788392 65.5600070833 65.5604600345 65.561196735 65.5621306764 65.5631578728 65.5641810935 65.5651218271 65.5660765393 65.5667022939 65.568560982 65.5687362854 65.5686665445 65.5705854574 65.5700007795 65.5694152546 65.5690148565 65.568940061 65.5693998265 65.5703271216 65.5715867627 65.5729682765 65.5760497558 65.577190398 65.5779053502 65.5784409235 65.5782800473 65.5795239243 65.5785296597 65.5784129822 65.5787914268 65.5796854183 65.5809056182 65.580713041 65.5816909648 65.582282273 65.5840273961 65.5840477729 65.5841277934 65.5849604956 65.5856308577 65.5864594712 65.5871627354 65.5871853861 65.5873973649 65.5875533831 65.5901566484 65.5886256391 65.5899738624 65.5902594072 65.5883708089 65.5884799482 65.5898980926 65.5900363991 65.5885443448 65.5887650085 65.5873314545 65.5880677853 65.5884256737 65.5872270185 65.5876430396 65.5884141859 65.5888187384 65.5892326592 65.590011926 65.5904324675 65.5912297375 65.5920360554 65.5924597248 65.5932671448 65.5940718496 65.5948727977 65.5952911595 65.5960838014 65.5968685172 65.5976437531 65.5984078157 65.5988043542 65.5995471681 65.6002731855 65.600980348 65.6013443984 65.6020183753 65.6026672604 65.6032888617 65.6038809749 65.6041804704 65.6047227706 65.6052296012 65.6056990004 65.605930898 65.6063392871 65.606705363 65.6070276993 65.6073050209 65.6074326391 65.6076388318 65.6077974882 65.6079081036 65.6079467264 65.6079833245 65.6079715151 65.6079115728 65.6078039237 65.6077278563 65.6075487376 65.6073239754 65.6070545526 65.6068948364 65.6065601533 65.6061864422 65.6059726809 65.6055440816 65.6053007836 65.6050514907 65.6045415443 65.6042499955 65.606832446 65.6066976802 65.606211547 65.6093748026 65.6093722972 65.6127570554 65.6128856064 65.6116729752 65.6118656147 65.6155554354 65.6154197802 65.6140362009 65.6170636018 65.613191162 65.6132298106 65.6131810699 65.6140289765 65.6131417211 65.6119938809 65.6110755042 65.6101016069 65.610188077 65.6103983663 65.6079749986 65.6072149189 65.6057450983 65.6074793577 65.6054419742 65.6039655052 65.6034295758 65.6038238169 65.6065110632 65.604781535 65.6053877465 65.6049370971 65.603826545 65.6018499212 65.5962895097 65.5937118793 65.5913325138 65.5895810357 65.5887424066 65.5891860707 65.5900825556 65.5913690837 65.5926703543 65.588323765 65.5885811551 65.5883613504 65.5849615758 65.5838395919 65.5820960381 65.5803201597 65.5783733265 65.5764092058 65.5746172752 65.5731992093 65.5723217244 65.5720623614 65.5715490508 65.5722851736 65.5732559561 65.5742843101 65.5767334516 65.5777068672 65.5784705731 65.5789976813 65.5792791864 65.5770810698 65.5769877118 65.5767017199 65.576232889 65.5755943105 65.5748045075 65.5738909995 65.5728951229 65.5718769357 65.5709172272 65.5701119644 65.5695555443 65.5693004941
65.5611433319 65.5612218827 65.5614234796 65.5617217959 65.5620732626 65.5624409739 65.5627937248 65.5631079632 65.5633671536 65.5635601534 65.5636796048 65.5637207462 65.5636807083 65.5635582699 65.564306834 65.5640388474 65.5636863639 65.5632643044 65.5627983787 65.5625388164 65.5621047715 65.561972355 65.5618825549 65.5617449576 65.5621525827 65.5627783382 65.563563208 65.5644341356 65.5653194206 65.5661572563 65.5670544171 65.570160895 65.5706309437 65.5699036339 65.5725724806 65.5724008751 65.5721236417 65.5718527388 65.5717206258 65.5718505322 65.5722644282 65.5730660226 65.5757571329 65.5770319029 65.5782439268 65.5792538391 65.5799744372 65.5806797775 65.5807799948 65.5826153203 65.5844147901 65.5845165886 65.5824453521 65.5832069575 65.5841695079 65.5851470649 65.5859026418 65.5866097492 65.5871094169 65.5874205395 65.5877507903 65.5887431184 65.5893194451 65.5899734533 65.590559821 65.5909877623 65.5930056602 65.593363831 65.594261768 65.5945495284 65.5948063486 65.5939019475 65.5940664312 65.5947727893 65.5946608125 65.5929981223 65.5929551771 65.5935434224 65.5941220142 65.5917972171 65.5918721421 65.5897391249 65.5877265803 65.5885372662 65.5888941402 65.5892580763 65.5900634967 65.5904284329 65.5912451992 65.5920684525 65.5924341734 65.5932575362 65.5940780121 65.5948944764 65.5952555543 65.5960637202 65.5968636084 65.5976535561 65.5984317513 65.5987738584 65.5995309975 65.600270633 65.6009905716 65.6013046688 65.6019918632 65.6026529882 65.6032857123 65.6038876939 65.6041459276 65.604698819 65.6052148615 65.6056919721 65.6058920577 65.6063091346 65.6066822939 65.6070100181 65.6072909564 65.6074009155 65.6076118769 65.6077734777 65.6078851788 65.6079186255 65.6079575117 65.6079461106 65.6078847035 65.6077737392 65.6077080534 65.607526738 65.6072979585 65.6070227515 65.6068851013 65.6065448708 65.6061616059 65.6059764825 65.6055330631 65.6053196025 65.6051012261 65.6045663123 65.6085457326 65.6128113951 65.6129957864 65.6176987877 65.6175047487 65.6173760894 65.6177905779 65.6216872356 65.6222317888 65.6218269256 65.6218852066 65.6245308957 65.6244480404 65.6242919458 65.6234509912 65.6231434273 65.6206062652 65.6202009214 65.6195013455 65.6186547774 65.6179141377 65.616723343 65.6163869184 65.6160890606 65.6159056612 65.6149173705 65.6152770903 65.6137468171 65.6122021101 65.6109980212 65.6163996555 65.6164189946 65.6126749575 65.6098639858 65.6099489642 65.6091621836 65.6080167251 65.6062762123 65.6041029153 65.6017673673 65.5968628788 65.5953719824 65.5949072214 65.5947370149 65.5951014664 65.5957564107 65.5964349681 65.5969088423 65.5909647762 65.5935043832 65.5926725627 65.5858250868 65.584176291 65.5825865355 65.5808941125 65.5792204487 65.5777058744 65.5764926615 65.5756949093 65.5758971823 65.576035653 65.5765826478 65.5773829968 65.5778155244 65.578632996 65.5793424571 65.5798926957 65.580254618 65.5780174463 65.5780558805 65.5779255031 65.5776327064 65.577187661 65.5766046515 65.5759032264 65.5751102051 65.5742623948 65.5734092473 65.5726135546 65.5719472222 65.5714515338 65.571259464
65.562181579 65.5622410497 65.562384391 65.5626065206 65.5628746813 65.5631593808 65.563437786 65.5636913406 65.5639057767 65.5640705117 65.5641779812 65.5642231378 65.5642031725 65.5641174611 65.5649600326 65.5647754391 65.5645291342 65.5642360163 65.5639186025 65.5638267871 65.5635509344 65.5633725761 65.5635567818 65.5641307249 65.5645113946 65.5650686364 65.5649607567 65.5657014262 65.5664732167 65.5672295395 65.5702916574 65.5713482291 65.5735938925 65.5739679766 65.5741710623 65.574239326 65.5742322872 65.5742296495 65.5743208831 65.5745860947 65.5755162368 65.5774046049 65.5783861376 65.5794551095 65.5805030788 65.5814350137 65.5821867245 65.5830577975 65.5871050622 65.5872206884 65.5881214474 65.5884543436 65.5889914693 65.5897370696 65.5874745138 65.5883097105 65.5889126433 65.5896953336 65.5903430339 65.5909246568 65.5939333087 65.5945121403 65.5951931131 65.5959253572 65.5966323785 65.5947879399 65.5972208843 65.5977099608 65.5986984471 65.59898985 65.5992455969 65.6011135868 65.5983312856 65.6022890944 65.6022819065 65.6001781095 65.6001849417 65.6007222706 65.601408672 65.6012991062 65.5981307544 65.5986256704 65.5989428886 65.5956426723 65.5924197671 65.5932670355 65.5935928711 65.5944608086 65.5912582487 65.5920966898 65.5924119602 65.5932492717 65.5940835604 65.5949136122 65.5952248422 65.5960466153 65.596859823 65.5976626887 65.5984532786 65.5987480647 65.5995178085 65.6002694337 65.6010006102 65.6012712812 65.6019701309 65.6026420584 65.6032845921 65.6038952536 65.6041176649 65.6046799229 65.6052041067 65.6056880132 65.6058604469 65.6062852197 65.6066646488 65.606997125 65.6072812234 65.6073758708 65.6075910586 65.6077552537 65.6078678829 65.6078967958 65.6079377193 65.6079266738 65.6078639467 65.6077500109 65.6076933593 65.6075101106 65.6072777705 65.6069974302 65.6068789203 65.6065336255 65.6121001233 65.6117390703 65.611649098 65.6112484454 65.6171430528 65.6232326345 65.6233945085 65.6233494003 65.6295388255 65.6299677413 65.6298839354 65.629806323 65.6300913597 65.6348664056 65.6352133126 65.6293289355 65.634348476 65.6324429115 65.6323627509 65.6322067117 65.6312451391 65.6307186354 65.627577895 65.6310603244 65.6301494793 65.6291727422 65.6282630875 65.6275143907 65.6228952497 65.6225892039 65.621704354 65.6205705712 65.6214263539 65.6201668279 65.6262924423 65.6251015538 65.6242966473 65.6238818212 65.6233706134 65.6234115428 65.6148019634 65.6136872352 65.6124643794 65.6108633804 65.609003914 65.6070708251 65.6052802645 65.602110463 65.6005193043 65.6000849158 65.6000040227 65.6001185721 65.6002486793 65.6002319132 65.5999451992 65.5993119875 65.5951457642 65.5932194643 65.5863406265 65.5848969482 65.5834132918 65.5819816006 65.5825965488 65.5814944987 65.5807352684 65.5791471205 65.5791350885 65.5794434846 65.5799310268 65.5800367459 65.580563006 65.5810202513 65.5813629257 65.5815615071 65.579113283 65.5790803967 65.5789098143 65.5786070786 65.5781825892 65.5776515055 65.5770340062 65.5763558958 65.5756494545 65.5749541188 65.5743160117 65.5737394775 65.5733957674 65.5732336074
65.5631818403 65.5632229891 65.5633200908 65.5634630047 65.5636564461 65.5638668062 65.5640785636 65.5642776411 65.5644519374 65.5645915533 65.5646888962 65.5647387517 65.5647383577 65.5646875028 65.5656156159 65.5655062504 65.5653539129 65.5651726913 65.565213812 65.5650209958 65.5648731457 65.5647999614 65.5648281414 65.5656951719 65.5660399424 65.5665181776 65.5671085556 65.5677799059 65.5684956687 65.5709173778 65.5714726059 65.5742463004 65.5748799027 65.5753793265 65.5757529665 65.5760268799 65.5762430869 65.576455425 65.5767219907 65.5775366541 65.5780403005 65.5799581569 65.5808229525 65.581767433 65.5827258972 65.5836349171 65.5844462068 65.5888962222 65.5900435001 65.5904171025 65.5907725549 65.5921117715 65.5927311675 65.593463979 65.594278149 65.5951141348 65.5922717299 65.5928933124 65.5937102868 65.594505464 65.5978669548 65.5985681663 65.5993163722 65.6000936646 65.6008680311 65.6016132497 65.601697984 65.605686523 65.6062509486 65.6068233507 65.6073900108 65.6063726955 65.6068765705 65.6077743934 65.6078498985 65.6094488676 65.6098034898 65.6104471352 65.6102721736 65.6116708273 65.6121942029 65.6082557655 65.6080565415 65.6093337693 65.609824693 65.6103524979 65.6062607639 65.6121857555 65.6075097543 65.6086260806 65.6097311516 65.6108253034 65.6109850599 65.6120899266 65.6131837009 65.6142660344 65.6207094876 65.6155026837 65.6165812362 65.6176452963 65.6186933138 65.6188394089 65.6198899983 65.6209198412 65.6219261277 65.6289000349 65.6230452869 65.6240143258 65.6249488387 65.6258445743 65.625950041 65.6268216846 65.6276451023 65.6284152994 65.635970074 65.6292110543 65.6298791546 65.6304793464 65.6310070064 65.6310446159 65.6315151429 65.63190528 65.6322114199 65.6402050102 65.6324394985 65.632590315 65.6326500218 65.6326170194 65.6325771159 65.632472768 65.6322744742 65.6319817139 65.6400240967 65.6315784575 65.6395066175 65.6393619477 65.6394643277 65.6388745965 65.6393827182 65.6469181327 65.646793891 65.6458005415 65.6463731922 65.6460928174 65.6457787563 65.6445972178 65.6448141567 65.6441083767 65.6435780651 65.6466588382 65.6460642442 65.6454462975 65.6448263155 65.6388408433 65.6397874523 65.6388377752 65.6378217612 65.6367805853 65.6357683399 65.6348181607 65.6296198952 65.6289577284 65.6277677815 65.6287881894 65.6363452624 65.6350572536 65.6337784023 65.6326282949 65.6316771759 65.6304009654 65.6299614478 65.6294878013 65.6278364566 65.6183190429 65.6169702531 65.6154068781 65.613718866 65.612029632 65.6104709176 65.607286945 65.6063928491 65.6050315946 65.6045991541 65.6042797026 65.603956599 65.6035198233 65.6028818571 65.6019867411 65.6008141441 65.5956693147 65.5945143387 65.5893886194 65.5879923491 65.5866728678 65.5855050379 65.5845526806 65.5838593239 65.5820643919 65.5819718368 65.5820705832 65.5823048713 65.5826127825 65.5824335652 65.5826710648 65.5828287358 65.5828782044 65.5802347351 65.5801311 65.5799179678 65.5796002183 65.5791883321 65.578697966 65.5781495041 65.5775675448 65.5769802735 65.5764185933 65.5759147343 65.5754769436 65.5752136438 65.5750799192
65.5644337857 65.5644773306 65.5645630658 65.5646865402 65.5643822867 65.5645328628 65.5646911215 65.5648466319 65.5649891636 65.5651095235 65.5652002309 65.5652560089 65.565274115 65.5669495321 65.5669042094 65.5668158189 65.5666957528 65.5665588944 65.5669394871 65.5668478181 65.5668003265 65.5668191646 65.5672261683 65.5674291188 65.5673069282 65.5677354104 65.5682635206 65.568874654 65.5721443583 65.572996266 65.5761263228 65.5777645209 65.5784712986 65.5790513036 65.5795137799 65.5798839626 65.5801991098 65.580503214 65.5808409431 65.5809628243 65.5815536673 65.5822622941 65.5829912685 65.5838828607 65.5848203557 65.5857600905 65.5866623654 65.5917985472 65.5944875433 65.5951373677 65.5957614365 65.5954387639 65.5961386872 65.5968982298 65.5977149644 65.5985679107 65.5994257843 65.6000757917 65.5970855035 65.6024972077 65.6053769039 65.6025219328 65.603371151 65.6042423739 65.6051304711 65.6060233163 65.6069078828 65.6105657561 65.6112905159 65.6120220552 65.6127564187 65.6134866621 65.6168791212 65.6174323407 65.6179918802 65.6185476209 65.6214497364 65.6218436177 65.6222370741 65.6246335211 65.6249065591 65.625170391 65.6271095391 65.6272992272 65.628979084 65.6355546512 65.6306707151 65.6321628046 65.6336382661 65.6404832307 65.6420155026 65.6366949367 65.6381406579 65.6452217076 65.6467314877 65.641156543 65.6425947341 65.6440318602 65.6514374947 65.652957327 65.6470520593 65.6484956149 65.6561808996 65.6577096004 65.6515208799 65.6529608721 65.6543914327 65.6624665527 65.6639776511 65.6573486215 65.6587255505 65.6671083889 65.6685383565 65.6615039009 65.6627624939 65.6639637831 65.672701385 65.6739079241 65.6662693228 65.6672468087 65.676195505 65.6771241549 65.6689964275 65.669673399 65.6702365321 65.6793222676 65.6797743741 65.6710350723 65.6712205732 65.680293869 65.6803144831 65.671181264 65.6709531844 65.6705837226 65.6793554797 65.6699931365 65.6692104562 65.669102721 65.6679388315 65.6677532507 65.6675489783 65.6657432862 65.6654124473 65.6650732284 65.6624231019 65.6618816583 65.6613264806 65.660767676 65.657087479 65.6562584785 65.6554108605 65.6545516182 65.6536844801 65.6490887227 65.6479288835 65.6467438261 65.645551944 65.6443682527 65.6431966973 65.6509643784 65.6468363699 65.6354008401 65.6434517034 65.6445756416 65.6432953025 65.6419912281 65.6407219402 65.6395312757 65.6384308651 65.6401791041 65.639226884 65.6382204653 65.6338024266 65.6228736745 65.6213440809 65.6197181365 65.6180694911 65.6164829795 65.6155417617 65.6142601718 65.6131998654 65.6147462726 65.6142079636 65.6137492453 65.6132751279 65.6126889153 65.6119060457 65.6108664373 65.6095440115 65.6070080576 65.5991710456 65.5974596037 65.5902200208 65.5890095244 65.58795569 65.5870941542 65.5872177536 65.5867881192 65.5859898428 65.5859064965 65.5859435672 65.586053262 65.5851524468 65.5852991846 65.5853886595 65.5853907567 65.5852836506 65.5811851013 65.5809278033 65.5805884484 65.58017748 65.5797107048 65.5792083733 65.5786939083 65.5781922636 65.5777279752 65.5781325467 65.5777771618 65.5775225367 65.5773763912
65.5651890016 65.5652222922 65.5652834585 65.565498181 65.5656206145 65.5657646621 65.5659217575 65.5653815876 65.5655035068 65.5656125238 65.5657013578 65.5657647505 65.5674793099 65.5675137133 65.5675061469 65.5674636045 65.5673965294 65.5673181433 65.5672434545 65.5677092699 65.5677118809 65.5680468876 65.5681651437 65.5683714581 65.5686769253 65.5690873339 65.5712685218 65.5719753591 65.5730627346 65.5762732403 65.5771913237 65.5794172966 65.5796857924 65.5803710405 65.5809491303 65.581438684 65.581867926 65.5822704356 65.5826814947 65.5831352537 65.5833867637 65.5840918712 65.5879989133 65.5857270327 65.5867069534 65.5877301491 65.5931677719 65.594156877 65.5970124347 65.5978228316 65.5985850853 65.5993328111 65.5991474035 65.5999520971 65.6008151433 65.6017401315 65.6027115997 65.6037002805 65.6052101484 65.6084158093 65.6092054361 65.6100964832 65.6072544101 65.6082406024 65.6092713796 65.6103410691 65.6148567206 65.6152817353 65.6161849328 65.6170966844 65.6213816347 65.6231670792 65.6240209344 65.6270678251 65.6281594029 65.6298261483 65.6305142261 65.6332693941 65.6342871738 65.6401278138 65.6376700369 65.6436669308 65.6444532984 65.646630881 65.6527020925 65.6533870823 65.6553614918 65.6613498862 65.6631875722 65.6592903444 65.6654224782 65.6671891354 65.6689512599 65.6707136458 65.6665218204 65.672901769 65.6746586535 65.6764278572 65.6720291397 65.678652323 65.6804381767 65.6822425595 65.6840662061 65.6794080446 65.6863568458 65.6881978679 65.6900515103 65.6851532412 65.692381824 65.694224514 65.69606112 65.6978842998 65.6926013734 65.7001264244 65.7018613731 65.703551009 65.6978884985 65.7055942057 65.70711639 65.7085568763 65.7099052069 65.7036636481 65.7114421702 65.7125162428 65.7134649017 65.7067409458 65.7144700945 65.7150758742 65.7155298321 65.7158256896 65.7084825873 65.7159532573 65.715803804 65.7081630623 65.7074913711 65.7070921625 65.698835897 65.6976182865 65.6967864652 65.6883085951 65.6937822734 65.6854890466 65.684243667 65.6815771071 65.6809296156 65.6790232787 65.6776706158 65.6742708406 65.6733348497 65.6711976792 65.664627085 65.6635024088 65.6623648385 65.6627796115 65.6559746581 65.654513475 65.6531071671 65.6517543123 65.6596349061 65.6584248404 65.6593796821 65.6526265359 65.6526525422 65.6511786777 65.6497065236 65.6482838908 65.6469379268 65.6456655955 65.6471438921 65.6459591821 65.6447412428 65.643425865 65.6386849499 65.6369737017 65.6254205608 65.6236324015 65.6218993583 65.6277056541 65.6193229119 65.6180413177 65.6193490866 65.6185634306 65.6178825024 65.6172348272 65.6165414349 65.6157237623 65.6147132124 65.6134615818 65.6135794203 65.6092886307 65.607413363 65.5993586303 65.5978983777 65.5964053458 65.5905705191 65.5897297066 65.5890953235 65.5886563657 65.5883892707 65.5877248954 65.5876675597 65.5866287109 65.5866772027 65.5867089878 65.5866920603 65.5865993929 65.5864109279 65.5861148728 65.5819203205 65.5815518027 65.5811275067 65.5806630955 65.5801784504 65.5809685806 65.5804439433 65.5799669161 65.5795591016 65.5789849676 65.5787636963 65.5786314338
65.5662034698 65.5657863417 65.5659394368 65.5660219467 65.5661304086 65.5662609452 65.566406348 65.5665570457 65.5667025394 65.5676128817 65.5677986885 65.5679494031 65.5679892109 65.5680456455 65.5680631246 65.5680474068 65.5680073457 65.5679542945 65.5679012938 65.5683470648 65.5683513403 65.5686404052 65.5687500726 65.5689506732 65.5692581064 65.5712185349 65.5718770586 65.572646215 65.573492634 65.5770913316 65.5781117676 65.5804156801 65.5813001167 65.5815532687 65.5822102855 65.5827648265 65.5832414792 65.5836722878 65.5840950837 65.5845516738 65.5850839148 65.5871029097 65.5893825557 65.5905888265 65.5919032367 65.593867235 65.5950953602 65.596255902 65.5991975688 65.6001143469 65.6009523805 65.6017508818 65.602561374 65.6025255215 65.6034663918 65.6045126995 65.6056500486 65.6096756487 65.6107912816 65.6117937407 65.6126334674 65.6136229256 65.6146131982 65.6156607404 65.6155700926 65.6170228392 65.6189101912 65.6201389951 65.6234416211 65.6247213589 65.6260673165 65.631072245 65.6323978676 65.6322746246 65.6335465589 65.6388294347 65.64003912 65.645645249 65.6445637373 65.6496253369 65.6508826489 65.6560528579 65.6583206744 65.6592394915 65.6640016851 65.6659957381 65.6706070433 65.6713484101 65.6732194121 65.6750746119 65.6757928093 65.6776277606 65.6794525522 65.6812720522 65.6819802483 65.6837998013 65.6856233108 65.6874546993 65.6892973791 65.6900208707 65.6918829766 65.6937601716 65.6956533422 65.6964004662 65.6983159319 65.7002438209 65.7021815704 65.7041255335 65.7048936117 65.7068374896 65.7087725367 65.7106915182 65.7114464214 65.7133292286 65.7151732175 65.7169685701 65.7187049739 65.7193777556 65.7210127489 65.7225614257 65.7240130976 65.7245633227 65.7258613123 65.7270363461 65.7280789473 65.728980071 65.7293000586 65.7299887902 65.7305162227 65.7308754602 65.730974232 65.7310820686 65.7309876576 65.7309081877 65.7255915508 65.7249415355 65.7190547237 65.7184189458 65.7169864802 65.7101177838 65.7089277411 65.7018564848 65.7051550638 65.6973101187 65.6959516867 65.6884754343 65.6869107703 65.6885677361 65.6869488738 65.6797137852 65.6779715875 65.6763032431 65.6720513114 65.6704017244 65.6679271965 65.6658649697 65.669242073 65.6678844828 65.6665702637 65.6651970491 65.6660787537 65.6651385313 65.6635289902 65.6570948773 65.6553393217 65.6537050591 65.6522168145 65.6533761545 65.6520769682 65.6507942938 65.6494372426 65.6479286906 65.6430194926 65.6409873588 65.6387868841 65.6353784561 65.6328976526 65.6305910667 65.6266222138 65.6231883773 65.6222131915 65.6214214008 65.6207318203 65.6200525048 65.6192925911 65.6183704089 65.6172202108 65.6174074794 65.6157243193 65.6112622251 65.6091564045 65.6010769539 65.5992844031 65.5976287022 65.5961931531 65.5908848802 65.5902398095 65.5898111964 65.589565288 65.5889979092 65.5889469552 65.587953386 65.5879643884 65.5879481974 65.587876461 65.5877258399 65.5874794743 65.5871280236 65.586731308 65.586146884 65.5854795122 65.5829077906 65.5823497215 65.5817895714 65.5812542687 65.5807695928 65.5803573188 65.5800327524 65.5795994902 65.5803586684
65.5665013145 65.5665412617 65.5666251609 65.5663883493 65.5665099779 65.566654054 65.5668121969 65.5669744734 65.5671306678 65.5687387382 65.5689431063 65.569101006 65.5697611113 65.5698216429 65.5698210558 65.5697646107 65.5696612874 65.569523788 65.5693686981 65.5692052984 65.5702891747 65.5702161871 65.5689735172 65.569157441 65.5694796474 65.5713852375 65.5721532958 65.5730505122 65.5765147602 65.5777227311 65.5788879185 65.5812801247 65.5822592323 65.5830862899 65.5832863371 65.583846225 65.5842959594 65.5846747315 65.5850361193 65.5854450283 65.5859674267 65.5878998987 65.5902037897 65.5916117346 65.5931547132 65.5952931728 65.5967358421 65.5980701249 65.6010139662 65.6019676831 65.6027993981 65.6035747793 65.6043813268 65.6053067504 65.6055589243 65.6067872156 65.6081560071 65.6121621751 65.6134898706 65.6192254512 65.6201991438 65.6212106115 65.6176660125 65.6188226473 65.6188025355 65.6204768378 65.6225126077 65.6263805857 65.6272096627 65.6286039276 65.6332837276 65.6347265864 65.6362292086 65.6395138775 65.6410810923 65.6457559606 65.6472503851 65.6519827127 65.6533407704 65.6560401703 65.6601800649 65.6612037402 65.6650020499 65.6669371544 65.667802603 65.6686762305 65.6705190058 65.6713731609 65.6731981311 65.6750161222 65.6758484805 65.6776485626 65.6794388725 65.6812241115 65.6820448737 65.6838303646 65.6856198317 65.6874170784 65.6892254344 65.6900641292 65.6918925751 65.6937358684 65.6955949375 65.6964614314 65.6983437209 65.7002383037 65.7021428141 65.7040538719 65.7049451509 65.706856807 65.7087602419 65.7106486327 65.7115249623 65.7133771273 65.7151918535 65.7169598391 65.7186713136 65.7194528316 65.7210616091 65.72258696 65.7240187564 65.7246577029 65.7259334 65.7270900812 65.7281187943 65.7290109804 65.7293831947 65.7300597289 65.730580365 65.730938596 65.7310533734 65.7311578788 65.7310723094 65.7309806074 65.7306023109 65.7303724717 65.7301001894 65.7292820115 65.7248632214 65.7241755207 65.7189990693 65.7167590991 65.7154423762 65.7091595121 65.7075056745 65.7011574644 65.6992536718 65.6955807811 65.6937441423 65.6919984972 65.6852877887 65.683501482 65.683192607 65.6773064646 65.6745463544 65.6721540365 65.6754563499 65.6739667359 65.6829870316 65.6834155597 65.6820979648 65.6704956979 65.6685361734 65.6621513977 65.6599955932 65.6580306706 65.6585991866 65.6570782157 65.6557694511 65.6545320241 65.6532065684 65.6516574132 65.6467491887 65.6444074794 65.6417993741 65.6380143803 65.6350572385 65.6323129871 65.6282039378 65.624878643 65.6238958551 65.6232034797 65.6226688388 65.6221430738 65.6214910898 65.6206063948 65.6209482779 65.61945783 65.6175904215 65.6129337693 65.6105048712 65.6079239024 65.6000996148 65.5981325341 65.5964248261 65.591304321 65.5906220701 65.5902276296 65.5937190327 65.5938918285 65.5905797914 65.5915706927 65.5918518844 65.5920612124 65.5921597041 65.5921190289 65.5919206007 65.5915551657 65.5890004676 65.5883799741 65.5876493818 65.583669318 65.583057768 65.5824384067 65.5818386776 65.5812873084 65.5808119543 65.5810833022 65.5807831924 65.5806304972
65.5665835545 65.5666332264 65.5667475747 65.5669177672 65.5667643275 65.5669487585 65.5671433811 65.5673366834 65.5688469892 65.5691201192 65.5693487298 65.5695252738 65.5702152727 65.5702817069 65.5702764579 65.5702014697 65.5700618545 65.5698668328 65.5696315376 65.5693797343 65.5701638149 65.5699484416 65.5698983526 65.5700853121 65.5705492843 65.5711791309 65.5721203294 65.5753285435 65.5767699819 65.5781956542 65.5795413757 65.5820310128 65.5831012459 65.5839681216 65.5846287916 65.5846820858 65.5850207679 65.5852530577 65.5854638526 65.5857621941 65.5862564758 65.588074526 65.5893672341 65.5921593289 65.5940309827 65.5964131902 65.5981041269 65.5996023687 65.6024553458 65.6033477009 65.6040564757 65.6047031597 65.6054448554 65.6064245125 65.6107383989 65.6126249333 65.6169152041 65.6187133772 65.6201305764 65.621200596 65.622114395 65.6230316816 65.6242632852 65.6257534588 65.6278332884 65.6281623705 65.6297837113 65.6292217285 65.6322965155 65.6338846569 65.635944508 65.6398825366 65.6416195883 65.6433296061 65.6464912175 65.6480386163 65.652078572 65.6535087852 65.6572245828 65.6606591538 65.662714513 65.6637787347 65.6648245718 65.6666615784 65.6676429873 65.668635695 65.6704144638 65.6713974117 65.6731742463 65.6749506158 65.6759128633 65.6776729089 65.6794236355 65.6811695291 65.6821183697 65.6838647432 65.6856151755 65.6873733077 65.6891423464 65.6901122436 65.6919022007 65.6937068094 65.69552701 65.6965296671 65.6983741933 65.7002309835 65.7020978501 65.7039716631 65.7050037588 65.7068790975 65.7087469902 65.7106010172 65.7116163393 65.713434192 65.715216241 65.7169536976 65.7186373354 65.7195435673 65.7211232183 65.7226226854 65.7240324115 65.7247730774 65.7260240957 65.7271605037 65.7281738899 65.7290562078 65.7294885473 65.7301517374 65.7306650325 65.7310223422 65.7311555805 65.7312566315 65.7311801268 65.7310741029 65.7307161435 65.7304540722 65.730138393 65.7293617608 65.7288509536 65.7282697584 65.726959989 65.7229709926 65.7184583307 65.7171098251 65.7119087257 65.7102645839 65.7069717762 65.7049380996 65.7028051618 65.6972814549 65.6947907698 65.6928149586 65.6888703742 65.6929472657 65.6907204106 65.6933495243 65.6905644935 65.6884563131 65.6866837483 65.6870575919 65.6858848775 65.68447614 65.6827804781 65.6799437326 65.6728070947 65.6694589707 65.6608840644 65.6592018872 65.657984483 65.6570022353 65.6559573761 65.6545881181 65.6498799357 65.6472679629 65.6441932031 65.6398882586 65.6362397826 65.6311187763 65.628447216 65.6252286604 65.6242631591 65.6238058027 65.6236308455 65.6234811993 65.6231380294 65.6238338762 65.6228009549 65.6212680151 65.6192282751 65.6143560862 65.6115242924 65.6084432755 65.6052636885 65.5979640941 65.5958375285 65.5943288784 65.5932645021 65.5928412169 65.5929697306 65.5934791538 65.5915376664 65.5920771709 65.5925486132 65.5928935483 65.5930759079 65.5930750354 65.5928809083 65.5924915291 65.5898300732 65.589149436 65.5883427981 65.5874304747 65.5836533233 65.5829334998 65.5822191704 65.5815445841 65.5815677469 65.5810107643 65.5806323001 65.580459359
65.5666088923 65.5666849315 65.5667089222 65.5669487773 65.5674672016 65.5678406382 65.5682932494 65.5686469621 65.5689615938 65.5694769815 65.5697347627 65.5699317192 65.5706515955 65.5707192071 65.5707004642 65.5705930486 65.5703968993 65.5701162375 65.5697635119 65.5693656079 65.5698137832 65.5693687902 65.5691724346 65.5693117535 65.5698457375 65.570753442 65.5718463639 65.5751378527 65.5768815338 65.5785646153 65.5801137043 65.5827054777 65.5838575097 65.5847375155 65.5853371086 65.5856633269 65.5854340042 65.5854152062 65.5853728702 65.5854881417 65.5859379062 65.5868222069 65.5904321747 65.5922927697 65.5965837351 65.5988303161 65.6025670652 65.6008816886 65.6035417219 65.6042398376 65.6046668195 65.605040973 65.6056427562 65.6067039479 65.6109676732 65.6134135616 65.6178785223 65.6199813662 65.6215214434 65.622409449 65.623068162 65.6238458568 65.6251062551 65.6269275597 65.6310412801 65.6329686582 65.6344931413 65.6349517801 65.6358131121 65.6392556764 65.6395071278 65.641496738 65.6432863846 65.6467680986 65.648463964 65.6512149357 65.6544786753 65.6559548534 65.6589253054 65.6602741491 65.6622317829 65.6634250913 65.6645892938 65.6663337054 65.6674450215 65.6685719266 65.670293143 65.6714199351 65.6731488435 65.6748801256 65.6759855384 65.6777008552 65.6794073674 65.6811092961 65.6821993163 65.6839019896 65.6856088946 65.6873234638 65.689048734 65.6901634611 65.6919106842 65.6936724583 65.6954496959 65.6966030032 65.6984058954 65.700221189 65.7020468376 65.7038799234 65.7050682894 65.7069041578 65.7087335581 65.7105504357 65.7117203455 65.7135012783 65.7152483037 65.7169531057 65.7186069666 65.7196522834 65.721200951 65.7226729513 65.7240592723 65.7249133614 65.7261382513 65.7272532804 65.7282505648 65.7291225726 65.7296222944 65.7302715969 65.7307774356 65.7311341498 65.7312881917 65.7313859152 65.7313181774 65.7311954763 65.7308548426 65.7305551175 65.7301884316 65.7294484249 65.7288714073 65.728205602 65.7269530929 65.7260015584 65.7227599631 65.7214754701 65.7175553341 65.7148273018 65.7131046683 65.7085557817 65.70631472 65.703863524 65.7066911861 65.7020914585 65.7015877916 65.7033606391 65.7015550563 65.6990759824 65.693014841 65.6903153651 65.6897014613 65.6886786464 65.6880338615 65.6873794443 65.6852622826 65.6819595747 65.6744505039 65.6699595248 65.6614378042 65.6594922184 65.6584926133 65.6580617602 65.6576462304 65.6567597661 65.6524820979 65.6595609724 65.6507098672 65.6463775633 65.6365714104 65.6341332014 65.6261479193 65.6242007197 65.6232743365 65.6232140035 65.6236397797 65.6241167496 65.6254415055 65.6252579318 65.624429521 65.6229172503 65.6207268322 65.6156269713 65.6123391341 65.6086661451 65.6047815548 65.5972734231 65.5947150582 65.5926220253 65.5913860706 65.5910691852 65.5915381677 65.5930196624 65.5914373035 65.5923165619 65.5930598363 65.5936011405 65.593910391 65.5939782483 65.5938063504 65.5934022075 65.5906313528 65.5898867274 65.5889941461 65.5879916048 65.5869166365 65.5857465041 65.5843329927 65.5831433516 65.5813532324 65.580626213 65.5806282161 65.5803830481
65.5663307964 65.5664283455 65.5666893675 65.5672917229 65.5678281436 65.5683873145 65.5689254245 65.5689177721 65.5692894367 65.56959755 65.5701116533 65.5703296772 65.5710810779 65.5711478722 65.5711117725 65.5709655583 65.5707029503 65.5703216428 65.5698295838 65.569255545 65.5693213895 65.568636306 65.568246185 65.568328633 65.5689515895 65.5700705903 65.5728270561 65.5748845577 65.5769553831 65.5789081833 65.5806625349 65.5833526856 65.5845714984 65.5854400741 65.5859411383 65.5860723845 65.5858688671 65.5852449122 65.584853709 65.584719638 65.5851186297 65.586183006 65.5897799303 65.593866021 65.5968548257 65.5995332782 65.6035217384 65.6050035168 65.6058282325 65.6060507221 65.6046520931 65.6045889007 65.6049761363 65.6061793648 65.6104886891 65.6153373097 65.6185377969 65.6209374964 65.622347581 65.6228506577 65.6238022956 65.6242920691 65.6248396438 65.630737742 65.6338514648 65.6339038657 65.6353157775 65.6383312719 65.6401239624 65.642317556 65.6448721792 65.6455589825 65.6480423427 65.6492854306 65.6499628458 65.6531325454 65.6551510833 65.6566361388 65.6583009384 65.6597494623 65.6616337672 65.662980559 65.6642763155 65.6659449827 65.6672023914 65.6684809447 65.6701584205 65.6714404277 65.6731240955 65.6748085512 65.6760650835 65.6777322269 65.6793909544 65.6810455208 65.6822845833 65.6839403637 65.6856003986 65.6872681285 65.6889466568 65.6902146281 65.6919162698 65.6936323325 65.6953640177 65.6966772687 65.6984363992 65.7002080223 65.7019904638 65.703781266 65.7051363251 65.7069314457 65.7087211244 65.7104999902 65.7118353674 65.7135789421 65.7152904535 65.7169622914 65.7185864259 65.7197811752 65.7212988934 65.722743458 65.7241066558 65.7250826692 65.7262817252 65.7273756005 65.7283571522 65.7292194296 65.7297920032 65.7304278432 65.7309267765 65.7312836779 65.73146051 65.7315553805 65.7314955136 65.7313537265 65.7310245807 65.730679805 65.7302525373 65.7295378294 65.7288849787 65.7281129587 65.7269066198 65.7258576312 65.7245952522 65.7234087835 65.7215577879 65.7179734321 65.7196684332 65.7184820447 65.7153569291 65.7171698491 65.7140942507 65.7112031396 65.7090191259 65.7047587895 65.7032984207 65.7059917162 65.7011761586 65.690065261 65.6900009606 65.6894263458 65.6885214798 65.688752432 65.687121545 65.6834006985 65.6778031135 65.6690276386 65.6603095223 65.6579238691 65.6572749469 65.657751517 65.6618284441 65.6641210817 65.6637737335 65.6616051078 65.6522851574 65.6470428758 65.6408837837 65.6325672278 65.6245018067 65.6220434895 65.6211622778 65.621654223 65.6229113271 65.6250528634 65.6261516 65.6264931264 65.6259538404 65.6245147098 65.6222031501 65.6168805781 65.6131282143 65.6088318359 65.6041828033 65.5994946009 65.5930976272 65.5905031806 65.5890524845 65.5888641105 65.5900236245 65.5917274802 65.591145211 65.5924306189 65.593493351 65.5942629758 65.5947197347 65.5948692183 65.5947272206 65.5943123508 65.5914254309 65.5906167141 65.5896567528 65.5885860978 65.5873566164 65.586844417 65.5852539725 65.5836338763 65.5821034885 65.5805114824 65.5797480586 65.5794600826
65.5660374625 65.5661584545 65.5665898245 65.5671573892 65.5678163356 65.5684891143 65.569122971 65.5702126048 65.5708024963 65.5712985919 65.5716948415 65.5719855936 65.5715161843 65.5715834287 65.5715321708 65.5713503145 65.5710251825 65.5705472887 65.5699187145 65.5691682002 65.5688863179 65.5679534617 65.5673857896 65.5674112924 65.568133946 65.5694749897 65.5724244044 65.574753665 65.5771254351 65.5793202867 65.5812543007 65.5840277258 65.5852948317 65.5861363343 65.5865232643 65.5864400951 65.5859173911 65.585087365 65.5846660604 65.5840515778 65.5845593358 65.5863704805 65.589397339 65.5952309027 65.5972020666 65.6002748534 65.604497059 65.6074005956 65.6089231901 65.607677692 65.6053397677 65.6042198112 65.604387536 65.6064869921 65.6103671946 65.6146704757 65.6191737292 65.6217891659 65.6228941117 65.6244181402 65.6229382815 65.6232611504 65.6260827283 65.6308859027 65.6353623838 65.6376781059 65.6377027167 65.6373620998 65.63834697 65.6429269074 65.6483099592 65.6494432116 65.6484648199 65.6488264267 65.6510051941 65.6548021597 65.6545081067 65.6553778695 65.6576870275 65.6589310107 65.6609152869 65.6623809393 65.6638799184 65.6654818302 65.6669040865 65.6683695619 65.670031489 65.6714609809 65.6730928877 65.6747374668 65.6761584972 65.6777734554 65.6793690521 65.6809719617 65.6823731675 65.6839877897 65.6855892709 65.6871979092 65.6888350527 65.6902706046 65.6919238837 65.6935792356 65.6952617192 65.6967502687 65.6984735603 65.7001906046 65.7019185194 65.703675212 65.7052144658 65.7069674523 65.7087036728 65.7104439285 65.7119631657 65.7136784725 65.7153448482 65.716975862 65.7185811035 65.7199419105 65.721427024 65.7228341917 65.7241770346 65.7252901178 65.7264684654 65.7275341491 65.7284975668 65.7293587046 65.7300118225 65.7306312928 65.7311205212 65.7314822939 65.7316866006 65.7317764141 65.7317208793 65.7315622329 65.7312378978 65.7308315043 65.7303274822 65.7296268128 65.728875791 65.7279747425 65.7267583523 65.7257561691 65.7239926245 65.7245439242 65.726663748 65.7216544814 65.7205045345 65.7211689399 65.7240415666 65.7239325087 65.7163400688 65.7090142643 65.707748946 65.7095480211 65.7111662198 65.7085613754 65.7023006913 65.6933721103 65.6878317162 65.6875865982 65.6914483299 65.6896025831 65.6888492798 65.6848727047 65.6774870376 65.6690264486 65.6610732853 65.6565539321 65.6562677329 65.6590459765 65.6664415291 65.6707026345 65.6697795369 65.6638214171 65.6540245467 65.6479340167 65.6462516074 65.6316260707 65.6248041582 65.6205330126 65.6193374526 65.6209247067 65.6224024021 65.624942837 65.6268555118 65.627757847 65.6275319973 65.6261899622 65.623788537 65.6182712379 65.614105794 65.6092445764 65.6038885155 65.5985017338 65.5917018736 65.5885821972 65.5868934608 65.5869047497 65.58830894 65.5906139812 65.5909253652 65.5926161099 65.5939903453 65.5949777335 65.5955720323 65.5957953072 65.5956780026 65.5952499187 65.5957260332 65.5947183307 65.5934468116 65.5919285362 65.5901822895 65.5871407791 65.5853196328 65.5834304065 65.581613756 65.5800718841 65.5789388568 65.5786048197
65.5658688454 65.5660362274 65.5664877181 65.5671515977 65.5679112922 65.5686746707 65.5693832319 65.5700072665 65.5711544045 65.5716869868 65.5721111015 65.572422083 65.5726128824 65.5720413765 65.5719834454 65.5717792551 65.5714109373 65.5708629478 65.570131915 65.5692453678 65.5687439628 65.5676220873 65.5669207275 65.5669214051 65.5678584321 65.5695596914 65.5727058427 65.5755089464 65.577528039 65.5798930022 65.582768339 65.586149559 65.586082422 65.5868974035 65.5871887749 65.5869285453 65.5861425996 65.584983742 65.5840998281 65.5831747291 65.5836918703 65.5866877218 65.5909418697 65.5957003682 65.5999449094 65.6049213026 65.6074342346 65.6084536723 65.6095734706 65.6077127558 65.6051504452 65.6030498226 65.603031997 65.6055049048 65.6101055242 65.6151768928 65.6201279731 65.6227997061 65.6235222673 65.6239197191 65.6214261311 65.6209650909 65.6244383439 65.6305064541 65.6358313074 65.6408252462 65.6391842783 65.6355220343 65.6360260557 65.6422955278 65.6478569111 65.6485302463 65.6458802403 65.646131509 65.6510515625 65.6540117464 65.6527145126 65.6544308333 65.6574497054 65.6577460657 65.6603979508 65.6614240962 65.6637270784 65.6648772679 65.6663472094 65.668329589 65.6701918632 65.671486929 65.6728165807 65.6745818355 65.6764698054 65.6779793326 65.679192064 65.6806824796 65.682541199 65.6842783458 65.6855832756 65.6868794449 65.6886235997 65.6905375628 65.6920994253 65.6933607776 65.6949231775 65.6969025245 65.6987703524 65.7001756197 65.7015770042 65.7034689606 65.7055276037 65.7071799662 65.7085093519 65.7101599619 65.7121988692 65.7140453613 65.715393987 65.7167486085 65.7185260808 65.7203395568 65.721700486 65.7227823181 65.7241131308 65.7256271738 65.7268513943 65.727679669 65.7285222233 65.7295346938 65.7303862417 65.7308892913 65.7312693791 65.7317094003 65.7320149674 65.7320328319 65.7319300436 65.7318479463 65.731555802 65.730950753 65.730316905 65.7298122917 65.7287549804 65.7278688784 65.7264274892 65.7258540722 65.7242313377 65.7226085018 65.7253813582 65.7231007618 65.7165121142 65.7163916312 65.7222923426 65.723380413 65.7160921494 65.7048837938 65.70402764 65.712054461 65.7175202058 65.7097604742 65.7017952962 65.6901191634 65.682996631 65.684108843 65.6901852858 65.6908781769 65.6911104001 65.6871304607 65.6787884211 65.6686159209 65.6589528433 65.6534992187 65.6535585853 65.6591807905 65.6663362139 65.6721552958 65.6723023816 65.6715258745 65.6671520078 65.6570682384 65.6475795465 65.6362979393 65.6259330724 65.6184232852 65.6171695233 65.6196859481 65.6220416676 65.6253996045 65.6279736993 65.6293254594 65.6293466705 65.6280800141 65.631632151 65.6223928449 65.6154834129 65.6102168554 65.606039737 65.5994899987 65.592034572 65.5879897042 65.585756804 65.5857556011 65.5874817904 65.5902419329 65.5910966699 65.5930989517 65.5947059113 65.5958499958 65.5965374618 65.5968042436 65.5966927206 65.5974269277 65.5966616457 65.5955949067 65.594247423 65.5926349823 65.5894331734 65.5876242599 65.5856334425 65.5835424673 65.5815043078 65.5797528744 65.578575161 65.5781459501
65.5659797933 65.566165576 65.5666805621 65.5673747756 65.5681882257 65.5689975947 65.5697433041 65.5703971673 65.5715604165 65.5721142002 65.5725574269 65.5728855579 65.5730911117 65.5731628434 65.5724837622 65.5722791323 65.5719002908 65.5713287646 65.5705585195 65.5696164495 65.5691068862 65.5679205929 65.5671812528 65.5672407335 65.5682243971 65.5700169509 65.5733121314 65.57619746 65.578983387 65.5815166422 65.5836459616 65.5871579576 65.588410063 65.5877952534 65.588047311 65.5877088619 65.5868076557 65.5855136514 65.5846531798 65.5836904652 65.5846417378 65.5876117706 65.5920789727 65.5970249363 65.6026640208 65.6064486344 65.6090041089 65.6099394511 65.6094645183 65.6089050691 65.6061338787 65.6039778364 65.6041824583 65.6075033065 65.6131122441 65.6196805003 65.6252679548 65.6277688029 65.6275530696 65.6251865479 65.6227992836 65.6223253487 65.6260240168 65.6347706607 65.6419957574 65.6435236193 65.640804928 65.6373239066 65.6381565527 65.6442159183 65.6509352299 65.6511098803 65.6475282344 65.6481384444 65.6538729402 65.6559567958 65.6542530661 65.6562499403 65.6583305022 65.6590200508 65.6606362578 65.6620215898 65.6637415319 65.6652521581 65.6667326411 65.6683314357 65.6700226024 65.6714708784 65.6730438445 65.6746959441 65.6762315097 65.677815932 65.6793368916 65.6809083857 65.6824220663 65.684043984 65.6855848041 65.6871302569 65.6887722682 65.6903250756 65.6919511749 65.6935310509 65.6951817781 65.6967916392 65.6985273071 65.7001827891 65.7018469487 65.7036151446 65.7052827385 65.7070091771 65.7086703577 65.710386788 65.7120345343 65.7137625244 65.7153692959 65.7169482129 65.7185751528 65.7200495533 65.7215072199 65.7228560618 65.7241921016 65.7254033409 65.7265832728 65.7276058811 65.7285467614 65.7294312562 65.7301362439 65.730733594 65.7312041512 65.7315796466 65.7318071226 65.7318844236 65.731822531 65.7316709765 65.7313519515 65.7308961299 65.7303475009 65.7296805583 65.7288445485 65.7279158373 65.7278112232 65.72770105 65.7273212616 65.7250381452 65.7296696327 65.7284924416 65.720318599 65.7196385983 65.7280783709 65.7302145165 65.7200131223 65.7090867418 65.7078143425 65.7156989251 65.7229874284 65.723222959 65.710816642 65.6935594549 65.6859402217 65.6871028189 65.6931921442 65.6998328119 65.7020778487 65.6984253566 65.6886847721 65.6766952926 65.664051395 65.6563087682 65.656000502 65.6617071065 65.6693932228 65.6732322842 65.6761647944 65.6755702959 65.6710600504 65.6630620021 65.6509230917 65.6391584487 65.6282575414 65.6208777486 65.6185457846 65.6211557579 65.6233975214 65.6270870855 65.629937912 65.6314715383 65.6315771542 65.6365573479 65.6342097508 65.6245494681 65.6198868413 65.6141329841 65.6077019917 65.6009477998 65.5931309184 65.5888661715 65.5865155347 65.5863938139 65.5882085528 65.5911182189 65.5919532923 65.5940813491 65.5957755471 65.5969696238 65.5976757389 65.5979364012 65.5989541134 65.5984815645 65.5976717062 65.5965553747 65.5951555265 65.5934891448 65.5902450561 65.5883737359 65.5863104915 65.5841330507 65.5819944791 65.5801927482 65.5788879278 65.5784211895
65.5665032515 65.5666959194 65.5672124464 65.5679420648 65.5686877791 65.5694854598 65.5702216815 65.5708704927 65.5714227088 65.5725862875 65.5730390282 65.5733811979 65.57360456 65.5736974724 65.5736446258 65.572865953 65.572516543 65.5719789813 65.5712487702 65.5703538743 65.5700788541 65.5689853447 65.5683275693 65.5685617891 65.5695447128 65.5712846363 65.5746547086 65.5774253348 65.5801198669 65.5851269309 65.5874377428 65.5883467343 65.5896241426 65.5914011421 65.5914918654 65.5908924827 65.5880904789 65.5869188088 65.5867451065 65.5867486007 65.5876631956 65.5905562496 65.5948021256 65.5994884589 65.6049580922 65.608575207 65.6109874706 65.6120495914 65.6147648693 65.6116375148 65.6093319727 65.6082096366 65.6085767204 65.6117671611 65.6168831863 65.6222392679 65.6273839748 65.6305125041 65.630557921 65.6316411551 65.6293528012 65.6294310404 65.6334647093 65.6407943317 65.6458281952 65.6473342455 65.6458589511 65.6439886854 65.6470502776 65.6518310909 65.6552991428 65.6559704468 65.6548628351 65.6564058975 65.6593580019 65.6597817438 65.6598958446 65.6598743744 65.6614319738 65.6630235093 65.6628410056 65.6640762192 65.6641197937 65.6657645622 65.6670880654 65.6684360692 65.6701016531 65.6714486584 65.6731142061 65.6747797488 65.6760999445 65.6777465003 65.6793840166 65.6810183174 65.6823201689 65.6839565949 65.6855960976 65.6872432912 65.6889025711 65.6902352712 65.6919176412 65.6936135728 65.695326023 65.6967070276 65.6984485532 65.7002013608 65.7019652042 65.7037391947 65.7051652162 65.7069436057 65.7087161727 65.7104795895 65.7118856572 65.7136148129 65.7153114004 65.7169695114 65.7185825584 65.7198413163 65.7213466149 65.7227796254 65.7241339139 65.7251622914 65.7263514845 65.7274365503 65.7284118201 65.7292710087 65.7298748913 65.7305053062 65.7310014939 65.7313590611 65.7315459495 65.7316396854 65.731582554 65.7314325442 65.7311058782 65.7307392293 65.7302831912 65.7295737833 65.7319693685 65.7314998318 65.7344899261 65.7340968993 65.7332616494 65.7360915312 65.7374908565 65.7401890705 65.7362488867 65.7349467187 65.7386388173 65.7394103465 65.7358912172 65.7273794416 65.722062855 65.7269836855 65.7328797623 65.7319101879 65.7232041357 65.7094046059 65.7012993135 65.7015286571 65.7101048752 65.7071644696 65.7087158504 65.7046062754 65.6971263562 65.6857305896 65.6742724621 65.6669624052 65.6663147524 65.6699893073 65.6765445202 65.6860505787 65.6818332958 65.6810212663 65.6765498214 65.6688668432 65.6571307848 65.6459942383 65.6356659499 65.6285290345 65.6263003081 65.6267315577 65.6270581063 65.6304345149 65.6397317033 65.6421331241 65.6427549182 65.6397529244 65.6372999219 65.6360799837 65.6307822965 65.6168923533 65.6106622857 65.6041717776 65.5961696825 65.5920307769 65.5896849639 65.5891983536 65.5908103619 65.5934857699 65.593663033 65.5956795543 65.5972784055 65.5983904277 65.59902376 65.6003179519 65.6001575025 65.5996269167 65.5987663834 65.5976088467 65.5961805349 65.5929101388 65.5912667315 65.5894176198 65.5873948318 65.5852701421 65.5833095849 65.5814594787 65.5801683401 65.5796864573
65.5674389106 65.5676232555 65.5680937403 65.5687533818 65.5694928023 65.570129929 65.5708124159 65.5714235782 65.5719533616 65.573101534 65.5735555322 65.5739094909 65.5741541716 65.5742780506 65.5742672726 65.5741061138 65.5753137906 65.5747114871 65.5738940687 65.5729026295 65.5718758121 65.5709390664 65.5704196847 65.5707426556 65.5716635973 65.573227251 65.5765905958 65.5790924426 65.5840498904 65.5866161687 65.5888340523 65.5906291176 65.5950284648 65.5957819347 65.595840003 65.5929015815 65.592965359 65.5916566718 65.5906042905 65.5914026047 65.5924457702 65.5950645273 65.5987828648 65.6029026403 65.6068094415 65.6113071574 65.6175913392 65.6186304112 65.6183716589 65.6170935661 65.6191311044 65.6176789527 65.6185109994 65.6218976392 65.6269349628 65.6320671351 65.6406700401 65.6434050472 65.6400111181 65.6418702359 65.6415049811 65.6421231184 65.6456161096 65.6478864654 65.6516734946 65.6533032562 65.6557904985 65.6553690091 65.6576187007 65.6605764539 65.6631894229 65.6632614837 65.6633951938 65.6651840511 65.6664809341 65.6690017676 65.6660850253 65.667638655 65.6692519957 65.6696355593 65.6677941226 65.6660036859 65.6701286588 65.6686096005 65.6673505891 65.6685377258 65.6702387641 65.6714285905 65.6731384047 65.6748504389 65.6760176282 65.6777133893 65.6794005629 65.6810832676 65.6822342124 65.6839177939 65.6856056956 65.6873012664 65.6890074765 65.6901847928 65.6919134463 65.6936566408 65.6954152857 65.6966338407 65.6984187783 65.7002162239 65.7020241916 65.7038398528 65.7050961029 65.7069151762 65.7087282418 65.7105293994 65.7117666095 65.7135320006 65.7152643217 65.7169554484 65.718596867 65.7197028853 65.7212386488 65.7226992353 65.7240758591 65.7249794579 65.7261935179 65.7272997162 65.72829039 65.7291582189 65.7296874743 65.7303311124 65.7308339976 65.7311906521 65.7313538792 65.7314503517 65.7313860068 65.7312557003 65.7309206841 65.7306034396 65.7357315575 65.7413926815 65.7351817386 65.7416176237 65.74843789 65.7494392829 65.7490247177 65.7487379083 65.7569872658 65.7551206988 65.754294776 65.7531859096 65.7545210802 65.7581085758 65.7545485259 65.7498163265 65.7471064339 65.7492624779 65.7468333112 65.7452579104 65.7388612081 65.7389057912 65.7319539143 65.731425684 65.7342503415 65.7326664017 65.744491723 65.7414182418 65.7238712912 65.7124953297 65.7008187419 65.6929002239 65.6912976812 65.6967484122 65.6912388009 65.6956683158 65.6977130438 65.6965719969 65.6836506176 65.6747125994 65.6657810508 65.6560397469 65.647063824 65.6406857637 65.6382150789 65.636865808 65.6400763296 65.6439711807 65.6451782485 65.6553013443 65.6560963846 65.6550147305 65.643636588 65.6397196098 65.6346139074 65.6285104331 65.6146905044 65.608829908 65.6008363639 65.5971187322 65.5949241897 65.5942094704 65.5954553534 65.5976981545 65.6001292388 65.6024576786 65.6043328181 65.6056501942 65.6016199958 65.6017411853 65.6014759497 65.6008646488 65.5999450034 65.5987509353 65.5973125557 65.5940661003 65.5924763401 65.59072277 65.5888400406 65.587095186 65.585184734 65.583518337 65.5823451074 65.58187803
65.5686768191 65.5688382896 65.5692261021 65.5697686138 65.5703849252 65.5710115821 65.5714865358 65.5720374397 65.5725292203 65.5729542261 65.5741011838 65.5744662712 65.5747359068 65.5748990927 65.5749443486 65.5748603826 65.5762627187 65.5758309058 65.5752381128 65.5745275655 65.5738260299 65.5731996257 65.5729089067 65.5733984543 65.5742187794 65.5755421756 65.5788363465 65.5810009366 65.5859234627 65.5882762233 65.5903849049 65.5921644646 65.5935457651 65.5977673793 65.5981458295 65.5979682772 65.5973411243 65.5976534771 65.5972599525 65.596908859 65.5980507518 65.6003228259 65.603423555 65.6068920513 65.6102888368 65.6145532955 65.6228858813 65.6223911344 65.6287574542 65.6279660356 65.6269883699 65.6266935463 65.6278142686 65.6306396403 65.6388440375 65.643320372 65.646888209 65.6498637729 65.6503745934 65.6541482864 65.656948673 65.653590681 65.656262929 65.6596513803 65.6624273122 65.6644204179 65.6653579124 65.6661245292 65.6687503011 65.6707410539 65.6725644178 65.6765760097 65.6731749843 65.6795782707 65.6803862472 65.6785603882 65.6789748213 65.6803216691 65.6817808773 65.6818524679 65.6778733672 65.6789356419 65.6796206773 65.6757171287 65.6773744404 65.6780166979 65.6747772298 65.6765367377 65.6731638481 65.6749219535 65.6759419083 65.677684012 65.6794170025 65.6811452614 65.6821510075 65.6838798501 65.6856128109 65.68735345 65.6891049087 65.6901331524 65.6919059291 65.6936933016 65.6954962027 65.6965595016 65.698387246 65.7002272874 65.7020775011 65.7039348497 65.7050297807 65.7068891287 65.7087414079 65.7105803549 65.7116577859 65.713460626 65.7152284147 65.7169525646 65.7186240656 65.7195861249 65.7211531261 65.7226413686 65.7240415249 65.7248277177 65.7260680508 65.7271957031 65.7282024832 65.7290805584 65.7295398995 65.7301973759 65.7307075738 65.7310645794 65.7312061344 65.7313057779 65.7403408168 65.7403939153 65.7498836554 65.7501494854 65.7503055042 65.7609110527 65.7619863084 65.7626939527 65.7742841173 65.7756499483 65.776136699 65.776503574 65.7772971403 65.7853013409 65.7853231755 65.7746770164 65.7836492117 65.7791143943 65.7770096073 65.7743217736 65.7712733486 65.7710316458 65.7723660602 65.769746881 65.7704047671 65.7642238231 65.7593671152 65.7728546602 65.7662390984 65.7606892404 65.7613870006 65.75759414 65.7505708761 65.7409586672 65.7232371869 65.7168934323 65.7162187555 65.7178073239 65.7213429173 65.7245825979 65.7077106626 65.7141115018 65.6921439792 65.6837060365 65.6759764124 65.6678441805 65.6604456796 65.6550030416 65.6523568378 65.6535958114 65.6570827761 65.6579110252 65.6603601537 65.6616784867 65.6615385543 65.6505457764 65.6477238271 65.6437887562 65.6389093063 65.6333034683 65.6193214961 65.6142518079 65.6064133049 65.6032670241 65.6013131867 65.6002185593 65.6009050686 65.6023914517 65.6040309161 65.6056785513 65.607010025 65.6079145383 65.6033647911 65.6033014279 65.6028981386 65.6021854677 65.6011964412 65.5999648708 65.5966912563 65.5953224587 65.5938161551 65.5922021343 65.5907860596 65.5890891421 65.5874734863 65.5860851488 65.5851030023 65.5846789612
65.5700358296 65.5701655449 65.5704555977 65.5708638878 65.5713410435 65.5718452123 65.5723461274 65.5734319645 65.5731310232 65.5735338062 65.5746661186 65.5750436185 65.575341641 65.5755499501 65.5756597476 65.5756644909 65.5755613695 65.5770223527 65.5766668349 65.5762466887 65.5768487103 65.5755491355 65.5754739074 65.5757486717 65.5768011484 65.5778852595 65.5810741438 65.5856207671 65.5878202841 65.5899878858 65.5920145405 65.5938082463 65.5952953294 65.5999330742 65.6006709019 65.6009850979 65.6023543277 65.6020791563 65.6019691693 65.6028640448 65.605920362 65.6079789793 65.6081403206 65.6110499469 65.6140276216 65.6246016816 65.627015853 65.6334171524 65.6343143988 65.6346634446 65.6348843385 65.6355011981 65.638554671 65.6436836345 65.6471056816 65.6506789137 65.653818478 65.6561553187 65.6661525964 65.6666329658 65.6688844416 65.6704578584 65.6728548728 65.6695323169 65.6716154198 65.6739276631 65.6757228259 65.6826177199 65.68434783 65.686392934 65.6883917873 65.6885512381 65.6899421963 65.6923293759 65.6930198412 65.6963813518 65.6973347737 65.6989006599 65.6986834701 65.6941735336 65.702186128 65.6963103178 65.6959242938 65.698144911 65.6914873142 65.6923694423 65.6941705873 65.6876648099 65.6895439943 65.6986925769 65.7005751464 65.6939570156 65.6957630569 65.7048158901 65.7066122628 65.7083869587 65.7018008495 65.7035949019 65.7126365465 65.7145137447 65.7080111141 65.7099413874 65.719095645 65.7212098503 65.7233993706 65.7168555938 65.7190563401 65.7287963078 65.7313202202 65.7244619061 65.7268914991 65.7373508915 65.7401722972 65.7326336257 65.7352008373 65.7466117889 65.7495805643 65.7525247471 65.743491657 65.7459413132 65.7588521366 65.7616134796 65.7510764187 65.7531940968 65.7671145516 65.7694112844 65.7714717266 65.7587735754 65.7600882661 65.7750589136 65.7763209944 65.7620307141 65.762622115 65.7779670923 65.7787809994 65.7795914553 65.7959543638 65.7962718983 65.798203082 65.8139414592 65.8003930028 65.8139422642 65.8159268835 65.815905511 65.8154301291 65.8131586194 65.8134109889 65.8115993124 65.8102738571 65.8144097285 65.8118600233 65.8090799742 65.8068578151 65.7949844 65.794664368 65.7912302573 65.7945207453 65.8099302791 65.805668353 65.8032844211 65.8035135198 65.8040642088 65.7796849238 65.7757397058 65.7696360175 65.7621945039 65.7548452713 65.7452198964 65.7396590356 65.7389766124 65.7394215295 65.7396539316 65.7385584518 65.7253164885 65.7202327054 65.6934558031 65.6867103044 65.6799544914 65.6817613485 65.6768408983 65.6677964285 65.668357115 65.6691198329 65.6704158628 65.6686578782 65.6686061564 65.6674519592 65.6552709734 65.6521198636 65.6480925885 65.6433678458 65.6381816628 65.6328225984 65.6196762534 65.6120733404 65.6094897288 65.6070797816 65.6063982608 65.6065584672 65.6102394002 65.6081579873 65.6091063702 65.6098673525 65.6052218114 65.6052409137 65.6049645037 65.604401298 65.6035711537 65.602501488 65.6012251538 65.5979601929 65.596627251 65.5979402663 65.5940536644 65.592584388 65.5911597634 65.589854227 65.5887630334 65.5879922872 65.5876272474
65.5713240863 65.5714215098 65.5716219867 65.5719098103 65.5722629851 65.5726582472 65.5730737914 65.5741272316 65.5746046294 65.5750467016 65.5744677248 65.5756314765 65.5759608194 65.5762170402 65.5763937209 65.5764883267 65.576503388 65.5796879073 65.5794006153 65.5790975585 65.5788410626 65.5787047938 65.578764924 65.578768268 65.5806263965 65.5816566939 65.5857034008 65.5875563704 65.5895699738 65.5916335009 65.593640069 65.5954955087 65.5971254972 65.602178952 65.6032695128 65.6040371721 65.6059196538 65.6062320116 65.6066288157 65.6099344237 65.6111607347 65.6129351338 65.6152104149 65.617850882 65.6241439115 65.6316133036 65.6359896187 65.6381754365 65.6398336159 65.6411042706 65.6422320095 65.6451055852 65.6467413845 65.6518601532 65.6547515083 65.6578723314 65.66090582 65.6713399121 65.6751873867 65.6766703239 65.6798412647 65.6818107795 65.6841125413 65.6866280882 65.6818872181 65.6839642885 65.6933850075 65.6945117269 65.69662936 65.6988440342 65.7010679387 65.7031997417 65.7106137707 65.7121900436 65.7137644719 65.7152859256 65.7213490758 65.7223193745 65.7232684606 65.71858059 65.7284615095 65.7218777916 65.7324773113 65.7246800729 65.7357840181 65.7273199238 65.729572141 65.7411454488 65.7321942207 65.7343195182 65.7363178889 65.7382117562 65.7385383201 65.740402954 65.742216231 65.7440071244 65.7553864335 65.7461598025 65.748061819 65.7500362976 65.7521144937 65.7524781526 65.7547645905 65.7572130562 65.7598475029 65.7721872936 65.7631731624 65.7663177732 65.7696901959 65.7732914698 65.7738286025 65.7777383482 65.7818531702 65.7861502981 65.8014776333 65.7912480243 65.7958917641 65.8006039667 65.8053372715 65.8059533777 65.8107256378 65.8154094897 65.8199501766 65.8388584184 65.8248650386 65.8290113605 65.8328498728 65.8363310405 65.836719343 65.8398428954 65.8425155657 65.8446969787 65.8652981052 65.8465374388 65.8479635443 65.8682142984 65.8493677939 65.8688295848 65.8506800827 65.8684049623 65.8515946736 65.8660269246 65.8656458877 65.8651873267 65.8597072779 65.8583438232 65.8568225429 65.8552238062 65.8461186389 65.8434231849 65.8404628705 65.8374097948 65.8344413574 65.8434843918 65.818512706 65.8228077811 65.8429124923 65.8386901861 65.8347699653 65.8315108268 65.8300928195 65.828125558 65.8219807734 65.794432178 65.7885438914 65.7822113753 65.7762052143 65.7669218001 65.7636981431 65.7586489162 65.7567526287 65.7545715698 65.7514516391 65.7469826373 65.7407832975 65.7218337089 65.7063975502 65.7002331156 65.6948549474 65.6906764231 65.6878859321 65.6808416417 65.6802876617 65.6800467332 65.6769249348 65.6756560133 65.6735456637 65.6602118879 65.6566514401 65.6524172769 65.6476894714 65.6427105176 65.6377657125 65.6331578568 65.6235077251 65.6208131994 65.6151412343 65.6148924163 65.614748421 65.6150943542 65.6157330862 65.6164704548 65.6171390004 65.6074437766 65.6071822515 65.6066875524 65.6059559735 65.6049983029 65.603836827 65.6004722147 65.6026169206 65.6010791312 65.5994662493 65.5955754513 65.5942732033 65.5930670179 65.5920126834 65.5911653625 65.5905729504 65.5902655083
65.5723866685 65.5724589658 65.5725962761 65.572801029 65.5730695106 65.5733907844 65.5737487972 65.5747852092 65.5752444128 65.5756837366 65.576085994 65.5763444729 65.5765825244 65.5768864748 65.5771266855 65.5790721783 65.5790679605 65.5807960734 65.5806591135 65.5805219785 65.580431929 65.5804365545 65.5805809978 65.58280477 65.5834910295 65.5844932089 65.587557586 65.5890740588 65.591047127 65.5931198589 65.5951888006 65.597162179 65.6040847754 65.6056792788 65.6069636851 65.6079774931 65.6109833103 65.6116913293 65.6124379402 65.6146333089 65.615855876 65.616814834 65.6243780465 65.6275581616 65.6308121137 65.6443545202 65.6460969566 65.6486537737 65.6507128482 65.6523911707 65.6538736766 65.6553682185 65.6563900899 65.6587036706 65.6613314571 65.6643906492 65.667628198 65.6798218521 65.6870935247 65.6895377175 65.6918079521 65.6918475176 65.6942388409 65.6968212861 65.6995672455 65.7019320821 65.7064602264 65.7132959677 65.7085280826 65.7110898038 65.7137441705 65.7164737183 65.724682753 65.7268475275 65.7290148258 65.7311952695 65.741639911 65.7398652123 65.7415624915 65.7524646944 65.7570680424 65.7597465021 65.7629889398 65.7652888544 65.7678661246 65.7694954266 65.7723539719 65.7836041958 65.7859889626 65.7774828423 65.7795527445 65.7906007869 65.7924752655 65.7836498261 65.7854199796 65.7964029829 65.798163883 65.8000202133 65.7912019593 65.7932347583 65.8045563802 65.8069355973 65.798371097 65.8011284001 65.8132674789 65.8166296783 65.8203973 65.8121976519 65.8164381705 65.8302876903 65.835360068 65.8271889132 65.8326441268 65.8482529838 65.8545115985 65.8610962256 65.8522894294 65.8588711007 65.8767301634 65.8838401153 65.8738271406 65.8805477137 65.8999377686 65.9068087802 65.91349706 65.9011203113 65.906888232 65.9273681603 65.9327652373 65.9181535968 65.9223513198 65.9429942197 65.9463973274 65.929482985 65.9312110091 65.9306258544 65.9315662456 65.9296634873 65.9292179792 65.9267881075 65.9234462358 65.9052908879 65.9036301837 65.912403701 65.8949793455 65.8924686785 65.8899172713 65.8872615986 65.8767114722 65.8729023488 65.8691997008 65.8655574471 65.8864556748 65.8758542683 65.8691542155 65.8735142924 65.8691188285 65.8648534198 65.860784567 65.8662951381 65.862446434 65.8581877181 65.8445035477 65.8123053735 65.8059442273 65.7997859352 65.7964625672 65.7916557637 65.7976314017 65.7949250097 65.7924020914 65.7894737414 65.7855598964 65.7802412044 65.7802566042 65.7414856831 65.7336669547 65.7296239292 65.7051182777 65.7029390993 65.7001393945 65.6958495174 65.6944226246 65.693200023 65.6874338584 65.6855674882 65.6829772665 65.6795167563 65.6611519088 65.6565760131 65.6516346108 65.6465658704 65.6416487814 65.6375527822 65.6310904242 65.6283794415 65.6265294771 65.6192251217 65.6188871502 65.6189140302 65.6191767154 65.6195381906 65.6198636572 65.6145726434 65.6144082229 65.6084273836 65.6075318306 65.6064430182 65.6053946716 65.6055236114 65.6040541315 65.602484673 65.6008710452 65.5969340453 65.5957163842 65.5946270646 65.5937115087 65.5930029306 65.5925166545 65.5922501935
65.5735503696 65.5736283801 65.5732981442 65.5734716206 65.5737093618 65.5740045321 65.5743432588 65.5753854384 65.575849179 65.5763011784 65.5767244866 65.5771052222 65.5783469834 65.5795033693 65.5797247163 65.5798637221 65.5799322339 65.5817427761 65.5816662637 65.5815786015 65.5815201647 65.5815336722 65.5816651993 65.5837212108 65.5844080076 65.5854446343 65.5887549939 65.5913273889 65.5935171137 65.5957998559 65.601191417 65.6037434011 65.6058542876 65.6076756379 65.6092022709 65.6104605703 65.6115000022 65.6144094129 65.6162729325 65.617123866 65.6182821166 65.619897563 65.6267901246 65.6298364974 65.6398475609 65.6475966178 65.6510642588 65.6527633473 65.6552355337 65.6572535436 65.6589586238 65.660544249 65.6622492953 65.6665099017 65.6727059485 65.6766661334 65.6825978382 65.6864508404 65.6942545253 65.6972161025 65.6998192669 65.7022641935 65.7027233102 65.7055773632 65.7088546285 65.7185028402 65.721639057 65.7240378485 65.7268018066 65.7295816285 65.7305702453 65.735747339 65.7389668268 65.7459147893 65.7492157251 65.7538121503 65.7564717982 65.7627281793 65.7733736456 65.7761347073 65.7742840228 65.7843556797 65.7944085313 65.7908272663 65.8002267449 65.80188643 65.8049721202 65.8136091996 65.8160552885 65.8182782123 65.8190739578 65.8210082988 65.8228341977 65.8245920529 65.8252493396 65.8269164368 65.8286250608 65.8304248758 65.8323663615 65.8331336703 65.8353002405 65.837730178 65.8404713081 65.8416815222 65.8448825565 65.848491731 65.8525405987 65.8570535918 65.8590743584 65.8642114909 65.8698277815 65.875916151 65.8786912002 65.8853536613 65.8924159102 65.8998372891 65.9075686463 65.9110001405 65.918981218 65.9271057097 65.9353035695 65.9389296126 65.9470010033 65.9549447034 65.9626851269 65.9701464336 65.9732989829 65.9801049709 65.9864404546 65.9922390837 65.9946494906 65.9994397333 66.0034387542 65.9928240265 65.9948091646 65.9950180099 65.9814877498 65.9939341476 65.9786232208 65.9628897611 65.9720837932 65.9691253812 65.951902869 65.9452772515 65.9423375524 65.9365593389 65.9320835835 65.9229015569 65.9183888151 65.9110573637 65.9206613718 65.9170544715 65.9131200806 65.917310633 65.9146799103 65.8972515126 65.8918346146 65.887037587 65.8913906058 65.8871291299 65.8825120738 65.8771049274 65.8621871352 65.8543925157 65.8426187429 65.8337936796 65.8215668377 65.8146584358 65.8111902786 65.8083140182 65.8054008123 65.8018158811 65.7970173045 65.7974682213 65.7896089801 65.7718425352 65.7441378346 65.7361659926 65.7131531594 65.7091982671 65.7064804164 65.7046941501 65.7012913091 65.6957268104 65.6939112442 65.6915275567 65.6883850092 65.6843710884 65.6794708998 65.6734193855 65.6592875027 65.6535887107 65.647992917 65.6415952345 65.6332456154 65.630335104 65.6284148454 65.6216562352 65.6213797776 65.6214370206 65.6216809466 65.6219745482 65.6221937236 65.6167120352 65.6163783953 65.6158019299 65.6149546723 65.6120617031 65.6084290096 65.6070025375 65.6054422993 65.6037948421 65.6021140027 65.5980756389 65.5968403642 65.5957414275 65.594823745 65.5941206594 65.5945440723 65.5942579109
65.5738309319 65.5739140548 65.5740976259 65.5743756504 65.5751331918 65.575642339 65.576194221 65.5767642869 65.5764140411 65.576894381 65.5773485366 65.5777639665 65.5799442039 65.5801582397 65.5804235277 65.5806050692 65.5807105145 65.5832530413 65.5824128907 65.5822564066 65.5820913014 65.581976985 65.581995 65.5836595088 65.5844122953 65.5856259633 65.5889726762 65.5917947387 65.5942691579 65.601130624 65.6039674839 65.6094004982 65.6116967743 65.6135571158 65.6149764381 65.6159831514 65.616640295 65.616795067 65.6203293961 65.6208652172 65.6191476746 65.6247557908 65.6277930902 65.6373100493 65.641900433 65.650178765 65.6541760313 65.6574677361 65.6589088802 65.6608975211 65.6623895112 65.6636876433 65.665220388 65.6692727592 65.6756968931 65.6805478831 65.6872279669 65.6919614831 65.7000171759 65.7031758499 65.7057224654 65.7080610017 65.7157158005 65.7123305079 65.7164674908 65.7262773578 65.7381445005 65.7410859215 65.743848931 65.7472333473 65.7440767629 65.7539099596 65.7544704675 65.7569044647 65.7605340729 65.7700656032 65.7738467379 65.7802252783 65.7842409494 65.7926944685 65.7960964024 65.8007593558 65.8082802097 65.8105489768 65.8172459433 65.8202118672 65.8218377629 65.8243962282 65.8301702 65.8323242527 65.8335061684 65.835393048 65.8371577239 65.8388384015 65.8397788661 65.8414080311 65.8430650961 65.8447969799 65.8466516873 65.8477957806 65.8499489258 65.852348771 65.855040341 65.8567853819 65.8600384627 65.863682429 65.867746244 65.8722525337 65.8752044081 65.8804583242 65.8861716979 65.8923367675 65.8963321734 65.9031940011 65.9104368853 65.9180206192 65.925897484 65.9308846033 65.9391129131 65.947468445 65.9558827226 65.9610905964 65.9694436842 65.9776540353 65.9856469284 65.9933479968 65.9979425869 66.0050091768 66.0115900126 66.0176193429 66.0210601353 66.0260328985 66.0221341907 66.0255675105 66.0271768227 66.0290658036 66.0217235169 66.0213104187 66.0115644649 66.0089994749 66.0061723656 65.9934849981 65.9892432424 65.9826091285 65.9779587777 65.9630501983 65.9584406078 65.9579955959 65.9683745391 65.9519828547 65.9700043831 65.9650777897 65.9675953344 65.9635378902 65.9343004591 65.9167393648 65.909610708 65.9244993039 65.9062618048 65.9021241869 65.8977505642 65.8921598083 65.8768051034 65.8671065401 65.8533461733 65.842142669 65.8287082676 65.8216729252 65.8184693512 65.8165213726 65.8145904509 65.8115658494 65.8130781616 65.8063658802 65.7972046967 65.7778380563 65.7656034503 65.7386607135 65.7300416086 65.7110833268 65.7198851559 65.7190147971 65.7071185908 65.7117183266 65.7115578468 65.7103761103 65.707899049 65.70399278 65.6986424972 65.6813501272 65.6741965313 65.6556535066 65.6491959478 65.641957164 65.6332962965 65.6297746859 65.6275906424 65.622115832 65.6221706052 65.6226257086 65.6232213057 65.6237618562 65.6254378634 65.6186672219 65.6182529551 65.617570304 65.6166033318 65.6155769767 65.610005052 65.6084569766 65.606777294 65.605008333 65.6048628699 65.6028980852 65.6009885949 65.5992068379 65.5963094279 65.5953159696 65.5946443299 65.5943361478
65.5737669242 65.5738712781 65.574130272 65.5745106837 65.5753383846 65.5759486627 65.5765800587 65.5772105072 65.577823316 65.5784043793 65.5789408942 65.5801738644 65.580559321 65.5817600044 65.582021584 65.5839559526 65.5839522406 65.5837955894 65.5834934908 65.5830684134 65.5822240944 65.5831342579 65.5827559316 65.5829621783 65.5836681793 65.586331175 65.5887031182 65.5950910931 65.5984670025 65.6018416009 65.604978446 65.6107653957 65.6132372917 65.6151906513 65.6165967243 65.6174485836 65.6177784591 65.6187976945 65.6195637944 65.619516811 65.6206583253 65.6232720964 65.6275781682 65.6376178392 65.6433164949 65.6522667036 65.6568231177 65.6603359141 65.6627522091 65.6632817289 65.6640332777 65.6645628743 65.6657096055 65.6681817875 65.6765840234 65.682891464 65.6942061604 65.6963984461 65.7043632119 65.7072039631 65.7090810341 65.7109013549 65.7178643711 65.7233052335 65.7341796295 65.7398659636 65.7437611642 65.7463574757 65.7487230939 65.7525056369 65.761919039 65.7667220232 65.7654560899 65.7712929704 65.7724972198 65.7776207618 65.7854112764 65.7895805507 65.795071987 65.7986880926 65.8052426461 65.8112701552 65.8148839476 65.8171273639 65.8217938574 65.8237629581 65.826341207 65.8280603777 65.8303150847 65.8323945773 65.8337339619 65.8355380797 65.8372231243 65.83882485 65.8398826651 65.841428795 65.8430007342 65.8446425597 65.8463994354 65.8476869841 65.8497463664 65.8520425416 65.8546182766 65.8565982243 65.8597493712 65.8632785462 65.8672135244 65.871576325 65.8749445489 65.8800778254 65.8856570913 65.8916753975 65.896254315 65.9029922801 65.91010038 65.9175404939 65.9252675788 65.9309921068 65.9390845875 65.9473012363 65.9555774602 65.9615602403 65.9697756263 65.9778534635 65.9857235918 65.9933162503 65.9985982121 66.0055451302 66.0120260703 66.0179797053 66.0219332368 66.0268168658 66.0309557815 66.0335538121 66.0363172615 66.037899674 66.0348706754 66.035149945 66.0346787472 66.0282155467 66.0205070293 66.0172517664 66.0126910688 66.0084498554 65.9965724486 65.9905913851 65.9994243308 65.9922293089 66.0045915028 65.9985969149 65.9833579716 65.9775052056 65.979288323 65.9764138996 65.9727201255 65.9632080218 65.9419323094 65.929954049 65.9129862886 65.9098268744 65.9073889692 65.9032210501 65.8885167832 65.8927723235 65.8601268516 65.8449312347 65.8279458422 65.8210830104 65.8186292225 65.8190939285 65.8198821628 65.8241960845 65.820952066 65.8140858683 65.8035727568 65.7821578125 65.7665266653 65.737645344 65.7255579445 65.7174449981 65.7141049985 65.7150023628 65.7154680919 65.713876379 65.7151025453 65.7147166335 65.7125218071 65.7084980797 65.7027171179 65.6843225435 65.6763113554 65.6701356928 65.6606850391 65.6410382541 65.6343651832 65.627168092 65.6248236764 65.6242593215 65.6254805106 65.6226945939 65.6247847411 65.6260037773 65.6268252446 65.6271809615 65.6270507999 65.6210610604 65.6200571768 65.6171082847 65.6155145129 65.6118349507 65.6099275679 65.6078890329 65.605759118 65.6035793583 65.6013983248 65.5992832004 65.5962013073 65.5949040931 65.594014573 65.5936519917
65.573488962 65.5736282798 65.5739987973 65.5745241493 65.5754616308 65.5761999189 65.5769292042 65.5776324252 65.5783004266 65.5789259488 65.5815389147 65.5816329351 65.5833648401 65.5837587721 65.584515384 65.5845485723 65.5845126984 65.5842750361 65.5838231893 65.5831633334 65.5833553513 65.5821956802 65.5814540213 65.5815516308 65.5830626398 65.5860537628 65.5905886378 65.5954574645 65.6015296766 65.6056457187 65.6059575469 65.6121027902 65.6147247179 65.6167260374 65.618045264 65.6186275651 65.6184601075 65.6176636769 65.6179836074 65.6170100267 65.6180644201 65.6213593456 65.6303871607 65.6375667111 65.6445054937 65.6541655276 65.6592211595 65.6628065223 65.6648216528 65.665274833 65.6664030953 65.6649331887 65.6656230356 65.6698289325 65.6777350871 65.6886403969 65.6967936202 65.7059852376 65.7150501347 65.711203837 65.7122563439 65.7130263041 65.7183606955 65.7265456451 65.7366747572 65.743391422 65.7469515685 65.7496429023 65.7515325667 65.7599747078 65.7678017624 65.7761752689 65.7781793489 65.7818161545 65.786537885 65.7918331714 65.7973440773 65.7987377641 65.8034137938 65.807296225 65.812168337 65.8135865599 65.8163030369 65.8193021171 65.8216437566 65.8238906542 65.8264114344 65.8283461096 65.8305170221 65.8325182657 65.8340143733 65.8357237484 65.8373148375 65.8388252607 65.8399949677 65.8414458069 65.8429168256 65.8444517541 65.8460968003 65.8475221153 65.8494735951 65.8516476881 65.8540909624 65.8563056985 65.8593472683 65.8627472818 65.8665366598 65.8707501653 65.8745518379 65.8795617662 65.8849946783 65.8908623871 65.8960576708 65.902685745 65.909657061 65.9169503665 65.9245454314 65.9310575965 65.9390260659 65.9471021091 65.9552529305 65.9620657107 65.9701672852 65.9781154595 65.9858677745 65.9933772516 65.9993957527 66.0062324724 66.0126145774 66.0185074008 66.0230127316 66.0278231789 66.0319320307 66.0348735625 66.0376430633 66.0394214506 66.0406100558 66.0412142927 66.0411831914 66.0466741552 66.0432369782 66.0413581693 66.0383768768 66.0437464982 66.0381658588 66.0334018216 66.0318766886 66.0280525242 66.0293776556 66.0182122001 66.0046737798 65.9869617546 65.9839793303 65.983043736 65.9806943953 65.9700427675 65.9518703506 65.9318182655 65.918249993 65.9173315461 65.9188354701 65.9433408643 65.9252368492 65.9003337116 65.8811822825 65.8544702618 65.8320228531 65.8188554758 65.8172855603 65.8240914324 65.8257313344 65.8292895539 65.8279831042 65.8213958499 65.809667897 65.7860476009 65.7665685102 65.7454464785 65.7188797389 65.7082177254 65.704869775 65.709947217 65.7099559159 65.7148702106 65.7180028529 65.7187404066 65.7170214862 65.7129876782 65.7068288083 65.6872858748 65.6912853663 65.6797662934 65.6627214978 65.6479306506 65.6335600414 65.6250746908 65.6204746029 65.6202058656 65.6224921571 65.6260714944 65.6249515748 65.6268416385 65.6280935311 65.6286832304 65.628645313 65.6282118307 65.6267321818 65.6253042631 65.6187853522 65.6194924016 65.6111380736 65.6089433585 65.6066271864 65.6042137548 65.6017324879 65.5992384104 65.5958926893 65.5942079679 65.5930271648 65.5925828068
65.5732093617 65.5733912065 65.5738845339 65.5745610809 65.5760719293 65.5770582512 65.577983181 65.5788351813 65.5805625692 65.5813797596 65.5821008202 65.5827164976 65.5839737083 65.5843973861 65.5846608179 65.5852593014 65.5850908025 65.5847829542 65.5841978637 65.5833239739 65.5830609377 65.5814824324 65.5804078848 65.5804816886 65.5820142981 65.5858838706 65.5910548304 65.5956805361 65.6021131142 65.6065703752 65.6105207169 65.6139063685 65.6162304202 65.6182603529 65.6194783335 65.6197789623 65.6190987739 65.6175562743 65.6163934069 65.6147399167 65.6157773668 65.6208980162 65.6308270217 65.6380419281 65.6460205019 65.6559200189 65.6616510217 65.6651873636 65.6666874437 65.6660828045 65.6653234546 65.6617929759 65.6618715319 65.6671779879 65.6812007235 65.6931595285 65.699409214 65.7129267653 65.716807491 65.7140388112 65.7092454941 65.7086218618 65.7150529738 65.7264223127 65.7388762437 65.7460890285 65.7510088799 65.74758116 65.7491495725 65.7597916558 65.7717088147 65.7766379257 65.7757800562 65.7780330104 65.7915752994 65.796873866 65.7942392728 65.7993182027 65.8070991505 65.8058973712 65.8114287352 65.8128611088 65.8160860609 65.8191636623 65.8213267527 65.8241511804 65.8267338436 65.8286774016 65.8306558112 65.8326926925 65.8344665707 65.8360112252 65.8373702901 65.8387708009 65.8401483369 65.8415435599 65.8428211617 65.8441284251 65.8456739386 65.8473674914 65.8492241087 65.8510887628 65.8532689952 65.855887504 65.8590149422 65.8621259343 65.8654412522 65.8695713458 65.874225449 65.8791532256 65.8839653219 65.8894785752 65.8957944951 65.9027032865 65.9091334257 65.915741465 65.9235000074 65.9315141869 65.9392874469 65.9465154451 65.9544341636 65.962817933 65.9711577796 65.9784121192 65.9855813573 65.9934471329 66.0008141937 66.007326956 66.0130540693 66.0189670464 66.0245675243 66.029376936 66.0330547553 66.0362240202 66.039346338 66.0414108821 66.0443903107 66.0428767006 66.0449444223 66.0489849741 66.0445164356 66.053041605 66.046670841 66.0381108415 66.049806762 66.0511242913 66.0234195285 66.0185730967 66.0283900008 66.0267094322 66.0070219732 65.9800220917 65.9766313693 65.9916146551 65.9872435607 65.9767839849 65.9523000477 65.9225390151 65.9041543929 65.9066352709 65.9292926798 65.9471371591 65.9495508128 65.9086863394 65.9060375022 65.8708565674 65.8231042635 65.8056935697 65.805632241 65.821359127 65.827026771 65.8345836072 65.8354009187 65.8292952004 65.8209047705 65.7911983612 65.7684113582 65.7488671965 65.7175840489 65.7003296267 65.696983935 65.7034233568 65.7087193539 65.7162636656 65.721251018 65.7230515838 65.7217700976 65.7177204713 65.7137653993 65.7050047148 65.6942324505 65.6816418219 65.6634527287 65.6496563435 65.6343759102 65.6218741916 65.6172504552 65.6170190363 65.6202807516 65.6250947008 65.6253641527 65.6278613164 65.6294908914 65.6302779031 65.6304791252 65.6294978588 65.6284861271 65.6269549885 65.6231490194 65.6209319442 65.6183901287 65.6155619778 65.6092078257 65.6064196872 65.6034590834 65.6003668659 65.5957708599 65.593713139 65.5922340909 65.5916939787
65.5732014025 65.5734620527 65.5742542049 65.5752808253 65.5763726428 65.5774222783 65.5783927167 65.579279831 65.5800885853 65.5819229743 65.5826816431 65.5833358191 65.5838729261 65.58505888 65.585349653 65.585449754 65.587047231 65.5865497256 65.5856960838 65.5844638336 65.5829363037 65.5818436856 65.5804125586 65.5804224426 65.5826325352 65.5862976741 65.591722691 65.5965652306 65.601125011 65.6077698151 65.6118676842 65.6153825333 65.6182333491 65.6199076172 65.6210866692 65.6212293602 65.6202425448 65.6182494974 65.616594251 65.6146056223 65.6160947728 65.6214700964 65.6321564466 65.6418496881 65.6514770639 65.6586706553 65.6678672693 65.6678755988 65.6690265777 65.6677489996 65.6661381475 65.6617939321 65.6621936847 65.6702479874 65.6834011342 65.6992497135 65.7102820966 65.7167768079 65.7176933393 65.7156687701 65.7097629639 65.7088170512 65.7179058247 65.7329718896 65.7482511118 65.7546105431 65.7527245307 65.7479271248 65.7490167098 65.7649819819 65.7822248112 65.7838723645 65.776653547 65.7787667627 65.7927663883 65.7993885432 65.7940769505 65.7994242366 65.8076448666 65.8056900147 65.811656778 65.8129275831 65.8174603158 65.819075505 65.8215981373 65.8246163907 65.8268382872 65.8287132503 65.8306292127 65.8327110464 65.8345648538 65.8360688127 65.837354483 65.8387387187 65.8401797921 65.8415860486 65.8428119384 65.8440537485 65.8455961713 65.8473731986 65.8492268014 65.8509921986 65.8531001683 65.855832331 65.8590400446 65.862062156 65.8652080229 65.8693532199 65.8742587725 65.8791900695 65.8837593086 65.8891588025 65.8957866023 65.9028596598 65.9090780544 65.9154105267 65.9232856457 65.931726894 65.9394455021 65.9463153622 65.9541626184 65.9629901172 65.9714729984 65.9784390734 65.9853675774 65.9934201685 66.0011599613 66.0075544563 66.013000648 66.0189374335 66.0248551566 66.0296853074 66.033167161 66.0363230555 66.0407571663 66.0431901985 66.044646869 66.0476099371 66.0462228565 66.0500674157 66.0452250327 66.0550471316 66.0478838905 66.0383435401 66.0590278146 66.0558276376 66.0259319251 66.0212269871 66.0478452697 66.0590303722 66.0227224511 65.979866598 65.9771765734 65.997084707 66.0131615982 66.0054039523 65.9787824553 65.9344825649 65.9051824862 65.9095891276 65.9348376764 65.9549561354 65.9633717676 65.9531960337 65.9241882009 65.8787551381 65.8350595462 65.8070431829 65.8060814019 65.8241506266 65.8327651213 65.8426754366 65.8447018612 65.8620779601 65.8304723095 65.8108939911 65.7835344506 65.7534231789 65.7195529967 65.7014750021 65.6964575732 65.7040335288 65.7109750554 65.7200168147 65.7260137593 65.728328222 65.7271681461 65.7254259941 65.7185724214 65.7093695258 65.6980899784 65.6796334597 65.6662519529 65.6517441518 65.6356435531 65.6241245222 65.6170674931 65.6170419297 65.6214139831 65.6245741738 65.629190717 65.632846019 65.6353909766 65.6368341474 65.6319297282 65.6314435469 65.6303368293 65.6267844106 65.6248028381 65.6224478316 65.619770485 65.6129363511 65.610230203 65.6073397837 65.6042626098 65.6010221983 65.5977341623 65.5947076938 65.5923691146 65.5916583715
65.5737477053 65.5740178103 65.5747121759 65.5758582013 65.5769240653 65.5779498946 65.5789051461 65.5797878186 65.5806026369 65.5824968889 65.583285764 65.5839763912 65.5845540778 65.5857524649 65.586084169 65.5862236574 65.587880854 65.5874327933 65.5866373339 65.5854794517 65.5852939375 65.5833424129 65.5820554789 65.5821492925 65.5847220054 65.5882470952 65.5935604968 65.5982109145 65.6026593329 65.6092789535 65.6134115712 65.6170059203 65.6199567786 65.6221376483 65.623039678 65.623261085 65.6223561479 65.6204753338 65.6197849679 65.6181392112 65.6203278811 65.6256046717 65.6364941346 65.6457369126 65.6611709202 65.6688098779 65.6716959532 65.6757181085 65.6764076689 65.6713903757 65.6712263427 65.6676858089 65.6703052832 65.6782028408 65.690566903 65.7057265362 65.7160627463 65.7288952758 65.7290604126 65.7224119041 65.7179144313 65.7192748167 65.7279191143 65.7412691964 65.7536267551 65.7608799944 65.7654377611 65.7613764549 65.764001234 65.7784970063 65.790177416 65.795018657 65.7913151241 65.7951012686 65.8049773435 65.8080125935 65.8071475723 65.8121001192 65.8169856574 65.8177118092 65.8186155884 65.8211230931 65.8232469617 65.8232839464 65.8258898391 65.8279759513 65.8281833393 65.830419411 65.8305466095 65.8340715903 65.8340562282 65.8357517848 65.8373281955 65.8388258507 65.841219868 65.8414486019 65.8429044777 65.8444230754 65.8464371432 65.8474967217 65.849433583 65.8515885239 65.8540120808 65.8564859222 65.8592878738 65.8626685314 65.866434199 65.8700958243 65.8744918819 65.8794865622 65.8848943742 65.8907402394 65.8967639287 65.9026421026 65.909591229 65.9168593218 65.924869218 65.9310669679 65.9390199293 65.9470697179 65.9552044694 65.965385133 65.9702288102 65.978154148 65.9858865071 65.996839483 65.9995156961 66.0063366651 66.0126998053 66.018587227 66.0293379611 66.0279751835 66.0379333274 66.041819015 66.0517689545 66.0538099911 66.0562380899 66.0660677519 66.0685128445 66.0714425218 66.0802404473 66.0857218691 66.083387257 66.0779363488 66.0877356576 66.0942311644 66.0731731731 66.0682625309 66.0862611152 66.0855725925 66.0610604601 66.0251156433 66.0196223689 66.0476607057 66.0356884176 66.0283196583 66.0071555919 65.9683108873 65.9414195049 65.9406211204 65.9611437477 65.9950105429 66.004615276 65.9746912939 65.9472429377 65.904118645 65.8632848801 65.8362956808 65.8289796352 65.8442232608 65.846832251 65.8772092774 65.8813855017 65.8765312763 65.8747683782 65.8525730296 65.7967277892 65.7679716216 65.7336680517 65.7160653149 65.7094235471 65.715848348 65.719145938 65.7276446279 65.7331951198 65.7351042089 65.7358292167 65.7312527074 65.7239908204 65.7144484585 65.7029683882 65.6845411111 65.6714271492 65.6574588112 65.6417607907 65.6307119248 65.622292709 65.6220283441 65.625964403 65.6319463574 65.6321419116 65.6356141108 65.6379812671 65.6392733706 65.6341705389 65.6335551387 65.6323104194 65.6286661261 65.6265398073 65.6240504057 65.6212572927 65.6141801166 65.6114419704 65.6085595148 65.6055345541 65.6023874771 65.599215386 65.5956956325 65.5938166254 65.5930898834
65.5748759244 65.5751156131 65.5757056054 65.5767674437 65.5776983712 65.5786206729 65.5795072055 65.5803512934 65.581151312 65.5830990157 65.5839126298 65.5846391339 65.5852611362 65.5857594671 65.5868703623 65.5870749763 65.5888425171 65.5885187363 65.58790027 65.5869915959 65.5875138104 65.5860605286 65.5851829759 65.5854126063 65.588399176 65.5922711554 65.5960951083 65.6004231718 65.6045536007 65.6085217552 65.6151268457 65.6187814111 65.6218600725 65.624226906 65.6257476416 65.6306318183 65.6296668826 65.6278087649 65.6261961555 65.6253390555 65.6280613624 65.6326210907 65.6431396147 65.65787573 65.6663587762 65.6735201929 65.6789202367 65.6875876163 65.6883866049 65.6838000512 65.6819902696 65.6829061252 65.6846775851 65.6915082379 65.701616093 65.7121924606 65.7239569958 65.7372520788 65.7388227639 65.7452487708 65.7420851077 65.7434619052 65.7516855967 65.770740514 65.7811342381 65.7872477011 65.7924633135 65.7882989812 65.7916701258 65.8002317868 65.8038474659 65.8109884659 65.8117141733 65.8166870792 65.8218230768 65.8273903237 65.8289085075 65.8329627163 65.831612083 65.8327303369 65.8397724903 65.8366264918 65.8331055307 65.8396336701 65.8365167854 65.8377847494 65.8397261251 65.8370702522 65.8388131056 65.8402832345 65.8414882225 65.8426554279 65.8436230611 65.8444471447 65.8453642032 65.8461367542 65.8469080527 65.8477489982 65.8487337834 65.8498740687 65.851221942 65.8528826476 65.8549305122 65.8566970434 65.8594416959 65.8627226689 65.8665946746 65.8711015615 65.8741475287 65.8796253608 65.8857857601 65.8926257129 65.8967861393 65.9045774727 65.9129774204 65.9219290033 65.9313598461 65.9365993393 65.9466111701 65.9568926372 65.9673346215 65.9727825668 65.9833302378 65.9937767491 66.0039987296 66.0138741022 66.0187542412 66.0280728665 66.0367876324 66.0447876736 66.048364983 66.055351232 66.061445311 66.0800759538 66.0856405845 66.0897203132 66.1098220368 66.0975237846 66.1196345058 66.1413184338 66.1287496272 66.1327558341 66.1507746026 66.1498613649 66.1526480645 66.1486841482 66.1406300107 66.1355292693 66.1404476952 66.1316730303 66.1439078242 66.1227651461 66.1170391545 66.1475513634 66.144945899 66.1412107696 66.114760678 66.0590635582 66.033538676 66.0375842482 66.0550067455 66.0338113075 66.0371190994 66.0045154181 65.9759812623 65.9437268516 65.9110265159 65.8885105105 65.8836746318 65.8856800144 65.8974795173 65.9301048751 65.9339406237 65.9062786781 65.8925329494 65.8715508084 65.8448350771 65.790392453 65.757749214 65.7428055236 65.7352935853 65.739011848 65.7467849181 65.7553144775 65.7611124489 65.745632388 65.7431655328 65.7378315713 65.7300262031 65.7201659199 65.7021005328 65.690623168 65.6783961434 65.6665626161 65.6546234161 65.6422807637 65.6321553271 65.6315009902 65.6342070906 65.6386300337 65.6366310767 65.6393634434 65.6412046101 65.6421257477 65.6366722666 65.6358499183 65.6325195714 65.6306470126 65.6283613357 65.6257353196 65.6228380515 65.6155245654 65.6128066812 65.6100183493 65.607180802 65.6043282997 65.6015471003 65.598178099 65.5965856668 65.5959339191
65.5763348715 65.5765143006 65.5769354225 65.5775052595 65.5785823295 65.5793627641 65.5801552844 65.5809446183 65.5817198718 65.5837200191 65.5845572418 65.585321449 65.5859926249 65.5865505959 65.5877047037 65.587994975 65.5881023921 65.5897466409 65.5893716593 65.5910630251 65.5901237165 65.5901455973 65.588902562 65.5892528291 65.59350513 65.5959816439 65.5990886277 65.6025582089 65.6065718826 65.6103662894 65.6169418478 65.6206783196 65.6239323989 65.6265684479 65.6284784501 65.6343652751 65.6343775921 65.6376014498 65.6336792977 65.6338040438 65.6370214342 65.6406425906 65.6504863345 65.6646422559 65.6720554491 65.678772985 65.6842827792 65.6940774448 65.6963019473 65.6968044224 65.6994463783 65.6992671539 65.7060967041 65.706385018 65.7141510498 65.7226555386 65.7442755039 65.7589584391 65.7618690875 65.7626413259 65.7633267385 65.7698313536 65.7800352613 65.7889365939 65.7969480064 65.8039396503 65.8162576701 65.8189990404 65.8228799571 65.8218894585 65.8265975148 65.8310205774 65.8340130275 65.8446573386 65.8486139753 65.8493059339 65.8518293835 65.8557819219 65.8566908216 65.8601497566 65.8625122029 65.8634109871 65.8656759585 65.8655416377 65.8587291018 65.8605034841 65.8608278547 65.8617819908 65.8622524721 65.8621890058 65.8627844789 65.8622985782 65.8614356115 65.8602967044 65.8606218585 65.8593978053 65.8581328462 65.8569594048 65.8560177905 65.8565251285 65.8560991143 65.8562017987 65.8569803853 65.8579577566 65.8597619748 65.8625232381 65.8663590197 65.871366683 65.873379739 65.8799021217 65.8877177552 65.8968372576 65.899761778 65.9104509528 65.9223627014 65.935402839 65.9494449105 65.9533516167 65.9685081986 65.9843288915 66.0006110411 66.0047261911 66.0214774246 66.0382472885 66.0547998817 66.0709000124 66.0747884194 66.0903939961 66.1050956483 66.1186763075 66.1215078824 66.1339265446 66.144847309 66.154437387 66.1611292475 66.1654207621 66.1976941051 66.207066433 66.2103611983 66.2180950146 66.2221259884 66.2232386262 66.2274254811 66.2273007667 66.2262864026 66.2398434997 66.2345102109 66.211482637 66.2161991943 66.2102559048 66.2213134885 66.2516683524 66.2448848193 66.2558413553 66.2105415916 66.2025030478 66.1830266748 66.1583676823 66.1347296892 66.1214603028 66.1247571452 66.1289802917 66.126160893 66.0873094602 66.0149400907 65.9895610674 65.9652602368 65.9731709174 65.9453851516 65.9587993479 65.9585939661 65.9622832485 65.9599615837 65.9273202988 65.9126012976 65.8926936538 65.8693411587 65.8155114141 65.7854874154 65.7738962174 65.7655454789 65.7659422239 65.7830332195 65.7724299353 65.774605545 65.7553923366 65.7514560268 65.7450845926 65.7365669559 65.7263015218 65.7082340297 65.6971638291 65.6867728915 65.6760217399 65.6663009524 65.6585184095 65.6437346216 65.6427288394 65.6469867979 65.6465017694 65.6494059923 65.6437551295 65.6448793171 65.6398864618 65.6394100595 65.6383186285 65.6348002679 65.6327228515 65.630259107 65.6274859117 65.6244813568 65.6169213795 65.6142412763 65.6115765392 65.6089731968 65.6064875462 65.6027536487 65.6011336904 65.5999610183 65.5994478497
65.5780635314 65.5781976461 65.5787874819 65.5793100655 65.5794288352 65.5800842524 65.5807938401 65.5815348911 65.5822889578 65.5843473596 65.5852120861 65.5860182772 65.5867439647 65.5873685069 65.5896686822 65.5899725662 65.5891922186 65.5931143853 65.5927064374 65.593006898 65.5925311045 65.5932011071 65.5930972576 65.5958396837 65.597060452 65.5990305212 65.6016446233 65.6047484901 65.6114906285 65.6154896214 65.6158720638 65.622642424 65.626127153 65.6290941263 65.6314630125 65.6437968613 65.6440535385 65.6440148299 65.6441115027 65.6448180483 65.651896449 65.6518797947 65.6643793017 65.670745686 65.6775472577 65.6841473224 65.6900128714 65.7050326267 65.7082249273 65.710598894 65.712042153 65.7136932111 65.72152838 65.7262883915 65.7327212093 65.7512633589 65.7708256158 65.7818758856 65.7865128307 65.7896400534 65.7924270647 65.7902969088 65.7997057404 65.8066075117 65.8137117504 65.8300861932 65.837952883 65.8430467942 65.8474855107 65.8524924204 65.8575865461 65.8528554159 65.8683938215 65.8695748693 65.8735275485 65.8773169453 65.8869677536 65.8893975968 65.891682741 65.8979839266 65.8991842482 65.9002738068 65.9034930811 65.9039978319 65.9054616752 65.896088257 65.905748224 65.9048895425 65.903163987 65.89333693 65.8999526368 65.8965757395 65.8926562523 65.8883317712 65.8799538296 65.8826524823 65.8780105557 65.8735349004 65.8677529325 65.8685299608 65.8651784361 65.8626912874 65.8612907466 65.8601518402 65.8613969889 65.8632155728 65.8667881682 65.8694642552 65.8739018178 65.881948418 65.8921462253 65.9045391336 65.9107119957 65.9229416369 65.9401298487 65.9592997408 65.9655927648 65.9855893778 66.0085319424 66.0327687967 66.058034483 66.0602036854 66.0903092662 66.1166935754 66.1430577534 66.1386751052 66.1752107652 66.200273468 66.224233761 66.2467976291 66.2312119122 66.2723286973 66.2906515271 66.3067072699 66.282452987 66.3231901369 66.3333887546 66.3357957055 66.3419578733 66.3435170339 66.3447587471 66.3438548679 66.3429681906 66.3415235534 66.3310426812 66.3263386765 66.3208847663 66.3483643078 66.2935010854 66.3645547208 66.3557838303 66.3461428077 66.3377047455 66.3426410861 66.3300780622 66.2681086454 66.2512812702 66.2336025499 66.2143444736 66.2508737871 66.2473855088 66.2436937536 66.2347540873 66.1886159479 66.1362403617 66.0666046616 66.0466683651 66.0319790406 66.0110040592 66.0081144885 66.0068966869 66.0090243099 66.0027874688 65.9498326898 65.9334185861 65.9134936031 65.8918804626 65.8709373003 65.8337730491 65.835946973 65.8063856974 65.8049211439 65.8060587782 65.8081230725 65.8095141679 65.7659698723 65.7604008775 65.7528236166 65.7434272729 65.7249986516 65.7306137065 65.7180858528 65.6938004906 65.6840811975 65.675806948 65.6695370926 65.665664924 65.655784855 65.6562142279 65.6537156838 65.6552532076 65.6542585411 65.6555555909 65.6431707751 65.6468358086 65.6457170246 65.6371880834 65.63488113 65.6322185179 65.629279572 65.6261489042 65.6183132291 65.6156493944 65.6130731541 65.6106479715 65.6084466646 65.6075142112 65.6058883168 65.6037263454 65.6033160457
65.5790570514 65.5791535734 65.5793719619 65.5800748428 65.5806436951 65.5813242233 65.581377799 65.5820947408 65.5828417817 65.5849698104 65.5858697252 65.5867238157 65.5875091001 65.588204632 65.5906916377 65.5910895348 65.5937003018 65.5943734092 65.5941230184 65.5938149673 65.5954547882 65.595149269 65.5951324386 65.5976988892 65.5989051114 65.6007799906 65.6033243609 65.6064023853 65.6133323059 65.6174564772 65.6215369071 65.6286069096 65.628378691 65.6384663543 65.6407538089 65.6476279992 65.6484691922 65.6490323076 65.6496159228 65.6505214683 65.6574048427 65.6606174113 65.6728957974 65.6795760182 65.682290643 65.6985163879 65.7059510129 65.7115915603 65.7160085773 65.7194050237 65.725646235 65.730980809 65.7339574127 65.7464000223 65.7531194749 65.7723149796 65.7885314718 65.7930746787 65.7995238396 65.8045803877 65.8087571324 65.8127529723 65.8225546373 65.8297938721 65.8418616275 65.8493817141 65.8623781729 65.8677985055 65.8688701531 65.8737475257 65.8793477656 65.8944904696 65.8977600688 65.9022906785 65.8981842984 65.9030056899 65.9161875607 65.9171267793 65.9204428292 65.9323819059 65.9370563876 65.9409363012 65.9426867293 65.9451908965 65.9447282288 65.9455430875 65.9440837737 65.9498009145 65.9459428368 65.9354199536 65.9302674339 65.9322885785 65.9254926713 65.9149575845 65.9078104666 65.9069469689 65.8991805921 65.8916505388 65.8834194128 65.8771831787 65.875401877 65.8705120697 65.8661133357 65.8639365436 65.864481446 65.8653871021 65.8685348056 65.870823161 65.8781259964 65.8861705154 65.8982758924 65.9058197229 65.9222997005 65.938909249 65.9605572765 65.9848154787 65.9969692173 66.0243499052 66.0526986485 66.0840838247 66.0960684532 66.1285861301 66.1650610558 66.1996868804 66.2345031772 66.2411973444 66.2740393562 66.3164211619 66.3484182541 66.3470241168 66.3749121281 66.4183391207 66.4430867916 66.4315940883 66.4499175945 66.4551345982 66.4678147234 66.4682614333 66.4749239011 66.4724512702 66.4706727651 66.4436239898 66.4399447493 66.4515529574 66.4216799124 66.4141573674 66.462189494 66.4555674246 66.4826840329 66.4481371817 66.4381216348 66.4289776667 66.446860528 66.4359386503 66.4059469189 66.3878305454 66.3584902613 66.337361536 66.3242658502 66.3150148321 66.3067752352 66.2965917285 66.2813740167 66.2861098217 66.2376197052 66.1627480077 66.1389720335 66.0790962872 66.0706640574 66.0586454199 66.0459901783 66.0391867225 66.0287525672 66.0134015606 65.9916758469 65.93197703 65.9270792806 65.9042837339 65.8667182102 65.8546841597 65.8256101322 65.8235357931 65.8232435535 65.8235219387 65.8231341884 65.8006159466 65.7954252518 65.7608196277 65.7699963741 65.7500878165 65.7374827275 65.72436018 65.6991494927 65.6893299045 65.6810841368 65.6749357569 65.670978067 65.661680254 65.6618982917 65.6630842842 65.6574758484 65.6585714846 65.6594368873 65.657691192 65.6502568767 65.6488441579 65.6396600433 65.6371056985 65.63422376 65.6310955862 65.6278092572 65.619654834 65.6169586738 65.6143909487 65.6133098206 65.6110169259 65.6090892696 65.6063871203 65.6056435695 65.6053035949
65.5794570877 65.5795583368 65.5798048101 65.5805042956 65.5811062897 65.581804954 65.5825725829 65.584441288 65.5854663006 65.5864957726 65.5865250206 65.5874332331 65.5882824005 65.5890509333 65.5925345591 65.5929197081 65.5947970079 65.5947993568 65.5952884392 65.5949685326 65.5963274472 65.5957865628 65.5971363601 65.5982834965 65.5997390385 65.6039261949 65.6076477972 65.6118864881 65.6164000505 65.6192427896 65.6236137923 65.6277701313 65.6369439974 65.6411432136 65.643754497 65.6518039221 65.6517708036 65.6521681765 65.6523878776 65.6528899363 65.6585821146 65.6622746636 65.6723554823 65.682294227 65.6992438574 65.7079691677 65.7221271625 65.7281274651 65.7323162825 65.7349353103 65.7401354075 65.7414477711 65.7388542385 65.7504596989 65.7584319915 65.7787077616 65.7964851416 65.8058035594 65.8101279948 65.8157616294 65.8198253726 65.8233554228 65.8286776162 65.8405542548 65.854035925 65.863926282 65.8780163404 65.8840599024 65.8886638476 65.8905234398 65.9056182921 65.9133312734 65.9275206661 65.9314935348 65.9278563949 65.9417056557 65.9393259836 65.9467393055 65.9515291099 65.9619990819 65.961703449 65.9702932998 65.9725168939 65.973978737 65.9790092858 65.9783943841 65.975984061 65.9773774957 65.9689807783 65.963243758 65.95657171 65.9541772285 65.9459067502 65.9354449702 65.9265098154 65.9173963982 65.9123990295 65.9026588948 65.8940798293 65.8861867653 65.8819333484 65.8758087066 65.8703831209 65.86714582 65.8658299697 65.8672911979 65.8679291715 65.8727087587 65.880189721 65.8896793255 65.9024781424 65.9127774246 65.9308142816 65.9518100147 65.9738433252 65.9909597172 66.019059079 66.0495504733 66.0811304892 66.1155915794 66.137678708 66.1742436297 66.2117207285 66.2512073575 66.2722552034 66.3100281976 66.3472598499 66.3888410894 66.4244361757 66.4382589631 66.470045059 66.4995861184 66.5368103567 66.5407220637 66.5612829602 66.571942241 66.5648904269 66.574662916 66.5749885999 66.5577942657 66.5725676013 66.5507878176 66.5441727697 66.5346739509 66.5768164024 66.5450683932 66.5925288484 66.6064953733 66.5524955989 66.538872636 66.5033395167 66.5160696173 66.506556794 66.494418811 66.4621243157 66.4373795978 66.4019906045 66.3705379188 66.3613926385 66.3531422552 66.3472313484 66.3377703368 66.3461615065 66.3205561077 66.2652575248 66.1842319765 66.1528712443 66.0959756194 66.122507787 66.1229087863 66.1120634061 66.1113687751 66.1040137553 66.0883592306 66.0297663063 66.0009374432 65.9381552506 65.9058234447 65.8709375859 65.8560297398 65.8316934499 65.8312493562 65.8328718328 65.8344424857 65.8378272317 65.8114357761 65.8053041896 65.7963637197 65.7701590903 65.7575864288 65.7438502482 65.7351260352 65.7201187685 65.7057326075 65.6928677003 65.6771506551 65.6721897223 65.6683558467 65.6634093613 65.665472421 65.6609241837 65.6621472948 65.6610956849 65.6611041421 65.6552932512 65.6538315478 65.6421951529 65.6393820823 65.6362625901 65.632921334 65.6313363509 65.6276592314 65.6240189152 65.6169448735 65.6142839521 65.6118552341 65.6097354768 65.6070052178 65.6061217715 65.6057495711
65.5793475962 65.5794970887 65.5798779307 65.5804003633 65.5814054173 65.5821853329 65.5829996441 65.5838409419 65.5859808089 65.5870451892 65.5880939554 65.5891035478 65.5920615252 65.5928614908 65.5934974815 65.5939572141 65.5961994817 65.5958586445 65.5962408372 65.595740109 65.5964929757 65.5961062081 65.595978049 65.5961626116 65.598126618 65.601414403 65.6075492549 65.6125296818 65.6175840441 65.6225810249 65.6274088736 65.6350989645 65.6415705285 65.6451012189 65.6527530142 65.6542086243 65.6545813746 65.6539949298 65.6554871651 65.654394404 65.6561758403 65.6636824954 65.6792925866 65.6929575595 65.7017582946 65.7116624851 65.727005805 65.7333931162 65.7373750908 65.7389607793 65.7429190078 65.7398334688 65.7414012737 65.7480764008 65.7679097172 65.7826057538 65.8026655686 65.8134302247 65.8207291459 65.8226734882 65.8247044865 65.8267333331 65.8323662362 65.8462505439 65.868684213 65.8752324932 65.8891969661 65.8943224188 65.8976939477 65.9071332982 65.9242305474 65.9349226535 65.941394819 65.9444825562 65.9571354455 65.9631196514 65.9640674088 65.9697215259 65.9784786381 65.9781708761 65.9847343022 65.9855287918 65.9899216535 65.9929746451 65.9901709451 65.9907246157 65.990116501 65.9859221615 65.9816369305 65.9754246875 65.968243953 65.9626856561 65.9540101145 65.9441668655 65.9346515521 65.9249459123 65.9173281654 65.9075243311 65.898387392 65.8899066844 65.8838108115 65.8772587615 65.8716017986 65.8679147365 65.8661114368 65.8669413414 65.8680407493 65.8726530724 65.8799299482 65.8897997286 65.9024773387 65.9150763457 65.9333003196 65.9544329131 65.9775634239 65.999193533 66.0278660846 66.0589114603 66.0914354131 66.1262693054 66.1557470374 66.1931688855 66.2314576155 66.2705752511 66.3011188353 66.3398586892 66.378055585 66.4172707271 66.4534260283 66.4785315753 66.5112267991 66.5415383728 66.5638928903 66.5889610772 66.6014891874 66.6102384963 66.6311335356 66.6321203764 66.6291071803 66.6397505493 66.6312091511 66.6601725598 66.6472336501 66.6432791804 66.6705399403 66.6869352858 66.6373128815 66.6473579456 66.6467757243 66.6286309368 66.5823563216 66.5446374525 66.5368084249 66.5313452821 66.5040992577 66.5194782965 66.4260751581 66.3813396259 66.3633503457 66.3599630656 66.3665418495 66.3878163813 66.3778668419 66.3487291834 66.2833892309 66.2245041905 66.1421855274 66.1105284752 66.1052576704 66.1343164128 66.1234186134 66.1300787165 66.1255974805 66.1094162266 66.0458915041 66.0123278902 65.9889441457 65.9388704658 65.8715532164 65.8430871881 65.8357441623 65.8418953655 65.8374362878 65.8435813047 65.8462598988 65.8447897725 65.8200107611 65.8106108737 65.7930137343 65.7712990189 65.7558416327 65.7393719081 65.7223146598 65.7051616713 65.6825205948 65.6712117362 65.6643894874 65.6638025888 65.6640535823 65.6656682381 65.6632416444 65.6651251679 65.6644176359 65.6665482005 65.6585623793 65.6568572466 65.6544879058 65.6515111597 65.6403135594 65.6366302121 65.6328239798 65.6289817316 65.6208224248 65.6178587805 65.6150106781 65.6122921933 65.6085165972 65.6067664516 65.6054840806 65.6049765816
65.5790315306 65.5792444683 65.5798208866 65.580540585 65.5816637144 65.5825388024 65.5834070271 65.5842791651 65.5864862523 65.5875897581 65.591547071 65.5927239355 65.5937739112 65.5937615381 65.594475496 65.5950009948 65.5973765017 65.597228281 65.5981664235 65.5971557465 65.5974234052 65.5951618539 65.5937781014 65.5938202785 65.596421307 65.6006589256 65.6075398201 65.6132346849 65.6188022519 65.6314658274 65.6372237472 65.6449337183 65.6494666687 65.6529616512 65.6551760096 65.6563998845 65.6561177312 65.6568000186 65.6530149332 65.6503129376 65.6530497804 65.6647193762 65.6818230956 65.6986347244 65.7127833207 65.7246477985 65.7317894815 65.7383354137 65.7417105756 65.7415837786 65.741248862 65.7353541025 65.7352695484 65.7443934331 65.7670336649 65.7859938529 65.8082941689 65.8199827253 65.8263712938 65.8272953994 65.8253558111 65.8248156809 65.8356122201 65.8563327656 65.8748344973 65.8969653971 65.9013925873 65.8988898986 65.9006874148 65.9129856236 65.9302799178 65.9428500026 65.9496280965 65.9532293834 65.9611729191 65.9752623315 65.9791847404 65.9828428664 65.992503578 65.9960041234 65.9986897002 66.000758597 66.0011929344 66.0007300438 65.9996146825 65.9976971221 65.9939258055 65.9893794459 65.9851773483 65.9782526867 65.9701770138 65.9634649331 65.9552550058 65.9446947866 65.9341858194 65.9264483068 65.9170224131 65.9077408711 65.8950978728 65.8854069998 65.8817155476 65.8753095183 65.8653059148 65.860748638 65.8633055653 65.8633253263 65.8649471947 65.8635711077 65.8707226217 65.8856435476 65.8972155884 65.9056087742 65.9246246287 65.9506158223 65.9732688748 65.9978323031 66.0215676598 66.0545729971 66.0898318431 66.1223239401 66.1537526683 66.1937681785 66.233457103 66.2702614831 66.307237587 66.3459263286 66.3868567427 66.420753037 66.4545372658 66.4902872471 66.5254583407 66.5517897113 66.5814311846 66.6064321625 66.6350583999 66.653956014 66.6711725837 66.6910116671 66.7014285707 66.7177513011 66.7216109898 66.727067484 66.7151656334 66.702612579 66.7192654858 66.6992600743 66.6717460585 66.6617519027 66.6661932492 66.6528715486 66.6068120368 66.5490533657 66.5420888057 66.5992632256 66.6356605851 66.5479395041 66.4838786022 66.3979638904 66.3418098758 66.3489174654 66.3821066794 66.4086945797 66.4076764791 66.3767406479 66.3010160404 66.2215194154 66.1216930945 66.0753724769 66.078162253 66.1174567255 66.1306751201 66.1474326762 66.147171029 66.1310873143 66.1154746378 66.0721858388 66.0171060471 65.9487325507 65.8797894788 65.828040922 65.8164141821 65.8293068143 65.8469322631 65.8486796039 65.8543804572 65.8541071589 65.8540598588 65.8448707079 65.8314063822 65.8085297594 65.7894116246 65.7438556718 65.724852862 65.7050547201 65.6798153027 65.6651500668 65.6560596065 65.6559273894 65.6606696407 65.6685868844 65.6683815023 65.6721221578 65.6697331743 65.6703495147 65.6619096421 65.6599783614 65.6573335254 65.6558738103 65.6519841762 65.6476659221 65.6343121255 65.6302950053 65.6218394618 65.618751172 65.6157194962 65.612708343 65.6086279869 65.6063427251 65.6045346509 65.603854469
65.5789199379 65.5792542765 65.5799538364 65.5808142054 65.5825572279 65.5836162994 65.5846197998 65.5867189775 65.5878999127 65.5890661482 65.5921482399 65.59339147 65.5945158082 65.5979082384 65.5986396298 65.5990866726 65.5992197216 65.600419885 65.5996401512 65.5999366893 65.5980687719 65.5959096574 65.5933517995 65.5933565974 65.5972576863 65.6032914023 65.6098610374 65.6162650915 65.6223651539 65.6333332004 65.6393912898 65.6448097565 65.6521064266 65.6557886716 65.6631171619 65.6633893131 65.6581413347 65.6580398031 65.6539580907 65.6493097969 65.6520556499 65.6651361733 65.6838395845 65.7001729664 65.7168011285 65.7293368317 65.7390656248 65.7435563907 65.7464872827 65.7450780201 65.7423919373 65.7339102129 65.734164053 65.7481697222 65.774892897 65.7996351723 65.817097146 65.8267328839 65.8319854822 65.8302565107 65.8248786988 65.8233861177 65.8399290168 65.8657677142 65.8914291762 65.9038472877 65.9048058573 65.8986915805 65.9008820961 65.9202774879 65.9411113369 65.9512676564 65.9498519045 65.9518295547 65.9707911687 65.9812343742 65.9797318677 65.9867659659 65.9954062469 65.994518194 66.0002860076 66.0005708834 66.0016301246 66.0016451663 66.0010689104 65.9988622997 65.9941999289 65.990013576 65.985751629 65.9800009025 65.9706767883 65.9611519379 65.9535639738 65.9457837021 65.9355180523 65.9223283603 65.9120899885 65.9045537648 65.8969498333 65.8846131263 65.8742796372 65.8681917146 65.8646424062 65.8617873065 65.8555257319 65.8533452693 65.8561727639 65.8641402815 65.8693945799 65.8760978153 65.8859179104 65.9025668638 65.9256580062 65.9446139423 65.9635022383 65.9872416276 66.0209373361 66.055086465 66.0856032171 66.1141701038 66.1507436193 66.19542156 66.2354710768 66.2686917699 66.3028908887 66.3450470901 66.3898476416 66.4265572429 66.4564930749 66.4897224187 66.5266738011 66.5617998571 66.5871933752 66.6101560169 66.6312685007 66.6571171042 66.6806851822 66.6871099598 66.6937261069 66.7378005489 66.7035480114 66.7459989063 66.742697468 66.6962989037 66.752542948 66.7615820831 66.6611631404 66.6538861174 66.7119641247 66.7172857213 66.6616203712 66.5494952157 66.5390926379 66.6143171495 66.6750605464 66.6648770079 66.568949993 66.4311091327 66.3322478235 66.3457778017 66.3958576982 66.4380520354 66.443776336 66.4379315523 66.3716499309 66.2673180296 66.1404871102 66.068949136 66.0688935115 66.1215981129 66.1469328954 66.170192688 66.1721740433 66.16984787 66.1375921961 66.0909918698 66.0248437187 65.958000701 65.8815754096 65.8236609517 65.8117225581 65.8324848521 65.8518256449 65.8568507093 65.8847404036 65.8885672464 65.865433697 65.8554655589 65.8345995153 65.8170230881 65.7966445102 65.7559970466 65.7350734927 65.7128027531 65.6897132117 65.6683441089 65.6543932358 65.6543818678 65.6633526012 65.6704876466 65.6774546865 65.6764386413 65.6791485386 65.6755981234 65.6750298219 65.673319442 65.6705825031 65.6582376374 65.6540603129 65.6494772812 65.6379220769 65.6336882391 65.6294624256 65.6215465286 65.6181820807 65.6147324482 65.6092156672 65.6065954194 65.6044761831 65.6035195866
65.5795318644 65.5798864007 65.5806839995 65.5817691853 65.5830869171 65.5840960708 65.585065195 65.5871757526 65.5883637946 65.5895531152 65.5927673736 65.5940796886 65.5952832652 65.5988958304 65.5997141329 65.6002422163 65.600447657 65.6023744905 65.601484923 65.6030709717 65.6004634842 65.5988601756 65.5962566018 65.596379154 65.5995722103 65.6058881379 65.612008546 65.618140655 65.6241546981 65.6354723316 65.6417454463 65.6474358989 65.6523385599 65.6588866706 65.6614617761 65.6670314512 65.6654540487 65.6623919232 65.6599957403 65.6561281963 65.6615680511 65.6729842289 65.6907869702 65.7061648256 65.7222433221 65.7348375548 65.7448493411 65.7516876436 65.7529398865 65.7518657757 65.7513388035 65.7442616541 65.746959585 65.7603823559 65.7865377805 65.8216450809 65.8396779619 65.8436207275 65.8453104024 65.8425459262 65.8367632305 65.840361655 65.8561654239 65.8794169834 65.9029454811 65.9211647788 65.9199597557 65.9158641711 65.9175966633 65.9343676051 65.9547277012 65.9665337628 65.9668031913 65.9682485691 65.984442891 65.9914690784 65.9914598319 65.9973897851 66.0022387552 66.0017221835 66.0046146467 66.0033838359 66.0037188432 66.0014317826 65.9981118693 65.9959173481 65.9897227926 65.9830005596 65.9783716543 65.9691170348 65.9585837136 65.9470340963 65.9399926531 65.9271706527 65.9137522764 65.8999989001 65.880596168 65.8784925204 65.8654169694 65.8530005723 65.8417507732 65.836155527 65.8274516204 65.8207246431 65.8162428168 65.7999122438 65.8158834856 65.8191440507 65.8256975788 65.8358024394 65.8453685015 65.8615262268 65.881652401 65.9054541942 65.9140757556 65.953464929 65.9867321426 66.0231961476 66.0623394155 66.0896730991 66.1325649492 66.1775446774 66.2237396527 66.2600366737 66.3012829413 66.3485505609 66.3954161233 66.4409893181 66.4695064687 66.5122938802 66.5529832444 66.590867035 66.6323972714 66.6453833805 66.6905115362 66.7108456766 66.7327519307 66.7549475442 66.7692845317 66.8111272629 66.8128154433 66.8390195502 66.8375115952 66.8183197691 66.8546891108 66.8513927722 66.7804354214 66.8071691947 66.8523481997 66.8531956605 66.755520224 66.664298528 66.6819968203 66.7344215011 66.7924189274 66.7409809047 66.6532299039 66.5306284926 66.4401201709 66.4298347226 66.4961633263 66.5469505963 66.5714627485 66.5850344409 66.5103564089 66.3275249991 66.2041242484 66.1366656892 66.1282029668 66.1727216297 66.184377793 66.2044107072 66.2168704249 66.198550157 66.1641455579 66.1164697383 66.0519271207 65.9885877534 65.9163124564 65.8662542778 65.8417070716 65.8591987009 65.8709221294 65.8892771892 65.9002488987 65.883874792 65.8782760127 65.8605199912 65.8451331375 65.8263390591 65.8049651845 65.7627327382 65.7419611581 65.7205421483 65.6989830172 65.6759144531 65.664890162 65.6644886637 65.6735756122 65.6789620178 65.6879835099 65.6833236862 65.6864327284 65.6797595445 65.6789246932 65.6769164132 65.6738576069 65.6607068768 65.6562206098 65.6513600379 65.63927307 65.6349203089 65.6306335037 65.6226179617 65.6193518792 65.616064084 65.6115498177 65.6084475589 65.6061950424 65.6051372015
65.5811460333 65.5814251506 65.582082165 65.5831626231 65.5841127451 65.5846603835 65.5855552704 65.5876571911 65.5888401962 65.5900467401 65.5934022458 65.5947872707 65.5960761774 65.5999355404 65.6008537735 65.601483312 65.6043113097 65.6039925167 65.6048869374 65.6053016161 65.6033715743 65.6040288352 65.6017383597 65.6020274916 65.6043895612 65.6098490731 65.6149421883 65.6204564341 65.6261941755 65.6378109339 65.644265026 65.6502369498 65.6554761295 65.6623295962 65.6653181165 65.6716451239 65.6710516952 65.6743679029 65.6712247601 65.6694541685 65.677248966 65.6902726418 65.7026255548 65.7139064534 65.7266022666 65.7410625834 65.7514149746 65.7590275512 65.7707133263 65.7708501175 65.7694899994 65.7663514547 65.7709539635 65.7811620874 65.8174368491 65.8366521953 65.8526339335 65.8672780667 65.8725315083 65.8718674709 65.8739603222 65.8709951306 65.8830534757 65.8998440281 65.9194228777 65.949874671 65.9513107318 65.9505742211 65.9543938863 65.9743353586 65.9866958872 65.9936935481 65.9981311429 65.9995772648 66.0030297551 66.0077413722 66.0088639486 66.0132574332 66.0148281978 66.012622196 66.0136543598 66.0083632258 66.0076985602 66.0003779387 65.9979809664 65.9885724219 65.97635494 65.9708129513 65.956287071 65.9392850561 65.9198190053 65.9154731101 65.895306444 65.8686285086 65.8448014227 65.8450378312 65.8226732772 65.8008588524 65.7648197744 65.7424624209 65.7536694062 65.7362657813 65.6983223502 65.6838866689 65.7074583113 65.7004172044 65.6981113814 65.6665984843 65.6720488916 65.7130218349 65.7277869129 65.7092826822 65.734714889 65.7876797084 65.8215549481 65.8614393526 65.8666300412 65.9178719421 65.9773145158 66.0329361787 66.0583875955 66.123526404 66.1791517372 66.2437906175 66.3095605458 66.3574801938 66.427567971 66.4653275004 66.5282754881 66.5866879651 66.6489732259 66.665620237 66.7168121833 66.7778256616 66.8241563753 66.8589760133 66.879405488 66.9135122283 66.932372269 66.9621614949 66.9772174004 67.0227478915 67.0261123028 66.9993044324 67.0293779198 67.0232702061 67.047580661 67.1127887344 67.0933471165 67.1062680351 67.0555716626 66.949016985 66.9576373637 66.9905024248 67.018619788 66.8534267555 66.783215925 66.6987521263 66.6352081997 66.6800277013 66.7042607493 66.7367766807 66.7361047007 66.6623901401 66.594835062 66.5040659413 66.3136226283 66.264250443 66.2501166415 66.2725438459 66.2950960175 66.3078379678 66.255462498 66.2319560155 66.1947310486 66.1380414963 66.0870597744 66.0429847796 65.9901324811 65.9359441797 65.9002224524 65.9087721352 65.9259074857 65.9139413664 65.9202383263 65.9003968173 65.8927887585 65.8734382614 65.8564986008 65.8363965769 65.8141131192 65.7704284634 65.7504735639 65.7311283742 65.7131472995 65.6927010764 65.6845691338 65.6836099569 65.6916985183 65.689059375 65.6957320547 65.6941676446 65.6919966942 65.6930445631 65.6831502837 65.6807674275 65.6773364951 65.6632810984 65.6584604384 65.6533059642 65.6406477171 65.6361917169 65.6318781805 65.6238127011 65.6207521489 65.6185102181 65.6155694905 65.6119966215 65.6101762107 65.6094026199
65.5827116017 65.5828917842 65.5832666184 65.584083544 65.5848332153 65.5856644328 65.5875172032 65.5887051497 65.5893176402 65.590540058 65.5940484962 65.5955113798 65.5968926937 65.6010276443 65.6020574547 65.6028035732 65.606437172 65.6085751659 65.6076484331 65.6076362595 65.6079111421 65.6084214164 65.6075866213 65.6079398038 65.6110073646 65.6143785431 65.6176573777 65.6226906299 65.6282252258 65.640211224 65.6468917618 65.65319424 65.6588364173 65.6721651707 65.6751826181 65.6781997002 65.684878859 65.6831109186 65.6868163153 65.686471552 65.6964260637 65.7029522603 65.7124935836 65.7309001062 65.744225392 65.7476486282 65.7586018882 65.7673605954 65.7735327793 65.798865972 65.7981537358 65.7982239579 65.8114222932 65.8102465456 65.8363576421 65.8519809417 65.8667975276 65.8936325271 65.9007144844 65.9023042763 65.9049724196 65.9141400341 65.9230637803 65.9353405359 65.9742273543 65.9869335557 65.9925411903 65.9963203529 65.9931295984 66.0013859567 66.0098258792 66.0255970951 66.0257782372 66.0294591102 66.0330943998 66.0282270032 66.0351745578 66.0322732523 66.031816005 66.0278130694 66.0251474604 66.0218648473 66.0112301085 66.0064631563 65.9910064867 65.9808399662 65.9644000924 65.9406512341 65.9137321117 65.9031480901 65.8728034641 65.8394659758 65.8040504237 65.7669953241 65.7613150898 65.7153366933 65.6766791258 65.6384053704 65.6422651338 65.588547388 65.5540503817 65.5224991153 65.4946910662 65.5172567721 65.4645463292 65.4488804238 65.4396989507 65.4805456329 65.4388237785 65.4476030736 65.4648841019 65.4910222624 65.5549786754 65.540747542 65.5881742262 65.6444171972 65.7202710804 65.7338059123 65.8090448671 65.8911362654 65.9792491096 66.0567557591 66.1060364732 66.2039310223 66.3039543346 66.3688518172 66.4402610976 66.5401122295 66.6375905329 66.7314770531 66.7655320605 66.8503213035 66.9307796384 67.0037513982 67.0073300501 67.0887661315 67.1401190263 67.1571827352 67.1948694251 67.2079663904 67.2188835593 67.235153873 67.2384052044 67.3094166456 67.227214222 67.3912631311 67.3802970472 67.3698242989 67.4109339179 67.2999081939 67.2672854656 67.2395781021 67.3311306204 67.3311607323 67.3254301041 67.2382035721 67.0245131068 66.9648112767 66.9206653134 66.8851471762 66.8851080119 66.9104107917 66.8926661795 66.7483970691 66.6835247375 66.6092675135 66.4944710349 66.5012425532 66.4222306658 66.427396677 66.4393534924 66.3174925711 66.2992956446 66.2689251806 66.2276439029 66.2327131016 66.1756230757 66.0870434939 66.0460567506 66.0178561613 65.974045555 65.9763171979 65.9645410624 65.9697738693 65.9473666335 65.9434754595 65.9353051168 65.8873780432 65.8685976069 65.8469704664 65.8235828423 65.7781622475 65.7587549054 65.7409879317 65.7296007957 65.7175274934 65.7053588279 65.7041534814 65.7070758238 65.7046252087 65.7035839944 65.7040573081 65.7071219484 65.699811144 65.6876811518 65.6848669097 65.6810193278 65.6659535766 65.6607698274 65.6552997921 65.6420214011 65.6374626473 65.6342468678 65.6300392004 65.6230355512 65.6203018578 65.6178917224 65.6149594547 65.6138624554 65.6131154334
65.5837660116 65.5838701423 65.584070779 65.5845027247 65.5854321066 65.5861962545 65.5870303851 65.5891634567 65.5904034523 65.591025599 65.5947010511 65.5962481833 65.5977294265 65.6021701239 65.6033197374 65.6077919927 65.6080011804 65.6104036049 65.6096112593 65.6103668171 65.6100939469 65.6105037538 65.6096681871 65.6099682155 65.6128491142 65.6162119049 65.6206683886 65.6259136044 65.6300536087 65.6360013064 65.6495697462 65.6562750707 65.6623836215 65.676901979 65.6804535032 65.6885098379 65.690964141 65.6900441186 65.6938628326 65.699240647 65.7065490551 65.7091052331 65.7187418402 65.7377292557 65.7516422922 65.7648228404 65.7795102598 65.7952246784 65.8009875759 65.8118420784 65.8128811092 65.813996736 65.8263317032 65.8345516089 65.860572296 65.877520537 65.893483779 65.908504092 65.9184789574 65.9253439608 65.9361068341 65.9407708163 65.9584608031 65.98220573 66.0036120586 66.0073544931 66.0166202713 66.0230661912 66.0216079779 66.0274308821 66.0399819037 66.0508695717 66.0568022598 66.0549971404 66.0564782873 66.0628960274 66.0576999827 66.0566396371 66.0509366045 66.0478418181 66.0398455187 66.0311442434 66.0190356438 66.0046539482 65.9822905064 65.9678146085 65.9381546056 65.9072156774 65.8850612271 65.8457602258 65.803128721 65.7574962015 65.7081171603 65.6838559558 65.6334840294 65.5820962973 65.5224877654 65.5038327183 65.4538394223 65.4055712667 65.3598438605 65.3371565579 65.2980705407 65.2639747573 65.2357645393 65.1860515699 65.2062947443 65.1981060069 65.1988397754 65.2091594924 65.2177293352 65.2448186485 65.2825253844 65.3310084512 65.3456454182 65.4248121355 65.5008691056 65.5866404228 65.6815293896 65.7331216322 65.840784225 65.9548603729 66.0742478269 66.1627441354 66.2620769753 66.3888372031 66.5157561295 66.6216755056 66.7049404008 66.8253303934 66.9404893106 67.0491917114 67.1533093383 67.1981099787 67.2825116883 67.3248970224 67.3853134173 67.3892130796 67.4508471523 67.4392369089 67.4830589921 67.4584722775 67.564638685 67.6368957057 67.656208914 67.6122140492 67.6072321913 67.6641148124 67.6428557448 67.5906415 67.5359244522 67.5067084238 67.5267886733 67.5101504806 67.4817406183 67.5131583509 67.3994658365 67.2295277231 67.0872686067 67.0682800491 67.0404524184 67.022946558 66.9880917577 66.9259005742 66.8280541286 66.743714603 66.6242627707 66.5784720165 66.5038169704 66.5039674054 66.5075631884 66.4550593183 66.4377490578 66.3846717222 66.3247631617 66.2688544518 66.2080349591 66.1155374392 66.0735550433 66.060637156 66.0319659457 66.0067584348 65.9902438202 65.9959909231 65.9924021022 65.9655419373 65.9549661552 65.9021478354 65.8812788966 65.8578377099 65.8061418457 65.7852241717 65.7709404728 65.7521506003 65.736126643 65.7239956869 65.7125512813 65.7115202995 65.7144269218 65.7122618296 65.713691708 65.7108858229 65.713456973 65.7052339276 65.704237655 65.6891943239 65.6848981769 65.6687121326 65.6631354016 65.6573242523 65.6433689816 65.6399238644 65.6354056706 65.6271653434 65.6242960153 65.6217112602 65.6181905267 65.6168291951 65.6160104485 65.6156806077
65.5838307069 65.5840206132 65.5844741846 65.5849395725 65.5855278368 65.5866572296 65.5874729067 65.5895971866 65.5908327785 65.5942984652 65.5959944334 65.5969936066 65.6026778843 65.6041130056 65.6085876201 65.6092847417 65.6126469109 65.6122128505 65.6114085078 65.6121584446 65.6124294506 65.6098815734 65.6083589873 65.6085156423 65.6109205916 65.6163080378 65.6215651641 65.6272709604 65.6388697595 65.6463911186 65.6539403552 65.6594537059 65.6785442898 65.6837376933 65.6970882781 65.6936019631 65.6956703112 65.6937207158 65.694348718 65.6976670465 65.7013358685 65.7124550274 65.7318112745 65.7489364552 65.765405077 65.7811609608 65.795548601 65.8044346411 65.8220614996 65.8233484567 65.8194486581 65.8232449237 65.8251718682 65.841531895 65.8835522524 65.8989944363 65.9190980755 65.9448802041 65.9529017886 65.9544131153 65.9510003447 65.9532852666 65.9648319159 65.9920150382 66.0175656801 66.0312814207 66.0338222382 66.0393403538 66.0424578844 66.0426117772 66.0558983158 66.069974828 66.0786735325 66.080292801 66.0750837561 66.0812954336 66.0843463422 66.0766128949 66.0723798311 66.0658064019 66.0529578994 66.041117571 66.0276814275 66.0067908138 65.9877522899 65.9584817017 65.9262041052 65.895809549 65.855804939 65.8105986664 65.7618892726 65.7227605883 65.6695882661 65.6133210162 65.5559577017 65.497703327 65.456644843 65.3948394599 65.337919931 65.282877403 65.2502810186 65.202005408 65.1482426909 65.1087610033 65.0756844236 65.0685666629 65.0350366294 65.0242989865 65.0231570956 65.0467470798 65.0652242689 65.0740612291 65.1140385222 65.1655636859 65.2342633977 65.283395461 65.3662029019 65.4596440162 65.5592623891 65.6692706405 65.7648459179 65.890351263 66.0215444979 66.1426757137 66.2620874625 66.4021166383 66.5426434715 66.6599542361 66.7953297011 66.9188364833 67.046855691 67.1678921485 67.2543740242 67.3596897709 67.4296737227 67.5092496926 67.5610203417 67.6163676267 67.6949092504 67.64909545 67.7552421003 67.8190307203 67.8315136676 67.8851692104 67.9013334478 67.8532649582 67.8140434701 67.8049883561 67.7857146398 67.7238255642 67.6459235178 67.625042001 67.6078920535 67.6162932731 67.6764942046 67.6223544551 67.4727373777 67.2636313172 67.1822227329 67.1758821048 67.2147467053 67.2423074365 67.2255405593 67.0715695324 66.9688385788 66.8898460323 66.6519704086 66.5618289348 66.5524134708 66.5335117644 66.5652089808 66.5714653646 66.4865587033 66.4595260149 66.4021013703 66.3316116099 66.2581311768 66.1807328283 66.0867574972 66.0380163456 66.0218914056 66.0083660176 66.0059524646 66.0161483933 66.0139349606 66.0288066509 65.9818396044 65.9643110872 65.8944267578 65.8756337249 65.848310057 65.8208586994 65.7760109004 65.7554382892 65.73643082 65.7159473423 65.7075854007 65.7070433047 65.7116494863 65.7201881303 65.7194831981 65.7171672928 65.7197494932 65.7210097967 65.7094094503 65.706644354 65.6906786837 65.6852078722 65.6655429164 65.6605314514 65.6542058816 65.6410374572 65.6364827857 65.6281963583 65.6253534644 65.6209950143 65.61914033 65.6175044205 65.6161381996 65.6154689378
65.5834380493 65.5837916806 65.5845707212 65.5853787928 65.5864333459 65.5870876334 65.5878968445 65.5900129774 65.5912462101 65.5925740462 65.5965705183 65.6024013101 65.6042609955 65.6051893011 65.6100230011 65.6108465859 65.614471767 65.614055876 65.6157839521 65.6156317043 65.6134855009 65.609420423 65.6059756312 65.605925578 65.6095943401 65.61613037 65.6223326557 65.6285467234 65.6406724695 65.6485733819 65.6686489519 65.677013477 65.6842859621 65.6884388196 65.7028119986 65.7033821451 65.7050726602 65.703440735 65.6940301819 65.6874219248 65.6926605469 65.7093514419 65.7332685402 65.7536696516 65.7934547492 65.8119551521 65.8271314648 65.8365166551 65.8303266269 65.8292987903 65.8283132787 65.8136508408 65.8155088363 65.8482488989 65.8942625995 65.9250661738 65.9509167783 65.9578338302 65.9639568748 65.9590708571 65.9488000328 65.94422919 65.9667547908 65.9980747873 66.0291390322 66.0436142353 66.04752871 66.043597062 66.0451260134 66.0635419409 66.0734781911 66.0869608704 66.0927101903 66.0928441921 66.0878783836 66.0933533187 66.1030971107 66.0938537176 66.0810865945 66.0857823864 66.0596806601 66.055790068 66.0296932277 66.0085722935 65.9858292262 65.9534229342 65.9123591351 65.8704899031 65.8379011058 65.7896506659 65.7296581882 65.6681136764 65.6240819038 65.5696303077 65.5031993712 65.4296809149 65.3827258324 65.3208931747 65.2618316417 65.1924076577 65.1263123001 65.0858325881 65.0452988551 64.9998529576 64.9513268427 64.9397037177 64.9060881314 64.9001278107 64.8924344093 64.8892175362 64.9029615989 64.9407433515 64.9886482812 65.0358520288 65.1068457857 65.1559822628 65.2559834224 65.3611358547 65.4610044522 65.5501723337 65.6825535463 65.8320759335 65.9750134482 66.1055341396 66.2254981001 66.3886199636 66.5535798619 66.6999239585 66.8105847868 66.9548657128 67.1070402923 67.2461552434 67.3420147761 67.4475176887 67.56252943 67.6596737535 67.7394804875 67.778869012 67.8445717949 67.8851212019 67.9203318706 67.9405107002 67.9832789781 67.9345154963 67.966501705 67.9472433168 67.8617505978 67.8497577958 68.0073005819 67.9625331011 67.8796349257 67.6006286419 67.5814655245 67.7016768797 67.7705751054 67.7213957142 67.5236532186 67.2806488572 67.0808745839 67.1252410778 67.2310245583 67.3126206009 67.3130811251 67.2992765581 67.1556247575 66.9529539978 66.6915412149 66.4963928052 66.4882462512 66.5713654733 66.5956870753 66.6158951912 66.6495915334 66.613163087 66.5456917962 66.4626811742 66.2810577721 66.187869138 66.0735420573 66.0000934989 65.9770563689 66.0050204652 66.0475921732 66.0551288095 66.0522226036 66.0526703868 66.00164802 65.9881582821 65.9620407873 65.9315319991 65.8569845013 65.8278802199 65.7808065398 65.758287531 65.7357895201 65.7114012477 65.6985776598 65.6987558452 65.7107884777 65.7239208021 65.7308803734 65.7316631951 65.726176899 65.7273408855 65.7148369871 65.7116027676 65.6943671061 65.6895851627 65.6825571157 65.6623117535 65.6470929231 65.6420955997 65.6375030648 65.6291787442 65.6263426392 65.6237298087 65.6199729513 65.6176200057 65.6153086738 65.6143407362
65.5834779837 65.5839570431 65.5849154486 65.5858473523 65.5866120081 65.5877346017 65.5883263325 65.5913491393 65.5926312377 65.5962754761 65.5980759311 65.6030890411 65.6050781348 65.6105272298 65.6119818303 65.6165618668 65.6164063035 65.6193038245 65.6177837465 65.6175754962 65.6150602299 65.6102653307 65.6062519713 65.6062559673 65.6104716019 65.6189337701 65.6259491492 65.6371495924 65.6453591667 65.653678457 65.671525845 65.6804498698 65.688321421 65.7061394221 65.709655013 65.7201585379 65.7109623742 65.7131187824 65.6985878072 65.6884262503 65.6956338281 65.7196191415 65.7452873588 65.7684552749 65.8017208079 65.8214436081 65.8374050327 65.8475817916 65.8569753716 65.8505272421 65.834695742 65.8176805677 65.8173911841 65.8557331868 65.9059998071 65.9382015575 65.9654495635 65.9814275372 65.9773928997 65.9686092024 65.9524300787 65.9483969079 65.9826431671 66.0243950707 66.0551537703 66.0610592903 66.0557232129 66.0467689623 66.0504689782 66.0736881644 66.0934961834 66.100271877 66.0958414186 66.0970744125 66.0917226224 66.0934053678 66.1034969342 66.0907367712 66.0781845849 66.0827686143 66.0529285222 66.0508400654 66.0208581777 66.0004668101 65.9813443949 65.9457604448 65.9062729501 65.8612019318 65.8206796468 65.7736466112 65.7193009098 65.6521714179 65.5955402563 65.5441248029 65.4877458626 65.4072802454 65.3355270003 65.2830325512 65.2293214026 65.1647197696 65.0877271732 65.0354578306 65.00329845 64.9672629592 64.9075517647 64.8631629385 64.854269602 64.8583921543 64.8473527221 64.8305621867 64.8457333627 64.8964858893 64.9442617791 64.9801770548 65.0269319669 65.1129113324 65.2247332789 65.3144496829 65.4053762025 65.516178905 65.660594416 65.7967509679 65.9355658447 66.0678074383 66.2179064028 66.3878595381 66.5331269137 66.6817255356 66.8220674964 66.9694214423 67.1038397736 67.2489869305 67.371843834 67.4779582769 67.5837781805 67.6748969736 67.7720568362 67.8375875192 67.8740131744 67.9980387212 67.9522425333 68.086200461 68.0688295408 67.9619959502 68.0932583136 68.1169559766 67.9398851802 67.9128480033 68.1512606355 68.2307945351 68.0180655324 67.6708244829 67.6216937856 67.7886761275 68.0140161162 67.9461205946 67.742090261 67.4015767329 67.1114662588 67.1542796256 67.3036379821 67.412176127 67.4755258218 67.3976369254 67.241345901 67.02527262 66.7364204247 66.5074258669 66.5092968786 66.6074186526 66.7089935195 66.7560575588 66.7084795726 66.6668331646 66.593558407 66.5033920962 66.3430576501 66.2379399146 66.1220222415 66.012185256 65.9811402498 66.0263341606 66.0857265367 66.0808990229 66.1165595745 66.0816970295 66.0701300997 66.0050326892 65.9762391908 65.9432543526 65.8750721421 65.8442447427 65.8138490449 65.7705329524 65.7453243964 65.7145600953 65.6997573183 65.6997377301 65.7132484967 65.7294503723 65.7376622948 65.7386394336 65.7434835942 65.734058961 65.7335032497 65.7175167534 65.7119327682 65.6923582065 65.6848309182 65.6662615585 65.6594539557 65.645504277 65.6407617909 65.6301844459 65.6275892621 65.6233772414 65.6211523775 65.6183166818 65.6157344707 65.6144438445
65.5846873349 65.5850559493 65.5858091221 65.5865462896 65.5872352597 65.588951439 65.590748429 65.5919297269 65.5929430648 65.5966648231 65.5985192103 65.6038024519 65.6059303057 65.6117671472 65.6174284702 65.618322704 65.6226000591 65.6249301925 65.6228299056 65.6224430824 65.6187734504 65.6145792907 65.6115915723 65.6125780203 65.6171830839 65.6230124646 65.6283712041 65.6346556214 65.6473253622 65.6557698834 65.6745897193 65.6841169484 65.6926648799 65.7120865642 65.7162253212 65.7281907404 65.7287090853 65.7246083372 65.7176294476 65.7105579974 65.7162625433 65.7354481893 65.7566118375 65.7776919622 65.8115510116 65.8320941753 65.848644258 65.8606173021 65.871886664 65.8682450701 65.8669795012 65.8522540339 65.8627428969 65.9029520522 65.9312267077 65.9643473981 65.9832613471 66.0001281716 66.0101018144 66.0039717341 65.9927796388 65.9925552541 66.0205917027 66.0746608703 66.1001395049 66.1027858912 66.0989835797 66.0821513561 66.0808735871 66.0967398422 66.1100017871 66.1191682072 66.1146971602 66.1083587335 66.1068514423 66.100434034 66.0824187605 66.075625792 66.0530413713 66.0400935066 66.0115572562 65.9930741497 65.9598522442 65.9371804371 65.8934493317 65.8648231562 65.8069377212 65.7766472531 65.7071700684 65.632880881 65.5531422315 65.4690055677 65.4247471465 65.3342996664 65.2415061734 65.147379062 65.1225128164 65.0051416683 64.9121633378 64.8221534199 64.7371045853 64.6960672146 64.6189710669 64.5504757812 64.4918812808 64.52946389 64.426239114 64.3981704614 64.3852179214 64.3891543247 64.399830142 64.4282392134 64.4758262478 64.5424411943 64.6830250086 64.6816680294 64.7947571367 64.926178143 65.0751031302 65.1602271803 65.3306620575 65.5152076946 65.7110498082 65.901925069 66.0245969936 66.2374753416 66.4529157747 66.6676429472 66.777084093 66.9852705406 67.1860561202 67.3762113243 67.4853284714 67.6379815328 67.7919217217 67.9318507611 67.9912356116 68.1211994431 68.1636742775 68.291335683 68.297390025 68.4075699628 68.5146837304 68.6014780732 68.6793050534 68.7321972124 68.5066891325 68.5510641928 68.716105423 68.5117451842 68.3607256357 68.1311316446 68.1308192736 68.3643690406 68.4787491697 68.39544231 68.1927311896 67.7242870485 67.4850550335 67.4967097551 67.6223913476 67.7056078063 67.611863165 67.5197939035 67.3731025435 67.1778860902 66.9980833344 66.7784786264 66.7124421525 66.8039379486 66.8101313277 66.8388430588 66.7786098247 66.7236429242 66.6471291008 66.5513992878 66.3862464949 66.2897651203 66.1936864788 66.1018344425 66.0769148274 66.1085869606 66.1352085054 66.1500472366 66.1502259351 66.1093026914 66.0947574609 66.0231603751 65.9913438147 65.9556860149 65.883398554 65.8518437942 65.8020762789 65.7793552306 65.7600372142 65.7390690126 65.7217478146 65.7180554167 65.7282348571 65.7417267723 65.7536807547 65.7553083953 65.7615130426 65.7538057543 65.7396147335 65.7360172768 65.7162095321 65.6952491454 65.6871892906 65.6675926847 65.660545015 65.6462335452 65.6416702835 65.6374549105 65.6305798455 65.6249712021 65.6226443326 65.6206703013 65.6186553124 65.6176699631
65.5864041741 65.5865482019 65.5869198153 65.5873970455 65.5884475122 65.5894710722 65.5902466929 65.5922936702 65.5954936552 65.5970491944 65.5989564479 65.6045353451 65.6068112238 65.6130802707 65.6197747895 65.6247227641 65.6246783112 65.6273159963 65.6256264547 65.6256206813 65.6227269102 65.6211519621 65.6195651649 65.6197373051 65.6227362719 65.6268395449 65.6320205676 65.6424991076 65.6493690645 65.657913849 65.6778087056 65.6880039702 65.71117677 65.7186475723 65.7388889932 65.7387678508 65.7455503362 65.7383653474 65.7441388961 65.7400804902 65.7454095588 65.7577450669 65.7688183528 65.7876967273 65.8222220766 65.8437275664 65.8618648445 65.8987738708 65.8831815435 65.9143839518 65.8994478044 65.9089516864 65.9272498427 65.9451043172 65.9727308715 66.0144160563 66.0035173069 66.0223177447 66.0328058462 66.0713526801 66.0665669316 66.0833142502 66.0808403639 66.1107787071 66.1300658278 66.1548397497 66.1549783474 66.1436622448 66.1426874045 66.1492773067 66.1585996342 66.1579537001 66.1543372245 66.1366165954 66.1166409339 66.0978538696 66.0713987069 66.0576609255 66.0297790549 65.986529651 65.9642863276 65.9378067468 65.8818441159 65.8512944036 65.782704075 65.7034262263 65.6622870653 65.5689739748 65.4669182787 65.3565856486 65.3012747324 65.1804365833 65.0538641602 64.9226505311 64.8586850233 64.7231248491 64.5867705225 64.4511131725 64.3177429099 64.2552615177 64.1289295472 64.0098428793 63.8999311871 63.8509621679 63.7585232348 63.6807871077 63.6197836251 63.5775381478 63.5641661061 63.5532590838 63.5655918479 63.6025441323 63.6288713899 63.7041489782 63.8059200293 63.9343642904 64.089347398 64.172350239 64.3647004014 64.5804703543 64.8179405581 64.9384774708 65.2035175845 65.4830042388 65.7737943682 66.0724813462 66.2169743951 66.5192311929 66.8186519665 67.1113339545 67.2479021593 67.5228673496 67.7805825769 68.0178457733 68.1230809833 68.3233336619 68.4924321865 68.5663500732 68.6926554995 68.7488548123 69.0884286658 68.8603209389 69.2242204719 69.2388025584 69.3822578083 69.2420634506 69.254936505 69.4732501383 69.5007328651 69.4731554135 69.0337503872 68.919708526 68.8669478701 68.9674786889 68.9766067294 68.6876095145 68.516778705 68.2473072356 68.2397173724 68.0752218717 68.1155686417 67.834017747 67.7745872891 67.659366011 67.6932950361 67.4070172996 67.2448358324 67.1407623195 67.0313175854 66.9952163097 67.0423704856 66.8934499591 66.9621451649 66.7919203329 66.7053783702 66.6032112686 66.4327186473 66.3455634623 66.2911583529 66.2360208849 66.2040590702 66.2195194798 66.1952447472 66.2151449523 66.1935954144 66.1940995516 66.1217981249 66.0937795104 66.0072828407 65.968681903 65.8918661087 65.8596718488 65.8339613693 65.7924648773 65.7738103062 65.7591675011 65.7472846246 65.7466432192 65.7507587162 65.7555911604 65.7647158574 65.7646520154 65.7697148962 65.7609624505 65.7604850444 65.743545131 65.7207326898 65.6982350262 65.6896104614 65.6688923807 65.6616080148 65.6548172409 65.6425230492 65.6344499093 65.631871294 65.6280123327 65.6248692036 65.623592269 65.6225972495 65.6222114896
65.5874208564 65.5875805781 65.5879891382 65.5885139653 65.5890550733 65.589936988 65.5906929802 65.5926528444 65.5938414328 65.5976561371 65.6029644653 65.6052808836 65.6130012207 65.6197479518 65.6214040406 65.6267710728 65.6308771377 65.6298285855 65.6311785661 65.6307385736 65.6272994212 65.6240630093 65.62189834 65.62175657 65.6241109609 65.6291108357 65.6342363979 65.6445900048 65.6525974643 65.67095097 65.6822011485 65.6920833757 65.7203370149 65.7433548917 65.7472413112 65.7606587508 65.755896869 65.7532100878 65.7513756651 65.7454945941 65.7508801554 65.7652385983 65.7843280759 65.8166319352 65.8417893212 65.8560493619 65.8761717038 65.9267066391 65.9363946702 65.9358342863 65.9367259082 65.9273290987 65.9516827564 65.9811637271 66.0214623947 66.0385458981 66.0687598671 66.0902448677 66.0986472576 66.1024004076 66.0974985326 66.1102080605 66.1359922243 66.1679116615 66.2024009213 66.2216099439 66.216860994 66.1903612083 66.1824606588 66.2001755964 66.2008248378 66.1792922352 66.1770463877 66.1543930718 66.124480995 66.0973091873 66.0853024843 66.0569306324 66.0123358633 65.965072158 65.9194073868 65.8740118898 65.802162711 65.7430782049 65.6813517307 65.5877058295 65.4789970185 65.359269725 65.27394668 65.1380999073 64.9931517151 64.8404178101 64.73442241 64.5724116966 64.4055557071 64.2361376214 64.0653735721 63.9528556399 63.7857668329 63.6225755122 63.4654504421 63.3644473892 63.2239698036 63.0948660928 62.9803670928 62.8817055213 62.8274561302 62.7641544076 62.7238702858 62.7082105367 62.711006686 62.7429461999 62.8037677761 62.8949501207 62.9692188038 63.1142249355 63.2891829969 63.4947913118 63.7288308734 63.8996956698 64.1803924117 64.4851069843 64.8104122588 65.0362826204 65.3890401973 65.7525557112 66.1225702374 66.4932654909 66.7402927096 67.1032514333 67.4555583833 67.7914767385 68.0060860211 68.3044485438 68.5743556029 68.7433562779 68.9463413631 69.1765829135 69.3305988098 69.401389854 69.6233384234 69.7306024315 69.746470843 69.9178782127 69.9042026824 69.8552682419 69.8631329051 69.9456754519 69.934278744 70.069154977 69.8500726975 69.3717397531 69.5000011301 69.6041029217 69.6282978688 69.359171543 68.9585012138 68.6883114156 68.4616498648 68.3317458007 68.3628585046 68.2770266002 68.2156287548 68.0402025487 67.8447272306 67.7073725783 67.4691642344 67.27758683 67.1481750644 67.1908844707 67.1630045446 67.1625940096 67.0960019364 66.8652294217 66.7666149876 66.690616108 66.570563907 66.4105542348 66.3255865131 66.2635074735 66.2343183871 66.255469505 66.2551618755 66.2591286355 66.2749530937 66.2283264462 66.2128815267 66.1288599319 66.0239100015 65.9868708854 65.9435835787 65.8717943063 65.8414277936 65.800295544 65.7820303117 65.7631264379 65.7556045899 65.7557008818 65.7612653106 65.770883575 65.7812300579 65.7826256229 65.7783084148 65.7811244081 65.7674568907 65.7491167149 65.7427188239 65.7189497552 65.6920704114 65.682334229 65.6625359856 65.6477840574 65.6433438887 65.6355164492 65.6324126399 65.6291323895 65.6277158776 65.6263382711 65.6252634345 65.6248426339
65.5871276989 65.5875621299 65.5883587107 65.5890701733 65.5896571609 65.5904777355 65.591074768 65.5928560309 65.5941432408 65.5979873771 65.6034895817 65.6113803941 65.6139890634 65.6212592287 65.6280707817 65.6289484155 65.6335941626 65.6360675281 65.6367309357 65.6332769835 65.6291152671 65.6240921746 65.6194544964 65.6194290779 65.6246347837 65.6306889459 65.6360771774 65.6418468937 65.6545529166 65.6634313913 65.6853258203 65.7157235877 65.7260557434 65.7514826668 65.7562449344 65.7709306922 65.7653600207 65.766593323 65.747095318 65.7327387158 65.7410258689 65.7655770304 65.7905038567 65.8255893727 65.8525375186 65.9151016937 65.9298772465 65.9457393171 65.9797402886 65.9512797348 65.9432090188 65.9188402748 65.9210851358 65.9749571942 66.0354222914 66.084501567 66.1323101966 66.1804980776 66.1392459395 66.1248618579 66.098985127 66.0904741942 66.1562224838 66.2298914655 66.2292294555 66.2476970754 66.2283087458 66.1953096032 66.1910982279 66.2140685192 66.2201733698 66.2082616177 66.1853687467 66.1823057393 66.1523662467 66.1072153064 66.1037377321 66.0711221861 65.9980625351 65.9819859088 65.8954875467 65.8591192309 65.7587134146 65.691877067 65.6074623965 65.4866089555 65.3494113547 65.2414956398 65.110890444 64.9518412399 64.7680473697 64.5847195355 64.4534413143 64.2759532769 64.0708999516 63.8560440339 63.7167809899 63.526618637 63.3332830844 63.1241876356 62.930282149 62.8048374324 62.6536723526 62.493481015 62.3374714367 62.283959209 62.1533344656 62.0826276153 62.0188512978 61.9779994315 61.9798098096 62.0216869545 62.0921587563 62.1786538004 62.3402049297 62.4209082382 62.6358033782 62.8765882868 63.1223872097 63.3322588181 63.6589068005 64.0360930124 64.4151915138 64.7704704891 65.0824577506 65.5295558754 65.9877762792 66.4074801036 66.7133017053 67.1361696218 67.5798299292 67.9899599643 68.2791478241 68.589282917 68.9210141653 69.2061897254 69.4481587543 69.5879289153 69.787557738 69.9218533913 70.0464933296 70.1150017854 70.2186714975 70.1523172305 70.4548838385 70.3548011749 70.080507892 70.0455529665 70.3406689735 70.3740899355 69.9985825053 69.4510198244 69.4505318696 69.7448627334 69.9034120724 69.6129242217 69.5660545513 68.8562907651 68.3007701819 68.3653493713 68.5243855715 68.6145425683 68.755235484 68.4160771342 68.0908330129 67.7882973998 67.4362085635 67.1274266809 67.110328143 67.2320222296 67.2505579018 67.3480498798 67.1930399781 67.1106315542 67.0282324248 66.7399898683 66.6104291521 66.437036597 66.3277599722 66.220397392 66.1882027996 66.2425574765 66.3061565461 66.2987126745 66.3165049053 66.264670112 66.245248626 66.1519111727 66.1126153609 65.9989104768 65.9129291586 65.8787395374 65.827524281 65.8066520607 65.786983366 65.7663848944 65.748683924 65.7485378336 65.7625035003 65.7775859853 65.7900236775 65.800287139 65.79815755 65.7901006534 65.7748195404 65.7711375248 65.7478344796 65.7222673904 65.7114721388 65.6839491935 65.663377133 65.6484283649 65.6427759513 65.6356628888 65.6337818469 65.6307130265 65.6291800664 65.6273135451 65.6252155542 65.6240690404
65.5871756764 65.5878274113 65.5888705291 65.589675223 65.5902749388 65.5907491988 65.5915759088 65.5932552675 65.5944321401 65.5993624953 65.6049326971 65.6120224834 65.6200530194 65.6229201515 65.6301912136 65.6363869231 65.6404219528 65.6425075335 65.6396505772 65.6361778742 65.631771226 65.6259904227 65.6199759163 65.6199220443 65.6259671925 65.6330166082 65.6388274971 65.6438846487 65.660298083 65.6797355564 65.6919628343 65.7200180959 65.7504153035 65.7605004702 65.7832302884 65.7823456234 65.7884771657 65.7762584011 65.7550877062 65.7340603621 65.7444475105 65.7795090852 65.8096101139 65.8475333207 65.8766908523 65.9293856014 65.9558314241 66.0064171437 66.0100255345 66.0000627101 65.9744573861 65.9267914268 65.9292480503 66.0058192251 66.0828729799 66.1603570846 66.2062156257 66.2150655951 66.2119951371 66.17760156 66.1194856155 66.1007458535 66.2013760287 66.2914928029 66.3043821208 66.306543709 66.2528826325 66.2023517282 66.2088500372 66.2617779645 66.2761220961 66.2327802586 66.193473521 66.1896841625 66.1677782947 66.1320275726 66.1061555131 66.0730292197 65.9772872728 65.9738447101 65.8669210811 65.8328380112 65.7145487382 65.6479737206 65.5633868583 65.4534241044 65.2975853197 65.1750066474 65.0476545023 64.8947201266 64.6927137677 64.4751547538 64.3401493714 64.1782679467 63.9713577456 63.7151212935 63.5430677306 63.3704765396 63.2017098591 62.9645794165 62.711992761 62.5826289782 62.4714444805 62.3195556175 62.1041097076 62.0031340003 61.908432906 61.8855583946 61.7940030236 61.684115097 61.6836826981 61.7894591877 61.8846726621 61.9154100061 62.032224615 62.1622350556 62.4407505444 62.672912474 62.8746908043 63.0878863404 63.4829135036 63.8982759024 64.2612411939 64.6046007839 64.9565383884 65.4532299378 65.9336366488 66.3673569352 66.6814885045 67.1355079864 67.6078086476 68.0538790308 68.3728813794 68.6821936004 69.0131980172 69.3455039321 69.5931040872 69.8098654837 69.9095889231 70.2490167806 70.1375789432 70.3982827055 70.5726732422 70.2937926589 70.8611281758 70.967167844 70.3055236332 70.1934583154 70.8539855327 71.1208974674 70.5361393098 69.633590926 69.5317229341 70.0087801936 70.4079270908 70.294162749 69.9172146065 69.1609347821 68.3674131205 68.4986643559 68.8655220639 69.0726152599 68.9793718554 68.8265618397 68.5219263693 68.0190936451 67.5860978371 67.173704174 67.1561899105 67.3796882191 67.4764327466 67.4955801371 67.4643316845 67.2284686569 67.0944216897 66.8362571256 66.6962803293 66.5093940495 66.3811360464 66.2344716927 66.1931773122 66.2724254342 66.3449667261 66.3822525686 66.3616044597 66.3630816651 66.2816934916 66.241957643 66.1291885418 66.021802069 65.974198622 65.8973873828 65.8343199001 65.8150342338 65.7948819298 65.7698079192 65.7501895396 65.7503574915 65.7690003751 65.7866227949 65.7997840016 65.8099846582 65.8182770877 65.8116709903 65.7985701926 65.7782317942 65.7526412537 65.7419385769 65.7135373196 65.6877552527 65.6668343893 65.6490134013 65.643711066 65.6369110122 65.6335654902 65.6323384055 65.6307778682 65.6286697453 65.6259202616 65.6241969111
65.5888185957 65.5891658481 65.5898164238 65.5904305308 65.590945167 65.5913672898 65.5917144696 65.5925741312 65.597555534 65.5995106379 65.6052344455 65.6126900268 65.6212375718 65.629939371 65.6380935599 65.6388598287 65.6432279801 65.6455321533 65.6428727487 65.639693333 65.6359445315 65.6318065407 65.6283621242 65.6283342041 65.631754475 65.6360198184 65.6418540094 65.654618611 65.6619660878 65.6817550547 65.6944356173 65.724593189 65.7578191413 65.7692394152 65.7945122518 65.811472807 65.803309151 65.7998198375 65.7824805787 65.7715572981 65.7835170262 65.8000383745 65.8235773458 65.8593286745 65.8884414404 65.9450723573 65.9747727595 66.0328420464 66.0404503201 66.0697368864 66.0447742968 66.0232517871 66.023984917 66.0675007497 66.1241276486 66.1974633747 66.2451901796 66.2728644342 66.2632627081 66.2655708563 66.2294712074 66.2404528822 66.3278584447 66.3543091927 66.3535977275 66.3596726285 66.3329364981 66.3103031089 66.3045429596 66.3539664581 66.359926566 66.3085893766 66.2791560871 66.246440172 66.1992938034 66.1294949584 66.099099276 66.0206864373 65.9403085974 65.8520724261 65.7880397765 65.6814513757 65.5727904303 65.4942156412 65.3464408973 65.2340422119 65.0677199052 64.868640113 64.6538269506 64.5098001242 64.2794316034 64.0252591381 63.7616785794 63.4906068139 63.3320627985 63.043651772 62.7595247602 62.4785505025 62.3423531119 62.0381517068 61.768340501 61.5127004834 61.2742507865 61.2056839282 60.9280975594 60.7408562231 60.5859538481 60.6123342047 60.4072097512 60.3394178132 60.3173511147 60.3443760395 60.5313346352 60.4822555133 60.6337840084 60.8426928523 61.1725906988 61.287000765 61.6298647502 62.026735687 62.4757278157 62.9551488486 63.2776796388 63.8288838145 64.4132669606 64.9446802136 65.3900780551 66.0173242246 66.646163059 67.2681547632 67.7384556908 68.2186720223 68.7759301898 69.2914642736 69.6111396281 70.0059047241 70.3728504523 70.5761322911 70.9867914675 71.530154064 71.6155630049 72.0423403773 71.9506399759 71.9848442781 72.2151666323 71.8711087036 71.9421627452 71.9134962438 72.1382555184 72.1527412109 71.7622364069 70.8206974205 70.7559674466 70.9628344583 70.9175809217 70.7258224678 70.4071853328 70.0232030399 69.419930729 69.2902332838 69.5195775522 69.3367866641 69.2819409743 69.0577240104 68.7308915783 68.2381023464 67.9124493945 67.6413163914 67.6314940114 67.7077078826 67.784557602 67.6426751449 67.5894673108 67.3175263003 67.1657486222 66.8864057177 66.7449191744 66.5651267347 66.4643736171 66.3916240797 66.3392884305 66.3792987044 66.4270475362 66.4396240543 66.4650265048 66.4060084822 66.3152031354 66.2700671472 66.1466392578 66.0309661471 65.9813359857 65.9027493602 65.8732604813 65.8250149281 65.8025014305 65.787939278 65.7774479817 65.7775347545 65.788096899 65.8004499358 65.8113914531 65.8205208576 65.8280632064 65.8207774657 65.8066563975 65.8026547249 65.7757393308 65.7458617293 65.7156750365 65.6885610468 65.6670165424 65.6585892907 65.6398178877 65.6360731601 65.6351866367 65.634104005 65.6327770446 65.6311830718 65.6294809871 65.6285667079
65.5902327899 65.5903690239 65.5907449607 65.5912061644 65.5916351696 65.5919981409 65.5922966621 65.5943913196 65.5958226805 65.5994670018 65.6051924799 65.6133714146 65.6224834408 65.6321934759 65.64016579 65.6464791394 65.6507397293 65.6487232223 65.6462992952 65.6434161592 65.6401247219 65.6368114965 65.6345145391 65.6344981302 65.6367731137 65.6427232173 65.6476193826 65.6569680106 65.6645854846 65.6842011893 65.6968674646 65.7293806337 65.7658648996 65.801932874 65.8274049251 65.825578597 65.8318811417 65.8275754033 65.8094976015 65.8001395449 65.8054237802 65.823308437 65.8526027221 65.8817350135 65.9007777879 65.9619377138 65.995520671 66.0628975106 66.121178484 66.1089398109 66.0946638887 66.0911984819 66.0929918273 66.135042134 66.1646912952 66.2376696295 66.2889444012 66.3231669412 66.3978461655 66.3673170839 66.3474294487 66.361990722 66.4087636336 66.4739375707 66.5189164285 66.4944224403 66.4634371214 66.4414725426 66.4566078828 66.4777104885 66.4290011741 66.3988299045 66.3535367921 66.3233691124 66.2839763896 66.1677651748 66.1266662724 66.0126966283 65.9136596063 65.8194961453 65.7140620596 65.5542087733 65.4442661025 65.2557869552 65.1105085415 64.8885566643 64.6969777461 64.4000139854 64.1935335862 63.8896825111 63.637280749 63.3026923075 63.0090090351 62.651838499 62.3639373118 61.9923894043 61.4901760181 61.3071559177 60.9374473531 60.6514896322 60.2984601563 60.0098608576 59.6841807744 59.4418044558 59.1562094077 58.6492392095 58.7132665799 58.5254574423 58.4097094011 58.3080679583 58.2618341551 58.2607302919 58.3044262065 58.4188886244 58.2645503199 58.804258414 59.1155236892 59.4128128065 59.8531680083 60.2767419216 60.8414827638 61.3345529679 62.0146241846 62.5038697072 63.3906207049 64.1984451828 64.8544787384 65.6985047005 66.4138856411 67.2578942161 67.9131962924 68.716633032 69.5366973475 70.0677549305 70.583872393 71.1762016338 71.716478503 72.1730325661 72.7004226687 72.7407893485 73.2222066596 73.3316156838 73.4196705992 73.806668 73.8386581769 74.1477959364 73.6558535449 73.6833702951 73.4656466654 73.3366417987 73.0384945252 72.4673718841 72.1439843571 72.2128357915 72.077488841 71.8131567835 71.3008276756 70.6103072572 70.2682354582 70.1037984351 70.0963146261 70.1633152073 69.5919472058 69.3111410075 68.9505840773 68.4458026784 68.2357322769 68.0228507345 68.0059551183 67.9618899752 67.9629539534 67.9862008651 67.7291275033 67.4132642898 67.2409319813 66.9373460074 66.8255110238 66.6912993404 66.551536915 66.4830039289 66.4566571219 66.484962805 66.5274268395 66.5401918802 66.5177308741 66.5185995184 66.4293297576 66.3002292573 66.1646780721 66.0397820448 65.9882993778 65.9095444879 65.8805251085 65.8428804239 65.8247975142 65.8052399777 65.7993212653 65.7993620113 65.8053430987 65.8144252428 65.8235780565 65.8315728271 65.838239361 65.843733974 65.8298676872 65.8093189199 65.7826872565 65.74997082 65.7178470869 65.6869695142 65.6654151324 65.651079708 65.6448741774 65.6375925578 65.6368397239 65.6359211675 65.6348328465 65.6336644712 65.6327244855 65.6323947563
65.5901392595 65.5907531286 65.5916125387 65.592263902 65.5927787431 65.5932038158 65.5935602432 65.5947906681 65.597326197 65.5996183462 65.6054277217 65.6135159144 65.6242748936 65.6338083174 65.6423640179 65.6546428921 65.6581460779 65.6557516076 65.6529210415 65.6495402093 65.6453890166 65.6399671389 65.6336100293 65.6335466072 65.6398877456 65.6458978159 65.6507295842 65.6590983995 65.6665381736 65.6861558253 65.7161381484 65.7589656069 65.7764426249 65.8128404721 65.8414195614 65.8589946707 65.8615699856 65.8497172676 65.8149350404 65.7868195478 65.802777606 65.8326867888 65.8651700953 65.8945220072 65.9495771481 66.0445728705 66.0752012478 66.1528379202 66.1611534743 66.1833339205 66.147840907 66.0651229752 66.0609722007 66.1502547193 66.239910388 66.3122528258 66.4565153396 66.4642727042 66.4689445809 66.4295556467 66.338557911 66.317224783 66.4668334179 66.5927518412 66.6627278895 66.621444103 66.5310693649 66.4334305869 66.4600323388 66.5808281851 66.6083338562 66.4853025913 66.3644117664 66.3492198649 66.3226942669 66.2135890341 66.1267513631 66.0839840717 65.9189463759 65.8437061988 65.646928458 65.5545360838 65.3437186636 65.1961845563 65.018803402 64.7474993988 64.4481819196 64.1852992725 63.9356386134 63.6265509704 63.2236898789 62.8293942151 62.5150498992 62.22230742 61.7754584099 61.2872924617 60.9020127884 60.5889811503 60.2457302644 59.7855987107 59.3164944545 59.0051835215 58.7968101101 58.4204853073 57.9820049383 57.6776483954 57.5149546525 57.4099558037 57.2029830356 56.9301041068 56.8691648034 57.020747758 57.0872601203 57.0736405661 57.1624579173 57.4416859596 57.9086740824 58.3483727222 58.6316989258 59.0788226938 59.7770714014 60.5564092954 61.239531078 61.884796897 62.6467222308 63.6278836367 64.6605516566 65.4828413333 66.2641127552 67.1279037482 68.1695262637 69.1277683283 69.8819227395 70.5338429695 71.2362245259 71.9629791876 72.5528603544 72.9140136001 73.2525779035 73.71007497 73.7649069178 74.596622151 74.6043286619 74.0018222777 74.8507232984 74.8665489099 73.7729011375 73.7845547925 74.694020584 75.1905771115 74.2611786075 72.4637329461 72.2231212189 72.836419455 73.1819676274 72.8744687611 72.0346563636 71.0405110794 70.0045555777 70.1103759016 70.5641106033 70.5139685882 70.3664599993 70.1620892129 69.2968393325 68.8434371293 68.3081763892 67.886572687 67.8932133147 68.2148883748 68.2757145846 68.1669568599 68.0985664727 67.7501927915 67.5768341889 67.1478475217 66.872329113 66.737230419 66.5871743649 66.4749509798 66.4204913984 66.5077261816 66.6056204433 66.6402080429 66.629637051 66.569057965 66.4689604754 66.3377275235 66.2687829543 66.1107982235 65.9943726826 65.9151344196 65.8834468456 65.8500684136 65.8351318693 65.8158807847 65.798371245 65.7985467611 65.8160993943 65.8309804784 65.8422996164 65.8514591052 65.8590784222 65.8654846765 65.8545735673 65.8163221299 65.7878852416 65.7552328278 65.7169340941 65.6875119449 65.665574842 65.655787641 65.6458224621 65.6407968757 65.639912926 65.63885546 65.6375705801 65.6359396832 65.633780634 65.6322350254
65.5908251381 65.5914951261 65.5923505772 65.5929657807 65.5934307978 65.5938011341 65.5941040832 65.5943555152 65.5957876555 65.5989564138 65.6110688262 65.6204050592 65.6311188352 65.6427327824 65.6511736861 65.6574255779 65.6612244853 65.6590982975 65.6565400337 65.6534134734 65.6494796823 65.6442977881 65.638082632 65.6380177982 65.6442219226 65.6494230486 65.6542902639 65.661932044 65.6759256319 65.6929142963 65.7233653353 65.7636262089 65.8083136112 65.8524452891 65.8801484799 65.8760033323 65.8801753163 65.8693798553 65.8382773747 65.8086783602 65.8237560462 65.8558924186 65.8881415059 65.9250301645 65.9812662523 66.0630136419 66.1100364257 66.1976645774 66.2610282753 66.2401591818 66.2180185442 66.1297936241 66.1277766371 66.2282866561 66.3226567071 66.4014220521 66.511688796 66.5617262945 66.6343167181 66.5864082324 66.4668429619 66.4422342875 66.6097310362 66.7619719842 66.8441679221 66.7926377942 66.6959975269 66.5655737318 66.5990735614 66.7463895459 66.7037392802 66.594361951 66.4719921013 66.4454596161 66.479597839 66.3337618125 66.1827957319 66.1154744613 65.9294125301 65.8102638509 65.6414436441 65.4748309436 65.2814672214 65.0530906669 64.8704785848 64.57985219 64.3137998674 63.9786406471 63.6362199075 63.3322793316 62.8903278557 62.4957044626 62.0670879245 61.6542607934 61.2756342903 60.7921025076 60.3066149912 59.871371528 59.5461180358 58.9705499123 58.5622657388 58.1339635109 57.7369853631 57.4992562832 57.0424443266 56.6631830048 56.4052944415 56.3159140779 55.8945806444 55.7797639691 55.6819688334 55.6180489763 55.8840674163 55.8271625364 55.9646485741 56.2846501442 56.7603086149 56.9738258493 57.507899348 58.1124429322 58.7207213433 59.6772156221 60.3303117244 61.2104316621 62.2084509251 63.1936568921 64.1969365774 65.2108088543 66.3048445445 67.3495919158 68.3858684928 69.3669705321 70.3833090425 71.292382642 72.1098430905 72.9501649309 73.763608251 74.4385927131 74.5651624895 75.6478522006 75.1867169025 75.9766583493 75.9664168734 75.4137700801 77.0558999296 77.2549475825 75.2301796233 75.1476779591 76.2203708159 76.2122794126 75.5178015012 73.7732713838 73.3320715107 74.1006914512 74.2858486184 74.0512052102 73.1790823053 71.8650621363 70.7720497433 70.8636578999 71.4003509996 71.3815068863 70.8589902881 70.4451729849 69.6796458758 69.1931168167 68.6869358905 68.1735985933 68.1763826309 68.4701298898 68.518796236 68.5623092331 68.2841401188 67.8876859564 67.6506043658 67.2590816669 66.9743178941 66.8067150082 66.6619984913 66.5489334504 66.4926812298 66.5821851163 66.6748555389 66.705513585 66.689081646 66.6954583738 66.6011961845 66.446970175 66.2849186551 66.1334877493 66.0144949329 65.9482962744 65.8917787098 65.8609709715 65.8436784557 65.8293765316 65.8116973901 65.8118849961 65.8295887272 65.8438315757 65.8543542113 65.8625869387 65.8692553337 65.8747560538 65.8630312254 65.8433352508 65.8159990462 65.7764542889 65.7395338463 65.7063551664 65.6614570485 65.6488870819 65.642817362 65.6422057286 65.6414663556 65.6405587044 65.6394121272 65.6378802466 65.635717796 65.6340035694
65.5926778085 65.5928320564 65.593260674 65.593717369 65.5940996332 65.5944065704 65.5946537273 65.5948546992 65.5967415429 65.599154565 65.6101286819 65.6209606297 65.6322928451 65.6510383991 65.6604319246 65.665947835 65.6644375248 65.6626067172 65.6603701581 65.657621268 65.6542756481 65.6505525708 65.6478021174 65.647783188 65.6505070413 65.6542296546 65.6575827013 65.6635883297 65.6825715331 65.7065731829 65.7253221302 65.7684936758 65.817393484 65.8642580413 65.8970729845 65.9139158275 65.9149967239 65.8940808601 65.8724003798 65.8599263987 65.8651261067 65.8810940054 65.920062127 65.965143169 65.9946541131 66.0827596185 66.1361884358 66.2387688165 66.3221705175 66.3481160771 66.3130676069 66.2725327227 66.272588246 66.3319162363 66.3804887021 66.4533742075 66.5736495136 66.6378593744 66.7416424332 66.7895374354 66.7216756333 66.7233143414 66.76879177 66.8813009799 66.9625089971 66.9794551748 66.9026177003 66.8493163054 66.9250572195 66.9961197572 66.9401618822 66.7967773254 66.7587963972 66.7536476702 66.6228181657 66.5095161262 66.3528517166 66.2759474868 66.0046568189 65.8957308615 65.6111407908 65.4173863379 65.1826290331 64.9199594482 64.6356943479 64.309270857 63.8979045091 63.4925565161 63.1115277833 62.59439884 62.1019576282 61.5691150828 60.9868950402 60.5161252352 59.9554405245 59.3315019576 58.7263337226 58.2661272322 57.6326039481 57.0710601121 56.4495727426 55.8554087342 55.4518363864 54.9452181307 54.4158053078 53.8680351134 53.6022032518 53.1924454953 52.8983670147 52.5263883722 52.3412967419 52.3940155206 52.3974284027 52.5064506419 52.5393621311 52.9521704772 53.3890603931 53.9100298581 54.3733832148 55.1790097472 56.1061146388 57.0589242344 58.2431663313 59.2564214428 60.506840645 61.9734059387 63.3443990645 64.6951676104 66.2952208601 67.7058626402 69.1325914956 70.7082717876 72.0527277342 73.1969144338 74.4887335276 75.8625982513 76.6687163879 77.4357637954 78.2201806435 78.4385689632 79.3974360236 79.6024088768 79.9806046216 79.6211648164 79.9856045398 79.786467439 79.241635385 78.7300818683 78.416711866 78.4464450207 77.7188226256 76.5040611216 75.7325838633 75.6835140749 75.4377659653 74.8469799993 73.9153057876 72.7999364191 72.3960360263 72.2864163262 72.4023896968 71.964108927 71.2620786643 70.7530976622 69.9064885527 69.4381109654 69.108119849 68.7984658426 68.7893271901 68.8937145433 68.9333103943 68.8071920264 68.4532003606 67.9945444288 67.7279283291 67.304914854 67.1293718114 66.9099095515 66.7496627021 66.6906088954 66.6713549487 66.7021254114 66.759951588 66.8161732929 66.8091282341 66.7524054616 66.6407708747 66.47823215 66.3015678669 66.139347682 66.0613738653 65.9671349499 65.8907773896 65.8670524775 65.8584733032 65.8489517887 65.8423335965 65.842375828 65.8490668946 65.8585913846 65.8671506558 65.8741097379 65.8797112345 65.8842547249 65.8879745569 65.871086401 65.8404859747 65.7801469431 65.7411956414 65.7012044713 65.6617677378 65.6516348769 65.6440988281 65.6436209742 65.6430307598 65.6422940212 65.6413713275 65.6402650499 65.6392374983 65.6388894959
65.5927048466 65.5933818477 65.5940333374 65.5944563787 65.5947713842 65.5950149497 65.5952053161 65.595355228 65.5954741436 65.6017995727 65.610238244 65.6201554555 65.6413608269 65.6529607582 65.6692828471 65.6689834539 65.6677665838 65.6662559463 65.6643684353 65.6619918225 65.658945803 65.6547399964 65.6483657963 65.6482842579 65.6546742403 65.6589015424 65.6619579494 65.6706814664 65.6824771567 65.7081173787 65.7465042548 65.8050893692 65.8592589616 65.9060391419 65.9388461629 65.9536969307 65.9376328721 65.9170748079 65.887883079 65.8515762281 65.874016293 65.9148777648 65.9387519934 65.9803467989 66.0209730929 66.1136499781 66.2434868454 66.3608361429 66.4410731359 66.4174074442 66.394808999 66.269181898 66.2582825422 66.3828453775 66.4773238047 66.5913486897 66.8184313619 66.8540750123 66.9774177086 66.9102366461 66.7489241221 66.6641360819 66.9141849862 67.0885193512 67.3424347325 67.2775497807 67.1440985385 66.8972109211 66.9457054794 67.2484870774 67.2218360328 67.0261027185 66.7804931503 66.8109043966 66.9327963123 66.6696187913 66.3784529297 66.36044839 66.108189974 65.9158504691 65.689345918 65.4507475875 65.1071222302 64.8919557635 64.5881575621 64.1252295706 63.6441216414 63.249397019 62.8840219293 62.3194379056 61.6263192014 61.0160570587 60.5960882025 60.0334362244 59.2778933983 58.5113183191 57.9126805545 57.4806350313 56.8275333584 56.0209702443 55.3166746918 54.8833369749 54.3889286713 53.7145916368 52.9911809484 52.4192996377 52.1828258003 51.828536272 51.3376029813 50.9076067194 50.7541144736 50.7895597897 50.820597151 50.7756196085 50.7488524871 51.1807881389 51.8075766431 52.4462005722 52.9916400289 53.5671331266 54.6263036435 55.9866628188 57.2506689715 58.2249308065 59.459233693 61.1820326806 63.1176357195 64.7549116424 65.9501786709 67.5463925148 69.5617686046 71.5167839376 72.9332084364 73.9754190049 75.2829134637 76.8390755381 78.0306302631 78.7500275888 79.0726060542 81.0487667653 79.9108012576 81.7723089172 81.5947436455 80.1421490336 82.6019900025 83.3047875562 79.9059087828 79.3644918138 80.8583735355 81.1129474202 79.5411001119 76.7107648604 76.255241272 77.3590470056 77.4465757646 77.091436036 74.9781311616 73.6436661656 72.122296235 72.5334614061 72.9725264902 73.0889803498 72.3136769193 71.846670316 70.5545592822 69.7832665042 69.306698249 68.7672811415 68.7975489498 69.1911621731 69.2073062511 69.2402126388 68.9079408837 68.4103961356 67.8220843645 67.373279351 67.175896175 66.968039954 66.8631382264 66.7231717186 66.6619051343 66.7605566418 66.8374729945 66.8901142681 66.9304150408 66.8805017741 66.7725475205 66.6145550563 66.4250971105 66.2105247354 66.0650951434 65.9581405642 65.9107327167 65.8800565791 65.8725755473 65.8620336088 65.8456868865 65.8458976909 65.862199431 65.8726847003 65.8801388298 65.8858697754 65.8903588593 65.8939054814 65.8967284452 65.8960188332 65.8462411934 65.8085573913 65.736463448 65.7013251595 65.6690687225 65.6456463471 65.6453753262 65.6450312064 65.6445909464 65.6440232692 65.6432832656 65.6422809757 65.6407185948 65.6390771483
65.5942230679 65.5945427691 65.5950711558 65.5955176906 65.5958753767 65.5961672439 65.5964087484 65.596610261 65.5967794105 65.6019379073 65.608424628 65.6280093194 65.6412201828 65.6630761895 65.6718452464 65.6774894864 65.6759237165 65.6740533841 65.6718065985 65.6690850927 65.6657457552 65.6616636104 65.6576880782 65.6576528014 65.6616081403 65.6656987484 65.6690470259 65.6741709203 65.6849085504 65.7064963237 65.7540195507 65.8074132139 65.867366602 65.9228867809 65.9833504066 65.993880456 65.9753980837 65.9528971086 65.9265976835 65.9072646758 65.9161934028 65.9415685069 65.9672565689 66.0056240685 66.0908909126 66.2090919289 66.3598089851 66.4214350502 66.5174059065 66.5472608926 66.5191969328 66.4242571194 66.4224027837 66.4975269474 66.6087383655 66.7130468845 66.8922135737 67.1100500825 67.1519057219 67.1824106512 67.0700461094 66.9962109575 67.1757577654 67.3652619021 67.5038184667 67.5487839225 67.4159002356 67.3849757322 67.4274085973 67.6110893821 67.6969937092 67.3406811817 67.2772625952 67.2659368426 67.1689634486 67.0054670817 66.7864371746 66.6823406567 66.4090270817 66.1442202699 65.8308135887 65.5840183043 65.2651676902 64.9302709401 64.5197627522 64.0672849385 63.5404720154 63.001837581 62.4446191683 61.7750868017 61.1201099809 60.3497130068 59.7441034704 58.9414408657 58.2467502312 57.3949306024 56.5656629898 55.9235188912 55.165069886 54.3648430262 53.5147066648 52.8771060376 52.0629256799 51.4434302665 50.5671602491 49.7087601442 49.3000080634 48.8182131897 48.2054764993 47.7345458274 47.4719454418 47.2578556145 47.3480198733 47.2146195694 47.1174679614 47.7187950969 48.4268147178 48.8965935357 49.7894631512 50.6214648465 51.9084227676 53.3281219791 54.8191321507 56.2855297378 58.174543441 60.3359093007 62.2996268091 64.6953222336 66.5591200646 69.0644993183 71.1125994511 73.7052227482 76.0619966712 77.7198353684 79.4233651284 81.2958456201 83.080324576 83.8262309347 84.5278912458 85.0585457585 85.4931299904 86.8085477771 86.976501361 85.7752872003 86.4023273741 85.99291577 84.7632366943 84.1027133548 83.4869967963 84.2994740551 82.4002638592 80.1323756238 79.5250921128 79.3653845218 79.0454854245 78.0274199577 76.5652759654 74.9065142292 73.7878339809 74.0472836733 74.2087754143 73.8935868003 73.4539939351 72.1668456559 70.9988147536 70.3560255387 69.7023680902 69.3667618043 69.3670970248 69.6293359322 69.6607677209 69.5193309249 69.1214349326 68.8238683714 68.1840256302 67.6449054883 67.2254084496 67.036885887 66.9311619749 66.858986676 66.8300140673 66.8804150222 66.9471386148 67.0028220055 67.0478080271 67.0119596726 66.8252999645 66.6359392575 66.4264561322 66.2319172236 66.0494918279 65.964167933 65.9201969368 65.9000397109 65.8919800221 65.8819774987 65.8721009702 65.8721901254 65.8821144854 65.8920938765 65.9001308267 65.9066217255 65.9119525611 65.9163763148 65.9200727086 65.9032108297 65.8763186703 65.8059380144 65.7617096669 65.6929105767 65.6692189703 65.6489011575 65.6485094551 65.6480425983 65.6474825528 65.6468044931 65.645970726 65.6449232286 65.6436709259 65.6429052363
65.594822462 65.595403128 65.5958857731 65.5962372679 65.5965157824 65.5967390455 65.596919563 65.5970666929 65.5971874958 65.6000347189 65.609530416 65.626134652 65.6511499068 65.665419714 65.6815438051 65.6805356049 65.6793134715 65.6778230841 65.6759945821 65.6737375285 65.6709336704 65.6673633648 65.6620490757 65.6619701018 65.6673106414 65.6708939911 65.673705726 65.6759688942 65.6839533977 65.7137258686 65.7512633445 65.8119193728 65.9152334443 65.9730230039 66.0046765546 66.0178026819 66.0016441325 65.9816940829 65.9558028929 65.9203890292 65.9436304055 65.9726864262 66.000069808 66.0446041329 66.1151486276 66.2390650343 66.4172478886 66.5700574873 66.6697886614 66.691630533 66.6400261586 66.4941479767 66.4840081787 66.6212430853 66.7274527631 66.8850013489 66.9724997839 67.2881241231 67.4719892228 67.4058849129 67.2411694126 67.1296791926 67.4415982897 67.6580030911 67.688313816 68.0011844941 67.8764825411 67.5804426491 67.6544577689 68.0516689198 67.9877200174 67.8264617251 67.4960376408 67.6071621337 67.7646741621 67.4266368347 66.9871293588 67.0769374145 66.7295653673 66.3674238165 66.1761476101 65.7442179607 65.3748315266 65.0285625537 64.5918834063 63.9556660415 63.3540748235 62.8373873659 62.2704688831 61.4835526213 60.5467632744 59.7707373902 59.1526515358 58.3662506275 57.3221388115 56.3526822925 55.6858748 54.9063295361 54.0063877645 52.9289231765 52.0058653004 51.416179207 50.6003164889 49.5592288105 48.5275214503 47.9524640899 47.1974210543 46.5854374936 45.8129699285 45.3380896105 45.0049342627 44.7529583281 44.6162945586 44.4428484275 44.7547525879 44.8855204953 45.6549108213 46.5229543641 47.3866218654 48.0599674047 49.5204619749 51.4078772954 53.2233249407 54.9801818961 56.6612599485 59.1454941904 62.1715876102 64.6678315046 66.9082276837 69.2449785177 72.5097027763 75.8571021327 77.9792588023 80.1365373015 81.9965552089 84.6655380604 86.3599323101 88.2072467164 88.0175685676 91.6439879795 89.075006534 92.3381811701 92.0688156627 88.871209944 92.0921732405 91.7429556315 87.8802714717 86.433783317 88.0213289306 86.5766915162 85.1413009491 81.6554237653 81.0211675084 82.0449156445 81.7269509451 79.0549520462 77.8350335217 76.0208355594 74.4662454387 74.9412576863 75.2268574908 75.2498156018 74.1984068029 72.5050092095 71.6974749281 70.7082017422 70.1229673529 69.6289219624 69.6459692441 70.0222124354 70.1380914481 70.0193194091 69.6281772216 69.018073288 68.2441996594 67.6802013938 67.3340609597 67.1391199065 67.0282505127 66.9446919163 66.8877660608 66.9739509128 67.0348893623 67.0809744113 67.1177939607 67.0745875926 66.9748220181 66.7838173012 66.4403044544 66.2110079026 66.0681996797 65.9506814366 65.9181050581 65.9130014476 65.906606424 65.8983687825 65.8858184232 65.886006659 65.8984908082 65.9066970871 65.9130734315 65.9181627725 65.9222597631 65.9255845087 65.9283027385 65.9305407575 65.882888636 65.8362463914 65.7529311081 65.6954750368 65.6608067624 65.6499137741 65.6496444503 65.6493160569 65.6489123952 65.6484117235 65.6477845765 65.6469889779 65.6458878464 65.6445439225
65.5962674838 65.5963715293 65.5966942154 65.5969599124 65.59716218 65.5973169728 65.5974360504 65.5975282007 65.5976000394 65.5976565237 65.6118387061 65.6349323199 65.652372471 65.6747174029 65.6843739934 65.6836944184 65.6828397285 65.6817571408 65.6803778783 65.6786128408 65.6763455151 65.6734565165 65.6707775722 65.6707620452 65.6734163986 65.6763129735 65.6785875489 65.6803581506 65.6817416931 65.724618578 65.7522324743 65.8496249605 65.9265547038 66.0222944498 66.0543211478 66.043617936 66.0300591383 66.0128632809 65.991829174 65.9781573542 65.9846537589 66.0057388854 66.0408656553 66.0858362674 66.128937198 66.3581750688 66.5600960117 66.7431665702 66.8390328852 66.799837624 66.7601702867 66.6722119453 66.6688280935 66.7516245359 66.8133862872 67.0399236486 67.3073396658 67.6386652546 67.681310288 67.7638642682 67.6304011617 67.5898136826 67.6990414632 68.010225513 68.284729484 68.4036619342 68.4279373637 68.2531692907 68.3164423981 68.6048718077 68.7752111481 68.5465830502 68.2982056428 68.3718697436 68.5708569238 67.9855308011 67.7594385346 67.6484643655 67.2507489687 67.0765271495 66.6292441807 66.264079663 65.7783429711 65.4071961403 64.8512861491 64.2664441811 63.6108680872 62.8712301191 62.0697661994 61.2176933373 60.2795368447 59.4069448095 58.4544457955 57.5225687797 56.4860240506 55.5206433777 54.5412846485 53.5225727792 52.5074637444 51.4547219501 50.4859807889 49.4283686852 48.3995824 47.2309225638 46.1832107296 45.1620357224 44.1219107358 43.1941991083 42.3631763177 41.7207586632 41.1604782132 40.7651865186 40.4602980145 40.4355159479 40.646614375 40.9680093422 41.544788711 42.4791094982 43.5322763712 44.8827190475 46.3862302042 48.336877625 50.5197658725 53.0382340943 55.7588657014 58.6682189622 62.0960905276 65.3748561109 68.9693491958 72.3675850946 76.3861546284 80.1523702312 83.785857367 87.2650075729 90.2107731458 92.9634918534 95.1831169246 96.2324297911 97.7271652762 98.9963894935 99.7252255612 99.5151618563 99.2884511167 97.8144504426 97.6190590061 99.0470679085 94.9102413174 93.2162395288 93.3106446329 92.0938584491 88.9073813723 85.6572439871 85.0139331821 84.9864056942 83.7979361867 82.041956946 79.2895984496 77.0996338842 76.4315414799 76.5517274263 76.6687876785 76.1287890213 75.5666081334 73.7908163897 72.2029199681 70.9775687696 70.5729993978 70.2452352029 70.219442812 70.4213335817 70.4921601161 70.5450635713 70.1843434517 69.4693777462 68.6652794887 67.7137279823 67.4603508141 67.2513183465 67.1098785236 67.0642048853 67.0529892121 67.0795155819 67.1253340305 67.1620836846 67.1904935764 67.212553362 67.1111139846 66.8173998944 66.549951556 66.2123637768 66.0992784498 65.9327312736 65.929884837 65.9261908099 65.9213697711 65.9151197984 65.9095907671 65.9096151732 65.915206884 65.9214393248 65.9262439497 65.9299256844 65.9327628346 65.9349611532 65.9366759202 65.9380241534 65.9078201159 65.8397273815 65.7805815225 65.7016841693 65.651043943 65.6509290568 65.6507815715 65.6505905446 65.6503412212 65.650013772 65.6495812585 65.6490062074 65.6483030075 65.64811494
65.5969005238 65.5973526903 65.5977120644 65.5980009443 65.5982402874 65.5984384806 65.5986027518 65.5987391473 65.5988526693 65.598947442 65.6083533543 65.6319228053 65.660968013 65.685713115 65.6937801574 65.6928135714 65.6916488203 65.6902406929 65.6885341611 65.68646304 65.6839503468 65.6809024233 65.6768808802 65.6768190722 65.680859619 65.6839153366 65.6864341516 65.6885103636 65.697408186 65.7179676577 65.7773433837 65.8537675421 65.9768323877 66.041975071 66.1045354618 66.0916363787 66.0759722083 66.0569947526 66.033949933 66.0052290973 66.0242634397 66.0493380438 66.0720223782 66.1085964154 66.2207192389 66.3829920289 66.6244761723 66.8254362867 66.9464262993 66.9749676358 66.9246676831 66.7949955236 66.7885301602 66.8996061078 67.0390704694 67.252940201 67.4029313628 67.8659052682 68.149694393 68.194082399 67.9688810832 67.8305268675 68.1610985685 68.4499220813 68.5379680561 69.0800161779 69.1958867306 68.7992060044 68.8328549564 69.2969927156 69.2336333569 69.5140067455 68.8569142364 69.0582458254 69.1738774901 68.8030127165 68.3181777165 68.5748991888 68.0746327518 67.5770749525 67.2909341482 66.7149564313 66.324357378 65.8784787794 65.2389321349 64.5439202878 63.8539186613 63.0669594261 62.1781931712 61.2865472138 60.2115365469 59.2163219716 58.1931465936 57.217174494 56.0726586885 55.0177654673 53.9583832346 52.922483669 51.9563598691 50.768909111 49.5492077288 48.3803299893 47.3649697708 46.0063241943 44.6829626708 43.3837412901 42.2923575112 41.4265549252 40.4418682937 39.2944317026 38.6191202054 38.5084810568 38.1045502941 37.7986195876 37.7999071533 38.3067464074 39.1261883754 40.1904805624 40.9842113709 42.4732729899 44.5335081529 46.7777015392 49.0402042345 51.8403314436 55.0432564826 58.3704241643 62.4173620832 66.5960856341 70.9242029502 74.7970300672 79.8577282042 84.5877169166 89.4856811078 93.298724156 96.4020565464 99.6067916465 103.573492364 105.657333912 104.834448995 109.11189785 106.631812506 110.222777394 110.205181494 104.194411709 106.625432197 104.435956658 100.259415024 97.9718773705 99.9585475248 95.2226013801 92.6271447574 88.6354851955 88.0497603958 88.8942550647 87.2989076021 83.2654221783 81.2767349339 78.9773230528 77.4066217961 77.83537326 78.2721834937 77.8354946423 76.3994227498 74.1420135939 72.9554156755 71.7184892558 70.9795567498 70.6153894463 70.6304188817 70.9203389555 71.0071665412 70.869827827 70.412296214 69.6651714488 68.676665346 67.987339563 67.4734834193 67.30747953 67.2291344958 67.1756586788 67.1311273864 67.1967203034 67.2451037176 67.2845598259 67.317069762 67.3438424252 67.1645382211 66.9540811902 66.561509035 66.2824712805 66.0638714395 65.9858104983 65.9509785216 65.9465750647 65.9412444171 65.9347736392 65.9258559403 65.9259997054 65.9348646766 65.9413184634 65.9466362604 65.9510290674 65.954659293 65.9576644172 65.9601579956 65.9622333298 65.9387704001 65.8622388979 65.7679359697 65.6879641376 65.6541851888 65.6539771873 65.6537285823 65.6534306345 65.6530727881 65.6526422956 65.6521238532 65.6514994759 65.6507187207 65.6496876681
65.5979404012 65.5983097263 65.5985469035 65.5987320505 65.5988811851 65.5990002541 65.5990952275 65.5991712515 65.5992324686 65.5992821159 65.6108924117 65.6330037392 65.67256485 65.6970783968 65.6966006817 65.6960130578 65.6952849168 65.6943768549 65.6932390915 65.6918112002 65.6900259916 65.6878108313 65.6845368283 65.684478028 65.687779323 65.6900008077 65.6917909693 65.6932229601 65.694363999 65.7094316122 65.796308382 65.8942333095 66.0366747239 66.1007418785 66.1311115955 66.1216982504 66.109903173 66.0952120731 66.0768504615 66.0487047677 66.0684934792 66.0891935669 66.1050400985 66.1745524163 66.2886452173 66.5304323371 66.797612575 67.033364772 67.1557163262 67.17305765 67.0869713515 66.9675643092 66.9558182293 67.1058633211 67.2006579585 67.4050881242 67.8416563279 68.3560275845 68.6830282877 68.6018680266 68.4514799253 68.2649893075 68.626104996 68.9555693962 69.4159808881 69.9862789766 69.9277861656 69.5362494197 69.6290310353 70.2122451341 70.5400588196 70.5098504379 69.9046650181 70.0719927763 70.6411848894 70.1615077926 69.3339458783 69.7155069242 69.1586986664 68.4724554455 68.4164469666 67.6108400519 67.2950198813 66.771495363 65.9916093636 65.0519038797 64.2588566989 63.4382602274 62.6072753169 61.4034993993 60.1157656826 59.036667898 58.1323510307 56.9490622347 55.5721369779 54.4073603209 53.4660730227 52.4703559925 51.1718862104 49.7529143391 48.5131085268 47.438089989 46.0265570319 44.3055303929 42.6495971273 41.4484436109 40.109712884 38.8027259165 37.3202967385 36.1436435562 35.4627290495 34.9966449363 34.6147388369 34.2349157459 34.5154606509 34.6499415793 35.5769843945 36.6665719701 37.8747499502 39.24752889 41.4149922909 44.3979490066 47.5698055167 50.6783310168 53.8833699336 58.1443459327 63.8536228623 69.6036500492 74.0467466297 78.8537393885 85.2312057408 93.1272601361 97.838060279 103.093292923 106.309660639 112.435298899 118.043293956 122.068980413 118.101961189 125.401062728 118.328956096 123.957220638 122.202948884 114.984815336 119.425598554 117.066203775 108.302768247 105.770190639 106.587325768 103.354202135 98.1381171842 92.644314571 92.0085844304 92.475919847 91.4918250657 87.1131463503 83.1012670147 80.7843962413 79.0902650348 79.6266584686 79.7154256901 79.6585804846 78.1508367471 75.6219940767 73.2511127427 72.0740902318 71.5818964313 71.1350438875 71.1481417179 71.3913909519 71.5586212512 71.4581907616 71.0181369228 70.1507159935 69.1615978367 68.1768806479 67.646169518 67.3630262266 67.3336952953 67.29472786 67.2544676878 67.310710365 67.3448401263 67.3720182705 67.3937986063 67.4111453235 67.3227072275 67.1226243219 66.6688852781 66.3314708751 66.0225082895 65.9649386099 65.9627631886 65.9600331703 65.9566221224 65.9523952793 65.9458716543 65.9459933976 65.9524553123 65.9566700759 65.9600717362 65.9627939431 65.9649631213 65.9666946787 65.968083802 65.9692056691 65.9701185303 65.8958686839 65.7705749973 65.6941498799 65.6549814752 65.6548815963 65.654758568 65.6546059222 65.654415375 65.6541766465 65.6538779112 65.6535077874 65.653032406 65.6522504875
65.5993616049 65.5993269213 65.5994085755 65.5994821748 65.5995356517 65.5995717711 65.5995948004 65.5996086185 65.5996162426 65.5996198434 65.610957427 65.6376137505 65.6741660618 65.699629898 65.6994965788 65.6993104317 65.6990492683 65.6986824039 65.6981691366 65.6974594729 65.6965013988 65.6952713674 65.6941485145 65.6941431715 65.6952543925 65.696487494 65.6974489948 65.6981614902 65.698676916 65.7216503505 65.8042897897 65.9501102208 66.0525927476 66.1590717305 66.1594727971 66.154108302 66.1469201915 66.1374714948 66.1256540249 66.1161602198 66.1212887259 66.1335152114 66.1438409045 66.2026091719 66.2996245029 66.5484909479 66.8685611504 67.1377075646 67.3890599569 67.3411694153 67.2768517086 67.202833409 67.2058581829 67.2879158546 67.4037766783 67.7239412821 68.0333345401 68.6405510476 69.0947787153 69.23197102 69.050695031 68.9611746453 69.2382307805 69.5990325222 70.0269208079 70.7543744913 71.1564729373 70.8178758446 70.8424964661 71.3661228042 72.0016712267 72.1109634822 71.6820661961 71.796119616 72.3078939342 71.7784785992 71.3154351139 71.4332268266 71.0681510798 70.4840010871 69.9772191529 69.4857848649 68.7398009334 68.1680117592 67.4488618931 66.4088640656 65.2799013467 64.4021355376 63.3825222753 62.0662534562 60.5210062957 59.2735512683 58.3147353925 57.0535273087 55.581733928 54.4010773647 53.4874175325 52.4603993957 51.0626645951 49.5253155129 48.197341478 47.0075484784 45.1986893211 42.906313193 41.0160959248 39.4282585204 37.8878577529 35.7221940121 33.990959763 33.018889666 32.2114041638 31.0209803583 30.1706529055 30.2916946969 30.3106589112 30.6618023351 31.0345956777 32.5937356981 34.5672143268 36.0909801036 38.1458618763 41.6836517498 46.1122785268 49.9622958902 53.8937828241 59.7030947963 67.4896358957 74.7625173592 80.3733169142 88.2094878996 98.4956975376 108.132335509 116.610512 122.112167659 130.326815803 137.588012146 141.667810021 146.361218867 146.562386465 149.546145158 144.779489841 147.41228798 141.787091024 135.268460273 134.88509709 129.561513948 120.584173163 118.575265524 117.268859652 112.579481946 103.535153578 98.7262102652 98.1107508475 97.8777411443 94.7605926022 89.1845625502 85.6516987749 82.8023120354 81.491263672 81.6767318918 81.7358390153 80.9907508845 78.9594064646 76.0185893631 74.3871755611 72.6673238079 72.0772518081 71.8374116039 71.809254657 71.9080506737 72.0071757267 72.0605171167 71.2992272387 70.341963255 69.1244755225 68.1233697624 67.712558944 67.459269592 67.4445440235 67.4285596178 67.427610945 67.4337043266 67.450182512 67.4636292222 67.4736074074 67.480741002 67.4656038526 67.1627688881 66.8328181014 66.3503963582 66.0525017774 65.9754537682 65.9748134803 65.9738582444 65.972508105 65.9707705989 65.9698117972 65.9697979944 65.9707937664 65.9725278613 65.9738726721 65.9748233702 65.975460235 65.9758681508 65.9761173807 65.9762603614 65.9763340555 65.8998548053 65.7819062516 65.6941586251 65.6557793751 65.6557881761 65.6557916392 65.6557858423 65.6557652266 65.6557226505 65.6556506018 65.6555457974 65.655442507 65.6556285734
65.6005764487 65.600423937 65.600476624 65.6005473666 65.6006128826 65.6006701433 65.6007187891 65.6007595303 65.6007934381 65.6008216175 65.6071228494 65.6431281752 65.6832823175 65.7094124079 65.7091117507 65.7087456379 65.7082982384 65.7077508943 65.7070831408 65.7062758361 65.705318534 65.7042408941 65.7038649088 65.7038812226 65.704227333 65.7053054715 65.7062646557 65.707073825 65.7077432343 65.7284459406 65.8063271548 65.941409246 66.11135401 66.222769752 66.2177237039 66.2114898162 66.2038372718 66.1945828629 66.184149251 66.1837455157 66.1813473499 66.1909131454 66.2007375585 66.2369913739 66.404122787 66.7149358138 67.1018422883 67.3940810586 67.5480869317 67.5909000599 67.527178473 67.4742509042 67.4740699284 67.5271768111 67.7256753105 67.9038597329 68.5294194291 69.3069926858 69.8712554789 69.9973011942 69.8315150447 69.8149602112 70.0608328017 70.7072241869 71.0774229087 72.3805630735 72.8133854412 72.5677689656 72.4529582415 73.3881783483 73.5316540047 74.7190873861 74.3027030478 74.5105047362 74.5933857983 74.7237635048 74.2859487063 74.3773902889 73.8854128913 73.5846023553 72.8013235989 72.1425118482 70.9664329833 70.2054966497 69.5300674969 68.3841688429 66.9150323477 65.581383914 64.4784554654 62.9309487311 61.3849765261 59.974033311 58.7031378008 57.5807828016 56.406068116 55.2574258136 54.2641160895 53.4489419482 52.2428732682 50.8734586878 49.2558335959 47.5257946772 45.6561540264 43.2024957387 40.576362902 38.5130800091 36.3290809314 33.7177848372 31.7205875441 30.5016073453 29.2193077884 27.8234470211 26.9518154469 26.8161094051 27.1938211796 27.1591587661 27.7681741389 29.2377104201 31.4000481414 33.6728598711 36.1536555414 40.0706877579 45.4965566521 50.4762327479 56.3088753409 64.7857163326 74.2884079925 82.8716739352 93.3392622374 106.252686544 120.472915121 134.938702919 143.63207786 158.113351068 172.097399725 181.336889296 182.41964568 187.535589924 192.237200525 195.771437268 188.510235147 187.395009578 174.639919643 165.971410978 161.606439977 148.858512057 139.541959664 135.942667341 132.526712651 120.312791746 113.210297868 105.666328697 105.605025847 104.456864535 101.001335033 93.5984504226 89.455588773 85.2807152933 84.2160479459 84.0082972877 83.9943819696 83.2317407256 81.0518320845 77.6905878511 74.6612574885 73.5156157758 72.6265560393 72.4991277496 72.4948886829 72.5377156928 72.6241215411 72.455369843 71.9371422037 71.0053751405 69.5363129071 68.3774327953 67.7368546943 67.5939320387 67.5809436105 67.5714121433 67.5849213468 67.573094031 67.585666634 67.5982280666 67.6091630232 67.6183805127 67.6260269204 67.3033626533 66.7844594882 66.3263979647 66.0682704443 65.9971732956 65.9961112992 65.9948742528 65.9934887558 65.9920929399 65.9926704095 65.9926153156 65.9921084511 65.9935069196 65.994890958 65.9961258518 65.9971856318 65.998077252 65.998820338 65.9994375563 65.9999504095 65.92179771 65.7948444868 65.6793074675 65.6586111016 65.658559095 65.6584973031 65.658424291 65.6583390927 65.658242095 65.6581368354 65.6580338976 65.6579907979 65.6584109159
65.6013614538 65.6013824706 65.6013349949 65.6012918787 65.6012553871 65.6012236739 65.6011958896 65.6011716237 65.6011505692 65.6011324102 65.6082176771 65.6374750131 65.6961013598 65.711902833 65.7119686594 65.7120381092 65.7121077664 65.7121718365 65.7122217889 65.7122471074 65.7122381406 65.7121858735 65.7118791442 65.7118692992 65.7121847511 65.7122377791 65.7122472248 65.7122222866 65.7121725781 65.7375323529 65.854982072 65.9867099513 66.1816587224 66.2495166604 66.2487827694 66.2475879977 66.2457392437 66.2430135521 66.239088138 66.2322182184 66.2371382297 66.2417858633 66.2448831964 66.2969876301 66.3995560189 66.9234263976 67.3555735213 67.6711966649 67.8245631194 67.7996059692 67.7652269677 67.7174423536 67.7144345791 67.803822568 67.9305183828 68.3745320599 69.208847843 70.1521639953 70.745091061 70.8878163126 70.6710080711 70.562545836 70.9635669854 71.5005215034 72.7599122584 74.2266984084 74.4237275478 74.3084570413 74.427832779 74.7634388918 76.6878741072 76.835116901 77.2332745556 77.0276220864 78.8567328416 78.6882502922 77.8003805088 78.9353394444 78.1733897293 77.009343193 76.3867376991 74.9931518868 74.2805189496 73.1837977502 71.6535778346 70.2543216591 68.757097521 67.0480775719 65.2995294629 63.6961078965 61.9700703791 60.6144426406 59.323081957 58.1747085716 57.224013576 56.5257922279 55.9271430635 55.2315657022 54.5047793528 53.0739800657 51.7968492115 49.7919493239 47.2446174156 44.4770731724 41.5729863946 38.4976566224 35.4598257413 32.9449020635 30.4620941137 28.431607592 26.797274095 25.7333783726 24.7290748721 24.2713308464 24.2133365575 24.6055085982 25.4200049712 27.0178523726 28.8589122196 31.6300322242 35.1209944713 39.9137136824 45.3636470648 52.703253554 61.3747757923 70.7876320441 82.6452752064 97.519187216 113.674602931 128.657251285 150.947541623 169.765300696 192.018652467 211.079906173 228.092457403 237.417124916 251.869341841 259.387808861 248.487030974 257.833434142 240.781119919 243.254539228 225.095090842 201.6053935 200.115360185 180.526873394 155.591018753 153.274256303 144.940898835 136.027443606 119.011476751 113.682835689 112.743627755 110.390950744 107.684693411 99.3194590588 91.3580036686 88.2000162609 86.2573484056 86.3399174517 86.3932507636 85.6200151899 83.3025528634 79.501924287 75.8828906133 73.8317462761 73.2801103277 73.0680988091 73.0715476518 73.1026040375 73.1146990247 73.1216834582 72.6314600774 71.6032967209 70.13517519 68.2625855348 67.8723491025 67.6937043492 67.6961483853 67.6976975884 67.6927930365 67.6976235091 67.6952561511 67.6928789792 67.6906168059 67.6884215655 67.6863247954 67.4855027377 66.8878889662 66.4694602852 66.0892027855 66.0073453976 66.0079269514 66.0085943392 66.0093752564 66.0103118971 66.0108263779 66.010835626 66.0102992622 66.0093644632 66.0085852608 66.0079190866 66.0073385212 66.0068312448 66.0063901093 66.0060088257 66.0056808533 65.9573598961 65.7745101076 65.6818048161 65.659323163 65.6593770455 65.6594407463 65.6595160129 65.6596049385 65.6597103497 65.6598367435 65.6599917569 65.6601731238 65.6601809349
65.60229325 65.6024167708 65.6023658436 65.6023204044 65.6022900595 65.6022700551 65.602256849 65.6022480649 65.6022421548 65.6022381227 65.60223533 65.6489364507 65.6932405462 65.7213908731 65.7213628745 65.7213327472 65.7213021795 65.7212747143 65.7212570302 65.7212607069 65.7213038097 65.7213918285 65.7207560097 65.7207272593 65.7213926255 65.7213047008 65.7212609611 65.7212569123 65.7212744107 65.7213018022 65.83388792 66.0545918201 66.2435560126 66.3114287113 66.3102867095 66.3089177986 66.3072949462 66.3053857705 66.3026118081 66.2882199318 66.3001324319 66.3046061078 66.3066522941 66.3083714177 66.5456107965 66.926527978 67.6270942385 67.9661974408 68.113641489 68.0914871062 68.0623332089 67.9983188118 67.991542265 68.0604191969 68.2964867738 68.913284217 69.9942767912 71.1218952856 71.4042024881 71.7217749369 71.5921994656 71.428642194 71.8978313515 72.7441839654 74.8759161393 75.7115235819 76.8815146116 76.3945227145 76.8403171208 77.9658354795 81.0959449058 81.4306583325 80.785310889 81.3090938282 85.410400942 85.1067246996 82.2614437452 84.8640265936 83.7685132804 80.993488424 82.4182260465 79.2346803434 79.2142859425 77.6189253425 74.9460033272 72.6248246626 70.3782954578 68.4776973083 66.4404142245 64.2927063064 62.3300592856 60.8917249219 59.93002052 58.9760102289 58.2089016297 58.1268897599 58.6848189448 58.1401914638 57.54490689 56.93864573 55.9652991952 54.1860531514 50.9178130906 46.8183728637 43.0310515286 40.1235096113 36.103407107 32.1667940762 29.1289190197 26.8397646928 25.2253235773 23.6693566174 22.5614487523 22.0044664118 21.7862126851 22.230914474 23.132384784 24.8140190738 27.2587899681 29.9057014104 33.8064320638 39.4982737005 47.7859329998 57.3257499755 66.1137083438 79.0905845951 97.4693347164 119.723248193 138.706485306 159.861537421 186.007446282 225.158564291 269.217542566 280.746870631 300.229750947 329.534754169 366.96171884 375.694282569 330.073924759 362.085024612 298.583961469 318.36668595 283.631224775 244.00667208 249.237467916 223.237797949 180.911602505 174.071966244 167.537043564 155.164356716 132.02733233 122.454107743 119.961102923 118.537753621 112.226865102 105.658383342 95.5249095127 90.3370628544 88.5771213107 88.6382921831 88.4967683707 87.1845267723 85.6401731773 81.3863022036 77.1535350328 74.6645212068 73.7615256373 73.7025835408 73.7118536858 73.7615981542 73.7602294837 73.7608625395 73.2795438633 72.1954197662 70.016846102 68.6962558918 67.8260987495 67.828601138 67.8326067359 67.8346081063 67.818060088 67.8353287303 67.8309951786 67.8275635094 67.8254799027 67.8242676046 67.8235918574 67.6208718359 67.0718929209 66.3877410775 66.0278683962 66.0280934308 66.02843181 66.0289436739 66.0297164796 66.0308259788 66.0306409622 66.0306854335 66.0308107504 66.0297046182 66.028935776 66.0284265933 66.0280899743 66.0278660855 66.0277155473 66.0276129115 66.0275418334 65.9445360538 65.8079176397 65.661848602 65.6618621693 65.6618804446 65.6619055137 65.661940518 65.6619901928 65.6620616185 65.6621651428 65.6623146884 65.6624938392 65.6622922306
65.6035349188 65.603338208 65.6031564855 65.6030065891 65.6028817843 65.6027785053 65.6026934562 65.6026236007 65.6025662347 65.6025190333 65.6109898909 65.6543405723 65.7016044779 65.723748032 65.7240788175 65.7244780455 65.7249605136 65.7255429319 65.7262431292 65.7270787359 65.7280656844 65.729219447 65.7306219858 65.7306419346 65.7292352584 65.7280792147 65.7270902575 65.7262528288 65.7255510249 65.7577284836 65.8595508367 66.1048150912 66.2461171703 66.3384374993 66.3418782848 66.3459074468 66.3505423267 66.3557442723 66.3614152747 66.3671862898 66.36354329 66.3577112088 66.3523301467 66.4201771308 66.6691109903 67.1254571641 67.6772880022 68.2756989321 68.3138516556 68.3254578346 68.3347385632 68.336911308 68.3365883529 68.4045923692 68.715989975 69.0697924513 70.2390870672 71.6042001415 72.5171817891 72.8453167942 72.7789950104 72.6743455349 73.2263425872 74.5580393007 76.0770207242 78.6289077458 79.9911878887 79.6947325014 80.2531268031 82.2036904387 86.1242841396 87.8375367045 87.2435002496 88.1030145672 92.1261844158 95.9769577626 90.7392124132 96.1350415446 95.6066289841 90.278980609 94.2181579658 87.5967976937 87.6180364266 83.6598936883 80.532629664 76.1611356301 72.5150778731 69.5000439206 66.9413436009 64.4672071902 61.9298814762 60.585972475 59.894009853 59.5440104738 59.8458576493 60.958101901 62.4156037312 63.6426140655 64.4481318482 65.4236525844 65.0275187278 63.206563457 59.4551181099 52.8321017239 48.0370634863 43.6985968625 38.6164818283 32.9809360026 28.6071257441 26.3533943703 24.289398859 22.2455861727 20.5532141481 20.227417943 20.2982254207 20.3547093789 20.875796742 23.1776702919 26.1661265983 29.441487963 33.2438509112 41.26266769 52.632733233 64.5726616207 77.0165072776 94.7630642035 125.309175583 155.180205346 184.016099235 214.841079803 267.691323535 325.49530052 374.994712358 417.587054308 460.863177249 510.316767156 536.26903095 560.836035991 506.513191409 543.019628698 437.110092046 458.459616304 378.828429735 320.812721772 322.202600376 259.185131414 216.072407139 207.322638303 194.2710158 175.175444305 146.997529316 133.368862481 130.630367169 127.50470639 120.394459402 108.220895493 100.273647604 93.5840111349 91.5022027153 91.5775467981 91.0657521144 89.6980345584 86.4861137064 81.5694675579 77.1357504709 75.7705145575 74.57964052 74.4285366427 74.4226733977 74.3257306217 74.2458738265 74.1776047594 73.9948988198 72.1770138298 70.430795457 68.9545768269 68.1363185524 67.9232723087 67.9420514093 67.9649292543 67.9821552704 67.9561240891 67.9349983622 67.9173552185 67.9026078551 67.8903651755 67.8802553764 67.596206179 67.1767352938 66.4416095804 66.1332804927 66.0374222889 66.0392985576 66.0415767567 66.0443291957 66.0476444677 66.0518897602 66.051827217 66.0475983061 66.0442910491 66.0415451002 66.0392724293 66.0374008145 66.0358644312 66.0346044374 66.0335698344 66.0327177029 65.9629094782 65.8195857247 65.6879368775 65.6624891596 65.6626032255 65.6627422354 65.6629121057 65.6631198608 65.6633736222 65.663682564 65.6640571041 65.6645168945 65.6650249283
65.6046142005 65.6041876973 65.6038933687 65.6036488306 65.6034379248 65.6032584251 65.6031073684 65.602981177 65.6028761355 65.6027887455 65.6119461503 65.6593653272 65.7093180686 65.7230329356 65.7267048711 65.7275107417 65.7284783373 65.7296371017 65.7310159555 65.7326389157 65.7345203493 65.7366815873 65.7398595629 65.7399197747 65.7367114369 65.7345458639 65.7326611082 65.7310349406 65.7296531297 65.7650343057 65.8842043596 66.1530178886 66.3201691513 66.3563189467 66.3726268093 66.3819344399 66.3927324459 66.4049983925 66.4191151093 66.4444965941 66.4257970773 66.4097106097 66.3969272911 66.4699506357 66.7923400244 67.3261478448 67.9834441256 68.4089708008 68.5062513201 68.5615156216 68.61224563 68.6910703186 68.7186723865 68.6997788673 68.9053569307 69.6688573163 71.0890982522 72.6595124986 73.6897536703 73.8602330532 74.0766322249 74.2067626249 74.7056056475 76.6381848036 78.4504165327 82.0297909286 83.6119133399 84.1324678539 84.1128059251 87.6248979398 90.544333248 96.3916983839 97.1763403307 98.8715113311 103.206143682 107.933555936 107.580864868 113.991159773 116.009340786 112.014067222 114.991686441 106.656980705 104.298118375 95.2418109362 90.0114289069 81.6108113811 73.8085549487 68.692916616 64.5483801241 60.7827643839 58.7549717856 58.0954521372 57.9097392711 58.4193169296 60.5056850974 64.3482691343 67.7343097339 73.1840065899 79.9963471115 85.0814812254 86.5074927325 85.2052680549 80.8606374178 72.171467627 62.1019126875 53.0085732371 46.3876035219 37.9148777523 31.6988399109 27.9238056622 25.4995377574 22.9706923982 21.1754381486 20.5231270273 20.3985769647 20.5503426432 21.3099652742 23.6722373796 27.3652226948 31.11099314 37.0819670485 47.4255678453 62.5254842988 76.7796761919 96.872902085 126.795391103 164.012527531 200.360057677 236.511755269 293.822908227 370.538716065 442.944829119 499.023524767 597.231285124 721.852257788 797.997658591 796.954337926 826.803252043 851.283960477 758.626181595 705.168512712 643.14622022 509.305164295 450.787325459 396.849946693 313.670044041 262.037612212 249.385630359 223.701831124 188.912704069 163.025378277 143.982333345 142.756137975 136.685712048 128.68654205 114.814074596 105.033144083 96.8179908717 94.7526903655 94.2867873443 93.1387138511 92.1302724448 88.9492561815 83.7191015684 78.7352994375 75.9084804301 75.1527392089 75.17473676 75.090651943 74.8645899259 74.7103988102 74.5213439405 74.1782732358 72.9120295997 70.8164618781 69.1938947432 68.2346431863 68.012575959 68.0449388023 68.0857866209 68.1285457982 68.069129915 68.0328993093 68.0021522687 67.975683325 67.9532046696 67.8985234193 67.7794429403 67.2724944814 66.4905301903 66.1481174975 66.0462381738 66.0495206399 66.0534060366 66.0579487436 66.0632277696 66.0708377698 66.0707006918 66.0631547684 66.0578869175 66.0533528195 66.0494754336 66.0462001853 66.0434581532 66.0411742256 66.0392752177 66.026148325 65.9793684364 65.8300377969 65.6899521508 65.6630882507 65.6632905363 65.6635338009 65.6638262705 65.6641767867 65.6645940717 65.665085752 65.6656581886 65.6663480437 65.6673176585
65.6052223851 65.6049242744 65.6045594476 65.6042312423 65.6039436512 65.603696463 65.6034869638 65.6033109308 65.6031636274 65.603040462 65.6220623778 65.6509993453 65.7104757292 65.7248381395 65.7291691468 65.7303429694 65.7317492612 65.7334303806 65.7354275543 65.7377730018 65.7404795574 65.7435324958 65.7468342427 65.7468746203 65.743573201 65.740516118 65.7378050202 65.735455028 65.7603132086 65.808811938 65.9459334277 66.1270557737 66.3180484179 66.3787690773 66.4014944701 66.4157700375 66.4324376749 66.4514849717 66.4726797941 66.4940024873 66.4806588586 66.4587890398 66.4930908581 66.6024439844 66.8794362445 67.516027724 68.2513479759 68.5321713431 68.683677953 68.7894174591 68.8828120621 69.0098881502 69.0182286986 69.0741478118 69.4975169509 70.283459905 72.0009862772 73.7651191495 74.4839946958 74.8776065702 75.3909966604 75.5921414491 76.2436821241 77.667369511 81.4813389787 85.4479651603 86.928958881 88.5500550416 88.8897427053 94.1149772917 99.2562819763 106.966231538 109.499321543 113.166180727 122.459717369 131.336194928 133.729273151 151.307414453 159.26708442 155.856851097 153.91262646 148.887865193 139.151949619 124.556142053 112.011295901 91.9353909278 77.3075509816 66.0930067636 59.1545656537 55.3554391225 54.0294441385 54.4287908417 55.0451372301 56.1695334661 59.4618008926 65.4196703104 75.1815539857 88.9785791596 105.846010772 125.620353297 131.180925003 134.536644989 133.72096798 115.809063078 95.1337396914 75.6122084535 58.7883435183 47.7330076377 38.6414524679 32.636587443 28.8573500552 26.7566366457 24.8725756269 23.7577527014 23.4660073619 23.7489960018 25.0332472618 27.7758838772 31.203622074 37.1739068659 45.8607138101 58.2220166533 73.7541384806 94.2744030319 118.314106611 144.132769369 178.457749727 213.108588572 253.842913463 299.316435125 360.58781536 441.599833685 535.346391721 647.052869446 754.937575744 888.764268758 970.707222234 1010.13869373 1081.0959229 973.869149183 928.213264078 815.240341686 629.481735577 572.633332585 505.942400014 375.726768814 307.085018044 288.774077677 253.425588631 212.164546688 178.641865127 155.471407456 153.352304699 143.8332604 136.679065078 121.297310367 106.227861122 100.278259755 97.4858752797 96.9222096943 95.0705817629 93.6329405777 91.0748946245 85.4481764509 79.8956513186 77.2556407309 75.9557940734 75.6996934191 75.6781285587 75.358998984 75.1163605706 74.8089849377 74.3169625348 73.4148968439 71.1554713764 69.3478378532 68.575404806 68.2449816803 68.1384733051 68.1876274878 68.2162845001 68.1697566615 68.1220861942 68.0795870546 68.0425726913 68.0109173911 67.9426756661 67.7399417423 67.1734066858 66.6550099198 66.2671983376 66.1284483103 66.0588182846 66.0641265854 66.0702524259 66.0771737698 66.0845920713 66.0845034202 66.077081521 66.0701697581 66.064054268 66.0587562064 66.0542410362 66.0504351999 66.0472466665 66.0445812133 66.0298997684 65.9817345042 65.8032261439 65.7188434253 65.6636447994 65.663924785 65.6642593401 65.664658752 65.6651336145 65.6656933808 65.6663442186 65.6670869253 65.6679123507 65.6685775224
65.6057781472 65.6055668879 65.6051394999 65.6047387151 65.60438509 65.6040804566 65.6038219192 65.6036042612 65.6034216098 65.6107677686 65.6328242895 65.6639539895 65.704776188 65.7225767712 65.7314077706 65.7328958513 65.7346761201 65.7368040992 65.7393355895 65.7423151828 65.745756837 65.7496065552 65.7530527081 65.7530766916 65.7496569442 65.7458032806 65.7423558979 65.7393704505 65.7643350516 65.8564569153 65.9676595537 66.164438536 66.3067661344 66.3865887636 66.4214815449 66.4461653281 66.4681699449 66.4934824905 66.5211958411 66.5379065965 66.5302721666 66.5298994479 66.5930328018 66.7443066505 67.0939054541 67.540231744 68.2590988575 68.6158225747 68.846014204 68.9959968841 69.1972920115 69.2741843233 69.3118994134 69.4458683784 70.0120538364 70.9863839261 72.865519492 74.2067786226 75.2071196027 75.8634137025 76.6665777189 76.7425760319 77.6635701898 79.7468287417 84.5614080832 87.8394208029 90.3386125245 92.6509054565 93.42955816 97.8231165611 109.047728818 115.746960419 120.221764508 124.450349536 146.606984428 161.903233582 165.301356634 203.191390871 220.067918932 220.349925253 292.444353408 255.87942305 298.753683105 242.986019354 173.944639049 134.933338209 93.1539625387 64.3284745181 53.7754906454 51.0656932984 51.3089347341 52.8838507237 53.7206145337 54.3635664851 57.9973131635 66.5808423542 84.8610114478 114.526628164 148.48320944 187.017577257 244.074405361 265.741508663 232.018395459 204.035400628 167.966351419 123.103911791 82.524760488 59.3579017337 44.9574452201 39.780770418 35.973651852 32.6713041076 31.5422807077 31.6349878848 32.22923379 31.7435427305 32.1840587788 34.763471083 41.7293658932 49.4872543782 56.8213404966 72.283852255 91.8586407854 111.197963689 128.754685029 149.602986154 176.835577373 195.989855702 223.56255591 268.728692923 322.432415155 384.170672056 464.856523884 575.68215878 713.766376983 862.098371039 953.613764686 1028.22483906 1180.39586936 1087.91151872 1073.34105251 965.80612355 736.064807986 661.198257903 572.524059696 431.347870997 334.177335468 314.753445594 273.653034972 233.334225521 186.042801203 164.858001439 161.242406175 150.327039991 140.564569075 127.069887665 111.005993448 102.771818543 99.5322163594 99.2862673666 96.7148618968 94.7058265165 91.4700545437 86.9466140898 81.5477839821 78.4164528001 76.718465027 76.227372635 76.1222162727 75.9794401346 75.4813254083 75.0956376462 74.3548721107 73.2604612385 71.1970681441 69.8824639176 68.929272047 68.4813154885 68.2947051361 68.2770126944 68.2954296436 68.2577967242 68.200149843 68.147406794 68.1012737578 68.0367782046 67.9340547469 67.6779235223 67.2422054591 66.6955845504 66.393822513 66.1374350798 66.0669357536 66.0734542365 66.0809411583 66.0892731956 66.096772463 66.0967160275 66.0891643338 66.0808405448 66.0733655685 66.066859427 66.0613030023 66.0566102123 66.0526679845 66.0493610511 66.0191405532 65.9612769576 65.839271335 65.7491211668 65.685627391 65.66449113 65.6649011045 65.6653885889 65.6659661638 65.6666447587 65.6674300081 65.6683171488 65.6692618444 65.6697432159
65.6065457187 65.6061228966 65.6056182472 65.6051560946 65.6047489637 65.6043994853 65.6041034659 65.6038541383 65.6036444032 65.6199987266 65.6351783515 65.6770957163 65.6978583975 65.7191120195 65.7308299487 65.7351034435 65.7371753033 65.7396516092 65.7426050059 65.746099944 65.750162557 65.7547330275 65.7596332682 65.7596933635 65.7547935694 65.750217508 65.746147859 65.7625598906 65.8028304303 65.8720551705 66.035820059 66.1677640768 66.3134242957 66.3866474389 66.4350596428 66.4687423465 66.4983859504 66.5291944989 66.563681799 66.5973559681 66.586555818 66.6045684434 66.6398198392 66.8151152804 67.3188820381 67.81612264 68.3126338117 68.7010171769 68.9637059289 69.1696753847 69.4308921647 69.5916520602 69.623269602 69.7245592839 70.3524499182 71.5062009216 73.0730866365 74.6219265566 75.8053133677 76.7603070394 78.0967017369 78.0278893523 79.2185157691 81.6230469628 85.7019459051 90.0642959457 93.6263095871 97.6463599446 98.4011645772 104.399728145 114.423678852 128.651597986 137.025938623 141.837686323 164.07815817 213.597972513 209.773463327 259.659062077 375.973641873 310.993108466 560.090776918 383.903799607 521.599803504 468.693916751 283.006107782 160.382752233 120.706795736 77.6773159854 49.8804411994 44.5395442108 53.3671756445 62.4498053402 62.9545902856 53.8754083283 53.3523152664 67.345983899 98.4821019579 141.720037763 199.504281925 317.922112509 444.947426147 487.43444237 422.501048056 325.110163808 273.095388218 198.787875379 125.309051937 74.8965116761 55.1159422607 48.7114088948 46.2911902817 43.8038745668 41.8264243972 46.1401755609 46.4590777715 46.1310539268 42.5138059504 48.8210922638 60.918904035 68.9841818968 75.7915712739 92.8190920584 118.403228013 125.651828553 133.354985005 139.321734062 140.137688655 141.036314776 147.228949861 162.838860787 190.221030988 249.031879321 315.432396729 363.305118553 457.572690881 578.170546141 707.550929406 805.726115237 1150.56550925 1026.37673772 1249.30348194 998.268430711 806.94161828 755.922577623 647.677986869 459.318019762 363.053055559 343.87219078 304.600117746 242.648145968 199.441766686 172.273857191 169.142899498 155.383731826 144.105844818 128.926638588 114.320564419 105.79345299 101.268600628 101.623112781 98.0498145376 95.4264181976 92.0719936446 87.274735471 82.4572532753 78.9870124168 77.1753101547 76.7339820333 76.6489537444 76.3630240792 75.7461323248 75.2316781687 74.4822564762 73.3303982446 71.8665884542 70.4360116496 69.0620207999 68.5668484952 68.4535709964 68.3842400125 68.399157092 68.3324887331 68.2647306295 68.2033951488 68.1352112438 68.0458351011 67.9054604438 67.6861987236 67.2480015208 66.8726728524 66.425723998 66.2353708136 66.1271475952 66.081112636 66.0897184643 66.0992996827 66.1095166319 66.1093904063 66.099173495 66.0896028172 66.0810108078 66.07355081 66.0671956142 66.0618301494 66.0573147646 66.0439877784 66.0051477562 65.9378615372 65.8756368976 65.7542878148 65.7108764017 65.6649779879 65.6654449549 65.6659984164 65.6666531919 65.667422969 65.6683153456 65.6693227311 65.6704168877 65.6713358355
65.607105483 65.6065442756 65.6059770694 65.6054667312 65.6050225501 65.6046444059 65.6043249748 65.6040555718 65.61034188 65.620827271 65.6471889894 65.6773521643 65.6976624129 65.7193092861 65.7290868025 65.7369175718 65.7391832925 65.7418860549 65.7451141838 65.7489596918 65.7534866197 65.7586537027 65.7646685555 65.7647544635 65.7587227699 65.7535483081 65.7627781305 65.7888322616 65.8436608796 65.9285798537 66.0429018109 66.1706310756 66.2875835924 66.3773193249 66.4475094321 66.4869479708 66.5214723281 66.5566208337 66.5968544671 66.6451853746 66.6237889516 66.6368271716 66.7475934478 66.9826949675 67.3614308544 67.8442681312 68.3353591289 68.6995803043 69.0332626266 69.2937481267 69.6962183764 69.8579856805 69.8752432507 70.0605044065 70.7123989928 71.7045868916 73.2589440221 74.8740216612 76.2281915671 77.4373362791 79.1291713356 79.2865822534 80.0607905193 82.6656194713 86.7075969229 91.5904761128 97.7666156685 102.309468984 102.855238357 107.862431984 119.349741772 139.721440454 156.971940453 159.508113654 198.512071135 263.765013541 296.959652968 351.409481447 539.347638017 694.373050191 880.8479628 1680.87316244 1211.45704774 1106.49056976 1000.52021587 695.198457493 196.924838532 121.215473271 63.0030716598 62.4052817846 99.1970909822 120.995244424 111.214601769 75.2202908857 50.1919237437 61.9009766556 112.744115543 182.934635571 388.123533873 720.727049265 859.163555868 943.895849303 1097.76030983 898.34168333 501.746459245 323.037202066 182.414108466 88.0542473905 59.4665984854 56.7660111422 58.8587612275 69.3899716628 80.8841028642 83.2794274382 83.4718542829 81.4727188164 84.0161609445 87.6004933914 96.247068698 108.476632134 131.996420399 154.900443275 157.693304934 145.034175061 123.855115461 76.0141726811 65.6476841919 72.7229001239 74.4286566835 70.3289960695 86.5233163078 154.693456858 179.81173863 209.730951805 196.771285607 204.618790233 330.457611375 427.505761141 583.389517186 826.731736257 1050.58616501 934.75330436 820.155716862 778.871435199 680.153949888 514.843030912 379.277885629 365.705376318 316.617874421 249.847689643 204.322677765 177.762761124 174.334394148 163.642964338 145.623114199 130.470785829 116.851825072 107.071323655 102.995019454 103.046910998 99.00678497 95.9919804754 92.3687505601 87.56548238 82.8631815546 79.9146980031 77.8546257427 77.1027149486 77.0702595016 76.8713607073 75.905686884 75.2575317816 74.3312879667 73.3411991288 71.916354515 70.5348589473 69.4727610203 68.8218280525 68.5131469542 68.4469121776 68.4784600967 68.3891783647 68.3131412264 68.2452297884 68.1675871055 68.0658245511 67.8532217139 67.5909236422 67.2527439134 66.8904380721 66.5727049938 66.3409106346 66.1948959266 66.1230671449 66.0962431915 66.1068483377 66.1189748015 66.1188041584 66.1067078635 66.0961158085 66.0867079144 66.0786229218 66.0717694561 66.0659844067 66.0611016309 66.0353684826 66.0047809834 65.9368975393 65.8761787669 65.7875726384 65.7131297327 65.683500198 65.6658812007 65.6664754815 65.6671772007 65.6680037754 65.6689689313 65.6700700248 65.6712832045 65.6724695707
65.6072272601 65.6067871638 65.6061871318 65.605651293 65.6051951384 65.6048093689 65.6044829796 65.6093795941 65.6179093812 65.6308848884 65.6483612338 65.6776265111 65.6973928525 65.7138856733 65.7294476084 65.7362075495 65.7406654394 65.7434543227 65.7467732654 65.7507349266 65.7554637408 65.7610192999 65.766816005 65.7668802885 65.7610940858 65.7555290129 65.7666005665 65.796790527 65.8527742492 65.9385052727 66.0501113069 66.172879804 66.2866365341 66.3774000054 66.4435783208 66.4923099045 66.5329190241 66.5732063249 66.6321313115 66.6611470536 66.6586570555 66.7033865154 66.8474954915 67.0319009543 67.4070349198 67.8713226992 68.2744963886 68.7151019839 69.0696005686 69.36157096 69.8391120704 69.9902347312 70.0359149673 70.2171074166 70.8955910669 71.8958911853 73.4080257334 74.9214431925 76.4578740452 78.354035329 79.7690878084 79.9611259193 80.7162577842 83.3531458886 87.4634654477 92.6094487483 101.352661576 104.944049584 105.636382453 110.550871595 134.999362956 155.12021875 166.830430376 170.492087885 223.244465909 289.393121937 331.050647761 414.182859201 608.889228347 742.081752909 916.348711274 1124.37295619 800.828063121 629.461627365 405.873295389 730.860150368 250.792580261 162.665491239 155.493563474 285.552627099 369.385927389 294.797252248 232.610463773 149.067337913 63.7212607036 53.7772060936 101.522798806 190.524020141 428.148185346 606.746248974 745.291419914 819.117523728 806.639252567 717.788705172 478.502125436 311.707855076 156.188453426 59.6369545074 43.7427547804 51.1064587619 67.1461674063 93.2304229512 121.955175049 119.647682599 107.970057442 98.8936083024 90.2717906328 90.8244604332 107.100123053 135.14214582 181.915137345 233.600770227 228.338153446 185.221354804 127.08005538 52.9040361111 38.1010173165 38.5538905985 40.0292045268 42.5861003405 64.201551527 114.193911863 117.158721246 105.32018108 113.046074922 112.777408346 171.551030465 244.309058618 335.202514918 642.59340308 802.910386126 834.029990532 789.378944331 749.136929392 680.730625177 513.701736248 388.798350845 373.0713701 350.318226946 284.486197496 208.191998858 181.729680273 177.710056848 170.481985799 146.742282017 131.588043233 118.119524114 108.177583756 104.135318263 103.954611581 100.782592254 96.1906338161 92.0044123458 87.8006148668 83.2832310874 80.3166255624 78.1501249384 77.3994117495 77.2805231609 77.0883456412 75.9894474869 75.2789276293 74.318281542 73.0700297546 71.9675919952 70.6449392387 69.5926343996 69.0807859008 68.667053502 68.516966165 68.5047642513 68.4607634353 68.341523458 68.2583730411 68.1626949021 68.0332890419 67.8455806939 67.5831874903 67.2561648993 66.908694224 66.5985439902 66.3643160993 66.2131644429 66.1315633542 66.1000438623 66.1113228286 66.122826474 66.1227004137 66.1111725131 66.0999104716 66.0901797044 66.0819262176 66.0749404917 66.0690199519 66.0561133959 66.0354231468 65.98581059 65.9357645253 65.8767869789 65.7908252759 65.7409636273 65.7043715127 65.6805019635 65.6668136389 65.6675273973 65.6683666243 65.6693527684 65.6705024104 65.6717778525 65.6727022887
65.6071914582 65.6067821531 65.6061984724 65.6056940659 65.6052632354 65.6048945288 65.6045784322 65.6099459357 65.6189444243 65.6321939905 65.6581394492 65.6779100697 65.6970531186 65.713317023 65.725632584 65.7342304383 65.7400909801 65.7443558947 65.7475627395 65.7513392624 65.7558009348 65.7610851269 65.7667792345 65.7668377802 65.7611576906 65.7669627475 65.7879120996 65.8290005777 65.8942747954 65.949121213 66.0573524356 66.1744257672 66.2838159718 66.3738614642 66.4421624448 66.4935790279 66.5320444019 66.5738032694 66.6392689808 66.6705141279 66.6888103402 66.7370385615 66.8995358361 67.1706238042 67.4569190243 67.8964990329 68.2769687843 68.7020035536 69.0575936725 69.3418331915 69.908957481 70.0889792507 70.1180374299 70.4753887723 71.1199051303 72.0957028968 73.5137031343 74.9308372367 76.4181037528 79.0653204094 80.0950546058 80.2708716271 81.3679739757 84.0579324197 87.9103893494 95.5352474269 102.172308129 105.919925547 107.088897195 117.829494059 138.636038859 158.449648874 170.127248295 182.789498247 241.327420647 300.951600479 365.510898877 443.037174123 625.802283241 752.289530328 895.747330268 1022.19583681 653.36284894 462.809976218 332.609532928 519.433992764 229.002300942 143.449970843 138.92860073 226.415829516 287.075711519 245.507967635 190.641926099 126.808380567 64.1526627789 47.2599876366 80.3171509518 147.306394057 307.39273269 394.5607876 446.843664026 474.452720238 477.809894193 435.686520254 307.080461723 207.011851256 105.150163728 38.3814312437 30.2480858355 45.2257889723 63.4492047256 96.1064416809 120.594934277 110.812444673 94.3599006629 73.8199675355 61.9171151785 60.0147856267 74.1372042269 96.0390046414 150.47420804 220.099679823 249.222262442 218.33254652 139.307102853 46.0898306579 30.8984686366 29.3267323766 31.5528508999 40.3464290151 55.9528082571 93.6214012072 99.6273263703 76.0072061884 86.9734701172 96.5478175869 131.719869966 199.920705767 297.116012304 541.054823665 750.044845339 780.006381004 758.107268595 733.426375098 672.929181344 545.026463226 402.0620752 378.464828751 354.338912529 291.075358291 224.673580164 185.670272517 180.214912334 171.803452032 153.918516944 132.256689175 119.908957268 109.9858116 105.023257264 104.769203986 102.609417703 95.8710232788 91.8611580219 87.9749491917 83.7710020447 80.9004579252 78.8788502569 77.6074574867 77.535630438 77.2415077643 75.8666653868 75.2049488966 74.2470814082 73.0527529264 72.0192309262 70.7702309438 69.9811937219 69.2143572299 68.7516643717 68.5932179446 68.5287537388 68.476320556 68.3362766976 68.2447681536 68.1595685261 68.0227632402 67.8301787717 67.5714613118 67.2581433477 66.9272393424 66.6264487564 66.4775438566 66.2988400944 66.1871835056 66.1295214387 66.1112684194 66.1226034583 66.1224873044 66.1111226205 66.100428559 66.0912775929 66.0834431753 66.0767257982 66.0650210915 66.0476108821 66.0213346163 65.9836715231 65.9344802507 65.8774414484 65.8194464165 65.7445948424 65.7072109535 65.6820188026 65.6670159212 65.6677053182 65.6685054657 65.6694349802 65.6705157592 65.6717565298 65.6726212212
65.606565967 65.6063851416 65.6060072655 65.6056078073 65.6052383919 65.6049084635 65.6092271783 65.6164653111 65.6272090314 65.641634189 65.6591425496 65.6781946581 65.6966515568 65.712582229 65.724986508 65.7339298988 65.7401639709 65.7446555599 65.747575222 65.7508941339 65.7545949603 65.7584619037 65.7614912175 65.7615148114 65.7677164606 65.7835684768 65.7950129146 65.8399016001 65.9068966577 65.9951244384 66.064499357 66.1752707343 66.2792978002 66.3670277582 66.4221050946 66.4789026605 66.5234276148 66.5607972985 66.671104319 66.6780420275 66.7298222205 66.8394474544 66.9684751187 67.2410957031 67.510482532 67.919175481 68.2664291314 68.6629641063 68.9675835859 69.2584164718 69.9357815348 70.2673826876 70.3604948247 70.7892290426 71.411071402 72.4555002284 73.5775082115 74.8163137919 77.1621322345 79.0392883911 80.5295231113 81.1910744069 82.3788898167 84.8320116423 91.0071227125 98.0981261738 103.585580493 106.811105292 109.331179878 128.256715614 141.778452676 159.172280857 171.048102455 216.612511702 258.343496554 332.981617283 421.849844613 498.757526584 658.061728054 739.015958543 834.820294251 847.661109309 734.243350939 545.981959141 354.663855686 123.584150195 93.1129022625 83.5780784401 69.595697856 57.727015933 68.0122126002 91.7653357051 74.9548179819 47.1136994977 35.3548178831 37.5048199079 49.4659154126 66.2133791101 111.208995589 85.3440068655 144.519807795 155.507349325 92.7522768186 87.2659818513 101.576902536 82.2332865557 54.7551194907 14.9344855968 22.5996691579 43.4189836524 57.1601183951 87.5045774018 107.577204561 75.8645726363 53.3684129717 34.2175636524 19.9814959673 15.6659399524 26.5707642221 42.869275218 77.0658358378 168.773091577 222.229657921 182.118110238 143.062668422 31.5138861498 39.8750391361 32.5031817563 36.0254435973 50.4687496453 51.2454015774 88.5031855588 92.6564705184 86.7880634819 90.8506601844 109.597408427 181.15669106 280.281058419 394.55123363 534.853557209 662.775431626 739.463592429 711.953180555 704.341790294 649.104898286 568.850150442 464.656305956 396.49224917 357.434242457 298.561797311 256.466825192 197.659080193 188.533250859 178.341509323 161.286313108 140.087807518 122.34823818 113.679148543 109.35854053 106.987060623 102.601768448 97.6713446333 91.4747802362 88.0919062158 84.9014025103 81.7309774611 79.8483352938 78.484215529 78.2272588966 77.3487370959 75.6534976459 74.9014548169 74.1233244442 73.009196972 72.0697328831 70.9090769674 70.1694054892 69.3999697019 69.0370294386 68.7231665593 68.5803784271 68.5741882796 68.3085362822 68.2224375453 68.1086122482 67.9525981992 67.8077735266 67.5562192878 67.2587269607 66.9457623547 66.7563372219 66.5111932783 66.3277579886 66.2060703316 66.1737895263 66.1298384577 66.1118853963 66.1118379138 66.1057225761 66.0978549188 66.0902533322 66.0833728509 66.0772689221 66.0647482149 66.0462003529 66.0189629198 65.9811577772 65.9330721273 65.878121732 65.8222360806 65.7716181689 65.730458806 65.7001317431 65.6798396966 65.6677300049 65.6684454919 65.6692426713 65.6701001276 65.6709071858 65.6712921439
65.6060577769 65.6059638795 65.6057314176 65.6054424437 65.6051471956 65.6048671938 65.6097952597 65.6175878743 65.6286859523 65.6431010689 65.6601647484 65.678472924 65.6962011623 65.7117128276 65.7197578287 65.7301069938 65.737587236 65.7429629063 65.7470059503 65.7497460338 65.7525713497 65.755159402 65.7568434211 65.7679800141 65.7695522272 65.7911737066 65.8267493804 65.8523464859 65.9206714535 66.0066927547 66.0713817388 66.1754921817 66.273484241 66.3372504118 66.4097317759 66.4655910348 66.5016420209 66.6129809488 66.6924126238 66.7588519049 66.7906309679 66.9238869063 67.0501725778 67.3189663917 67.5647014726 67.9387319326 68.2465180235 68.6068279286 68.8762987335 69.1358814633 69.9841582388 70.5288854547 70.6799245538 71.1631755075 71.7266643518 72.6608625032 73.6066851173 74.6332349467 76.995726348 79.0383946592 81.1222134398 82.1897557341 83.4078929223 88.3424597518 94.5660273846 98.3723092039 103.924679499 107.981422517 119.393033297 134.370581336 149.088071167 160.279343606 196.747951416 236.382688517 271.704408591 347.684321492 457.213138923 523.683436384 664.174547815 716.165897083 777.640523062 789.976917595 714.448240816 579.026914478 377.616222377 213.165387523 152.61924049 129.782865999 123.919446994 114.742484388 124.65405398 119.686492128 97.5355758968 82.5443805525 58.4787189478 45.6304945388 61.2264644442 84.2698835388 62.3696364678 114.750351302 152.014489105 166.455995875 372.372331328 37.7648042749 44.1564364465 49.9037953538 54.605669218 8.49365277814 55.9529748219 57.3989830467 45.42818824 56.7555454396 64.0790107904 47.5609144699 34.5057372406 23.4444585714 15.8480994576 11.1532538288 32.4503471729 49.8268513558 41.581785915 19.8192514184 52.4304222992 61.8111740246 43.5466284022 52.3265601122 31.9485758467 30.0499844584 35.0060309613 47.7133987961 55.9577151966 76.5790550382 81.5394899564 84.1792364226 96.1318786394 123.018433252 164.984809079 272.064870642 404.535745489 533.137925442 628.747091824 687.771056764 682.853181403 683.071584751 638.791677158 587.648188056 496.152440222 427.314780285 362.407201092 329.184836671 275.514214308 226.233333085 195.775446233 180.872252251 162.349798367 151.173015938 132.002175641 117.446260659 113.255590486 109.508305398 102.857548818 97.2695124137 90.9664677822 88.159220018 85.4859487351 82.6560571889 81.0001136584 79.5181460404 79.1011273298 77.5468892143 75.3583744315 74.6610645602 73.9663444421 72.9478050929 72.1167994803 71.0527249256 70.380712024 69.6231943642 69.2742176722 68.903016025 68.8164536313 68.6469905876 68.4481157327 68.1602301224 68.0732787609 67.917548268 67.7108587418 67.5384394571 67.2581105207 66.9638036405 66.7873703335 66.5481686828 66.3610939576 66.2914756629 66.1949099381 66.1364974238 66.1313976764 66.1023610071 66.0989289982 66.0936288073 66.0878044656 66.0821155698 66.0710924505 66.0553706948 66.0327726472 66.0012795681 65.9783542088 65.9315768825 65.8788079464 65.825091511 65.7757376377 65.7345900589 65.7032576331 65.6814217301 65.6676360683 65.6682435357 65.6688815671 65.6695036263 65.6700023934 65.6702034684
65.6056618014 65.6056053939 65.6054546642 65.6052481133 65.6050193537 65.609335542 65.6159188557 65.6251860984 65.6302205399 65.6445886806 65.6611819696 65.6787386425 65.6957181103 65.7050661471 65.7184571774 65.7288355284 65.7364996253 65.7420367017 65.7448423252 65.7482665293 65.7503683413 65.7521230298 65.7683110909 65.7699574494 65.7913293675 65.8001066651 65.8403702369 65.8955591773 65.9349397603 66.0183447843 66.0778121583 66.1752152933 66.2668987759 66.3254032395 66.3949647853 66.4492110874 66.4812343087 66.6088253334 66.7979189135 66.8185940139 66.9327503117 67.0136510966 67.1346619344 67.3965046215 67.6156496393 67.9547237325 68.22171413 68.544200068 68.7763952297 69.4417074643 70.3659171902 70.7759234641 71.1759197975 71.5114751175 72.0117378345 72.8354161646 73.6108892383 75.9317735789 78.2261476635 80.1537838868 80.9297279802 82.5219434163 87.3526468339 89.4878517407 95.5467327402 101.22472982 104.381084402 108.841081187 123.051126323 138.476661829 152.394211365 188.289758817 227.309984465 248.883785495 319.126193206 432.753644055 483.255075285 542.143051883 651.177452483 689.34560836 778.379779893 743.645456328 670.890160488 553.43444219 403.731103102 234.722078577 173.03667544 153.214361867 146.500972825 127.772251919 134.855685947 131.137034365 121.890617943 93.155674346 64.9219579688 51.9501497839 67.9276186196 82.1017219041 110.920661257 125.473996019 130.065232979 161.022338973 160.28603927 73.2082106187 53.6439847776 52.9125429462 63.4347288745 127.103167048 223.17574615 173.342321645 93.7074164626 29.7416426341 40.5987487307 62.8576823936 54.8207248185 39.5064926388 47.3747694625 62.2305368022 135.105453506 145.197937963 131.24081811 41.8473740916 43.3957477653 54.1608083585 57.6603046878 47.8989428031 42.6820336413 33.1369232927 36.9171366054 47.869479536 54.8427521812 67.1227286182 75.3708017831 83.4628855283 90.5592910124 103.882428679 175.66421646 253.260193583 419.5338786 470.516847631 613.53383002 612.099824303 684.864267746 642.167684775 645.975975913 551.249792498 512.057222943 456.359112042 388.987270332 340.272258383 284.530317642 237.658297983 200.552830666 183.343774048 173.802262987 154.286535426 135.593252643 129.085350861 114.165600185 108.807141206 106.676332714 100.902182557 94.4794687742 88.1874354483 86.0036605454 83.4992265302 82.0587344451 81.0879250591 79.8372316105 78.6359196497 76.121467495 74.4049350038 73.7996915715 72.8786553582 72.1581829841 71.1897908655 70.5927281996 69.8546097301 69.5243479489 69.3027227578 68.9898210945 68.938613489 68.4367874793 68.1104595172 68.0312798182 67.8774171789 67.6776820932 67.5193668581 67.2565771108 66.9808358982 66.8188044136 66.5866263003 66.479669123 66.3284244176 66.219624741 66.1954644108 66.1386179497 66.1342787657 66.0926479214 66.089032323 66.0846811365 66.0752886043 66.0686840267 66.0522184634 66.0289424873 65.997329823 65.9568439154 65.9300372748 65.8794818519 65.8279441284 65.7799250287 65.7388954381 65.7246561463 65.698487246 65.6800348947 65.6679630597 65.6684583425 65.6689042719 65.6692289536 65.6693503051
65.6053450768 65.6053077843 65.6052041958 65.6050537869 65.6090927293 65.60992865 65.6171529869 65.6268605413 65.6391095755 65.6460611729 65.6621713196 65.6789869685 65.6952196037 65.7039847911 65.7170403389 65.7273789658 65.7351779849 65.7387157261 65.7433564202 65.7467059427 65.7482771566 65.7690347084 65.7706617389 65.7939609151 65.8002961099 65.8358311331 65.8545332657 65.9118581793 65.9489898563 66.0295659626 66.1164628893 66.174579791 66.2600548591 66.313032099 66.3793155105 66.4177505272 66.4603176687 66.6106998843 66.8518056024 66.8800064949 67.018114565 67.0994795416 67.3075686727 67.4675977123 67.6604216991 67.9670941191 68.1957392427 68.4831364932 68.6811467466 69.4076932868 70.5007664636 71.0107857738 71.484268083 71.8032620222 72.2428970251 72.9696836942 73.5992609125 75.9591677468 78.3211187267 80.3925431851 81.2303147066 82.9984504845 88.613236662 93.9203748728 96.4675183985 101.938831209 104.834001623 109.362360515 125.62632534 141.872605978 155.179480858 194.472835862 236.56310247 257.013411509 340.031955992 452.856623054 495.711574661 613.208779736 647.739921079 671.473186483 759.63807267 722.250712856 625.265428774 561.265603396 332.441393972 245.18632882 161.112380614 165.449967696 178.804673937 133.465040374 139.621383242 133.530182279 126.874929421 99.2436825064 68.8308345981 55.0962632422 74.7238722365 90.8685866108 116.047000359 110.510330441 126.965775687 134.862749514 122.443703685 87.5378254698 77.0916320229 64.2385273177 139.558523099 218.111563253 298.111913964 571.142375254 495.320419705 134.749236658 268.634153898 191.076503336 133.7547018 95.7249735962 116.929302404 134.960921491 142.860241282 149.992768709 101.741688155 84.8200210703 64.7249726192 40.4044390349 51.345826057 52.6925738571 45.4766157177 34.1018241143 36.9746261732 47.944414939 52.1771787856 56.3470677981 73.2835901826 82.9569666883 92.0403285677 106.274807224 183.530549532 259.968730557 331.918439377 466.905585687 575.274735268 592.905328165 625.833025463 628.332978143 644.477391708 583.455107984 520.564924369 466.948353211 397.486785912 349.8135869 294.418743768 245.296135061 203.516396748 185.484879947 176.541118124 157.256319076 149.560912585 133.112853488 115.917301069 109.929283696 107.566747074 101.255690392 94.5872136021 88.1881677582 86.41809551 84.1882542149 82.9390651679 82.0313634069 80.5486437247 79.0413732653 76.0478582973 74.1629651715 73.6412589728 72.8098838753 72.1926076608 71.3117241407 70.7880051212 70.3506410045 69.7618557367 69.5414427613 69.1630233674 69.0909520044 68.4472401847 68.0592599161 67.9366217169 67.8356985828 67.6437859624 67.5002051789 67.2544285129 67.0954852073 66.8492059703 66.6245903856 66.523905135 66.3668438538 66.3161967411 66.2204810275 66.2033460021 66.1420241084 66.1381045697 66.0846580986 66.0813917722 66.0717081722 66.0578079628 66.0485346805 66.024696838 65.9931328902 65.9536227874 65.9284970293 65.880127956 65.8307281431 65.7840775485 65.7643492995 65.7293737435 65.7019663589 65.6817394493 65.6793032822 65.6680349583 65.6683605587 65.6685844411 65.6686649691
65.6050851959 65.6050588922 65.6049842075 65.6048718026 65.6096698204 65.6161440245 65.6184257123 65.6285525214 65.6408936322 65.6474855095 65.6631132724 65.6792145778 65.6947217404 65.7028819757 65.715571841 65.7258216405 65.7304990534 65.7370286928 65.7417928221 65.7437414817 65.770055952 65.7716091529 65.773589098 65.8024983549 65.8095477707 65.8499648189 65.8991835861 65.927574162 65.9960675937 66.0399670969 66.1217399617 66.1737138623 66.2533613627 66.3009226498 66.3639152914 66.3986973108 66.4403002845 66.6142784327 66.9054596146 67.0401008778 67.0967111422 67.1769735698 67.3862350183 67.5292568357 67.6978234112 67.9761695796 68.1709256865 68.4279579562 69.2019116168 69.9513293655 70.6244399145 71.2122934184 71.7399575761 72.0361270264 72.4200882412 73.0668141206 75.0968041247 77.4074063528 78.43937525 80.4414704493 82.267110602 83.3088710906 89.476031159 95.1052866033 97.2907802347 102.61673792 105.221009236 121.264633839 138.1967856 144.126735893 189.102735481 199.684919634 243.611568339 314.999431104 349.302291393 473.194106386 503.718501783 528.113513112 635.837763362 697.087409509 730.01509673 710.215074492 617.110514633 568.341434746 338.583027561 208.658529108 165.49670494 173.278198924 167.314264379 137.138355801 142.618479688 134.2927215 109.565142878 69.8366328235 71.4124797811 57.1778072941 63.3070000095 97.1290396364 124.661235284 113.780620214 118.044051375 122.951038 110.406000996 87.9528424402 91.1687303389 116.423089531 168.324204509 302.086689611 333.557937362 518.407797232 471.978607993 211.289060009 116.940256301 134.753951408 138.475474166 135.97053859 191.351605045 90.6467773654 120.051819392 132.642819606 121.397983245 106.398595181 69.225126561 58.9284184296 39.5549453814 40.5797859935 49.2524186594 47.394964573 39.8048216318 41.409781558 51.2689039875 54.3730297909 62.6340870234 75.7426807492 84.2490106736 107.816257311 188.669035921 263.890213834 327.365747677 465.246756212 504.668476827 580.236464456 601.091096261 618.724444555 611.465906756 577.965241423 503.006425936 474.547912046 404.449459204 382.402579078 299.66171143 282.520281885 227.838177207 187.226994553 179.090965034 159.929925913 153.337765211 135.591348822 117.077494899 113.712921272 107.593538934 101.659000696 98.5478631379 92.0147889992 86.7322329976 84.7223181399 83.6406467439 82.8062355384 81.1494771677 79.4049685217 77.5228778927 75.5212936825 73.5003811502 72.7463232012 72.2199796657 71.4147582014 70.9580227631 70.5686724415 69.9752938638 69.7593193973 69.607852431 69.2402329775 68.4607661689 68.0099092596 67.8873006945 67.7950485495 67.6110468097 67.4818929586 67.2519317082 67.1098443842 66.8774853885 66.7577670392 66.5665855517 66.4895610253 66.3547047248 66.2460159017 66.2271055273 66.1509675074 66.1460050497 66.1423774762 66.0726157945 66.0679394376 66.0533369015 66.0332153625 66.0202435557 65.9888537696 65.9503854129 65.9269957719 65.8807343506 65.8333869658 65.7881003189 65.7693988638 65.7341473175 65.7055601449 65.6990981179 65.6809890615 65.6676379807 65.6678819006 65.6680437723 65.6681007465
