DSAA
220 83
-56.4072153855 475.934599302
823.298720393 1022.40384125
5.35919917907 372.370467442
42.7392687886 42.5864308796 42.4333186699 42.2696776617 42.0805477213 41.8483017066 41.5571768991 41.2003300055 40.7885871807 40.3583443595 39.9014527378 39.6918992259 39.6275434857 39.7125936793 39.9038214 40.1316170265 40.3312939157 40.2977678884 40.3282147527 40.298363229 40.2269374316 40.1357914555 40.0441013096 39.9640073487 39.8982602265 39.8403158565 39.4510323207 39.3570560221 39.2287129077 38.7754334869 38.5796093431 38.3529227916 38.1089364974 37.8687656274 37.6583252569 37.4506704807 37.3782689658 37.3064771859 37.2922447636 37.2597435266 37.192814564 37.0866289637 36.9457937086 36.7797986807 36.5987298525 36.410601069 35.7874529351 35.5891353726 35.3964611958 34.8308796482 34.6400346212 34.4517746981 34.2652018476 33.5786218809 33.4025771955 33.230011692 33.0594734005 32.8887763841 32.715148403 32.3798067394 32.2078991319 32.0296099318 31.8473282943 31.666889904 31.4978251308 31.261613657 31.188261907 31.1465566428 31.1325236909 31.1369485033 31.1484609697 31.1464917899 31.0823155747 30.9565282432 30.9019214514 30.8477524015 30.7974449976 30.7533909207 30.5061217193 30.4741121601 30.4532216634 30.4430261381 30.3995127648 30.2484848806 30.2781017662 30.3190367119 30.3703350884 30.4302693031 31.122938275 31.1724051817 31.2163126767 31.2557703465 31.2944045202 31.3229152886 31.378199188 31.4544302279 31.4740615443 31.8469460219 32.0466370098 32.2874851493 32.5676517284 33.8548272378 34.305677793 34.7848383742 35.0478545782 36.388377204 36.9621790772 37.2760573249 37.5981043491 38.2062926116 38.847742926 39.5280537391 41.8335609041 42.6011260005 43.4238913218 44.3166378244 45.2969898267 46.3839578565 47.3541683767 48.7092886689 50.7411013801 52.2121365025 53.6893662118 55.053339295 56.1556735849 56.8594606591 57.0964300931 57.017235004 56.7383172589 56.4504963039 56.3003171108 56.8362632567 57.1610829828 57.7805656729 58.4932015285 59.2947356866 60.1388150616 60.9931786961 61.8460862492 62.710614443 63.4868183608 66.2305186236 67.4590223928 68.9237471676 70.6532537569 72.6323549546 74.7865194673 76.9742255335 79.6122264445 81.0430447404 81.9788165251 82.4053347725 82.4367138862 82.2776099926 82.1511744549 83.4721085614 84.2995861874 85.4507816895 86.8661254233 88.4669824133 91.7537414393 93.5668026008 97.9768746689 99.8114523165 101.601808059 103.384012256 105.202741329 109.871868076 111.886696985 114.000757286 116.199365004 118.440225724 120.653571557 122.747640888 126.740660671 127.980049834 128.906967937 129.558413235 130.022982016 131.704701324 132.350903642 133.259024221 136.70051889 138.59957946 140.741892625 143.044582723 145.431165282 147.840072269 150.227813605 152.56840352 154.850638507 160.799817921 168.08789467 170.260893218 172.342301193 174.344970965 176.279035536 178.152213372 181.10103254 182.757182348 184.372209247 185.954819517 187.514563148 189.060459346 190.598125385 194.599227608 195.768624878 196.846309848 197.795830881 198.577296995 199.159484087 200.121717915 200.163900273 200.21969698 200.33818849 200.551941173 200.874185575 201.301840309 201.821160147 202.413258338
42.6729585183 42.5257865115 42.388647959 42.2512271957 42.0960300404 41.9005243449 41.6428200113 41.3105543428 40.9114237658 40.4822094969 39.9983285157 39.7793606895 39.7097300636 39.7937424411 39.9840688747 40.2053464526 40.3883951425 40.3210397311 40.3168728276 40.2457735152 40.1320432142 40.0046545439 39.8896957161 39.8037202113 39.7497148445 39.7171479129 39.3909395562 39.3239092496 39.2161068597 38.780818069 38.5823678511 38.3435902811 38.0799109362 37.8161780389 37.5838942622 37.3840046074 37.3126625724 37.2869432724 37.2842934356 37.2569061474 37.1853798014 37.0659091499 36.9068917408 36.7221728403 36.5252040501 36.2281306522 35.7139688195 35.5143622417 35.3224262267 34.7780928915 34.588542188 34.4006651238 34.213795498 33.5449174663 33.3699658853 33.1996830338 33.0327937002 32.8668581548 32.6984123762 32.3779408765 32.2072758441 32.0274252546 31.8403227929 31.6520601297 31.4733507253 31.239871483 31.1636444966 31.1225541511 31.1118048569 31.1202622114 31.1345101726 31.0953616416 31.0078624816 30.9427822969 30.8813483697 30.8213875945 30.7666882784 30.5209635028 30.4809828005 30.4493943325 30.4296733336 30.4212405596 30.1266596564 30.2366814067 30.2699352188 30.3159209837 30.374016146 30.4425717369 30.4870405695 31.1256701086 31.1648336451 31.1959487587 31.2229781972 31.2402895006 31.2821828985 31.2828773753 31.3726035339 31.7018544534 31.9024139157 32.1472148671 32.4328855526 33.6570667729 34.1171118705 34.6019189577 34.8702321403 35.3807891207 36.7618837725 36.8055870687 37.3761241228 37.9733061538 38.6013667248 39.265306521 39.7831629757 42.2219222795 43.0162806313 43.879019426 44.8312862437 45.6431046027 46.8547662772 48.2304920144 50.3141492382 51.8814846145 53.488685357 54.998671361 56.2329130085 57.0214528161 57.2767319666 57.1108741929 56.7645858568 56.4170966656 56.2323117536 56.6992975542 57.1041003009 57.7717473338 58.5413436879 59.3975741714 60.281060125 61.1474514616 61.9766021889 62.7801194124 63.4653140235 64.3699530177 67.0697040718 68.5065124066 70.2700915615 72.353970587 74.6793680812 77.0838219772 79.8735722786 81.4588750908 82.4645529612 82.8672422338 82.8063552713 82.5347754186 82.3241526023 83.4873087752 84.3774398847 85.6388349501 87.1913850145 88.9337984649 92.2904250387 94.1826603238 98.5293989419 100.344851363 102.086685659 103.804970894 105.56111005 109.992029778 112.005172645 114.160969897 116.447024998 118.816168096 121.18560353 123.442310982 127.233291243 128.504994323 129.398004406 129.954094002 131.04453575 131.388576442 131.918797306 132.812826816 135.869768579 138.130615355 140.471712986 142.970671544 145.533336772 148.087897202 150.587142192 153.006305542 155.338660052 161.958061265 168.377718864 170.558635528 172.643774301 174.64856883 176.583961805 178.457150989 181.329221888 182.980793069 184.587308355 186.158072133 187.704890252 189.240860399 190.777200763 194.711886497 195.904566916 197.017468763 198.007418333 198.823757642 199.535146123 200.102273393 200.110509887 200.137669371 200.242349225 200.461316501 200.806843826 201.271747991 201.837191393 202.479613711
42.5802489724 42.4345945497 42.3134067685 42.2080655407 42.0994386969 41.9599832799 41.7611340647 41.4846787299 41.1347713543 40.7463873371 40.3847714702 40.0600302617 39.9567853535 40.0219791054 40.1809651229 40.3616790684 40.4970888984 40.3651707982 40.3076292946 40.1779928494 40.0056445627 39.8281851643 39.6814875051 39.5889028361 39.5538191833 39.5594832747 39.5757765359 39.2878243864 39.2124984194 38.8033922771 38.610759202 38.368453391 38.0937842509 37.8146476718 37.5667919026 37.4017983609 37.2895301408 37.283226355 37.2810787628 37.2503715044 37.166126721 37.0262250422 36.8435272779 36.6367699831 36.3349247596 36.1224909296 35.6170609946 35.4209314552 35.2341762645 34.7155259976 34.5296408524 34.3433672913 34.1565323509 33.5070789592 33.3335864616 33.1664951657 33.0049797481 32.8464678454 32.6867833078 32.3854310636 32.2203935431 32.043738195 31.8568828449 31.6660515169 31.3552272925 31.2421518235 31.163251497 31.1213296536 31.1107153794 31.1187951765 31.1308747314 31.0867104847 30.9913827398 30.9192117598 30.8515816306 30.6143091969 30.5446696013 30.4892659688 30.4503323671 30.4203408088 30.4025759897 30.3963215687 30.1050582241 30.2221600955 30.2585023801 30.3090875545 30.3738463246 30.4513856292 30.5384473458 30.6005765351 31.1217320863 31.1458260588 31.1519320768 31.1686712807 31.1541546188 31.2028563377 31.2817290375 31.5686075183 31.770854443 32.0202445134 32.3115539175 32.4887959711 33.9455397791 34.4324989023 34.7012710545 35.2049697945 36.1835594585 36.5877862624 37.1445919516 37.7259315322 38.3353473095 38.9766200759 39.4676754894 40.1818802955 42.5465129625 43.3575883783 43.9890954331 45.000020331 46.1621524478 47.5049080735 49.04067773 51.1964583258 52.8739867835 54.4758037709 55.8025626271 56.6630836232 56.9599705254 56.7550006353 56.5494458218 56.2135702265 56.055841939 56.5735689783 57.0338216791 57.7728824682 58.6185127629 59.5476613114 60.4869494142 61.3762081989 62.1816466497 62.790817145 63.4769282521 64.2324975402 66.5921824502 67.945503957 69.6835090392 71.807430245 74.2343209109 76.784955156 79.7363139357 81.4534347968 82.537484319 82.9585969774 82.8746761897 82.5737726271 82.362938816 83.5553329714 84.5495813664 85.9545126269 87.6717760645 90.9836634702 93.0212248274 94.9896339813 99.2429776774 101.007004696 102.659742339 103.706682115 105.335320616 110.055676675 112.0308123 114.198561048 116.549296654 119.031007795 121.547602173 123.964073528 126.12269536 128.94237063 129.810912144 130.278461852 130.826968527 131.054932687 131.572616403 132.619698441 133.997667687 137.619073669 140.397034623 143.100749537 145.839028415 148.53045508 151.125510607 153.602492405 160.118504899 162.42305206 168.749033866 170.915104267 172.985750286 174.978494747 176.904134741 179.859501319 181.553309009 183.190421485 184.775854569 186.318359307 187.8312783 189.331669918 190.837005049 194.707497551 195.906562886 197.042543699 198.066745508 199.088993744 199.625951037 200.091827973 200.081530151 200.093696199 200.196537096 200.430743203 200.807255414 201.314640923 201.9291286 202.622848097
42.4547289704 42.301459762 42.1911135738 42.1194366582 42.0669883809 42.0006884533 41.8837812954 41.6909968517 41.422062821 41.1079821853 40.806847067 40.4586811431 40.3803869702 40.4208904217 40.4653200314 40.5791250399 40.6428479777 40.6166508368 40.2968745524 40.0923784008 39.8438190102 39.5995991972 39.4100774777 39.3096654383 39.3026882352 39.362612295 39.4248089179 39.4870386849 39.2174554194 38.8431985009 38.6659920247 38.4308594738 38.1571349256 37.8747297793 37.6672812773 37.458151679 37.3276141059 37.312358 37.2788288672 37.2320166077 37.124540782 36.9562878674 36.7446223188 36.4345141672 36.2003613061 35.9826843327 35.4931377585 35.3068755754 35.1311262582 34.6438550878 34.4642271011 34.2805360164 34.0934281739 33.4645489863 33.2921331791 33.1285160614 32.9736695427 32.8250229105 32.6776235363 32.4003550812 32.2455197532 32.0771113074 31.8960912379 31.7088013452 31.385362906 31.2696016249 31.1879799017 31.14286733 31.1278411165 31.1297099907 31.0727059944 31.0325045992 30.9613819155 30.8827011691 30.654551844 30.5722138391 30.503966717 30.4508833928 30.4148217638 30.3877291767 30.3726936423 30.3688858219 30.0955774306 29.9428893449 30.2434772742 30.2975057154 30.3680456417 30.4541701353 30.5525170255 30.6303407281 30.7361274755 31.1072607495 31.1069090496 31.0851187003 31.1024204146 31.1382075239 31.2064994613 31.3172458639 31.6594790429 31.9133789587 32.209590029 32.3937070018 32.7271218157 34.2805562635 34.5436706435 35.0352306244 35.9794047481 36.3663935468 36.9049746021 37.4663792144 38.0530891698 38.6670150021 39.125186558 39.7947396899 40.507984295 42.7622607086 43.3014401657 44.2176156087 45.2811182398 46.530569999 47.9890025122 50.1248501578 51.7957303084 53.4167995553 54.7823150946 55.6981350761 56.0697261407 55.9694317177 55.560423557 55.8118438938 55.7319091311 55.9166299985 56.9396229711 57.7744790999 58.7168534881 59.7412688046 60.7605446314 61.6945458852 62.3897847355 63.0265314704 63.5677807091 64.129644628 64.8702632445 67.2799948609 68.9228069649 71.0033967192 73.4328818895 76.021004797 79.1100501847 80.9114733684 82.0772569618 82.5768099236 82.573269998 82.3646116512 82.2695527323 83.6988192757 84.8448772358 86.4281853047 88.3382466418 91.8109334997 93.9760431933 96.0209869317 100.141530595 101.293556936 102.797086255 104.225771365 105.686456407 107.289060566 111.953895842 114.095481082 116.477175226 119.041483083 121.679045757 124.233925146 126.521221643 129.223139931 130.085653986 130.664323662 130.680436863 130.830877435 131.331657901 132.410251577 133.919770497 137.638634802 140.605203567 143.50709043 146.40685132 149.214354517 151.87905455 158.297550315 160.733403687 163.006425406 169.201312774 171.327360531 173.364480318 175.331529357 178.21292496 180.098301027 181.776192848 183.391457406 184.945298906 186.444404289 187.902558457 189.340258973 190.781444079 194.57764949 195.760602193 196.901593684 198.217772715 198.997781451 200.029941227 200.094496684 200.091435926 200.110650665 200.228896899 200.490396152 200.905057254 201.458003611 202.121533505 202.864410709
42.2962194599 42.1209121815 42.0102554383 41.9682914266 41.9772731598 41.9973478737 41.9803747728 41.8912425098 41.7235701277 41.5027447782 41.2773620995 40.9117110964 40.8336383256 40.8365429079 40.8900923814 40.9427766126 40.8109083381 40.7003376349 40.2893405409 39.9979002684 39.6568509821 39.3277064165 39.0818127296 38.9713056275 39.002557136 39.1340392391 39.2848765573 39.4245282404 39.3358146667 38.8995942125 38.7464151214 38.5286860139 38.2677899942 38.0797992925 37.8096819444 37.600191048 37.4770648297 37.3885837409 37.2708521876 37.1923393092 37.0496614529 36.8447324501 36.5278151284 36.265856025 36.0194270694 35.5303996931 35.3389535565 35.1707243978 35.0134096393 34.5645848088 34.3940362367 34.213588807 34.0250966744 33.4169556014 33.2442654231 33.0835618601 32.9360487035 32.7992877717 32.4940663588 32.4195619909 32.2790756039 32.1233289324 31.9529558099 31.774495245 31.43491442 31.3172966134 31.2319842059 31.1804638102 31.1559363388 31.1457367466 31.0433075549 30.9187341243 30.9153448724 30.6878169695 30.5977473394 30.5192018585 30.4554620934 30.4072579476 30.3760129373 30.3531521111 30.3415147066 30.0846243139 29.9295073812 29.9414830907 29.9697452684 30.2803293082 30.354757819 30.4479399557 30.5565623954 30.6488894066 30.768951432 30.875021071 31.0552217458 31.0617945282 31.068558572 31.0930755305 31.1518252425 31.2561879703 31.5760996744 31.8332953223 32.1324637349 32.3189774938 32.6488917365 33.0001116923 34.3989785894 34.760180746 35.7768761978 36.1418100463 36.6582147043 37.1966552783 37.7582444397 38.3424138641 38.7646273259 39.3840854874 40.0303022075 40.7136360804 42.5348238485 43.3205501691 44.2386665115 45.3368385647 46.6495790498 48.6917225886 50.2838393687 51.8592338306 53.2201962342 54.1857909541 54.6724433344 54.7572500072 54.5588586889 55.2222388132 55.2927262501 55.6221568441 56.2276913381 57.7007001443 58.8151406945 59.9580164231 61.0875713419 62.1002719874 62.8238156876 63.3985233792 63.7839427343 64.1177081199 64.5975321486 65.4225096137 68.0610401686 70.0112486967 72.3361755256 74.8419188434 78.0215563459 79.8510866055 81.0987289528 81.73895788 81.9250327671 81.9366611762 82.0777942596 83.9282783553 85.2749273234 87.0714614606 89.2037236216 92.8631087244 95.1713613217 97.301821261 100.733247129 102.291899995 103.623243917 104.835702684 106.066717018 107.456628014 111.776446829 113.847640049 116.217179267 118.820365846 121.53467725 124.186210788 126.568824368 129.280906081 130.166662499 130.650372842 130.627039449 130.760786812 131.346628557 132.461073481 134.123617611 138.03808775 140.930720079 144.259149353 147.291348294 150.181901421 156.527558972 159.130313875 161.509543144 163.71110864 169.728149166 171.787610175 173.77234916 176.676526063 178.62037618 180.341598283 182.001216609 183.590971959 185.106205313 186.549760434 187.934513728 189.283623275 190.627414242 194.322174341 195.46290301 196.959269617 197.913274004 198.73189954 199.985698417 200.106844757 200.148342351 200.206139441 200.363030836 200.666346852 201.126135604 201.725957449 202.436043422 203.223278772
42.1168752196 41.9017917746 41.7747294985 41.7533058688 41.8244255202 41.9395699726 42.0343243038 42.0597060614 42.0013981489 41.8787324106 41.7313883086 41.6022181793 41.2811818053 41.2509776196 41.2434159546 41.2190258731 41.1331753723 40.9473777186 40.3032400161 39.9220662593 39.4798385298 39.0519878003 38.7371739878 38.6132293966 38.6902236901 38.9056473561 39.1548665179 39.3785821344 39.5129155282 38.9731740155 38.8491253807 38.6556736553 38.536468488 38.2668010337 38.0108555112 37.8028784116 37.6794941884 37.5255047785 37.4355139581 37.1250788053 36.9346786624 36.6169932353 36.3279457964 36.0408495715 35.78407225 35.3205673103 35.1516972756 35.0115840779 34.881983965 34.4800810232 34.3217287112 34.1448670284 33.953012559 33.3643461559 33.188926394 33.0295869076 32.9911710625 32.8608684811 32.4994714215 32.389084534 32.3163201546 32.176166845 32.0192824427 31.8525643639 31.4953687181 31.3750688245 31.2839286426 31.2224853126 31.1840913251 31.0391527674 30.9978046909 30.8438156883 30.6268574831 30.6125743423 30.5291188975 30.4578657177 30.4017393308 30.3610239428 30.3365578563 30.3192252781 30.3114758147 30.0794097437 29.9345116443 29.941841376 29.9644240297 30.0093301957 30.3324956633 30.4297999162 30.546017519 30.649423239 30.7817448527 30.8939988454 31.048111614 31.0523214515 31.0529105966 31.0695255309 31.1208958535 31.2198678551 31.3713075518 31.7850824394 32.0840210362 32.2670167989 32.5899068716 32.9301762593 34.1556937664 34.6004999607 34.9381274496 35.9135166498 36.4045221714 36.9182466757 37.454248074 38.0089920865 38.395869798 38.9644655922 39.5401010289 40.1267896467 41.7216888965 42.3485517564 43.0832457782 43.9836289618 45.0983795978 46.4387943256 48.4481606683 49.9439753458 51.2862501145 52.3134002846 52.9520606558 53.2749266477 53.3456540247 54.3146166469 54.6024664377 55.2470240315 56.0029347735 57.0085975544 58.8739867949 60.1519988861 61.420810168 62.4733339073 63.355085032 63.902119582 64.1419765489 64.2328533327 64.4194339443 64.9440896785 65.9699601855 68.941783568 71.0713809358 73.3961806896 76.6168957008 78.4290420597 79.7567859408 80.5823521948 81.0383015863 81.3664537681 81.8365880275 84.2301813656 85.8209771915 87.8638687595 90.2496480958 94.1193561844 96.5986204867 98.8379247048 102.065904736 103.501394627 104.620833273 105.561311503 106.499305376 107.61256329 109.438314848 113.469700032 115.779106281 118.36858568 121.102723918 123.794404359 126.225802975 129.171118249 130.532760823 130.691310349 130.725029643 130.930208117 131.627941691 132.87541353 134.705050572 138.906625705 141.966310483 145.093778787 148.533752461 151.465025223 157.654548141 160.174875849 162.448082116 164.533905337 170.316467881 173.293698792 175.161016062 176.991970174 178.883492595 180.587851134 182.231393831 183.796659537 185.27088924 186.651151164 187.947973756 189.186399286 190.403129724 193.992957065 195.468522761 196.466823368 197.433465773 198.291397952 199.888374909 200.114499228 200.248336111 200.38535509 200.610519855 200.973725601 201.486954756 202.134865168 202.888110869 203.713598614
41.9473916682 41.6772020016 41.5174232998 41.5047904623 41.6344033093 41.8470465708 42.0568102195 42.1972428776 42.2453033139 42.2151921344 42.1399247781 42.0540011511 41.6942207134 41.6402350571 41.5853598966 41.4997712002 41.3468727548 41.0909577277 40.7056152363 39.9113814897 39.377043912 38.8531762216 38.4670878499 38.3267327533 38.4472105463 38.735303039 39.0800810087 39.3780558738 39.5725055078 39.3595538338 38.9724153921 38.9490057589 38.7301260869 38.4843465471 38.2429581861 38.0331009514 37.8968782713 37.650308309 37.5334180033 37.0925280323 36.7135333446 36.405410436 36.0727195178 35.7554615581 35.4883731158 35.0655719608 34.9294126746 34.8294679445 34.7743408303 34.3935711578 34.2508947041 34.0777357423 33.8798093826 33.4319253989 33.2384157708 33.0657268472 32.9211666204 32.5896822088 32.5015828289 32.4107084449 32.305684288 32.1409822931 32.0858147441 31.9307756215 31.5563149517 31.4309748822 31.3312253996 31.2569043495 31.0348501419 30.9898074813 30.9374822253 30.728476302 30.5225440517 30.5267750956 30.4529580882 30.3920889603 30.3465329423 30.3159291896 30.3002315827 30.2896991991 30.2861193276 30.0831196121 29.9487402164 29.9471430233 29.9589541307 29.9935071706 30.0591203625 30.1610068634 30.5171231275 30.6257675321 30.7104212298 30.8588802706 30.9715668746 31.050800589 31.0515092545 31.0655319428 31.1131655917 31.2085779005 31.3571744902 31.7704951124 32.0652691938 32.2381741918 32.5504204251 32.8758847989 34.0322156124 34.4466802343 34.7578805898 35.6801011597 36.1432895597 36.6318592766 37.1438115444 37.6723600764 38.0284980416 38.5508075198 39.0592734623 39.5498057303 40.9025403522 41.3533763863 41.8803816058 42.5543506546 43.4428883283 44.5777605808 46.448498976 47.8669658188 49.2038712785 50.3125118258 51.1772301033 51.698073636 52.048862354 52.3128458922 52.6927857994 54.7870887752 55.690544751 56.8298438405 58.8355317094 60.2476130668 61.5805160502 62.8797551433 63.8820490221 64.45154108 64.5815424481 64.4449603819 64.3374989779 64.5487413621 65.2607208147 66.5190065412 69.7769993664 71.8625986047 75.0890222378 76.8572255305 78.2602414315 79.2873792654 80.0466517791 80.7354531695 81.5814302345 84.5622867191 86.4283550449 88.7447534397 91.4143417524 95.5169585642 98.2081794801 101.800190481 103.613375927 104.922603216 105.799894447 106.41789873 107.003580079 107.781244106 109.28462032 112.995517219 115.198693115 117.721539714 120.416765294 123.090231641 127.247966211 128.777329209 129.78258778 130.81129493 131.015965 131.465674516 132.297684951 133.71566374 135.72243822 140.285114641 143.467355934 146.690846399 149.78251474 156.336200736 159.043791755 161.426629695 163.541897049 165.465042008 171.923125517 173.73068112 175.518367113 177.416694221 179.140626917 180.833873901 182.468507727 184.015397488 185.451360713 186.765702215 187.965216672 189.076323479 192.572816066 193.467991429 194.855854949 195.819868359 196.793880703 197.636372106 199.709242341 200.094416789 200.375103128 200.638665856 200.967565755 201.413350221 201.991679752 202.691089389 203.485340367 204.343474971
41.9273718709 41.5529750242 41.309824159 41.296604043 41.4758612979 41.7768644835 42.090249166 42.3319067305 42.4712976745 42.519146626 42.5040973585 42.4552740515 42.2802738278 42.0018788525 41.9161535366 41.7901195428 41.5941072108 41.2958180432 40.8672295192 40.0197083136 39.428175889 38.8397425658 38.4014019139 38.2444172993 38.3883001251 38.7238949639 39.1176813044 39.4581987526 39.6886938717 39.49302872 39.4576257394 39.1348385538 38.9411312237 38.7159244307 38.4844194364 38.3033573473 38.1116052526 37.7661723679 37.5739363197 36.9888626887 36.5298857174 36.1587429172 35.7702367702 35.4130652666 35.1319894038 34.7657173912 34.7012175732 34.6571620681 34.6211560765 34.5659673195 34.1859576336 34.0165598119 33.583162852 33.3673495142 33.1601420895 32.9795248215 32.8370167591 32.5668614736 32.4996691444 32.4297218457 32.3420617079 32.1934604117 32.0517080166 31.8978747864 31.6081402635 31.4747839679 31.3639157741 31.2749842219 30.9878767144 30.9279950226 30.7013073114 30.6289343388 30.4125252443 30.3355303432 30.3739386007 30.3261877155 30.2941083819 30.2764007111 30.2716524852 30.2692890527 30.1808856104 30.1635161889 29.976721512 29.9609901894 29.9561066139 29.9739843528 30.0247901017 30.1147566503 30.2441539089 30.4895171309 30.6532606358 30.8037167799 30.9196818722 31.0474752476 31.0556460103 31.0739154619 31.1230073488 31.2179736213 31.3649947728 31.786660671 32.0736400879 32.2305692885 32.529233682 32.8366837812 33.9181852603 34.2967448444 34.5597493225 35.4395535176 35.8732197137 36.3373051635 36.8284810107 37.3366881676 37.6703557683 38.1562963222 38.6084010197 39.0131143891 40.122362417 40.3944696083 40.7067376314 41.1464975315 41.8059140424 42.7419473988 44.4557113514 45.8218059472 47.1766765835 48.3794337995 49.4193695206 50.1631605154 50.7228810139 51.258300701 51.8634226429 54.2358337208 55.2632912123 56.5071385949 57.9628417443 60.1482826816 61.6033055727 63.0616704018 64.2077266481 64.8463837448 64.9238618337 64.6151181405 64.2595939384 64.1897501361 64.6047585512 65.5497700914 66.9519295226 70.3737471879 73.5915510354 75.3053178316 76.7746264251 77.9936607614 79.0474271123 80.0921318679 81.1390735046 84.0884070595 87.011197379 89.6139380326 93.9014755181 96.9411619691 99.8903224058 103.457911768 105.308397248 106.508655493 107.130823398 107.390299096 107.578266454 107.976206317 109.116163404 110.465267976 114.53155788 116.94375031 119.551602822 122.160926051 126.605988805 128.234803648 129.481262033 130.203026454 131.632603769 132.276060661 133.34470904 134.973103833 137.170346199 139.832546325 145.411807839 148.693724527 155.184667326 158.12375269 160.675968186 162.869348003 164.775416954 170.792448305 172.481221334 174.155462634 175.854525316 177.676374453 179.382044849 181.074655116 182.712251994 184.251609191 185.656817995 186.907436227 188.005248267 188.977970272 192.088474224 192.848801874 194.114561395 195.036818279 195.949315099 196.911361899 199.425675786 200.024919908 200.508182696 200.947894116 201.419528987 201.974893317 202.634322162 203.392400163 204.228374369 205.11549565
41.9374992375 41.5191656587 41.2581678104 41.2403864474 41.4495028336 41.8112488375 42.1952719316 42.5058177882 42.708111915 42.8106674673 42.8388125073 42.8177967618 42.643840611 42.3421270946 42.2411829025 42.0962109968 41.8840123717 41.5769157153 41.14818835 40.5848389947 39.6932977861 39.0978006006 38.647136453 38.4761077612 38.6059541929 38.9274635519 39.3111757365 39.6459412865 39.8776978514 39.6681710305 39.648748239 39.3397592026 39.1645286192 38.9535074631 38.7255607239 38.5433223865 38.3166166904 38.078488776 37.6046501725 37.0525579311 36.6473805339 35.9005507434 35.4418855654 35.0307999422 34.7274369262 34.451869631 34.4121002629 34.4363300979 34.4718435958 34.4656303777 34.0800201056 33.9097551391 33.5388751647 33.3052556447 33.0798130458 32.8870882852 32.7439245422 32.5401999781 32.4950722302 32.4459839988 32.3736211885 32.270184759 32.0986193027 31.9440966559 31.6431873707 31.4992881262 31.375806852 31.0087880022 30.9288078137 30.6688708163 30.5978671312 30.5258707129 30.3020028771 30.239507322 30.2957542336 30.2637240601 30.2481919891 30.2465658435 30.1711907154 30.1897094138 30.2001409842 30.1843712671 30.021726397 29.9860137852 29.9581751734 29.9530592243 29.9824914755 30.0532245573 30.1653920899 30.4021003724 30.5574638663 30.7027853561 30.8177309949 31.0315268902 31.053968638 31.0836586488 31.1404150214 31.2394384173 31.3876740983 31.5834335951 31.9680058078 32.2406022132 32.5243103816 32.7240474801 32.9103136461 34.1489689444 34.3748663065 34.732224973 35.5927804976 36.0336816565 36.508432265 37.0039721359 37.326092089 37.7900183845 38.1108087381 38.4604088513 38.7262728603 39.5338004568 39.6440954251 39.8634179877 40.3126281723 41.0758055576 42.1489149718 43.9664625476 45.3534463056 46.6446374235 47.8289775244 48.5806010483 49.4904238758 50.2199878922 50.9982921083 51.9092348439 54.698856984 55.9997423092 57.4995418626 59.6332014159 61.2636932203 62.8206882233 64.0791472898 64.8024958188 64.8916914824 64.5065310605 64.0043393898 63.7404709342 63.9248082946 64.6067687937 65.723428239 68.982877245 72.199164515 73.8588872363 75.3827668466 76.7677935528 78.0799820892 79.2290069309 80.7716271577 84.2307806732 86.5939354638 89.4346267219 94.9099126134 98.0047981357 102.444066706 105.056321743 106.998104639 108.128333398 108.509145568 108.403114055 108.17798852 108.438803596 108.947042101 110.021536283 111.659440399 116.111590229 118.60191773 121.121958998 125.889522591 127.780885168 129.083637337 130.079396909 132.344478972 133.320486535 134.684984251 136.563850239 138.973193385 141.821598451 147.720517274 151.04277855 157.365136264 160.156275948 162.515022292 164.475108373 166.124679388 171.528104704 173.015111435 174.54198556 176.255097696 177.898656743 179.597215523 181.303624659 182.959610935 184.505676319 185.891056237 187.083633958 188.0789898 189.357560225 191.542456363 192.542115361 193.256839327 194.068850408 195.073338101 198.035887779 199.035329236 199.900210446 200.637207807 201.299441127 201.952160128 202.64581954 203.405418598 204.232718459 205.114128221 206.02886309
42.1413660595 41.7217694998 41.461137366 41.4478049221 41.6994374846 42.1258334223 42.4224527753 42.7537565153 42.9800376806 43.1078601738 43.158747744 43.1539676984 42.981029276 42.912909279 42.5632523629 42.418309988 42.2151307649 41.9318134392 41.5453837347 41.0429942948 40.176800255 39.6335708667 39.2117140322 39.0283093213 39.095254597 39.3506360027 39.6647522395 39.9457151467 40.1438717053 40.1848987307 40.1804091543 39.5646867992 39.3998860735 39.1962742266 39.0214227152 38.7807413622 38.5189031063 38.2239713028 37.7837654847 37.3601287658 36.4994247086 35.931570532 35.1274076127 34.6486405859 34.2335752276 34.0997342655 34.1172378496 34.2221539748 34.3323685694 34.3827119343 34.0442570793 33.8770395393 33.5066986083 33.2537184537 33.0079150871 32.8006461761 32.5630756961 32.5150172036 32.4909751612 32.460075473 32.3984409099 32.2984201046 32.128036071 31.968481335 31.8073685374 31.4995786256 31.1680219582 31.0542631618 30.6487280971 30.5674210003 30.4918581484 30.4210770954 30.1929086282 30.145601059 30.1169090033 30.2061608478 30.21043474 30.2285237568 30.1900002372 30.2229520661 30.2382839849 30.2223367201 30.0827675704 30.0213653626 29.9649511929 29.9316126156 29.9345117208 29.9803508919 30.0686895327 30.2909445266 30.431208022 30.5657395295 30.676304603 30.7504038978 31.0363099 31.0833912751 31.1539025096 31.2623488255 31.4161260315 31.6143499791 32.0011902828 32.1767680272 32.4457507772 32.7143620968 32.8822087504 33.1322140986 34.1902166164 34.5068798207 34.6626270762 35.7200372138 36.1827546695 36.6737525937 36.9960861431 37.3502686368 37.7584436432 38.0741248365 38.2754819045 38.3682333868 38.7719307009 38.80625121 39.0809217679 39.7045296133 40.6825248231 42.4161388118 43.8278004577 45.1798887253 46.2688063412 47.3059569589 48.3574186304 49.2167763053 50.106780161 51.0991345119 52.2553317412 55.2886880929 56.7597763284 58.8754129916 60.4713650185 62.0163721654 63.2980417093 64.0755540155 64.226524143 63.8809098016 63.3732998155 63.0468281021 63.1088891857 63.6161735467 64.5230708259 65.7303366832 70.9178273128 72.5317825044 74.0986341923 75.6170080813 76.8797460238 78.480308364 80.3073032116 84.2011304837 86.808639408 89.8989070817 95.316205537 98.9264363465 103.513019409 106.344076485 108.422674961 109.536519582 109.725070521 109.294815708 108.693149214 108.55422817 108.759926167 109.574264076 110.980444778 115.291373156 117.654253341 120.605624185 125.381268379 127.194513861 128.722854119 130.026714547 131.239831664 134.491225436 136.189891227 138.352831056 141.001668363 144.059346447 150.266823896 153.525620687 159.727214039 162.361719418 164.507764261 166.203359625 167.556549037 172.223926655 173.491871555 174.864694873 176.459235012 178.070379296 179.776634431 181.513550616 183.204710263 184.772731796 186.150298097 187.837289388 188.618309454 189.206785506 190.941477879 191.692601795 192.301110952 193.089673144 194.150728976 197.272429021 198.568284021 199.742801276 200.775007464 201.697451457 202.563759209 203.421689601 204.300141112 205.208135121 206.140056078 207.082308148
42.8463332569 42.1731998884 41.9493483971 41.9485993519 42.1797759343 42.5607507968 42.9681341336 43.3116058593 43.2930740535 43.4165521131 43.4701691421 43.4701019106 43.2965840225 43.23183276 43.1338604326 42.7482248986 42.5731227775 42.338361242 42.0253509415 41.6216013202 41.1401512688 40.3647443471 39.9924404625 39.7949285254 39.7817487429 39.9315107812 40.1404237346 40.3368801182 40.4217811814 40.4797804315 40.4604934224 40.3706193749 39.6487877943 39.5044122128 39.2801585076 39.0244247203 38.7322144208 38.2879418714 37.8795940176 37.3778959889 36.4176868301 35.7590234302 35.0476502913 34.3492712583 33.9199025706 33.7954070917 33.8662240343 34.0460175103 34.2280016529 34.3311003973 34.3151422442 33.8648885609 33.4929190397 33.2230080046 32.9592441655 32.7387102677 32.532673552 32.4981670332 32.4902390047 32.470876652 32.4125691038 32.3091289701 32.1337070039 31.9656840863 31.7965823665 31.2695204918 31.1201328491 30.6534376281 30.5497790223 30.4606811229 30.382395341 30.1345301286 30.0841345934 30.0522438935 30.0433084823 30.1515759043 30.1785755431 30.1547391342 30.2203733058 30.2701047293 30.2905872882 30.2723414025 30.1506413127 30.0596345192 29.9713580911 29.9071505227 29.8810248466 29.8991113694 29.9601323715 30.1642300137 30.2855531462 30.406192637 30.5106448857 30.5885915056 30.9965812924 31.0647483791 31.1538216714 31.2769512803 31.4415215611 31.647313165 31.9495925775 32.2070044085 32.4686281547 32.7228083981 32.87570048 33.0950958507 33.1331250604 33.3501610423 34.4125997262 34.7727242579 35.8505179032 36.0627434311 36.5593057182 37.0376798207 37.4552302467 37.7694621135 37.9489916439 37.9907955849 37.9394902182 38.0594263846 38.2068398482 38.7216812994 39.614060913 40.7778175236 42.4627617944 43.90202389 45.1186226072 46.166278595 47.3341054597 48.2583641492 49.1987932036 50.2141357802 51.3544521468 54.3852530583 55.7574974041 57.7779875819 59.2312749868 60.6405158299 61.8315702379 62.6002238621 62.8328711788 62.6245847947 62.2496346844 62.0013148921 62.0664176629 62.5066007414 63.2965435907 64.3655277608 65.6274030838 71.2983178819 72.6162530813 74.2094515447 75.864871886 77.6593788175 79.6958885556 83.9315247757 86.7039429757 89.9524245869 95.4960913564 99.4311618123 103.140660137 107.016465841 109.24079149 110.390596034 110.473307613 109.82389716 108.95319303 108.527961863 108.501125786 109.104658025 110.311927737 112.017810071 117.381185563 119.639645693 124.713613649 126.670357896 128.429827551 130.047104281 131.635340706 135.677402241 137.722362677 140.188044551 143.099967367 146.395153802 152.744855149 156.139081517 162.150534585 164.645048741 166.580836599 167.99724432 169.025725576 172.839061117 173.881379879 175.190901118 176.5899529 178.183915758 179.914527843 181.698209713 183.439451555 185.04237783 186.996440629 187.960815371 188.640456588 189.078241615 190.301461131 190.776951656 191.236108664 192.084875826 193.240774439 196.464882995 198.093853472 199.609434846 200.964055787 202.1710433 203.272664238 204.313187173 205.324332391 206.321730649 207.307781324 208.276697412
43.5176729675 42.8108963349 42.6421667328 42.652664038 42.8386707686 43.1329151358 43.4434123642 43.7052752118 43.8962095312 44.0200945533 44.0877113217 43.7646729898 43.5896053665 43.5284709702 43.4390253714 43.3216993129 42.9331670309 42.7593436574 42.5336375562 42.2414286128 41.8850453068 41.1682979177 40.8432653324 40.6292103501 40.5377219575 40.5800419776 40.6792550249 40.783845575 40.7959029468 40.8103496576 40.7668693982 40.6666267525 40.2988844551 39.779034753 39.5510035843 39.2841851003 38.8589573369 38.4874515937 38.0363371085 37.4815786929 36.8055450575 35.6895512267 34.941749913 34.192210176 33.7512406384 33.6262763515 33.7301712146 33.9605766441 34.1907416352 34.3276576869 34.3289795902 34.0049577007 33.502782105 33.2223666885 32.9479123909 32.6092182449 32.5215096373 32.4932231556 32.4910665816 32.4721953144 32.4077126753 32.2940190058 32.1457453638 31.7526315252 31.5561937314 31.3786425256 30.6859539683 30.5511451193 30.4397449281 30.346197203 30.2672889766 30.012436868 29.9723088734 29.9551421794 29.9652833834 30.0054141417 30.0760476054 30.156491495 30.2481068739 30.3158104236 30.3416722119 30.3192323507 30.2052271694 30.0850729614 29.9662455227 29.8727569207 29.8188614683 29.8098022613 29.8434982793 30.0284693106 30.1299664953 30.2360901931 30.3342045788 30.416248476 30.9329587833 31.0234529761 31.1339794919 31.2760549955 31.4566912711 31.3976127743 31.9829455158 32.2452673631 32.5070701304 32.7533651905 32.8313293367 33.0880649532 33.1050124299 33.2731565273 34.1704972159 34.4945375075 34.8933780689 35.7285922181 36.2378346179 36.7384755016 37.1838472922 37.5260780538 37.7266914986 37.7742377426 37.7062188892 37.626993311 37.6803793671 38.0894382774 38.7995516923 40.3290855444 41.6228298332 43.014534661 44.1607378457 45.2328140691 46.418689072 47.3493537546 48.2864389667 49.2754796384 50.3529214558 51.5426633141 53.7511315366 56.4135000212 57.6428479757 58.8202381911 59.8251535699 60.517615875 60.8195009655 60.7972002618 60.647047191 60.5874085992 60.7665995801 61.2427929693 62.0076003641 63.016270879 64.2113497091 67.6329492991 71.3932390511 73.0553663741 74.8156850024 76.7360015127 78.9004916629 83.3775865331 86.2165079496 89.4324208869 95.0734994278 99.0204485936 102.794527985 106.801674303 109.127473556 110.347203075 110.437035309 109.733181213 108.901533057 108.238580975 108.093301015 108.568420864 109.635671255 111.193506312 113.716750654 121.920625651 124.130780197 126.226279706 128.20577896 130.1183398 132.058916762 134.694292452 139.161080562 141.926488326 145.109418609 151.596323635 155.176442534 158.69772499 161.910414418 166.884566275 168.633622927 169.77596025 172.657450985 173.337752516 174.162284482 175.305143572 176.646531205 178.241583248 180.012207001 181.854855125 183.65535796 185.926499159 187.173624381 188.095838073 188.677133911 188.966242151 189.822814255 189.837370094 190.258180346 191.141790514 192.430255719 195.739897255 197.721120124 199.589990848 201.275430328 202.774166039 204.118182912 205.347860679 206.496623941 207.585678281 208.624933589 209.6164971
44.2780882285 43.9836574837 43.4089261495 43.4156104788 43.538202002 43.7263456183 43.9205303177 44.0833593631 44.2055068587 44.2910310957 44.3432051969 44.360519822 43.8554263424 43.7970889566 43.7143555547 43.6126053492 43.26522219 43.1505757547 43.0086217869 42.8196814772 42.573388204 42.2883484487 41.6433810017 41.3897579844 41.2633926606 41.219064932 41.2263953559 41.1901696963 41.1921465094 41.1621763687 41.0910313216 40.9758912562 40.5906499695 40.0681632684 39.8385386176 39.4486335005 39.1262727997 38.741107523 38.272538881 37.6975801106 36.9993342621 35.8362829282 35.0640736306 34.2930336549 33.8444686635 33.6767005106 33.7805692441 34.0160360845 34.2501811505 34.3874770816 34.3864389277 34.0567101782 33.8003196066 33.2553133029 32.9791507252 32.6194430646 32.5282518869 32.494496769 32.4832644826 32.4511887928 32.3709131616 32.2417472323 31.8861475496 31.6714436338 31.4696123767 31.2879430931 30.5683256084 30.4300130073 30.3160155727 30.2214918328 30.1438818589 29.883875236 29.8527826941 29.8481862833 29.874596919 29.9347890645 30.0293070348 30.1347752874 30.2497038645 30.3338476553 30.3650870239 30.3313583971 30.2179097386 30.075835684 29.9341150203 29.8181673347 29.7419279114 29.7098063947 29.7193091505 29.8867900742 29.9698730318 30.0626087666 30.1551059596 30.2414409411 30.1464133313 30.2137303452 31.0910794002 31.2548483592 31.1670353387 31.3973764129 31.6653690778 32.288895944 32.5613479884 32.809872512 32.8984650164 32.9979542908 33.1237701347 33.2369439169 33.3722341307 34.2287224669 34.5963580055 35.3928207191 35.9121927522 36.436678983 36.9182305605 37.3070558179 37.5611065475 37.6622310407 37.6371496187 37.575992358 37.607720755 37.8459867523 38.5431575535 39.3136904805 41.0934407063 42.3856768801 43.4388131998 44.4479794567 45.6001621808 46.489932151 47.3822241609 48.310088519 49.2960867019 50.3492399514 52.4245106252 54.8932861751 55.8593369922 56.7551595219 57.5174192251 58.0802942967 58.4162232133 58.5766954717 58.6841068112 58.8743107048 59.2442449926 59.8369439785 60.6526385955 61.6665588667 64.5937018567 65.990313445 70.1901347602 71.8947542234 73.7131544434 75.6948979217 77.9073718977 80.7477544978 84.9435954445 88.4057351203 91.9884084705 97.8076446718 101.464832861 104.83953283 107.909551479 109.209803438 109.422914431 108.854921632 108.179475469 107.585514323 107.462633837 107.91387034 108.918581717 111.044541122 116.052106439 118.157671934 123.632382858 125.855016412 128.031547974 130.205038061 132.455199097 135.450145573 138.077970751 144.169098689 150.033314976 153.606068244 157.336143963 161.014683193 164.371301458 168.927259318 170.529365251 171.425003591 173.27740703 173.69665035 174.386711522 175.337047881 176.645264394 178.259720573 180.081236305 181.987176761 184.530054246 186.084892231 187.341673132 188.227519743 188.720416644 188.875895465 189.182246843 189.07418539 189.448452391 190.398004808 191.843957174 195.268714275 197.592203027 199.800271287 201.80200862 203.579839584 205.156247178 206.567239146 207.846783628 209.020464085 210.104891842 213.194238962
45.0397582602 44.7981862896 44.6460637346 44.1132150144 44.1553762992 44.2292383305 44.3041407795 44.3689834575 44.4287711504 44.4878018694 44.5389950811 44.5666765382 44.5555016905 44.0334639226 43.9517368609 43.8538058435 43.7524212979 43.4690881851 43.3926830797 43.2861496095 43.127046948 42.9193830129 42.584796276 42.0643526451 41.9024285349 41.8016359605 41.7445036378 41.6404231081 41.5902145097 41.521202537 41.4236747339 41.0365068062 41.2041195323 40.3716210366 40.0226114585 39.7509446196 39.4327511063 39.0536442925 38.5945162622 38.0345419466 37.3591147497 36.5756148446 35.4366494 34.6596105915 34.2155559152 34.0394822037 34.0447469443 34.2312571822 34.4178856066 34.5171629027 34.6242196735 34.1406499366 33.8820840893 33.3171090155 33.0445857394 32.6434070717 32.5397961437 32.4862808354 32.4498520332 32.391301955 32.2873787664 31.9714600993 31.7553605874 31.5394196864 31.3388493951 30.7780772642 30.61386676 30.2885080908 30.1770462886 30.0847165749 30.009736432 29.7452453344 29.7207182368 29.7247849105 29.7622175583 29.727283608 29.8594849434 30.0677969039 30.1983613701 30.2940912082 30.3305922652 30.2866445057 30.1612033109 30.0111794197 29.8600700507 29.7330141248 29.6432928372 29.5949149959 29.5856403318 29.7392018103 29.8067145005 29.8881189992 29.976066256 30.0666033421 29.9540388242 30.0443943775 30.1537878945 30.2966613029 31.1204785114 31.3840728363 31.6885912785 32.3323433283 32.6279102951 32.8920425239 33.0074985368 33.1099672436 33.1991991722 33.2528835835 33.3152490884 33.9895848985 34.3138293897 35.0604603402 35.5791963311 36.1187657933 36.6319114721 37.0698879542 37.3904789828 37.5714069939 37.6270470161 37.62699165 37.6759488228 37.8715810993 38.2588614872 39.134819689 39.9076439631 40.7147149442 42.8716204275 43.779202224 44.8602824171 45.6757174721 46.4962000077 47.3442423127 48.2300664619 49.1487668106 50.0797091525 51.622576091 54.0402185796 54.6467581246 55.1449179688 55.5412731401 55.8661814247 56.172976652 56.5259858151 56.9829056536 57.5825404453 58.342009684 59.2604879873 60.3258429753 63.3313963706 64.7447181485 66.2557760516 70.7170970521 72.5529513539 74.5398775736 76.2899215771 78.7313666617 83.6115547124 86.8918596554 90.1673284439 95.8473244348 99.2208077268 102.359449851 105.642005004 107.020308662 107.450965092 107.38049731 106.88275212 106.527005276 106.566198893 107.102516669 108.40590562 109.804608662 115.369300374 117.466229008 123.200442575 125.534689656 127.878311611 130.268812697 133.453716341 136.042835778 138.932543557 145.50825107 149.682007829 155.195557372 159.058006831 162.887744438 166.400131022 169.2652595 172.093713594 172.792562509 173.704783878 173.914028368 174.435630171 175.320176857 176.622231062 178.27009199 180.14476862 182.827015635 184.634578796 186.226235833 187.492202115 188.35171698 188.779375702 188.838114173 188.83255721 188.63247722 189.000643278 190.035702838 191.639910955 195.247578945 197.866326894 200.368904234 202.647470852 204.670938873 206.451933171 208.0210572 209.411491888 212.620050433 213.786774077 214.84128691
45.7492934136 45.5224926569 45.3430023211 45.2056806585 44.6221008888 44.5693169501 44.5205479135 44.4932254097 44.5097375893 44.5721682771 44.6548890143 44.7197715278 44.7350297549 44.6844975981 44.1509445859 44.0389526967 43.9240313262 43.8280897934 43.6416832367 43.5920289332 43.5022132545 43.3643317662 43.0918486571 42.6060541867 42.4360389409 42.3093965013 42.1533948777 42.0642537837 41.9759884845 41.8761922226 41.7563300286 41.6864030334 41.5242931616 41.1186022552 40.3373678143 40.0764590661 39.7750094024 39.4201169207 38.9947448919 38.4806772852 37.8660105066 37.1590700772 36.1112558714 35.259190504 34.832823909 34.6494631519 34.6555841554 34.5820807676 34.680884449 34.8479548695 34.7982682665 34.6366980485 33.9905725359 33.3444809284 32.8429539038 32.6647203932 32.5374285087 32.4499043794 32.3740101124 32.2780415666 32.1445573087 31.7797407042 31.5634133391 31.3529421569 31.1612279929 30.6000856849 30.4481763516 30.1270193223 30.0227741073 29.9351454035 29.8632304778 29.5938978101 29.5721825534 29.5793943817 29.6205698801 29.5841411187 29.7178623145 29.9391463022 30.0745692865 30.1752780658 30.217368441 30.1547202989 30.0211435097 29.8801783584 29.735618864 29.6106841214 29.5178634796 29.4613352005 29.4398088092 29.5839799315 29.6393857586 29.7117671152 29.7961087224 30.1452832351 30.2496469119 29.8715630464 30.0099394133 30.3666490521 31.0489509275 31.3477084171 31.6932933989 32.3640678898 32.6949219423 32.9894173597 33.1483081281 33.2681378376 33.3279304882 33.3214462847 33.3035062221 33.3361758314 33.7769713992 34.7408234661 35.2413745341 35.7786059163 36.3074282679 36.781937694 37.1620273799 37.4237457169 37.5698658776 37.6491115517 37.7402484994 37.9210655281 38.5088195524 39.052103479 39.6890370491 40.3673393459 42.4045680631 43.1895880396 44.1769997939 44.8987662299 45.6341941386 46.398424245 47.1923435212 47.999660297 49.4670456362 50.1443535959 52.3212862912 52.6607527992 52.897075334 53.1029978316 53.3721481728 53.7767691395 54.341094361 55.0528079524 55.8901837968 56.8370472774 57.8837908347 60.7483256216 62.1092413346 63.5472337089 65.0678634461 67.1276415058 70.8765715924 72.8028455282 74.8965820017 77.2002811245 81.9823710859 84.9633135994 87.8441362897 90.9533558215 96.2675189918 99.0639197868 101.369801619 104.01678557 104.724335399 105.164141004 105.081057219 105.090308598 105.405095501 106.400382252 107.483142152 108.915882045 114.711921393 116.825995037 119.051175956 125.238341164 127.716311832 130.275747706 133.648958538 136.42593229 140.281783152 147.108182195 150.669185721 154.56169736 158.705700823 164.125724556 167.751810252 170.71843016 173.136487883 173.756703119 173.937689094 174.037511116 174.445720742 175.309321122 176.629130004 178.315689042 180.94995283 182.896460824 184.741494274 186.35814086 187.633910204 188.485995235 188.889829747 188.91534315 188.92225978 188.713390358 189.120722445 190.245402769 191.982270061 195.861880929 198.694394526 201.418840523 203.91221797 206.129072716 208.070556959 209.760189505 213.129446267 214.456745598 215.617331342 216.636899612
46.3919522674 46.1493661352 45.9107051394 45.6631253732 44.9345304331 44.7315513766 44.5409400536 44.4191270461 44.4151030147 44.5239526618 44.6852221746 44.8245975255 44.889028145 44.8548842624 44.7225334439 44.3168031999 44.1275993366 43.8832130986 43.8221431959 43.7245475005 43.6965573212 43.6353696213 43.443417488 43.0233477996 42.8717034309 43.0999311046 42.5686595849 42.4554840002 42.3418767226 42.4202536897 42.2880430795 42.1355561082 42.2990213772 42.0954281857 40.6620032365 40.4180532958 40.1433581948 39.8270474148 39.4539995955 39.0077072532 38.4774248775 37.870249576 36.8725533638 36.0042233501 35.6331155773 35.3841002575 35.2932150272 35.1832533008 35.156877643 35.1246413133 35.0144471652 34.819906387 34.1169028539 33.4166578327 33.1827359855 32.668843729 32.5060450985 32.3719971276 32.2450766346 32.1026493092 31.7327816393 31.5226606844 31.3090822899 31.1102481634 30.5434838833 30.3884382506 30.2567955958 30.14212215 29.8548672313 29.7735537552 29.7040702645 29.4287863322 29.4050542344 29.4088112732 29.3086077261 29.3969380062 29.5196582666 29.6643868974 29.8743783429 29.9746745452 30.0236539114 29.9390807485 29.8748012885 29.6860988638 29.5618121886 29.4506777683 29.3642728509 29.3073200398 29.2799269883 29.4191505645 29.4658402236 29.53125047 29.6124798134 29.9922166683 30.1052743721 29.6891426455 30.0488190724 30.2552755046 30.5199751853 30.8536552182 31.6604003422 32.3644268341 32.7386185402 33.0754624881 33.2889232002 33.4388097399 33.4804451495 33.4194509679 33.321071347 33.2624461327 33.5894889669 34.4421445469 34.9041690952 35.4176972755 35.9405392983 36.4303188518 36.8500220751 37.1757347299 37.4006994326 37.5567303139 37.7008491176 37.8914862334 38.5213671977 38.9723171226 39.5002970756 40.0692563718 40.6523180761 42.6461071864 43.5297298477 44.1504101446 44.7981668324 45.4849230493 46.2062690147 46.9380691246 48.2983772124 48.8637652107 49.2814146126 50.9212549603 50.9168130721 50.9216383025 51.0978617721 51.5528720417 52.286526644 53.2240306556 54.2834307406 55.4120702946 56.5873704586 59.5396318143 60.9530855927 62.4118815865 63.461152399 65.0352357235 69.5845404489 71.4384683023 73.4155740261 75.538486345 80.1579469171 82.7690887312 85.2125288578 87.8065820119 92.8640133684 95.2790082066 97.3653324438 98.9209928116 101.516148779 102.509017327 102.905453096 103.353807634 104.020224297 105.231151581 106.466992896 112.057351064 114.057393396 116.212948015 118.489593693 120.870713086 127.520993094 131.001236055 133.68196355 137.416280946 140.459877848 143.851591434 151.152262579 155.042662198 159.180296937 163.401478815 167.409281722 171.417112189 173.280288584 174.031339876 173.900355652 174.071724958 174.480257885 175.366358826 176.719635561 179.106070718 181.045394833 183.012573285 184.873723108 186.504772248 187.796938807 188.671988117 189.11064344 190.031466794 189.580365718 189.46213192 189.957288315 191.168099764 192.998237427 197.242351275 200.188767407 203.046174274 205.67800999 208.022992165 211.82787542 213.646929552 215.196412774 216.513496404 217.633661239 218.588961481
46.9807491239 46.7086513413 46.3983585851 46.0283608706 45.5832893935 44.7713504116 44.4119535512 44.1835962456 44.1772494045 44.3750436876 44.6600590568 44.9070720494 45.0401365173 45.0321707574 44.8866037214 44.4361626963 44.1802042846 43.9302596107 43.7620876567 43.7499144828 43.8118814548 43.9022675716 43.7682829577 44.036382939 43.5709425216 43.4918980513 43.3780409597 42.8153396462 42.8752293099 42.7430988146 42.5980257991 42.7895962034 42.6085767438 42.4042288552 41.6342553171 40.7651305997 40.5234702586 40.2551992971 39.9461587657 39.5792301523 39.1415659316 38.233301102 37.6962918862 36.8686839885 36.452229923 36.1493329951 36.1089864926 36.007079499 35.5593456417 35.4348912382 35.2592241905 35.0247468179 34.7384415881 33.4827740722 33.2482452269 32.9899139038 32.4388395148 32.2476374361 32.0597382629 31.6444953822 31.4255730387 31.2016973368 30.9917400012 30.8102004108 30.2700113447 30.1473220066 30.0438404932 29.9507703409 29.5744032079 29.6024575729 29.5336530034 29.2508341211 29.2195203474 29.2128112783 29.0991397406 29.1695057526 29.2720341806 29.3961840023 29.5217909139 29.7072722294 29.6531012742 29.661179693 29.6264041245 29.4439173222 29.3481690766 29.2584503175 29.1852382505 28.9836929116 28.9542592981 29.2435116999 29.2842608243 29.3441382023 29.730981325 29.8292279129 29.9471805505 29.7122206678 29.8870527776 30.1115338457 30.3990228488 30.7612021599 31.2034414159 31.7672153422 32.7235988038 33.1064155833 33.4094046404 33.5703135819 33.5936906569 33.4917017445 33.324473581 33.1823585075 33.3598307617 34.1632360209 34.5693408458 35.0399511616 35.5362669814 36.0195699473 36.4561351073 36.8230559623 37.1063325568 37.3260963177 37.5238143396 37.7418165002 38.4456595699 38.8421731636 39.2978033292 39.7877975573 40.2906066693 40.9619623771 41.4328443859 43.4257241309 43.9889182308 44.6087125433 45.2800880718 45.9752519106 47.2775912659 47.8070162789 48.1672094817 48.3271788806 49.3158392646 49.130460798 49.1915628158 49.6550681943 50.5106400834 51.6295624116 52.8736153365 54.1547503149 55.4364322126 58.4440044555 59.8944779479 60.8823594913 62.3549180622 63.8909212129 68.3018296886 70.0665975004 71.9107141351 74.5921425891 78.5553260218 80.4667314579 82.4596738852 84.5357917667 86.66109725 91.2898843884 93.1741578835 94.7618804458 98.584390019 99.6034927527 100.500299051 101.419350901 102.730072021 103.942904022 105.379591092 111.313988691 113.393746585 115.611187432 117.945815457 120.390308893 127.094814977 130.805248892 134.439330647 137.250135287 140.309957446 143.681311968 151.1408397 154.920327115 158.917745376 162.990224398 166.867872081 170.154956743 172.791620756 173.761738675 173.690249068 174.113597147 174.592375187 175.536563291 177.521016906 179.299383604 181.237564353 183.200403141 185.060810285 186.702664887 188.026514707 188.964218182 189.504707613 191.076079798 190.83813273 190.909442047 191.545250645 192.846813728 196.626603952 199.4307042 202.398032651 205.012767154 207.653854352 212.064520939 214.209567529 216.027136688 217.546821099 218.806046656 219.84436438 220.699931753
47.5402000282 47.2452966312 46.876666251 46.4019165097 45.7994889526 45.0944221394 44.2871824942 43.9494173209 43.9488464664 44.2486857055 44.6652440446 45.0211706553 45.2228488984 45.2449279948 45.0972929598 44.6063878703 44.304696123 43.9990890939 43.7928072506 43.7759135172 43.8737447789 44.0371741437 44.4193265718 44.3229268558 44.3864740465 44.2407269431 44.1859712329 43.596996276 43.1874531494 43.0438412227 43.2510960738 43.0841035967 42.8974991432 42.6911148459 41.9338270734 41.7191710579 40.8984889226 40.6828017299 40.4434402155 40.1592149641 39.8108087941 39.1259059119 38.3730054335 37.8752198733 37.4224505722 37.0548923165 36.7817342499 36.5688474391 36.3807483945 35.7570975196 35.5172930207 35.2390620238 34.9245174842 33.6023537657 33.2954194487 32.997684147 32.7122050352 32.2803842714 32.0145047456 31.349869038 31.0616254028 30.8169592061 30.6097118928 30.0736774297 29.963154923 29.8819014033 29.81496545 29.7495520283 29.3942310192 29.3192303502 29.242226673 29.0629351489 29.060718756 28.8494394023 28.8639949464 28.910506613 28.9883674799 29.0895097467 29.1978311159 29.3972052319 29.318727302 29.3496768672 29.3465801579 29.1738723131 29.1088336561 28.8920784192 28.8312463597 28.7867356549 28.7613551093 29.4128898807 29.4477763941 29.1486521682 29.5570939064 29.653863541 29.3772490756 29.5167898893 29.6960737009 29.9271422805 30.223300043 30.5966835792 31.0538008959 31.5883507939 32.3772698708 33.1168996591 33.3687921429 33.5551954291 33.5820542175 33.4594950708 33.2482782334 33.046026166 33.0412995706 33.2450794069 34.2291002655 34.6449813233 35.1006456147 35.5611826348 35.9961914581 36.3843525109 36.7064170992 36.9754435161 37.2228871465 37.9446419101 38.2701298076 38.6480527961 39.0696080043 39.5158945943 39.9670390391 40.5688677313 40.9664041236 41.3791341615 43.2112314919 43.7718320288 44.4105954954 45.1006254152 46.3909655821 46.9556811334 47.3476148924 47.518424863 48.1764512551 47.8482586089 47.7973300528 48.2333336143 49.1518443774 50.386755205 51.7549107817 53.1379536322 54.5145838699 57.0790480074 58.4981763095 59.9066109099 61.3381078075 62.8213052521 65.193457691 66.7525031288 68.3703638712 72.944037535 76.6275420421 78.1869478656 79.7445184161 81.3302091392 82.965986702 84.6376655731 89.0123355859 90.6556411822 94.2396486071 95.7047285359 97.0835022158 99.6569845721 101.069027647 102.594405782 104.494299895 110.537974863 112.722065784 115.015652349 117.411056772 119.909222814 123.42247251 129.437103439 134.062876472 136.859498737 139.867389574 143.136044332 150.693959108 154.266278134 158.003851146 161.784155223 165.375484267 168.436702419 171.677346271 173.009800707 173.90755949 174.193529711 174.445128039 175.332554535 177.849894692 179.617318017 181.534619522 183.477944415 185.331210717 186.990130942 188.36845374 189.411274705 190.116343167 192.551807209 192.624941945 192.968613763 193.800641087 195.217070578 199.380932165 202.078115685 204.947169349 207.776891749 210.415121209 214.900019369 217.001457221 218.756200151 220.189001186 221.338269716 222.24845957 222.964439546
48.0898632834 47.7969860646 47.4093320764 46.8833537268 46.1891642392 45.3567269883 44.4043754978 43.9885666625 43.985649522 44.3390761803 44.8242903968 45.2373537822 45.477191317 45.5207530279 45.3833453847 44.8676679927 44.5663130799 44.2614625799 44.0550309923 44.0369634347 44.2155535396 44.4717944035 44.7036952719 44.934065322 45.0295302366 44.5677007201 44.5070045641 43.9031521589 43.8304655919 43.685568843 43.5280085513 43.3547239389 43.1628042151 42.9518979339 42.2099533114 42.0033382652 41.8038094493 41.0880713132 40.9200041166 40.717160451 40.4484614108 39.846805062 39.1353492492 38.6332943273 38.148695874 37.73524002 37.3827397306 37.0792348313 36.8014657863 36.5247282349 35.6765924717 35.3507043506 34.5289710231 33.6711023279 33.3259939544 32.9786274007 32.4631066346 32.1172778202 31.7636185421 30.9876971786 30.6438119331 30.3678508823 29.8066880135 29.6891969912 29.6274381839 29.5984439293 29.577482384 29.54589099 29.2175347936 29.1476699603 29.0650767456 28.9209851085 28.8527861983 28.6226299264 28.6110204701 28.6310050862 28.6842439161 28.7651977043 28.8607402986 28.8980188739 28.9781326596 29.0311760205 29.0573874752 28.7399831406 28.7000298128 28.6547817861 28.6128170394 28.5800654974 28.5601372245 29.2674671237 29.2999441333 29.6950198255 29.9850219492 30.0774259555 30.1846628889 29.2984425563 29.4723102257 29.6972679102 29.9860252917 30.3503845623 30.7970793216 31.3208512367 32.126556314 32.6240964572 33.1634177043 33.3693342856 33.3686451815 33.2488484694 33.0902963427 32.8931725833 32.7691142712 32.4885998873 33.0168242257 34.2249292775 34.6346598963 35.0640836129 35.4863698359 35.8823168292 36.2291267918 36.5363315959 36.8295349495 37.6605401571 38.0109262333 38.401416135 38.8257415922 39.2661718256 39.6999341904 40.2519785174 40.5913500624 40.9278814024 41.2988181166 42.9813899604 43.5915813235 44.290721806 45.5993916552 46.251537597 46.7480436622 47.0210082094 47.0613202994 47.1452457364 47.0215300935 47.4037136777 48.3126663396 49.5759814554 50.9877141502 52.4350816413 54.8690302556 56.3193508088 57.7003687703 59.05299505 60.4203288492 61.8373398609 64.1260827953 65.6081884985 67.1242744183 68.6382351573 74.8023508238 76.0361158304 77.1869332757 78.3184978801 79.5146274319 80.8394958517 84.5832772776 86.2564293601 90.6662734751 92.5885642976 94.4661604009 97.5966590646 99.4105119258 101.514497071 103.315425986 105.188794655 112.055919117 114.432073737 116.886704739 119.516520392 121.979967873 128.843402598 133.547866917 136.28756935 139.193175613 142.299048944 145.631971889 153.211451761 156.610616389 160.007015543 163.214567254 165.964816162 168.138506332 170.717627416 172.50023512 173.871427305 174.526364642 175.530081792 178.282127399 180.035775895 181.928766248 183.852489025 185.704954529 187.396271012 188.855328393 190.041214549 193.942779445 194.365686974 194.808783591 195.482429488 196.563266035 200.572426717 202.846104894 205.492162581 208.30569494 211.091613533 215.819084183 218.183639148 220.188370563 221.824606191 223.114515884 224.100144659 224.83331833 225.367380211
48.6304037749 48.3729764361 48.0216240425 47.5239535067 46.842257049 46.0084644155 45.1881186301 44.5083693947 44.4733627148 44.7817985794 45.2235274907 45.6075678596 45.8348147824 45.8798768209 45.7574270378 45.2287316256 44.9665902565 44.7101347905 44.5426213381 44.5294841362 44.8663832005 45.1051636347 45.3219134942 45.4738871215 45.3211884816 45.1449511904 44.7974805646 44.1813265156 44.0936059156 43.9390320452 43.7762384041 43.5997592242 43.4036867832 43.1857006752 42.4587499845 42.2490803169 42.0602193213 41.9021585559 41.3528844243 41.2286628577 40.8298860943 40.2969862681 39.8234829041 39.2951324194 38.780401381 38.3122345202 37.8951681081 37.5217629485 37.174994419 36.835680647 35.8945681926 35.5257140971 35.1374780291 34.0167265152 33.606216505 33.1804446132 32.2717140522 31.9302015196 31.4757088691 30.5954402663 30.2047746765 29.8578941669 29.3512847928 29.2712306303 29.2695073734 29.305806245 29.341063911 29.3490254129 29.0516668832 28.9846283563 28.892274707 28.7333420914 28.6381717586 28.3898859529 28.349475005 28.3430858055 28.3752910123 28.4424048415 28.5321973865 28.5687189269 28.64467906 28.7260361708 28.7762389811 28.458786551 28.4428644271 28.4182930038 28.3920481296 28.3695471732 29.0941939074 29.1186695558 29.4014630885 29.5610572236 29.8421720072 29.9258953892 30.0225269043 29.0568713364 29.2154249646 29.4214865885 29.6865958133 30.0214490411 30.4321480108 30.9139558689 31.716280391 32.060400769 32.4760342438 32.9753165758 33.0408823469 32.8923642 32.7149033816 32.5259560445 32.1278477577 32.0506084583 32.56907652 32.7779048846 33.0662660031 34.5309299239 34.9363632561 35.3331739562 35.6965429872 36.0351514825 36.214960449 37.2982205967 37.6902307422 38.1203467324 38.5829615182 39.0586127383 39.5170519844 40.0485597997 40.3525280883 40.6158951532 40.8860507418 41.2295645094 42.8259029054 43.5236385272 44.8536909902 45.6118416746 46.2494359131 46.6827479076 46.8717119947 46.869355447 46.8473608458 47.1727736651 48.0056579003 49.0139718981 50.6050674072 51.9771631856 54.373614087 55.7623651481 57.0638530373 58.3266485743 59.6047588448 60.9423992604 63.1398787499 64.5650885863 66.0161540504 67.4350446105 70.664026297 74.0952014514 74.8716226848 75.5804633885 76.3759947425 77.4059283044 78.7368188475 82.6898729242 87.2482911385 89.6373369651 92.0047429204 95.1121961915 97.2928678598 100.17889384 102.203485876 104.233738548 111.41849566 112.980559399 116.441775982 118.865748293 121.283482914 123.809124342 132.932056775 135.589473958 138.365149747 141.277694214 144.33799381 151.919052363 154.953833686 157.940599572 160.742138507 163.461569872 165.19194523 170.944307656 171.586811017 173.688943351 174.560175244 176.033805041 178.760475013 180.517564763 182.401415227 184.3209074 186.190144001 187.935045734 189.500099696 190.857645448 195.610683712 196.409776322 197.245003535 198.367251707 199.70160614 204.353652346 206.676049005 209.317666607 212.107144766 214.864057677 219.602209366 221.859254561 223.731258982 225.202718059 226.297557334 227.066449258 227.573082193 227.882391916
49.1360369007 48.9391794829 48.6738447835 48.2819597992 47.7157085748 46.9994189069 46.2826751526 45.7972534151 45.3605203776 45.542771687 45.8522880994 46.1367415169 46.3062658444 46.3303003215 46.2169366224 45.9990812995 45.4586685556 45.5237505837 45.3724215365 45.3627227541 45.4384518364 45.5597815738 45.665984076 45.7370773444 45.7158603449 45.4091253929 45.3505432359 45.2629576352 44.8450126375 44.1555376192 43.9917755842 43.8175758525 43.6212255532 43.3956077994 42.6813453945 42.4540789274 42.258782691 42.0330608197 41.9652581339 41.6716315363 41.542032612 41.2557833149 40.4133359644 39.8465335898 39.2916605646 38.7768059718 38.3115104701 37.8883150685 37.4921556955 36.4878748791 36.0905956365 35.6840440192 34.9652586101 34.5048591927 33.6534176816 33.1689632144 32.1684072476 31.6503569728 31.0926651239 30.1979147507 29.7116121986 29.0564494973 28.8703470348 28.8323062136 28.9036894716 29.0187632539 29.1190786486 28.9227048576 28.9040561158 28.8364773938 28.7299963742 28.5515679429 28.4243318503 28.1602953283 28.0905229749 28.060348427 28.0775407375 28.1388108003 28.2301019627 28.2735557557 28.3582851828 28.4478638285 28.18514226 28.2008300672 28.2007117343 28.190440609 28.1754738871 28.1604197742 28.9442868911 29.2269267115 29.272260599 29.9493008268 30.0063714252 29.7634292689 29.8448831858 28.7943068697 28.9284149376 29.1038750203 29.3306358068 29.6178128254 29.9704603095 30.3843155311 31.1616912301 31.4057446868 31.7683200027 31.9499181829 32.0194363 32.2962696941 32.1620502815 32.0110184681 31.5817573102 31.5136094779 31.8371977589 32.2299437145 32.4841182891 32.7915507241 34.3489276862 34.5781783902 34.9556517144 35.294671398 35.678392602 36.8748357937 37.3213397931 37.8138891503 38.3482919841 38.9031567772 39.4377786979 39.9939121775 40.2992803433 40.4989168259 40.6473522225 40.8436806221 41.186147794 42.6784422591 43.4553226868 44.9583074824 45.7254080399 46.324189383 46.6912802286 46.8388313039 46.9297338056 47.3776740167 47.9776620923 48.9901348632 50.2010766115 52.7040036219 54.1156416459 55.4037435144 56.5894375092 57.7287452216 58.890434423 60.1333411788 62.2310384884 63.6228684429 65.0516934073 66.5397621532 69.9541761082 70.7575375188 71.3132142264 73.169929308 73.5886837159 74.3604919006 75.6151575357 78.9776743596 84.0829230808 86.9570002311 90.6008564966 93.2999539162 95.8454587216 98.9959188657 101.220348942 103.387674137 109.872316012 112.306353182 115.833768579 118.177305172 120.588482267 123.089160277 127.680350767 131.583698705 137.466421599 140.186566277 142.980122434 145.831053217 153.244690419 155.851736133 158.695799782 160.674247294 161.884999703 162.971122862 170.581846158 171.13610255 172.065742473 176.207103473 179.230546867 181.025482732 182.930660698 184.873111196 186.784005401 188.605605778 190.297607231 191.84436795 197.155850288 198.654490575 199.823632097 201.180944633 202.83094022 208.229494778 210.668034907 213.375045814 216.202608144 221.187074229 223.695276675 225.848665154 227.570542856 228.841806383 229.694458716 230.195453603 230.427131193 230.470514153
49.5597094374 49.4201312466 49.2576546426 49.0136169084 48.6248347262 48.0930924669 47.5324466367 47.1169068581 46.9624182606 46.4734170937 46.6292906658 46.7897532564 46.8800653072 46.8671373653 46.7506337064 46.9043547601 46.32612467 46.1300356318 45.9834810863 45.9206704494 45.8900174351 45.884167191 45.8847101053 45.8945809155 45.8618054903 45.5818759427 45.4942123514 45.3697632911 44.9668025731 44.7865428329 44.6158160578 44.0045818032 43.8167026501 43.5877822373 42.8847632751 42.6245294181 42.4022784752 42.1889309387 42.1516030613 42.1002926818 41.9317794183 41.6584820546 41.1729736665 40.2658743643 39.670794801 39.1236927999 38.6289885049 38.5208587904 38.1062737183 37.0562479198 36.6299711101 36.191383838 35.7307081013 34.5898518352 34.1995032986 33.1734637972 32.0969726662 31.4979682896 30.8352711095 30.1300275267 29.2428780496 28.5998833491 28.3993295754 28.4067384794 28.5611053901 28.7626075709 28.9298906781 28.7884566091 28.7813269306 28.7088106281 28.6213814396 28.308777191 28.152053318 27.946014504 27.8491071118 27.8000433874 27.8094703539 27.8723505016 27.9700350412 28.02402343 28.1141260687 28.2041972875 27.9483757677 27.9702736069 27.9781676578 27.9759618631 28.5811822425 28.6145444843 28.6439048257 29.1022118012 29.7927497285 29.8452005367 29.8924828344 29.9368824835 28.9417901534 28.9799344578 28.6171908652 28.752296585 28.928750198 29.1540129684 29.4322304316 29.7601228422 30.4916641534 30.6174416381 30.9137499551 31.0668222288 30.9929554867 30.933404408 30.7776507006 30.581435137 30.9155528965 31.1964351074 31.2457927119 31.6240216767 31.8599400383 32.1474425264 32.4724873768 33.8844015567 34.2751228815 34.6722076689 35.0982093649 35.4601163827 36.9014242205 37.4717391467 38.1044269279 38.7791398986 39.4454129572 40.088309305 40.449686231 40.6087958987 40.6176270936 40.6185450806 40.6767338055 41.0392741952 42.7119446469 43.5605174427 45.0928782289 45.8160785022 46.3418267021 46.6558992667 46.9726957386 47.6043627716 48.2304229165 49.1604809208 50.122739033 52.7564120941 54.0649470931 55.2357874441 56.2805489086 57.2643556938 58.2783162437 60.1424867449 61.388689797 62.7678332867 64.3326532733 65.6924057185 68.9750302813 69.6596051043 69.9979069159 70.1121819219 70.2612854242 71.5297219337 72.7113386334 76.1868698206 78.9430168924 84.6758453797 88.719302414 91.8244250408 95.4842066269 98.0421203557 99.571172653 102.79482046 104.952227325 111.704990393 115.176584254 117.518732032 119.915999294 122.389305813 127.112383593 130.857569879 133.316734338 139.131177553 141.699565694 144.252202638 151.655003846 154.447298901 155.910519533 157.604860935 159.054730366 160.208207431 169.119933692 170.282875679 171.532940948 174.935243637 176.517254638 181.532344725 183.498274651 185.497058628 187.477064099 189.396812355 191.333778543 197.311742213 199.257045528 200.709165775 202.245335212 203.961714373 205.941934467 212.034831564 214.650631513 217.497421504 220.44026932 225.490345766 227.979181621 230.056134133 231.627646293 232.673470231 233.241871936 233.426699449 233.338136848 233.078887207
50.3164990388 50.0750510278 49.6369925733 49.5304368249 49.3359313783 49.0201988224 48.6486780099 48.3404841773 48.1806790837 48.2532610288 47.468449668 47.519459434 47.8754509901 47.8372109181 47.7133800685 47.5152097554 46.8993383241 46.6929199039 46.496558782 46.3268070549 46.154400135 46.0061639784 45.9140332183 45.8789384293 45.9156600408 45.9332484816 45.6000174073 45.4343197376 45.0302140855 44.8219685648 44.6494195005 44.5047248367 44.3509900697 43.7231357276 43.3549580666 43.0369352399 42.7235998839 42.4612156295 42.328422818 42.2977872604 42.2141698101 41.9738133718 41.5945205209 40.7794893435 40.2205081996 39.7029477092 39.2271137953 38.739934813 38.3151622844 37.2390445019 36.793770596 36.3348463459 35.8523257381 34.8305205072 34.0902108616 33.5071777913 32.2916727342 31.6119789972 30.6764937606 29.7698463924 28.9887311121 28.2359719989 28.0152230487 28.0649521218 28.2973836967 28.5751725293 28.795985818 28.6924745488 28.8068971634 28.6470999957 28.5086831048 28.3232420145 27.9873899711 27.8131358176 27.6796989725 27.5850428184 27.5934261867 27.6618206714 27.7653717417 27.7400596313 27.8160006402 27.8780309794 27.7458135497 28.2892840149 28.3386853053 28.3725341058 28.4370969883 28.4745254597 28.5050473416 29.7360004505 29.6961675846 29.7413777055 29.7773128645 29.8057455711 28.7476882444 28.7554696683 28.7741282014 28.3771924111 28.494557231 28.6479556559 28.8411648402 29.0727396629 29.2700413906 29.7430869085 29.9689245585 29.9885113592 29.961208916 29.9490543997 29.8706958211 29.7621834035 29.6610022749 30.5186325767 30.5891625878 30.7157142073 31.1923661503 31.4710144471 31.6031409232 31.9421956666 33.5859584477 34.0049741869 34.4666874393 34.8701768435 35.473898377 37.0609653931 37.80149762 38.6183071824 39.4563861663 40.2488866738 40.7270204297 40.8833166817 40.750768361 40.4721081706 40.3426695574 40.4931297562 40.9581522352 42.497135068 43.3686782371 44.2310351039 44.73397888 46.0276849677 46.4850817991 46.8092202668 48.3010318584 49.1909890594 50.2932526807 52.9574413566 54.1933638582 55.2609715755 56.1549916036 56.9524962336 57.779693336 59.4214066393 60.6018117876 62.1052777682 63.5534622115 64.9948069304 68.2265461699 68.8717415406 69.0666670338 68.9417592629 68.8233487679 69.5142262532 70.6749483234 72.6100102136 77.0763202954 80.9184272641 87.3546726836 89.8242268459 93.8713594197 96.5116985183 98.9196032645 102.227104616 104.402520158 112.267376683 114.575565473 116.904357831 119.282478326 121.731451161 126.458631797 130.189882538 132.56835697 134.966652956 137.349535234 142.946788538 150.870758276 152.100848315 153.74839265 155.278234521 156.663035656 157.88144795 163.224508865 169.391212308 170.965010407 174.855058328 176.642547763 178.548930797 184.095030144 186.313634937 188.30565337 190.261216423 192.170884196 199.212849407 200.945828981 202.70977734 204.578049507 206.629979382 208.936861039 215.648185871 218.484157314 221.534139315 224.668864266 229.785321843 232.321939996 234.367064729 235.801641337 236.605099512 236.852057196 236.677067759 236.229493418 235.639643722
50.3937556874 50.0556090725 49.8616979393 49.8372257495 49.9341906681 50.007197682 49.9805270405 49.9274060186 49.9042139391 49.2909045405 49.2952740346 49.1299413116 48.5834472302 48.5046233523 48.3620358699 48.3423568373 48.0546265117 47.7194568841 47.6080074423 46.6309413156 46.2877034568 45.9792990698 45.799663723 45.7978340492 45.9063858028 45.9825699986 45.6777037373 45.4614737454 45.0293315467 44.7736486414 44.5948826254 44.4910637089 44.3049011534 44.1532540734 43.5226928867 43.1747002832 42.8153798338 42.6073862909 42.3865045521 42.3028073216 42.275528612 42.1322175691 41.8610816836 40.8557232628 40.3124898022 39.8154543178 39.3575494962 38.8826973965 38.5297353637 37.380916685 36.9266867914 36.4564142681 35.8972447727 35.3907116522 34.1901789772 33.5943546614 32.3590603426 31.656429412 30.837321614 29.7088583162 28.8462837736 28.1580417872 27.8362830118 27.9078994052 28.1839185069 28.5603028739 28.8320528686 28.759220995 28.759658664 28.5829001589 28.4247253331 28.2154072465 27.8624380298 27.6743189252 27.5263009896 27.4518292391 27.4521533276 27.5229867604 27.5396509741 27.6080872026 28.035900919 28.1640342231 28.0826078677 28.1508842006 28.201867736 28.2372968866 28.3051747878 28.3448953919 28.7768917683 29.6514877151 29.6027982422 29.6399285014 29.6633914592 29.6742816102 29.6742216808 28.5308539419 28.5071546006 28.4901500582 28.0427312403 28.1179179974 28.2199394398 29.0394265817 29.340257324 28.4006453302 28.8014390059 29.0795735407 28.9010093322 28.9331110511 28.9266510298 28.9009091285 28.877998006 28.8772503239 29.8806314942 30.0222111834 30.7292751591 30.9979958493 30.8828097742 31.2235189733 31.6042968779 31.8499445302 33.7709634196 34.1996305839 34.8536687308 35.639719602 37.3618788106 38.3053604565 39.3099317533 40.2775608509 40.9036669805 41.0943448197 40.835422794 40.3606585502 39.9890637145 39.923140919 40.571561906 41.1559686612 41.9063122904 42.9477981081 43.7319490477 44.3861750735 44.9120464045 46.1755703333 48.3206816865 49.3011123588 50.5013553208 51.8264616046 54.481623908 55.4959345325 56.2492811182 56.8311985366 57.4219090183 58.7768202506 59.9920228189 61.3231175486 62.83262824 64.3828452562 65.8002291184 68.3516681347 68.5019864534 68.2314831447 67.9155195511 68.1885094435 69.3440081333 72.1337622553 75.7577220106 79.2263456463 85.7386189684 89.5980867947 93.4358262243 96.1306000573 98.5509396164 101.878051808 104.028073547 111.758352046 114.040352761 116.343039772 118.696986888 121.1264192 125.85663215 129.600978483 131.956389922 134.321768545 136.644843394 143.087190295 148.93977377 150.532648261 152.023684325 153.430669786 154.768029123 156.040610699 161.754659088 168.484163387 170.389464636 174.732997865 176.906322118 178.928214049 181.002762896 183.11472662 188.932206108 191.014404788 193.075866378 200.609308933 202.584352599 204.619125681 206.777472099 209.129211909 211.740473434 218.979856136 222.052472061 225.344991404 230.909314222 233.915325273 236.570961114 238.638208012 239.958427958 240.509464552 240.404355655 239.835135613 239.002721376 238.877158234
50.8999636067 50.1102919096 49.7233420428 49.758853822 50.1894364896 50.7446190323 51.1908183265 51.4826206715 50.9944591667 51.0615289443 51.1086439448 51.126697177 50.3512567582 50.2813349619 50.0437077346 48.9988988472 48.6869418901 48.6161014016 48.1196039635 47.5091424211 46.447543763 45.994871814 45.7383557476 45.7565565226 45.9301519189 46.0547295096 45.7493677763 45.8190892719 45.1691887766 44.7898682938 44.5534153498 44.4815540202 44.5304854791 44.2048058989 43.9643403426 43.5114135338 43.1057873106 42.7511502405 42.4774323772 42.3568469072 42.2273566257 42.0630401215 41.7772213681 41.1007559476 40.6814171774 39.8261065946 39.3607537105 39.0242048012 38.6328601987 37.4848860192 37.0294869195 36.4873052472 36.0115764773 35.502201814 34.9490828244 33.5408099861 32.5086637116 31.8314122817 31.0371525497 30.125938596 29.0378198066 28.3258827171 27.9977092265 28.0716328257 28.4091774831 28.633224546 28.8757919009 28.7692728526 28.7462680545 28.5465533426 28.3729522472 28.1509302598 27.7941915701 27.6033275418 27.4560860844 27.3850979744 27.4122462763 27.5146971733 27.6498231971 27.8002585348 27.9381153425 28.0576571872 28.3849327835 28.0310720362 28.0810474718 28.116046419 28.1854577092 29.0409557417 29.5377526733 29.5718133123 29.5142205763 29.5428215124 29.5532248058 29.5457174407 29.5208370468 28.312623088 28.2445379343 28.1714673779 28.0977780247 28.0291592363 28.3723934438 28.5714733097 29.0686630685 27.4607331696 27.5307546202 28.0420448651 28.1402326738 27.9201435551 27.9796330769 28.0297006861 28.0793778975 28.139089084 28.16532461 28.4503787656 29.437383842 30.2778391856 30.1387365778 30.4787931575 30.8612784962 31.0933025252 31.5899753089 32.1883171844 34.098265607 34.9081698615 35.8876391625 37.7087194591 38.908675116 39.9021127116 40.6392940031 40.8687927565 40.5604884754 39.9622494891 39.4393844304 39.2232177313 39.756556089 40.2182160449 41.097699364 41.8816089488 42.659238928 43.3823338004 44.0604701068 45.618504193 46.4921902542 49.2851247867 50.673632245 52.2270725668 54.8973965629 55.9460539601 56.5962490827 56.9412847008 57.5475908804 58.1094830175 59.2846439012 60.5816518247 62.1334725334 63.7862719009 66.4233211792 67.4753749852 67.9433982578 67.9848083627 67.6063396784 67.6885101558 68.7115138559 71.3039929868 74.4660314678 79.2381989083 83.1190569439 86.9294348273 93.4950980006 96.1348218006 98.4805907893 101.755585286 103.834348685 111.339493218 113.574838572 115.838031236 118.160714021 120.572466507 125.300610412 129.085776945 131.482194421 133.909216049 136.296009128 142.512868258 147.895008328 149.401285569 150.774499989 152.074482779 153.3610993 154.669343954 160.509689969 166.039396128 168.247476768 174.62528498 176.839287833 179.068789318 181.309106707 183.558526722 185.818478987 191.834293775 194.038041156 201.970361075 204.152092631 206.414656895 208.816031935 211.420933058 214.294977397 221.96287303 225.255518938 228.793212251 234.4878282 237.704064009 240.537928368 242.679474245 243.912079727 244.20869084 243.73417127 243.319432172 242.156853752 243.171565409
51.2160777429 50.387370205 49.8519193226 49.9029381595 50.4674392633 51.2314486541 51.88354918 52.3274970275 52.6009830197 51.9712773656 51.9929460161 51.9685562126 51.1041318107 51.0162172669 51.0299291595 50.782481261 50.4282693182 49.3131055256 48.7513218779 48.0507927628 47.2611179253 46.2712663105 45.9512410034 45.945826865 46.1053537254 46.2097018282 46.2196071014 45.8578489533 45.2857863955 44.5868313841 44.284567864 44.2824682963 44.4552277972 44.2921123166 44.113444237 43.7013141111 43.3115981571 42.9632705213 42.6605535155 42.4737314049 42.1213706342 41.8954694916 41.5739174691 40.8979390912 40.5212695305 40.1897193546 39.8785304002 39.0553565732 38.6857818649 37.5533762005 37.294600623 36.5828693044 36.1088332131 35.6033021128 35.06208871 33.7089786027 33.1477823376 32.1163586333 31.4130467145 30.6036051254 29.5293961275 28.8927020506 28.5548930337 28.543567713 28.7731511375 29.0521915199 28.8665703101 28.9155458657 28.8670239011 28.7321010638 28.5270220622 28.1298779272 27.8328836727 27.7439717977 27.5348707277 27.4278766561 27.4503286117 27.5376955847 27.6767823605 27.8177264925 27.8650202351 28.3476074453 28.3139494688 28.4315980488 28.5290859003 28.8331383663 28.9105770527 28.9650374544 29.4690091072 29.4977095976 29.4316069595 29.4516767444 29.4490294821 29.4230670058 29.3730960445 29.2984392808 27.9941780736 27.863832974 27.7185174772 28.2957968822 28.6093279621 28.4308966202 28.2835067195 26.5438887613 26.5462077098 27.0106863115 27.1188351175 26.9297329068 27.0938420213 27.2189247719 27.24219899 27.3597154071 27.6681758929 27.8008187802 27.952130558 27.7008240358 28.1034449269 28.419696884 28.7911999824 30.2860311852 30.7699637716 31.3485696415 32.0511583133 33.9632917208 34.89360474 36.0259396804 37.3887383626 38.5369018133 39.3622480711 39.6740436894 39.3505566387 38.6662464754 38.0160509754 37.6592536346 38.0919284896 38.4409346848 40.0294780018 40.7705737744 41.5491099317 42.3355743175 43.0005416806 43.8985689416 45.0056593487 47.6294170094 48.7471215223 51.8274279724 54.7370331594 56.162730324 56.9941082032 57.0859679243 57.1980516219 57.350114988 57.9553214372 59.8816532956 61.4330239555 63.1505760385 65.9508058045 67.1860787796 67.8556503926 67.9730759077 67.8950096443 68.0600194409 69.0681691117 72.0898585795 75.2834760941 78.6905431892 82.3110529658 85.133856076 90.3492346613 96.5263817658 98.7043201045 100.728187595 103.627630339 105.463044712 113.179168996 115.389474065 117.669387956 120.056895737 124.765889343 128.611974387 131.111430029 131.934684053 140.008529933 142.337659246 144.128467853 148.740037614 150.009414801 151.186906998 152.522861222 153.820492152 159.542222599 161.963345254 167.577313044 174.363225434 176.856341338 179.306003148 181.718593208 184.107111908 186.488219819 188.881627453 198.103967508 203.288106557 205.640961634 208.088006094 210.682429004 213.484888224 216.561502995 224.551686221 228.009690775 234.041663942 237.521592744 240.94819714 243.984335548 246.234019255 247.404461372 247.459064479 246.963225918 245.668729719 244.18055803 244.776726305
51.9697079839 51.1885453509 50.6303854479 50.7161681253 51.2927052441 52.0687519526 52.7400253147 53.1978422324 53.4708418576 53.6184499893 53.6843236223 53.0838985428 52.9856106086 52.8425707019 51.7269193597 51.5095416135 51.1861232384 50.7194810921 50.0855828583 48.8358423491 48.0526408489 47.390263835 46.9028659316 46.8195809726 46.8575014433 46.8799489417 46.4539842462 46.1926797054 45.4903810201 44.7295668629 44.2437180444 44.2768626475 44.4896451502 44.6884907057 44.3202809026 43.9118561582 43.593342297 43.2138921192 42.872824757 42.5898526302 41.974193782 41.6405820818 41.248781308 40.5835389364 40.2613531271 40.0033139221 39.7571308961 39.4795016095 38.6918307319 37.7879387179 37.3484705355 36.651176285 36.1832319904 35.6831579524 34.8749128472 34.4452298638 33.3620589002 32.4571589971 32.0801648993 31.4046828089 30.4035916065 29.8155990459 29.4501393599 29.3523472277 29.2760633359 29.398691603 29.0353786717 29.0162293851 28.9245170352 28.7664806322 28.5548272468 28.307180491 28.0655898592 27.8417260054 27.663037048 27.5693856145 27.5360828629 27.6013521608 27.6947897057 27.7940151281 27.8911389236 28.3897815269 28.2490909437 28.3690617391 28.472125757 28.7644389398 28.8441029525 28.8983003586 29.4061585702 29.4293384847 29.3555673396 29.367538409 29.3524438289 29.3087972276 29.2345953021 29.1272702115 27.7635548254 27.5762639245 28.0242154222 27.9319412065 27.636082193 27.7266076744 27.4569516253 26.5040666297 25.5872811493 25.6725225172 26.0697316595 26.2563498372 26.2256459609 26.4187466466 26.4985803671 26.8576970246 27.0127082356 27.1636645005 27.3208570141 27.0488214926 26.7765943985 27.6950634784 28.0474834591 28.4603129517 29.8816384182 30.4102854878 31.0378952535 31.9943286925 32.0700654334 33.8661928637 34.9922755872 36.6282813479 37.3603417989 37.6555184026 37.4705230075 37.012122497 36.5780522466 36.3693813186 36.909335571 37.2648210608 37.8065657731 39.61314818 40.4012911477 41.0690055593 41.9730070717 43.0211152456 44.321273781 46.5378714177 48.597141761 51.1225191204 54.5550044239 56.5549513062 57.649497682 57.5696151397 57.2648507524 57.1226986487 57.5056242348 58.275701978 61.4766450639 63.3173627669 65.0991442904 66.8520112564 67.4931544204 68.0451507319 68.6263827638 69.0927662625 70.310271932 72.5284886271 77.0154702371 80.4777668223 84.1164392915 86.8739577864 90.6093328443 94.9061954521 97.921003817 99.6350124637 103.641222067 105.37737871 110.209847348 114.999702384 115.906744545 118.225025024 122.852815744 125.399151714 128.829048786 131.801227975 137.812259067 142.196735677 144.423739109 146.184708269 149.797101922 150.785293481 151.847056624 153.125996178 158.613651341 160.899441461 163.756418488 174.254987656 177.035689933 179.703001118 182.279083236 184.794525983 187.282186323 189.775160554 198.283698965 200.87797358 206.706511256 209.306555616 212.383580038 215.323416609 218.528118232 226.729865373 230.260375908 236.303686364 239.865194636 243.430047322 246.627341816 248.977520744 250.103892732 250.08743882 249.021897432 247.446183954 247.368644059 246.231544507
53.1322358009 52.5069779107 51.9665770482 52.0882381845 52.572121724 53.1902823986 53.7120233397 54.0569575623 54.2560964752 54.360115403 54.6762097814 54.6646096828 53.61387188 53.4669899121 52.3974198987 52.2367380423 51.9774795341 51.5725605791 50.999655504 50.3734737739 49.6187648874 48.8004030943 47.951648565 48.1692125119 48.1483877609 48.0989745665 47.5198969043 46.5456523941 45.8736439374 45.1633234713 44.6983624573 44.6966968776 45.0371664705 44.9082884419 44.8057052971 44.5149046093 43.8554077467 43.469425223 43.0718979438 42.6677861229 42.2248795062 41.4750177416 40.9421522203 40.1597495429 39.9044228537 39.752087427 39.5943134319 39.3617431178 38.8956529632 38.0644000908 37.113357443 36.6867659725 36.230458613 35.7334369658 35.0264341553 34.531426714 33.5430540169 32.9893175538 32.5566240457 31.7395859665 31.1985606006 30.6853435778 30.302876904 30.0938969956 30.0202005913 29.6924665484 29.2190937579 29.1298047003 28.9944189538 28.8142774307 28.598034107 28.360256005 28.1543042037 27.9632447744 27.812012653 27.8379321995 27.8229039731 27.6475260871 27.6875880053 27.743721438 27.8145997946 28.3279026889 28.0989640012 28.424134146 28.4195040476 28.5101539377 28.7855419842 29.1251798945 29.348476943 29.3662073171 29.2859805769 29.2906267332 29.2641988588 29.2044178727 29.1080235149 28.9704552134 28.2815894587 28.0269309604 27.89598226 27.524919122 27.0666943766 26.6242358078 26.1637551373 25.525062855 25.1428651969 25.1348217502 25.2504439734 25.3541023767 25.407871824 25.6706950338 25.8043895478 26.2094577861 26.387926592 26.5478377239 26.7026203542 26.4056412988 26.5833533824 26.3398718563 27.2814935106 27.6548523025 27.9140240198 28.4215976568 29.1959346451 29.8448040203 30.6196212148 31.4787004141 32.7963400586 34.2799016604 34.7761821221 35.0246023696 35.0147412289 34.8700985075 34.7621531289 34.8090332187 35.5452502516 35.9795661051 36.5484866813 37.4860255446 39.0212955368 39.881156579 40.841467438 41.9681573804 43.3614777667 45.7031031018 47.8784384218 50.5682193781 53.5473299625 56.4810404112 57.6409779186 57.500224592 56.8659175639 56.4007074675 56.8133791377 57.602867076 60.0757019294 61.9179100795 63.8250149391 65.9908876421 67.3179454343 68.2810033225 69.6277720006 70.567287065 72.2855918373 74.6433652906 77.5970461517 83.0347158311 86.6441416629 89.2602760451 92.6174104794 94.0833500555 95.2941416249 100.262211734 106.160706859 108.082581495 110.111293018 112.22118296 115.619697547 117.956354775 120.365303955 123.098857282 126.248277858 134.432364127 137.921947229 140.974269318 145.245617229 147.175034169 148.354631229 150.621602636 151.48341069 153.523858091 157.935195205 160.577147267 165.79165749 168.501500097 177.470249659 180.332391165 183.044754784 185.659877303 188.228120357 190.79512486 199.362638962 205.425918346 208.009932445 210.704912144 213.549834837 216.587653026 223.14527073 226.624650381 232.435906724 237.939427071 241.427532561 244.971485155 248.198409358 250.676567582 251.686277343 251.431214099 250.216902452 249.447884142 248.177007817 247.036251887
55.109125396 54.0802446019 53.8416091975 53.6199004184 53.9298884884 54.2925118676 54.5709659408 54.7424507639 54.8538695869 55.1357333859 55.1982980163 55.1874324332 55.0888767006 53.9877450893 53.8234944828 52.9187739309 52.7464242549 52.4260936216 51.9341388653 51.4151846319 50.772359126 50.0955033361 49.6351908412 49.2868672381 49.0777183488 48.8474082233 48.1353097062 47.0906553978 46.5258667156 45.9624062091 45.5838883968 45.5213724557 45.6945403936 45.7232697993 45.6142093826 45.0866141437 44.7845974085 44.3824477562 43.8998091094 42.7311542184 41.8499336407 41.1222648458 40.469260632 39.7556820599 39.5912169333 39.4623425494 39.4158987872 39.216685805 38.3635071717 37.9592823341 37.5627765852 37.1636177212 36.411936614 35.9167109719 35.3610770738 34.3782608921 33.9261924003 33.2075077478 32.9186658598 32.3072968365 31.8708212559 31.4098197062 31.0092862951 30.7143832494 30.4331797251 30.3015256576 29.3892608266 29.2384144511 29.064127598 28.8636762148 28.6414417072 28.7318964087 28.379822262 28.2637694656 28.1002544541 27.9847624804 27.9216851553 27.6041917925 27.5965434889 27.6236371804 28.0579319931 28.2257220529 28.4118255387 28.3659206275 29.5221208506 29.3120183664 29.4576439167 29.5660681927 29.9105228518 29.9518457826 29.9564874767 29.9245396141 29.8551053126 29.1099640979 29.0376627402 28.3511498373 28.1862973955 27.8863941492 27.623517898 27.104886981 26.5199057043 25.9256044449 25.3485448606 24.8781667206 23.9245692615 24.1410312458 24.321291915 24.4933602642 24.8753124345 24.9884096435 25.3740981177 25.612783938 25.8021801528 25.9589966185 26.1011429653 25.7744251106 25.9280383524 25.6516013576 26.5025264577 26.8295683129 27.0153696898 27.4360604725 28.09894404 28.5763684884 29.0703279628 29.6629807204 30.612649968 30.9664533268 31.2330018124 31.4034552806 31.521453991 32.4619133438 32.7243685272 33.0827934184 34.0610327007 34.2088495417 34.8286376309 35.8034166216 37.7602281238 38.6253525491 39.5916197817 40.7169960665 42.0867520206 44.3924700291 46.4670911065 49.029749871 51.8921634463 54.7845365769 56.1376027394 56.2119402533 55.2505692343 55.4292486176 55.4224897024 56.0676205174 59.2920256074 61.1185409003 63.0686942157 65.4640851109 67.0843592266 68.4964811876 70.67652188 72.3780984914 74.4384926633 77.2017099475 80.5154963243 83.9802294567 90.095801549 92.5075615881 95.105935075 96.1044017811 96.8608747329 100.6780618 103.177218705 104.688598354 110.117294628 111.639968426 115.518910003 117.562214167 119.819758831 122.485019233 125.595584824 129.396096181 137.539157642 141.570714113 146.221625325 148.449772454 149.535915408 150.474438833 150.924463239 153.187772625 156.691177805 159.511842607 166.219302849 169.281455155 178.264981779 181.272130394 184.071777305 186.743698269 189.356491924 197.790563044 200.492550365 206.622093967 209.273521202 212.037347445 214.940394399 218.006228434 224.592167202 230.367171237 235.595236602 238.695902192 242.000408407 245.384344665 248.657651118 250.867311314 251.882372548 251.727638305 250.875910766 249.72590908 248.561755308 247.534779164
56.6935948151 56.2784797264 56.0783911003 55.9149139046 55.8129716723 55.6713830539 55.4961399316 55.4327940119 55.246493045 55.4315238101 55.5826883568 55.6100393297 55.4834277659 55.2297635599 54.1936458881 53.4842424573 53.4014447395 53.1721060938 52.7673367073 52.3525710798 51.8161826774 51.2089940093 51.4310858883 50.3314495282 49.9997977856 49.6537151695 48.8606355364 47.757440695 47.304721957 46.8851553731 46.5907203021 46.7724380303 46.8037498534 46.4642480655 46.1977198818 45.9871332712 45.1279394322 44.7000171366 44.1573776246 43.4621314422 42.3281369611 41.2411750209 39.932448574 39.1641757404 39.0732315798 39.3081165913 39.3798421756 39.2072874292 38.4825656633 37.8666347792 37.4971299633 37.1723734807 36.8013830019 36.3020685128 35.3112828978 34.3191068125 33.8358572036 33.5202628547 33.1840242708 32.7143614511 32.3565842124 31.9304353035 31.5175486625 31.1668718659 30.8071208564 30.5878524008 29.966794568 29.3269130324 29.1216616117 28.9035802681 29.1201620329 29.0960101745 28.4571060155 28.3536979775 28.1646032596 27.9961709311 27.8568742245 27.7602429226 27.3772679721 27.6094373595 27.8600401817 28.0652797496 28.6901077349 28.2964630916 30.7131788397 29.2759286401 29.4325421543 29.546346558 29.6185241342 29.9025872249 29.9001641324 29.8589760665 29.7780393343 29.6548654432 28.9468290346 28.3443675062 28.0853864486 27.7476380192 27.3682087585 26.8080205541 26.0806174275 25.2961941886 24.5037397204 23.8458864585 23.330115714 23.3123635087 23.4018607531 23.8379311814 23.6932570548 24.0143490141 24.8221817754 25.0758299811 25.2594953031 25.398362562 25.5163559628 25.1557726845 25.2804859107 24.9714417328 25.1770096066 25.8019729579 26.1154792928 26.4538793398 27.0146925769 27.3429957916 27.6322513557 27.7399351008 27.8127329771 28.5509686218 28.5139842099 28.5825109936 28.8378406282 29.2677783054 29.8000759245 30.3711216761 32.147250966 32.8333696781 32.5835198912 34.5281506841 35.2524468561 37.3074427846 38.2333803401 39.2852933103 40.5233469476 42.6360032455 44.4004624834 46.5592347746 49.603615763 51.7714342351 53.1420194559 53.5752469395 53.1598997226 54.0182198438 54.2420522056 55.0015344109 56.2600116485 60.2413478667 62.247335753 64.8771916828 66.7818176386 68.6325535841 71.1448183749 73.9128989196 76.5634875105 79.8935980766 83.7709322871 87.7702798967 93.7734661577 96.0748352548 98.0584983851 98.4316579297 98.5627255959 99.7006348793 100.59172477 105.105665446 109.784011818 111.818715155 113.77526671 117.265223687 119.252315055 121.7041471 124.715559617 132.551597547 137.047368985 141.829878344 146.205546597 149.651466632 150.673653963 150.837220162 151.043249151 154.064805756 156.921926083 160.253598319 163.656083599 170.627530865 173.632929037 182.598908373 185.41219821 188.083304397 190.697753614 198.961854714 201.70017601 207.830649197 210.529958419 213.349511894 216.302623344 219.38574805 225.954453705 233.889334568 236.536152632 239.274948137 241.452927201 244.556440166 247.465200207 249.949473183 251.237460592 251.135523912 250.473719657 249.559655435 248.632541522 247.81837175
58.2356843818 57.8465410448 57.526901266 57.0935876419 56.5632923877 55.9112517787 55.2970183198 55.0553509485 55.1562279092 55.5521800291 55.8813003035 55.9826500447 55.8154192231 55.4243790151 54.931470938 53.8486000427 53.8298193867 53.6921588826 53.4623467068 53.1025210163 53.2201731174 52.8809333854 52.481575651 52.1010581336 50.8827499658 50.9440604161 49.9107898756 48.4570002397 48.0695932164 47.7320932071 47.8307140515 47.6690116623 47.571226389 47.365433347 46.6956774289 46.4177469969 45.4948049535 45.0505526888 44.480524445 43.7213687888 42.4777343804 41.2112975871 39.8873410002 38.9091569487 38.8390681232 39.3081759506 39.2762488596 38.9834622442 38.1290934978 37.4584266986 37.131279112 36.9413349604 36.7062667261 36.2684554534 35.1613466617 34.418107416 33.6575781638 33.3363746692 33.194167327 32.9497412609 32.6524160332 32.2513745537 31.8965657055 31.528776111 31.0518760211 30.7794264463 30.3677974557 30.1065287262 29.5388964236 29.3986200922 29.184568968 29.1907181379 28.609135485 28.3780074897 28.1266275522 27.8629162791 27.6088059731 27.4109857912 27.1915316004 27.2547649748 27.5552243832 28.1975571417 28.5318193662 28.6355232458 30.6503814204 30.2341362651 29.4024167925 29.5201583407 31.1141142162 31.1546592029 31.1415939927 31.1960237812 31.0850928396 30.9207829183 30.1838384642 28.2827086598 28.0103304279 27.7092316241 27.232791781 26.5593262197 25.7311367791 24.7351532021 23.6794848402 22.7811367094 22.2068253171 22.2450605731 22.6952213761 23.1495683046 23.2018569561 23.5923866297 24.3568344127 24.6020477544 24.7579089228 24.8611543772 24.9430190786 24.546724954 24.6405723411 24.0928288084 24.2651817086 24.4630256158 25.2327240638 25.5010461546 25.7684351394 26.2016266548 26.0584179285 26.2814786052 26.1095785371 26.4527640681 26.1433534172 26.0857955774 26.4337768201 27.1308685076 27.9878907999 28.9204286822 30.0250157539 30.7634375379 31.4449958252 32.1132333058 32.8106573585 33.5724284605 35.690059487 36.672398769 38.3714715159 39.589635895 41.8652466471 43.275035038 46.0101472537 47.8059664304 49.3962096002 50.1301694845 50.388686893 50.5462634173 52.7051407454 53.7038687088 55.0804820581 59.2701766598 61.3542294797 64.2176122297 66.3793816184 69.4114421827 72.467029473 75.1175187732 78.3816701819 82.3790244171 87.0016099772 91.7853940403 97.7771417233 100.116007793 101.388573443 100.971191195 100.126918696 99.7968014906 101.376976875 101.333007059 107.300207153 110.963572369 112.854862994 117.192940888 118.757716955 120.683879367 123.476781536 130.975445621 135.835498622 141.180346087 146.189271336 150.00728647 151.092537967 150.963382848 150.774616936 151.743891589 157.779449942 161.709172013 165.609848534 169.153637393 175.811269669 184.379178216 187.105983195 189.707480806 194.605026101 200.269721731 206.459200646 209.080695047 211.811905289 214.686564139 217.708350551 220.841127168 227.788425979 233.814657128 236.310529364 238.756864228 241.213624312 243.683673309 246.004949639 247.829161987 249.713299753 250.167419056 249.778860289 249.186827706 248.568174364 248.019842905
59.7503433939 59.3903179503 58.8733805136 58.1851394684 57.2601411222 56.1360021902 55.1196509239 54.738031721 55.1884545217 55.7073003792 56.2220316037 56.3924096482 56.1706625239 55.6127164069 54.8761726107 54.2531794714 54.0248140852 54.1506954232 54.6323483755 54.8211226076 54.7923722893 53.722004 53.3869119864 53.0139649461 52.6048498295 51.7909032927 50.6526163033 50.0053759786 49.1737280426 48.7474824816 48.462724087 48.2684085218 48.1204372131 47.8632550031 47.1550729721 46.8213695544 45.864777182 45.4318980781 44.8900662441 44.4290375339 43.4036999869 41.6668675601 40.371303328 39.3398495401 39.2024462775 39.546366219 39.6652110257 38.9377572397 37.4970919747 36.8224651864 36.5655732274 36.6074714447 36.6049866524 36.2952758222 35.2100856696 34.3745666538 33.6115990965 33.1663931181 33.1450975089 33.1294243873 32.8203361911 32.4483492006 32.0454935664 31.6660809265 31.2582510119 30.9665083291 30.4394059079 29.7915133026 29.589082777 29.8386695688 29.6305077583 29.2578274395 28.8944626425 28.3590503577 28.0192361911 27.6226136719 27.2089738151 26.8740921058 26.6442190595 26.7615485892 27.0585647236 27.9078247488 29.3329768511 29.8289088609 30.5756324208 30.1792190849 30.650125131 30.8166569557 32.2762091652 32.2916223524 32.2425838239 31.0633544286 30.9409605866 30.7629742611 30.0423956927 29.5168219594 29.173856095 27.6488272931 27.1722715922 26.4658198856 25.5373890875 24.3449619844 23.0100225797 21.8378151935 21.1840409677 21.2984568754 21.9582187476 22.8130129491 23.0871526788 23.5287739828 23.6818378691 24.1870608473 24.2870658415 24.3347199618 24.3693239365 23.9400592151 23.3191465023 23.4396976672 23.5803726414 23.7374405096 23.9051851697 23.7936738578 24.7977391836 24.8711828863 24.9910467193 24.9615480853 24.8672261997 24.8207167883 24.2754570447 24.0795216351 24.477596984 25.3843471444 26.5589245825 27.6695057403 28.9081063078 29.7142344899 30.400500396 31.0355523234 31.6814562207 32.3798841155 34.3290212614 35.1708719656 36.6375174357 37.5259667322 38.3830509443 39.9306082592 41.1226774492 42.4962133636 45.1636699766 46.3877950973 47.3480929333 48.1924486515 49.4981530119 50.6086689389 51.9789373207 56.6518595263 58.7368374462 60.9898107646 65.3606859538 69.0526173681 72.7061444718 75.8229281627 79.6289799166 84.2746422667 89.7004407767 95.4267813581 100.828223821 104.045746773 104.765567767 102.88073389 100.806024407 100.341274495 100.700053407 102.28226894 104.843742142 112.233013705 114.266312182 115.572857083 116.078521325 119.39324343 121.474408491 124.986891516 133.729195862 139.219701936 144.463338561 148.824486819 150.223113129 150.46014314 150.824267981 152.478102618 159.533165182 164.143171107 168.554679143 172.347006825 175.435835965 183.278966775 189.170926113 191.630751974 196.233764327 198.638013795 207.798474084 210.40481398 213.146643461 216.08148821 220.550328955 223.687647042 226.803981942 235.071845362 237.357727166 239.38395432 241.233374835 242.989195276 244.115721138 247.691533967 248.329795555 248.514129363 248.337628162 249.539257288 249.368745076 249.238738827
62.7271169871 62.1850585658 60.2691202178 59.4542612393 58.3111538203 56.9338555276 55.7231521588 55.2631184181 55.7265194768 56.2050002739 56.7698047776 56.9434044161 56.6645710842 55.9881508572 55.0856764927 54.3144878077 54.0305904684 54.3560499825 54.9514730312 55.3355777829 55.4589674517 54.4701851972 54.1918965604 53.8341914075 53.649567886 53.3344897422 52.1425246834 51.2221762608 49.6692077615 49.1094570303 48.7173655243 48.4933107752 48.5401721032 48.189634422 48.1342363737 47.1517532296 46.7395821116 46.3023051076 45.8072002639 45.015460994 44.1516876501 43.0151747155 41.4805688651 40.4278933699 40.1166107162 40.1096395039 39.8261446531 38.6818890431 37.2572255608 36.0498520731 35.8731420942 36.2303586301 36.5354894275 36.4116061526 35.3940201228 34.5474664807 33.7804914895 33.2964626659 33.1881287698 33.2167516818 32.8240548407 32.4446858816 31.9655307094 31.5908676262 31.2630503445 30.9709940904 30.69734951 29.5956050879 29.5996251459 29.8678872365 29.6124061281 29.3901026555 28.9318069999 28.5624479429 28.0802527019 27.3578041059 26.7522278179 26.2435460251 25.998438848 26.3551016415 26.9266550704 28.3702844045 29.9829047165 30.7020291274 31.4953832367 31.2561253517 30.5546804374 30.7157378458 32.0982501517 32.094491827 32.0258972388 31.9049474398 30.7241630597 30.5311296588 30.4426709971 29.3474076875 29.0108971178 27.6006202649 27.1758506539 26.51051609 25.5685797902 24.2681919937 22.7291265693 21.3319248343 20.5940048002 20.7712527212 21.5931538736 22.5950588995 22.9605577518 23.3996732738 23.4511305499 23.2990032677 23.2699223506 23.2108531111 23.1763683101 22.6945761845 22.7057573157 22.8073790481 22.9228539431 23.0424411868 22.8538013061 23.0066477579 22.876044095 23.2850334899 24.1038031368 24.0900922759 23.9739828654 23.4670724831 23.06134486 22.7547128477 23.1363385235 24.1435338845 25.3912904708 26.7496371745 28.033456518 28.8310925931 29.4614884988 30.0199486005 30.5913619418 31.2257556399 31.9241608096 33.2470886296 35.0444034085 35.4870250245 35.8022051235 36.6485440576 37.2512890577 38.3155015753 41.049787997 42.7797200579 44.3915485176 45.8574236768 47.6580265457 49.1065988033 50.6836515674 53.2733189432 57.7674515287 59.9116263863 62.4334471747 66.1261576681 70.4907445051 74.0377676874 80.057091065 85.1698714501 91.2278084937 98.219527741 103.870521584 107.25076652 107.234158955 104.826943115 101.824509704 99.9583464081 100.981972475 102.997680463 106.423587875 112.843782542 116.26010341 117.159370383 117.082532224 116.88925094 117.577731346 122.576933196 130.881461278 136.067107343 141.126702192 146.166922907 148.099395344 149.569769007 151.018847013 153.844391781 158.058366213 167.80433589 172.765708678 176.693237432 179.540397447 186.309932989 188.491085293 192.804739478 198.129421627 200.519576364 206.641924582 209.340695267 215.824577787 218.737702089 221.945378112 225.35673657 234.126104157 236.801092811 238.128402154 239.864090138 241.179873061 242.269891339 246.236124 246.919428869 247.41476235 247.673054712 249.505514532 249.566869918 249.612858925 249.671887983
64.9734681674 64.4225596967 63.7900724656 61.8615400162 60.6888467326 59.228521401 57.3897459312 56.9676674518 57.2600553462 57.9655473646 58.136102021 58.3095810985 57.9951659444 57.2322825892 56.2111942332 55.3423762022 55.1726368379 55.2560127737 55.879874179 55.9777572782 56.1288042565 56.0807274246 54.9298153353 55.0877532641 54.5460124011 54.0129180597 53.3546236579 52.5185012059 50.5350992608 49.6487419952 48.6215748179 48.406278545 48.4728490688 48.4714774797 48.3457231119 47.7659264689 46.9206765502 46.5237181545 46.0944037364 45.6055261695 44.9805108444 44.1264192885 42.9612878428 42.0378519773 41.5259082539 41.1553141538 40.4801051279 38.8718584237 36.9912045279 35.6753669568 35.4792487314 36.0748814462 36.614764271 36.9224133896 35.8718444184 35.2006564732 34.2703722044 33.7624271457 33.5928318781 33.360234028 32.8705886403 32.2256395161 31.8091594074 31.4473175171 31.1437957457 30.8754244654 30.2455774392 29.5462267104 29.5640578429 29.7894058003 29.6308318786 29.4315713123 28.9807192252 28.5918380081 27.9227140007 27.2346566865 26.7434300807 25.8668858732 25.4833488759 25.9799954671 27.0102598557 28.7723231328 29.872412139 30.5940543002 31.309574741 31.5222409197 31.303341302 31.7931825173 31.8565942788 31.8244144525 31.7260267983 31.5925429332 30.4992305891 30.29939705 30.6380851022 29.0983906093 28.7510855301 27.5078209774 27.164433746 26.6704180983 25.8484156145 24.6108607584 23.0669410486 21.6226928421 20.8335690915 20.9990239293 21.81334409 22.7788510601 22.9927258499 23.3908870641 22.7190237491 23.0023843514 22.8643775638 22.72153798 22.6391631213 22.1614305645 21.995790812 21.880721319 21.7606911534 21.9642546158 22.0632826338 21.7568883242 21.8843453263 22.1255992584 22.3896974307 23.1186332154 23.2068049192 22.9035524421 22.5529816724 22.2608119503 22.6267996876 23.6164434002 24.8541724627 26.4241658372 27.4084957171 28.1102400697 28.6165462527 29.0502289302 29.5261540316 30.108416382 30.7825923948 32.039017771 32.5534844467 33.7161362745 33.5409846351 33.2804723207 33.7601838518 35.4894193924 37.3688411705 39.607710012 41.78675194 44.1479297379 45.9463545079 47.6684073595 49.4145349099 52.1427583498 56.4905653027 58.8483693217 61.4221698337 65.1969795912 69.7287560369 73.3655106589 77.819713788 83.3152766145 89.6817289083 97.0063406179 104.013766405 107.923354283 107.829231283 105.023295026 101.583123291 99.5088905271 100.666357706 103.190231292 107.566917988 112.80695481 118.340459188 119.44807835 118.494906321 116.877174891 116.331801276 117.521606427 120.625971461 129.462783691 136.197499315 140.289696033 142.244845319 146.232747506 151.51179802 155.947342532 161.810406741 172.849506733 178.525519912 182.467075563 184.693235988 188.562707772 191.857318231 195.221825382 200.502840915 202.612384846 209.236236976 211.816922475 217.072711731 219.999779968 223.443680946 227.306830638 235.046992323 238.212893403 240.596769818 242.061465735 242.778379708 243.10411608 246.512546997 246.828561033 247.143719641 247.402860919 249.706763143 249.924451144 250.132150409 250.336504797
65.6955724626 65.1843366531 64.76097546 64.2854197178 62.5592224392 61.5034147251 60.5127021295 60.0035498145 59.2936163567 59.6249478329 59.3765264256 59.4001156967 59.0604729306 58.3951086509 57.9724526254 57.2216085215 56.9012232594 57.1074162062 57.1246689118 57.354022423 57.0965979704 56.7222756866 56.5020762826 55.7098740517 55.1751215767 54.6470819294 53.9900223857 53.1007218127 51.5678085436 49.7096930559 48.5768187777 48.0894396414 48.3322571607 48.7076995665 48.6772558214 47.8474858752 46.915718017 46.5056535974 46.2007436536 46.0390801836 45.6932639516 44.8494473667 44.1690143455 43.2650302419 42.6840104099 42.0774492625 41.2016083074 39.6572935144 37.6314058993 36.3421639027 36.1692700647 36.9342274185 37.2595276193 37.3922923089 36.5155981564 35.6213192384 34.9126988466 34.3604365269 34.0045499072 33.3922962717 32.6035820261 31.8997441236 31.4695767182 31.1428097625 30.8985197789 30.3149705545 30.1149183634 29.4460863545 29.4849237509 29.7230838418 29.5998523193 29.4510056845 29.2268506789 28.6972801988 28.0321970379 27.3065000269 26.7441816517 25.80155375 25.3655066026 25.8747033319 27.0385601426 28.8912490013 29.9375588832 30.5008116687 31.024369027 31.2583937869 31.4194688841 31.4789215327 31.5398327697 31.4554483869 31.2989420864 31.1542667029 31.1192336797 30.8888616916 30.2211238932 29.7081257354 28.2421421228 28.5033127391 27.7961999231 26.8620511084 26.3063878152 25.3260552357 24.020288919 22.7581418162 21.9754881315 22.0287854992 22.6233003586 23.3387552849 23.253576528 23.3891437054 23.1399835856 22.1487579693 21.828710788 21.5437723347 21.6127077558 21.5880292119 21.6392304575 21.5415419753 21.2612217854 21.308656302 21.0890418433 21.1415762818 21.2136641686 21.445075722 21.76587649 22.1098596473 22.8626350752 22.7849614371 22.5496049415 22.4772165554 22.7770924204 23.6656286133 24.7390513935 26.1673987084 26.9918471202 27.519044257 27.8368715089 28.0972338236 28.4589228026 29.011262114 29.7216880678 30.9921774706 31.500740514 32.3440574161 31.7861132844 31.0170533842 30.9181335592 31.8181672836 34.4265911254 37.1289209647 40.3124309456 42.4392924713 44.4968335251 46.3898753507 48.4976129596 50.4068942554 55.3420412838 57.6862462652 61.2615826258 63.9449211167 68.4526578895 71.9456797021 76.1781141658 81.3583460232 87.2816860395 94.1387339804 100.91672081 104.512995111 105.069906647 102.710437818 99.694502246 98.0022864922 99.5438145987 102.4414542 107.433554141 114.057889614 119.101501389 120.874749008 119.225079003 116.460042111 114.773167198 114.892942917 116.952717481 122.665228984 131.896184593 134.484332375 138.358648533 144.442853426 149.217783548 155.713486383 163.986857131 176.684779105 183.831933074 187.883089504 189.01573213 190.641311421 190.780328076 195.173730181 202.355178823 205.284989766 211.450777561 213.686461677 216.0408456 221.232451437 227.495646791 231.96894999 236.637870733 241.342208624 244.060910613 245.307113535 245.350013535 244.819090209 247.370768122 247.317483589 247.446269056 249.963678346 250.288081865 250.621728825 250.950159424 251.262383189
65.970470574 65.3165431428 64.9973140836 64.9805563113 64.9527277146 64.6559905324 63.0252820782 62.6576279386 62.606053925 61.5160570753 62.2308882213 62.0625110477 60.9358809146 60.3236277697 59.6099630508 58.946738226 58.5237055714 58.2965352338 57.8083184777 57.7004466641 57.4262529417 57.4765059331 57.2044319365 56.8715117454 55.7157269625 55.2131132917 54.6377455088 53.8501492707 52.3489737871 50.7916554299 48.9967006999 48.3688115281 48.6150437193 48.9779668267 48.8721165703 48.0514142669 47.1215740397 46.2009625011 46.1028633078 46.2333044343 46.2095588611 45.6505736305 45.5658945008 45.0358288679 43.7654761701 43.1023166632 42.4900065059 40.9160706349 39.3961655592 38.3324672048 37.9903857772 38.323430542 38.7445434505 38.3935477659 37.4563207461 36.2421869399 35.53373034 34.8763587516 34.2802902731 33.2544857604 32.3160373152 31.4630891339 31.0268252698 30.6550681639 30.5283232132 30.0833952708 29.9285209917 29.7630046963 29.3409919577 29.5632721691 29.4850473667 29.4196240229 29.3030048091 28.7241326086 28.3089050648 27.6700096747 27.3186175334 26.5473145946 26.1680891963 26.642592417 28.182400986 29.410858048 30.1198535888 30.3098274791 30.4985803934 30.6172401594 30.8611630269 31.0757802724 31.1541084302 30.9577090981 30.6695904802 30.5868784757 30.5682938004 30.4513369184 29.7602911833 28.9889555569 28.0244016165 27.6654381664 27.8598868722 27.382170147 27.2640669447 26.675752845 25.5872016155 25.0510589514 24.0541896168 23.5018482285 23.766648839 24.1117192987 23.6110272571 23.4889140757 23.0083031205 21.8872009789 21.3766432247 20.7457281217 20.9861903704 20.9964148812 20.9719586993 21.1020035534 20.8600180931 20.8573048747 20.5698629023 20.5132012986 20.502241918 20.7053084863 21.0804567117 21.5546538286 22.1193288339 22.389830079 22.7292426922 22.7531407315 23.2640854398 24.0301396758 24.8710543893 26.1065145341 26.7111836421 27.0166828605 27.0987926404 27.1421074702 27.3727927729 27.9233581088 28.7354308533 30.1049690943 30.7271572536 31.2677547801 30.5755633351 29.67737271 29.1495282125 29.9842695058 32.0945310144 36.0224121109 38.9748333245 41.2455183719 43.5248747547 45.4731893625 47.4584614433 49.3553013184 51.3219700644 56.4515000815 59.8969257649 62.4238287631 66.7372621013 69.8843728793 73.6185495168 78.1094548759 83.0768160723 88.8375499012 94.7132460621 97.8339063176 99.4639523303 97.9232092097 96.3213756774 95.4336314828 97.4579209179 100.39282159 105.255988919 111.800295887 116.913155916 118.771879805 117.520751916 114.420566627 112.207538848 111.782803332 113.142848855 118.408812175 125.83817448 130.111388881 134.727855101 142.54142982 149.102135847 157.846588593 169.186207812 181.207836707 193.473012499 197.6477155 196.667982766 194.227314997 192.837045623 198.084340251 205.471957292 209.001145217 214.561764698 216.145149216 217.713160387 224.456851649 228.427402116 233.622051743 239.386691119 244.595004129 248.302713885 249.317967467 248.527831903 249.327078467 248.524949239 248.14973073 250.449466099 250.781864004 251.19768362 251.63758066 252.06632672 254.487962168
65.9550862818 64.9163588214 64.4788960542 64.8674448248 65.6707442583 66.2713952733 66.5072776106 65.5858063188 65.8460486191 65.88681398 65.8424942763 63.7274759461 63.6587343018 61.894171258 61.2281539001 60.4690696437 59.7147137251 58.8864302956 58.0369353824 57.3893555647 57.3237439276 57.6366229962 57.5835936024 57.2832491324 56.3490326694 55.8238351507 55.1661124539 54.6463890119 53.4645436165 52.1318103274 50.5629328649 49.856447835 49.4931131328 49.5602142731 49.3183856012 48.2271358965 47.0509731894 46.0597093191 45.9942734047 46.3659347223 46.9338575571 46.7145963593 46.446521173 46.0289905483 45.4435185406 44.599126515 43.6880812869 42.8775265439 41.359147447 40.6268885855 40.1871091325 40.0524364536 39.987371375 39.7654323459 38.4468688495 36.8652880962 36.0832054162 35.2621724663 34.3816657956 32.93282736 31.8391158757 30.638566113 30.1681774501 30.0781152843 30.1843495814 29.8130973124 29.7076596338 29.7011317286 29.099619129 29.2600075017 29.2288405596 29.2846389826 29.3379865647 29.274248592 28.7107198461 28.2643323497 28.3435111719 28.0011046453 28.1778220604 28.0386423418 29.4470107324 30.1398151092 30.2615684686 29.8660652669 29.5626869433 29.5821311574 30.0843539704 30.6218621707 30.7490012322 30.3140218214 29.7858863037 29.5822048427 29.841326366 30.0343328551 29.3708734862 28.1961844178 26.8016905251 26.4545854719 27.0638358906 27.3408265608 27.7368749916 27.6266465418 27.6157857498 26.9392695034 26.4026982738 25.378768109 25.3459556773 24.5955464479 23.6972053923 23.2932997363 22.5698121095 21.2467718945 20.6250802261 20.1542542682 19.9077459697 19.94625836 20.4588667193 20.6951055265 20.5140833789 20.4568369503 20.0786004945 19.8741429419 19.7444504887 19.8957022995 20.3206614128 21.0414749714 21.6595928971 22.1309468541 22.4288273661 22.9828158929 23.349738291 23.7664558114 25.0566581787 26.1160148518 26.5046640197 26.5901083483 26.4256756276 26.2285063228 26.3190449737 26.8943410699 27.8544932575 29.3766973643 30.7655994399 30.897235985 30.2995014778 29.4001970819 28.8214908105 29.6379837067 31.742288243 35.4769089032 38.3283981541 40.7394135776 42.7997984298 44.6622666061 46.5719607055 48.4033080231 50.2907401301 55.1835871972 58.4298640927 60.7287394971 64.7176771045 67.381100264 70.4381888654 74.0269932313 77.8130604878 82.337862616 87.1600950467 89.7968737259 90.8367606129 90.1528223826 92.0166226222 91.9873992478 94.4107431496 97.0234818892 101.897856552 106.488195579 110.496821255 111.989196408 112.533028091 110.134782771 108.326936918 107.949030435 109.074512956 112.318150681 121.482692984 125.880658423 131.03270705 140.030671628 147.918624268 158.518105041 172.514436752 188.222712067 201.740335546 207.306945816 204.036131808 197.998369895 195.360007459 197.782518933 209.001799813 214.309155119 219.018083147 219.428119275 219.021421588 220.46890562 228.8926087 234.760767483 241.719482137 247.777581201 252.090366982 252.900320384 252.068609682 251.39073404 250.410723303 250.078377726 250.235721081 250.670021755 254.592456268 255.305798843 255.976736611 256.583705723
66.7800989146 64.8789806842 64.0273190867 64.9033134895 66.9062387333 68.7789205904 69.0721320593 69.5590437677 68.1651922177 68.1076282658 67.9133476752 67.5444789045 66.9698041621 65.3365246451 64.425248138 63.3013623047 60.6998074206 59.1689624387 57.5212924481 56.6539580327 56.9045290238 57.6902777489 57.9467822138 57.664331748 56.6011173702 55.8882171247 55.4603630126 55.2951861429 54.9840657733 54.1537959715 52.9932535912 51.5890871142 51.2261124784 50.7540252996 50.304365465 49.1325846439 47.9110029576 46.9857069076 46.6843983024 47.3512937614 47.9515771318 47.8805545772 47.6165397471 47.3070069029 46.878779699 45.9732216179 45.3831587839 44.3369264516 43.1925123912 42.7034409798 42.1822778688 41.6962629141 41.2391162363 40.4634945592 39.8247419171 38.3864008902 36.5882651569 35.583444126 34.4086413914 32.4387720028 31.1847393822 29.6178561442 29.0884836902 29.2240599219 29.646556812 29.5585853963 29.6772866835 29.3964180302 28.7276409843 28.476524239 28.7586454992 28.9845300093 29.2806303835 29.4796062117 30.1912922138 30.0090464953 30.8896202056 29.6268168757 30.2056821761 30.4733864453 30.8093441562 30.8793112967 30.3083784357 29.1906919288 28.2557607119 28.1992504988 29.33866882 30.53412031 30.65550883 29.8738676177 28.6481359745 28.1943201548 28.9449073664 29.553597661 29.2768006947 27.7611317074 25.9382076331 25.4175336648 26.4376547454 27.3941691509 28.2535166713 29.0851767434 28.9655906215 28.5795836599 28.1559565045 27.8224061719 26.5297858745 25.4140439799 24.0779594933 24.0267478358 23.0765692634 20.9340647369 20.0820577657 19.4470304856 19.2017903742 19.3776085715 19.6837149758 20.3562936775 20.2502141923 20.13716638 19.6508867643 19.2719907765 19.0008763954 19.0913843065 19.5722646153 20.3979727178 21.1699316318 21.7972410238 22.2507919135 22.7938358382 23.0378836107 23.9159815838 24.2374110467 25.535086331 26.3532671135 26.2780448978 25.9243188827 25.5258092636 25.4972135272 26.1050248953 27.1958944375 29.4151098596 30.463721468 30.8615529229 30.7194591659 30.0715130795 29.7619282308 30.5765685206 32.5175589397 36.0381914139 38.4898101491 40.5661368444 42.3705045412 44.0507616158 45.710970832 47.5554533905 50.0170191016 51.8197853439 56.9338349587 58.9748588497 60.9822739007 64.6790635661 66.9875375592 68.7082149236 71.7459441953 75.5065016267 79.6708900033 82.0504839763 83.5919797386 83.9391811295 83.9840198616 86.823161314 89.494705826 91.6653336804 96.5267206874 99.5689924906 102.05683376 102.96933541 105.374061594 104.155496001 103.2915815 103.450337452 102.828047485 107.975112875 111.190046955 121.571992093 126.958752306 136.484235748 144.931792742 156.362508444 171.749634284 189.871144687 206.183277555 212.155442622 206.786109187 198.858014322 196.230461506 200.887984701 214.26608375 221.124730767 224.970479999 223.145274591 220.960405707 220.890023489 228.617440589 233.854933024 241.854035219 249.62237469 254.573881272 255.269213016 253.833499238 252.083895536 251.062525672 250.867099428 251.227156616 255.091206894 255.976163783 256.808195665 257.555284013 258.200597909
68.0168865194 66.0493446847 65.1978808484 66.2324892371 68.5668695036 70.8332938899 72.3448283946 71.9917849502 72.1968596711 70.3268356078 70.0161376786 69.5562200537 69.4413825284 68.571052649 66.288894134 65.0268814459 63.2930787632 59.9830390472 57.8798715525 56.5438104619 57.1502316216 58.4645712108 59.2157329496 58.1596054941 56.8707449955 55.8360616326 55.113740245 55.2045621747 55.5108429336 55.3230802617 54.6086309151 53.6286877687 52.6064586049 51.8194504981 51.2707422991 50.4436872849 49.5265987406 48.8083589656 48.2412040085 48.5823417143 48.8711203647 48.6541344017 48.3568539193 48.0610837635 47.6633706069 46.8512279335 46.3030298278 45.4092972006 44.6401653057 44.3342114332 43.7574097941 43.038205722 42.31750341 41.3228646742 40.5428452226 39.0034413228 37.9698981288 35.9488929158 34.4158343429 32.4387991864 30.5692098396 28.9484801643 28.1141369712 28.4947774756 29.251672536 29.6829321034 29.5105997772 29.0498482248 28.5387230979 28.0977767432 28.1411247273 28.6280560869 29.2773576261 31.1684693521 32.2881477165 32.5005333215 32.430032238 32.6596111153 32.0829143087 32.2004012178 32.139115769 31.6901258106 30.535388079 28.7895963566 27.2895284191 27.1814795106 28.7577436767 31.2892645716 31.6522860029 29.7762531731 27.5138452428 26.9929065664 28.2959861157 30.1809887924 30.3301417393 28.2846961553 26.3354802071 25.7541214207 27.0746708697 27.9775156196 29.5415170734 30.1457712712 30.2305984123 29.9958856955 29.6145043523 29.1853213516 27.5570471281 26.1230857263 25.178252855 24.2546582367 23.0607470346 21.1373682027 19.631972013 18.8029102372 18.538675287 18.8611905298 19.4129525172 19.8363036058 20.0155319509 19.7546966504 19.3577058052 18.8307289232 18.4626960885 18.5117902981 19.0788606114 19.9258167655 20.7782824102 21.4926291368 22.0414485122 22.6235045822 23.9049357671 24.3281215681 24.3064702746 25.5719960407 26.5289187011 26.3153645772 25.8206508103 25.2891591047 25.2157896625 25.8529546494 27.0129428091 28.4099129479 30.0130237139 30.7042439499 31.3007460189 31.182890577 31.2952120259 32.0312487441 34.4262096699 36.2305110206 39.0471279723 40.6530148473 42.1143725837 43.5686706173 45.0826311187 47.5665798759 49.1391837574 50.9692705393 52.7255492245 54.3410310917 58.8931700791 60.4691213343 62.6608857879 64.3814332372 66.9374376683 69.2848505788 71.8350441579 75.3400480904 77.282615602 78.3392032669 79.114877224 80.7423951063 85.0909056004 86.7706427857 88.7649056252 92.6822283894 93.9594556956 94.3882331514 93.874915822 97.603118669 97.7466111325 96.7635366664 98.3333580701 100.663976565 106.904124981 110.82094127 122.129847158 131.79600162 139.885726958 150.695388562 165.208024387 182.498679062 197.935206353 204.937995373 201.421603631 195.236158036 194.852125352 202.650790305 218.976007519 228.485363141 230.51685277 226.962233331 222.259486358 219.493172736 226.212099891 232.194172298 240.191002126 248.061360346 253.151552119 254.250229132 253.34368405 252.003303627 251.477080318 251.759951269 252.510951591 256.644650139 257.694573606 258.629013724 259.432792485 260.097314614
70.6076165395 69.1207964845 68.6540322611 69.7286915939 71.8343207934 73.8579666596 75.1902156743 74.6012285734 74.6544884267 74.4353420678 72.1249085917 72.0761417854 71.365629058 70.5183923791 69.3462564492 68.1139304559 66.3305992324 63.5585698275 60.7975891818 58.8607614414 58.9019428343 59.9226000087 60.5604503574 60.1477573151 58.7732353862 56.6283888087 55.3316861343 55.4726322578 56.1310143284 56.6029167563 56.3842058423 55.0765721048 54.503368349 52.984067465 52.4096745679 51.7043998159 50.9541138563 50.4159707675 50.2048194723 49.7371489492 49.5394362505 49.3714991702 48.9987702876 48.6828697482 48.3020150178 47.6412381801 47.0095367283 46.4000249284 45.8010708029 45.4118075161 44.824615231 43.9775647335 42.8707340532 42.0054996146 41.1460067069 39.5762118468 38.5010355693 37.4010475941 34.9996004084 33.5457455822 31.1641331818 28.8063539468 27.9431027216 28.3864695608 29.250018109 29.7194246381 29.5893261286 29.0656596779 27.8685494258 27.1760118711 27.2616671287 28.0675537303 29.1098950522 31.4465795722 32.9808677564 33.5975590712 33.8808873599 34.428413106 33.793989215 35.6103924905 33.5636349915 32.8355033567 31.425259746 29.6652396621 27.9282827611 27.8174314355 29.4602688435 32.1521909311 32.4936167125 30.8440808202 28.0546156954 27.5075516155 29.122447945 31.0642505489 31.5937749339 30.0084404467 28.6186217299 28.1814090504 29.1875915475 29.8458476843 30.8615046059 31.4108724316 31.5021848833 31.2772814982 30.861852296 30.3314460949 28.5436499392 26.5421282594 25.678421784 24.6128601907 23.2866783347 20.7737178285 19.5325984209 18.5855502466 18.3122667342 18.720429344 19.378004181 19.5642434144 19.676367131 19.4945786877 19.2819639102 18.7147526927 18.3053626451 18.3455425758 18.9161022664 19.7522502608 21.0713861726 21.2927038164 21.8671466545 22.5138820046 24.0068160602 24.4493381162 24.8492717499 25.7178211644 25.8888848303 26.4455477454 26.0475621355 25.6070593226 25.5975703759 26.3169134745 27.3111937178 28.5335605772 29.6315600267 31.0079658373 31.9025990368 32.2762698692 32.8536792985 34.180390773 35.4346367883 37.5130779761 38.6745698921 40.43200996 41.4739739437 43.1429132744 45.2080164235 47.6447950672 49.1346399047 49.9918933613 50.8092550844 53.0502993852 57.0192619417 58.6999457505 59.6398352922 60.5670901058 61.7942325896 64.0027484281 66.27499708 69.8409421947 72.0665594347 72.399328343 73.4906682928 76.5803496622 77.187404326 78.4982651874 83.4499110289 85.0509239113 87.3457410133 87.4821479526 87.2190458625 87.3187195187 90.6569278552 92.1564283813 94.1371350989 96.6134632673 102.848764505 106.631788509 117.161964049 122.971858238 133.264717614 142.575774039 153.891273092 166.327529294 179.330087187 187.244983321 189.23685763 187.714723132 190.774843253 200.935270157 217.794630405 230.484048988 232.619332943 226.353601144 220.647325122 217.529215818 223.772038656 229.090911961 236.267549235 243.333478663 248.132451376 250.511990736 251.758118361 251.553650655 252.018467978 253.052078475 257.311733844 258.654631922 259.819134581 260.809265859 261.636737488 262.297260063
74.1111569842 73.3349219244 73.3941668259 74.4771667105 76.1252725891 77.5573547605 78.3644900035 78.6028782381 79.0205786372 78.6747767735 76.2275707528 75.5593517825 73.2768687695 72.2389328372 71.4996080552 70.6197803093 69.403102719 67.3439961812 65.1657592471 63.6843295934 63.2838790416 63.8909860552 62.481830518 61.5037483572 60.29795388 58.3822567884 57.4295978876 57.6410230243 58.3738259447 58.0212353369 58.2179654478 57.0650020585 56.4528608177 55.8274147293 54.1881540099 52.8908119474 52.0876789666 51.3192165198 50.6983144618 50.3004595989 50.2421082512 49.7924468803 49.4700801103 49.1126959426 48.774311392 48.1933509667 47.453639901 46.5610653698 45.9334067056 45.8454943124 45.3287513443 44.2992307676 43.3479542115 42.4686063035 42.4944549798 40.9548031856 39.9422010661 38.0782809402 36.6656510961 34.5375653119 32.3644178283 30.327975475 29.3659077694 29.5360602337 30.4632359772 30.9503100634 30.4450862335 29.1059363247 27.6347621799 26.7299190746 26.8975586995 28.4178805892 30.271406242 31.9110756057 33.805769067 34.7300437598 35.2954470565 35.6036279255 37.6579560506 37.5752873776 37.1291982157 36.0696999766 33.5863810447 31.8703336821 30.5114077531 30.4525496667 32.6065473037 34.149154022 34.398827509 33.3346991486 31.6019573394 31.1669082339 31.6222337183 33.0806257927 33.6378537792 33.1967531859 31.7770001129 31.5773256322 32.1703010115 33.0891451294 32.5612473898 32.8615985331 32.8035269499 32.4740130245 31.9600286335 30.0629292695 29.5643992129 27.1897431555 26.2342711602 25.1247343963 23.81241509 21.8028332981 20.056974703 19.0825344789 18.7921356384 19.1300129819 19.4274257204 19.7536371988 19.823543949 19.433366454 19.1780209984 18.8529015089 18.664770933 18.7111921468 19.1876784231 20.0158812873 21.1575381712 21.9188945007 22.5526520497 23.2358093873 24.0723395951 24.5302773748 24.9345434436 25.8276870017 26.0251908316 26.6278495245 26.6729403934 26.4835309987 26.5854690742 27.1391282792 27.8258613381 29.6099300414 30.6467969661 31.3450580895 32.5204359651 33.2243096968 34.6462557422 35.6672023758 36.8741301315 38.0271855779 39.9333880137 40.5845791698 41.3518833963 42.3893071537 43.6537777189 46.988490982 48.3921313381 49.1319714922 50.4656677624 51.1688504154 52.4833797556 53.5923362753 57.2254087639 57.4507667084 58.0424729937 59.1198096584 61.147806414 64.5738818049 66.8816388033 68.3587577346 69.5943707805 70.705856575 73.3026317688 74.4612092937 75.6924884014 77.3001019746 80.0656069429 80.2999061274 82.3475272212 81.6376099305 82.5162051956 88.2451350206 90.5295783612 93.0755726828 99.1497862147 102.763149022 106.99593503 117.337033513 126.143627605 130.916805257 139.191391047 149.07445249 158.984328272 167.976304493 171.164671869 178.100996318 183.75333336 194.063940467 210.085869763 222.203554706 224.948332836 220.139910144 213.787036923 213.607854651 220.292333131 225.021972319 231.23187686 237.364496708 243.86556348 246.112709818 250.245807228 251.568922038 253.279866231 257.999671462 259.779709547 261.227266688 262.392115482 260.960193989 261.700218551 262.263254398
77.8272790093 77.5989450955 78.0070085678 79.0500486202 80.3050283955 81.1745253894 81.7563486193 81.545932195 81.1232156605 80.606456864 80.0123393219 77.4358461603 75.6849980183 74.1543243934 73.5794130239 73.1290184892 73.3541350598 72.3307253905 70.574896268 68.069021329 67.2694022771 66.6606496363 64.35041607 63.657120624 62.7657885767 61.2189858423 60.6770471092 60.6635377704 60.8236405688 60.7556525342 59.764132778 58.445526301 57.7456208952 57.0752413354 56.2626823445 54.7562298781 53.6676920387 51.9066430469 50.6461311455 50.0905666468 50.3558518619 50.3960815044 49.9809545837 49.3946553953 49.2150889135 48.6477399826 47.9966817174 46.9735305774 46.1991672316 46.1740229818 45.7901958383 45.1970635516 44.4953561507 44.2599232635 43.6175947037 42.8377104895 40.4427261169 38.800391209 37.3634544439 35.9654109394 34.2552847497 32.6336878957 31.7037345433 31.4607117251 31.7845163134 31.4770866484 30.9963392266 29.6077078659 28.7748524104 27.5927485982 27.7483981176 29.2710610034 31.2201310354 33.8152803541 35.0922273835 35.9685301332 38.0267516569 38.6431202097 39.5500055339 45.4029496247 44.8929129575 43.7861410401 40.4430636058 35.0253349431 34.1390080019 38.699248563 36.2101879205 37.0731269654 37.514625603 36.9128623078 36.0988787013 36.0653932096 36.8078310464 37.7594477668 37.503437103 36.8082247904 34.8821653469 34.7822622982 35.0412500203 35.3937405415 34.377394641 34.3709865439 34.0838605572 33.5789615321 32.9241331496 31.9366154229 30.0187256178 29.0587338295 26.8126648373 25.7319253636 23.8270970464 22.693138738 20.9310810502 20.1747512099 19.8453862856 19.9454953002 19.9205205043 20.0799382457 20.0671120456 19.6469148459 19.4762809713 19.2730592331 19.0905424131 19.1299248772 19.8186249954 20.3644857839 21.3871813214 22.0199328143 22.5892582157 23.2480142045 24.1120208671 24.5826985327 25.0006228428 25.9273637156 26.1741766673 26.5705407074 26.6536054598 27.297167914 27.4977255049 27.9509343267 29.1647785703 30.0507979701 30.9725891704 33.1074861976 33.9901569846 33.9137635163 35.5600766909 36.7001741314 37.9315674944 39.010917264 40.0761354764 40.5291010975 41.1187148296 42.1453487793 43.4576632905 45.6424000236 46.8691789478 48.0044224487 47.8325579223 49.8292364984 50.7338702044 52.7704163535 55.0165692912 54.9975299162 55.1855587785 56.3950829061 58.2567248938 61.4270291599 63.6947874513 65.1373894669 66.3343557031 67.3990575271 69.8789550555 70.999042631 72.3064879023 74.2373654898 75.6054865168 78.0088707564 78.3329789896 79.2254307584 80.3021029926 85.3161011919 87.7286163903 90.1974038049 95.913715825 99.3534600627 103.2248286 107.519355973 118.123626416 122.424031741 127.564991869 134.48211295 144.956771177 152.184547907 157.760154038 165.422138119 172.116219828 181.860498711 195.188837444 203.72593253 209.869026398 208.204840722 205.333741298 204.220450444 210.993503677 220.470265708 226.148970342 234.839983352 239.291971903 242.771694865 249.801026465 252.778480635 255.800424005 261.150559957 260.98122547 262.260856771 263.17883232 263.973470658 264.698249985 265.261175401
83.6495735841 81.2473715096 81.6470458196 82.4543320658 83.3548094938 84.0165445199 83.8989519098 83.421095004 82.8329566343 82.2346630333 81.619760537 80.4394393598 78.7551504965 76.882629636 75.3463282717 75.8376845778 75.7462715241 75.4091181694 74.2158055886 72.4587206019 70.2268185462 69.1114709128 66.5180688469 65.4926263409 64.8384754203 64.2954512645 63.7188210898 63.7930653253 63.4815244663 62.7882656243 61.3163194245 59.7844483011 59.0525243978 58.2885342884 57.3486550298 56.558054442 55.4353582435 53.4299438575 51.6319261238 50.7737606037 51.0685265602 51.2230699008 50.1504678256 49.1629714813 48.7675172502 49.1859194789 48.6160961327 48.5018450096 47.593754382 46.8824322932 46.2033638772 45.0037210615 44.2855236003 44.1919476274 43.7201812927 42.9908853297 40.899875478 39.3922338245 38.3767061862 37.4022342216 36.1350412145 34.8536133523 33.4703679201 33.2219622 33.0800167817 32.4055438744 31.8746344667 30.6043299956 30.5505177157 29.8463892225 30.0137751779 31.1935678712 32.74606483 35.1701791819 41.0504168071 42.7537193956 43.096368349 40.2931664406 46.310792943 47.8755789181 47.7002407191 47.1201965537 46.1774219892 43.9194643605 43.0759222167 44.4641658456 40.0871247603 40.5187621919 41.0006771154 40.8535346815 42.0671095538 40.7642859345 41.0392214325 41.3146520369 41.3346592876 39.7828815782 37.5894806203 37.3631671058 38.74125052 37.2325651451 37.170139617 35.7825466666 35.2542352291 34.5437776712 33.5211650187 32.5796780299 30.6072064118 29.5819890868 27.3470122055 26.3151497078 24.5407977615 23.6409278211 22.0103899372 21.4007019752 21.022252991 20.8858467015 20.5069152023 20.4786824002 20.3696706899 20.1979664587 19.9503323148 19.6105786508 19.6111834171 19.6468207248 20.0303811944 21.1637902321 21.642293429 22.126111348 22.6077856811 22.8761388654 23.5295520955 24.0340897582 25.0520179738 26.281849084 26.6137775697 26.8644276664 27.0568207062 28.1767880179 28.5321212732 28.9318414432 30.0798939854 30.3317171487 32.7526865739 33.4711636383 34.4322599494 35.8004322795 36.7715684245 37.2833321422 38.5457269542 40.0120886901 40.2414352021 40.1992429427 40.3395530654 40.9075806234 43.4823757191 45.4852873167 45.9799839316 46.8739224773 47.2959387894 48.4273987304 50.463800527 51.9501349916 54.2523195835 54.2183836079 54.1889583217 55.0127065766 56.4364555982 57.9731350358 61.3470241395 62.5789575165 63.6123976075 63.9191267063 66.831380889 67.8970591641 69.3177485831 71.7311757618 74.078655905 76.5573272926 77.9125282884 77.746594371 77.7456225492 81.9459234634 85.8781397275 87.845673829 90.4960509238 93.9612482319 97.8703284291 103.135575688 108.018527338 114.981825851 117.764099758 122.462821293 133.449436652 139.267365802 145.525511695 151.321227148 161.799117701 169.543754374 179.987639732 185.676248266 193.163231542 194.641822169 195.377266689 196.864468228 205.524851804 210.542320637 225.320051022 230.821515886 236.059052483 241.032643617 248.127287573 253.123729881 260.305854104 263.53356528 265.357345728 266.156358206 266.646189774 267.283039668 268.059908116 269.913622092
86.8736415203 86.3551946701 85.995326558 85.6117186042 85.0747787383 85.0627743308 84.9448724992 84.587108667 84.0895262911 83.5248700788 82.9368423882 81.8689881706 80.3016462282 79.4203753871 77.7517533273 76.9848980745 76.83430481 76.8527319886 75.965888575 74.4127930562 72.7729027495 71.0432191399 68.2413513867 67.6582423447 66.9717045777 66.6293201603 66.3962229387 66.6569509349 65.7912394452 64.5309384185 62.9299092854 60.9715854748 60.1721453057 59.4301771082 58.6425539617 58.1261238426 57.3698252808 55.6348975246 53.9969118759 52.948369994 52.4181215647 52.0061136323 51.0685180075 49.643080627 49.0405361424 49.8186565478 50.0590412402 49.6688492631 48.8620346804 47.7899029852 46.0818050731 44.9306329947 44.3334522947 44.4406259852 43.6594694959 42.9678835218 42.2288905891 40.1224675378 39.0940538179 38.4977783999 38.4649512123 36.5003246163 35.6062835594 34.6703533919 34.2630929178 33.4051558661 32.9158930903 33.9092638155 33.0226944682 32.8081786518 33.1434431293 33.4335610526 34.5101838964 37.1056539741 42.7222331504 44.3975318796 45.7477098804 47.1878064624 48.2902131774 50.0559041342 50.165220537 50.0341548247 49.7327663275 48.0353043958 49.6311009519 49.5068486099 49.5680782831 44.0684719526 44.590965734 46.3032501032 46.2225995512 46.2176944802 44.7495456939 44.564227137 44.1817229071 44.2392676065 43.5933364251 40.8698655036 40.1401223189 39.5157657893 38.1215929621 36.9578171562 36.2160952788 35.1253448342 34.0772909618 33.0338224296 31.0519775227 29.9729197049 27.9773727536 26.8045912081 25.1209856256 24.3955441347 22.9237548556 22.4242927348 22.005505835 21.6951907685 21.4657068862 20.875406914 20.7019153449 20.4877673033 20.46506762 20.3073911396 20.0055134546 20.2729192589 20.3988058858 21.5153650211 21.836966406 22.2153335991 22.6505721332 23.3261353319 23.5473450037 24.0757228871 25.6988103307 26.3796239835 26.7604449325 27.0669870785 28.3762626405 28.4394060119 28.7170964198 29.0681436354 30.7044387558 31.0768940789 32.0702791092 33.7744195373 35.0912194894 36.0375471463 37.0208947627 38.0718416895 39.5793554661 40.1226251768 40.2595385777 40.2352427301 40.4252817393 41.1080960365 43.6807994606 45.0856467427 46.0166028004 46.6237768129 46.8495202407 47.7404977334 49.6588814449 51.2933795672 53.2429015717 53.9126863976 54.024343291 53.9977972041 55.601498694 56.6348040531 57.8566203059 60.4932549574 61.3046200685 61.4096965677 62.201286709 64.9393198966 66.2346962432 67.1171108734 71.1631385194 75.7204554266 77.8704410139 77.5180387233 77.5516327221 79.4662659446 81.3399394028 84.0767738013 87.7277217176 90.7089549417 94.3900864249 101.142390677 107.597258495 112.430507619 114.362218417 116.836493548 125.294265285 131.929587265 137.950683883 143.804334084 148.998457182 159.108242121 167.100348087 170.799435764 178.593248053 182.298990521 185.823595781 189.553407065 193.92045143 211.463611463 217.581392446 227.621406832 233.905831709 242.846681951 249.812651608 259.627577583 265.438274803 269.24357305 270.554717309 270.358142285 270.163638501 270.724480412 272.805587742 273.664550924
92.5728951077 89.1001079954 88.0477025199 86.8355788035 85.4939438455 85.16614864 85.3354512148 85.2804225897 85.9770134307 85.6181486399 84.9523755982 82.9686574925 83.0487425946 82.1878165424 80.0091843489 78.3036411894 77.2432120343 76.9882719765 76.4687181185 75.1827784309 73.9531652897 73.2239804468 72.3479745157 70.0844849552 68.238987674 67.6718634408 67.4713917329 67.8503768726 67.3323429983 65.55584404 64.1881792059 62.5789941707 61.2262682877 60.4474203202 59.815465325 59.6931194082 59.5567191682 58.6536866257 57.0215782417 55.6371076203 54.4094360205 54.0542088195 53.1824286062 52.0571455807 51.2080655728 51.5577145402 51.3868085671 50.9890381336 50.7323304673 48.8326922457 46.639162089 43.8451319596 42.6111103538 43.4963393469 44.4213671654 43.8810039105 42.0149184703 40.0608099355 39.6002237204 39.6365900294 39.3113235202 37.5713880198 37.3281516095 35.8767236371 35.3917855262 34.8176999077 36.0498753818 35.8719469454 34.8261881426 34.9164642645 35.2595853676 35.8645221995 36.4065006684 38.3817983831 44.1526082139 45.8790703687 53.3957745337 55.282194185 55.8676901988 51.7356779616 51.9192311654 52.0047310226 52.1735836944 54.478657007 53.6283927857 53.6626918924 53.7975129254 54.0457824596 53.8521978908 49.6012717548 49.381495417 49.1602811562 48.9433203022 48.2002836825 47.6066297923 46.2894637608 45.3608200661 43.9591500163 42.1286212327 39.4907489281 38.4450430428 37.8334184663 36.9071499166 35.5385497423 34.3682575341 32.661458193 31.5505822763 29.2666188837 28.2197976546 27.0105030216 25.4092218361 24.7568866208 23.6784341342 23.2614035747 22.8323701532 22.4227852081 22.0628097712 21.3503860527 20.9638154758 20.7233848639 20.7638163661 20.628283391 20.676902733 20.5461302529 20.5903231059 21.6052563524 21.7960140147 22.1119985349 22.5549968022 23.2657466119 23.8384172679 24.6547801734 25.7413580452 27.2917757649 26.818191386 27.1605344531 28.3966033029 28.2782363771 28.9786559595 29.3141742186 30.27453446 30.9749654966 34.0309481203 35.1497253089 35.2373393879 36.0682116673 37.2789305554 37.9257028913 38.9871622466 39.7891684793 40.2256456762 40.4230920508 40.5873520132 41.4571481297 43.2605294884 44.33409518 45.4063090371 45.8947019242 46.5769822522 47.1158612145 48.7512942381 50.2898210955 52.3663520379 53.2336973205 53.5124877174 53.296324424 53.2168178716 53.3869998984 55.7642781224 56.8872633851 58.648672814 59.2793008259 59.9364777413 60.5691504513 61.7405283843 63.6801381537 67.1101045644 72.350527436 74.9346791203 75.6988913408 77.3369584751 80.9391841404 84.3049601935 84.2197758463 87.3201958417 90.3656231756 92.9704728013 97.1318073527 106.285846517 113.149366456 113.998356324 115.275077604 122.105161183 127.891802665 133.155765794 138.295766404 143.130181966 151.145365024 157.796530857 160.053556298 167.113331332 172.373252256 177.852839474 183.234864874 188.72349449 205.959228944 212.688903884 220.299384136 233.665093418 242.76943029 251.727719681 263.417170305 270.991540917 275.42539789 275.861471006 274.21417725 273.279253809 274.98230763 276.780742745 278.092493301
96.115137909 94.9341711933 93.2163852971 90.8909521275 87.4182041267 86.4863355167 86.2712947496 86.8152577442 86.9037250642 86.2417524132 85.5224091104 84.3706363339 84.0794424523 83.1776140285 81.4364863152 79.6690341484 78.2902798936 77.3032499044 76.8874684465 75.6802623457 74.7881482555 73.8389122825 73.1455987441 71.5521120192 70.4747983978 68.7136995784 67.7081519686 67.8383806837 67.400562798 66.064183092 64.4868725363 63.1402065687 62.4148399831 61.2422680991 60.9745223294 60.9941977397 61.323292822 60.7743514626 58.9913789668 57.3700369683 56.2059043675 55.538825169 55.1541473363 54.766434557 54.8248047399 54.7742692105 54.459148642 53.9018750572 52.2559396424 50.0382244634 47.8096145875 43.9961740876 42.2616588103 43.5045915388 44.7871304194 44.1497988083 41.8980084834 39.7594026192 39.5156728474 40.2814357928 39.8043280178 39.4922147026 38.9219910695 36.8726230713 36.3720311954 36.0629361087 36.9766983399 37.1117532045 36.4407252866 36.4842866313 36.6248818633 36.6709689281 37.5908459629 42.0611151063 45.2018968395 47.1166718816 54.5574158059 55.9625902589 62.2689776424 57.3495554841 52.6301297981 52.5070760943 56.1002963988 55.8172179115 57.6830850984 62.0339922127 62.8424259151 58.1333221114 57.110055028 52.2261351023 51.450281009 50.6237423139 50.1376302947 49.6532484719 49.5800534111 48.6575415483 46.6525441636 45.0412807763 42.5926654606 39.3038482902 38.363855606 38.46568282 37.0650074443 35.7850551553 33.8967340572 32.8509400416 31.8195915278 30.5200952162 28.3852771842 27.192316063 25.543654359 24.6779308521 24.3309663802 23.6673731539 23.2550392811 22.7893454982 21.879173072 21.495037007 21.5752436256 21.1302892857 20.9721784678 20.8357269123 20.715880993 20.660397407 20.6086556199 21.3840199308 21.4456452219 21.7529983078 22.6997541144 23.4122053992 24.4284778824 25.0064733128 25.700176992 27.0365177408 27.6400289361 27.1500281529 28.2675661547 28.4662842674 27.8111099069 28.1424795644 29.5664020745 31.7647098992 34.0393021792 35.1700655771 35.087177067 36.0558430467 36.8736166473 37.9142453479 38.6855625577 40.0724736803 40.5980215143 40.7721791338 41.8662714689 42.8926745074 43.7419999922 45.133316908 46.0597426194 46.5253397179 46.253351811 46.935264679 47.8509546682 48.8920745799 50.1527132434 51.0440963291 51.4146962583 52.1732343955 52.2760203894 52.6267450045 53.1810832274 53.551563842 54.8548847105 55.755718949 57.0162396177 57.7122815058 58.1757120006 59.6891266855 62.7962379258 66.2655246466 69.003937595 71.0434160198 74.8323378427 81.8348439801 87.4106140938 85.5030643971 85.315137433 90.3806919638 93.0058064854 94.2328111078 101.535635063 108.324952337 110.49932362 114.200162383 121.334947242 126.535391165 130.89668475 134.858205837 139.706241776 147.647643999 150.145728121 153.344581069 158.954760903 165.359493459 172.12638594 178.541352231 189.110957876 202.635337714 210.299077242 217.623891716 228.453534591 242.818732676 253.142879352 265.751036584 274.910049937 279.971440664 279.595621002 276.693185422 276.19295068 278.232699551 281.421065188 283.328873523
99.322162893 97.3347956008 96.0800149248 94.2663848508 92.3391387053 91.2444809862 90.0216562698 88.4592708033 88.164495327 87.4850462899 85.3574976991 83.5085256273 83.3864609107 84.4461011526 84.5900313691 81.5702293695 80.5051705622 79.5577221834 77.735646335 76.3165508191 74.9487833766 73.7923632473 73.2922228075 73.0543640398 71.5054550713 69.6459881764 68.6203847602 67.6647012195 67.0629361496 65.7387470513 64.6025546886 64.1217080397 63.3927347768 62.6033562697 61.4601561139 61.3424103672 61.675111607 61.2836204964 60.0702528053 58.5300224687 57.9899791449 57.0408260718 56.9235814592 57.7664534145 57.8316841281 57.5433822936 56.3453278294 55.586382581 55.0152808201 53.6902639664 50.7470493393 47.423072735 45.3452703621 45.9569762557 46.0368869358 45.2266505795 43.1680853445 41.2071856464 40.6669647442 40.4535562841 40.2514750849 39.9116086231 38.9827129617 38.4243794467 36.890266679 36.286188906 37.9544742528 37.7533129349 36.9785519566 36.7061965267 36.3664986306 36.5600206729 39.9007407972 43.6797305162 46.0975459753 48.2044551406 55.2343520444 56.7002557812 62.7054807291 61.0457636638 57.8660518905 54.7256017692 55.7318991221 61.62233833 63.5986128844 70.1750821237 71.9286222261 67.0032259757 67.0825785635 59.7611957994 52.7829737526 50.6788987107 49.6772882616 50.2287464792 50.2657438714 49.2529310537 47.5147791033 46.276397071 44.0246660141 40.344970742 39.0815005803 38.5131872094 36.4968208059 35.0633501189 34.1049726201 32.6502969781 31.4854576168 29.5339884074 28.4717372593 27.1690165185 25.3591622485 24.4084193388 24.1276902313 23.8525213621 23.4542936711 22.531182396 22.0079814488 21.5846189132 21.6773929981 21.152881919 21.0933566553 20.952016404 20.8040591159 21.4197364838 21.1307864161 20.8853115052 20.7910825191 21.1506783361 22.2494145788 23.4736744788 24.3284684833 24.9257034355 26.7236552275 27.0646457448 27.7596803435 27.8309137714 29.1409545634 28.0707226109 27.070350328 27.4220735189 29.4935272258 31.9138087202 34.2243180792 35.0927933596 35.2783410483 35.1407895564 35.8963101083 37.1937425543 38.2183853906 40.0668386439 40.9339056458 41.7549745447 42.4949409774 43.391925345 43.9964159937 45.1877275336 46.065060247 46.548045926 46.1658006966 45.5321646292 45.4333944783 47.6027927744 48.4397451039 49.170674785 49.5828979651 50.7965993584 51.2700175128 50.1924068407 51.5894771598 52.7300969571 53.6373766259 53.7644223374 54.5804211158 56.8966727385 57.2214842977 57.2914929058 58.5081149892 60.5384398374 62.6826867665 66.9399061131 71.0268599875 77.6139245773 82.9412539897 82.7594254868 84.0677624609 91.0227660285 93.3173487771 89.8887708812 93.9792963894 100.264699574 105.300293538 109.57429134 122.344085096 128.118463204 130.859630229 132.925272264 137.500381456 146.28291933 149.601002781 150.100916738 152.958333812 161.686196839 169.040928756 175.912989028 182.463993855 196.623504279 203.783212378 211.405133891 225.96543557 240.840750374 251.63876641 263.722379502 274.071929694 279.819819008 279.569175555 277.322132386 277.505747696 281.531614541 286.528712198 288.900425646
100.120803554 99.7065636779 98.4911112677 97.6837679158 96.6056565502 95.8278293586 95.9412546547 93.7414145534 92.9081634867 88.9029790978 86.3958200754 84.1626936462 83.9891423788 87.0132107014 86.2965439912 87.5247426552 82.7417649301 81.4932341917 80.1603837323 76.9451447731 75.0631327744 73.3451703122 72.8496706176 73.2919229639 72.4027900671 71.8449926939 69.739942604 68.9148562182 67.08848355 65.7473768 64.5272380165 63.7690408968 63.7355822899 63.3550950413 61.8048291304 61.3618922973 61.4615644436 61.1855725085 60.4437073587 59.9129855943 59.5092337798 59.4443844327 58.6989706951 58.8585175682 58.9430578934 58.7357625602 58.2712402495 57.3973584228 56.8625370582 55.8652760613 54.1899454963 51.9555288901 50.3755420646 49.3944667429 48.5281579662 47.1238883871 45.375738742 43.7338642119 42.5570897658 41.9947817737 40.4052042615 39.5890290149 39.1929165066 38.6894289271 37.1473725878 36.8059428651 36.6367309133 38.0851606248 37.6821583259 36.5922784622 35.6430738759 35.9222254328 38.9803907 43.9182372936 51.1229004018 53.6438022738 59.7321013991 61.7170355232 63.6727756636 61.530829332 55.4633206048 49.8582930929 51.5987498686 60.1980993948 69.157782304 72.8751592242 75.0950771402 75.170618975 70.0617313918 66.8592336417 58.0250822634 52.5492645 49.6583350581 50.5957363743 50.7903528189 49.0476904281 47.4159653049 47.1261331773 45.9163948124 43.6122618957 40.5844846082 38.4476067912 35.3587133166 33.8004360831 33.3001524367 32.2792533343 31.1793425214 29.5282633467 28.6800084135 27.3950607394 25.4041971078 24.2336993115 24.0204466936 23.8827762023 23.1489116915 22.4977101049 21.9463951645 21.5230500659 21.654948683 21.1789416671 21.046789297 20.9177715215 20.8421361686 21.3614570028 20.877333711 20.4310014694 20.1069674095 20.6911845996 21.9148181098 23.3192827886 24.2840104147 26.0907470795 26.2851613056 26.4721943556 27.2150798998 28.6759043307 29.6728410606 28.800105853 27.8811385465 28.363238611 30.3882752135 32.7266074249 34.7141763339 34.9142024311 34.175701253 33.4636897901 34.2433169024 35.7694344206 37.8032649774 40.1271248992 41.4631558981 42.3007738314 43.0240495083 43.7411411996 43.2613723589 44.8089556671 45.5491812345 45.8797508106 45.3526350759 44.7707334112 44.9708689596 44.3133089411 44.735087455 45.1475411264 45.0576440041 45.724416794 48.3065153743 50.1546479381 52.6246832801 54.4680285395 54.3487008655 53.5467668198 53.8320130006 55.3376489338 56.8377432528 56.8964923572 56.5630864186 57.5406566319 58.6512559882 60.2506988951 63.8438038488 68.3692421725 72.3979993879 74.3451973938 78.8755293406 84.01449696 86.2660552399 84.2192533866 84.5450265436 90.6846309932 95.9358274869 107.531754593 121.712944131 132.671162128 133.538614296 131.96365583 135.061553421 144.53861961 149.004515592 149.952199141 152.844358828 159.155811548 165.482608236 175.2096726 181.518882757 187.991356763 202.037231871 210.667635323 222.931705205 235.996821921 248.107823601 258.921646569 268.563670896 274.236908161 275.137053595 274.429028477 278.104658625 284.039370073 290.37754251 292.90572973
99.4851800996 99.5517372359 100.719395697 101.918800137 102.368811383 102.32427001 100.044285432 99.4867813147 96.6569738152 94.6459624676 91.8349800902 89.2590745714 89.2665732037 90.9576788417 92.468541315 90.7883732733 89.8827992573 88.4413625124 85.6972868749 78.1608506565 75.9973289421 73.9219241734 73.2327808044 73.8930224259 73.8160881942 73.117962454 72.1060137435 70.8604922094 68.6371438568 66.9946565235 64.6767327154 63.8996720287 63.8364895281 63.5013083205 62.358198868 62.3610076592 61.5152550987 61.4054747895 61.0636816245 60.9534792225 60.7548391828 60.8225492597 59.779905593 59.2762098436 59.0480299149 59.1080235378 59.0406477329 58.9793228381 58.2316956206 57.5949204995 56.9760734602 55.7714829309 55.0978478556 54.3163467797 52.766884022 51.087681436 48.4183421174 46.5073218926 43.5773103082 41.8788624252 40.0297431067 39.1974709465 39.0930331666 38.6954553828 37.237632573 36.7453993081 36.5991417171 38.1792881863 37.393513803 36.9698131713 36.4935340105 36.526145061 41.007392627 46.7328405213 51.6288942533 52.5495927442 56.9761441885 59.68758764 63.8225667981 63.4631328725 58.0004723423 52.2499791862 53.9112339258 66.472847175 76.2723789194 81.0581677346 78.1074213626 79.4575584867 73.0638689861 70.5179540815 66.5757084758 60.650571713 55.310580445 55.5078924794 54.6270512108 48.7949447923 46.6676245304 47.3174132127 47.3231720465 45.7295107472 41.889165589 38.419931917 35.1029728651 32.6308189849 32.8032505064 32.0563426568 30.6779499182 29.7536553319 29.0903681335 27.5092597332 25.909095972 24.7180343276 24.2542289958 23.8907206084 22.8836955216 22.2122368407 21.6782579072 21.5129151523 21.3504283755 21.1190585818 21.0250727674 20.9241361278 20.7935817457 21.7989673646 21.1140215322 20.2193212242 19.7935163367 20.462776915 21.9107315348 24.2383401639 24.3723808202 25.7825699505 25.4340875788 25.2403456878 26.9744295044 28.435013734 29.9395612801 30.2653021758 30.095364162 30.7890628559 32.4381249691 34.2109545107 35.5358864214 34.8208929235 32.90725825 31.4662425375 32.4415712648 34.9450038294 38.7443372014 41.3681666106 41.9973419083 42.8934805095 43.5250885871 43.9280463763 44.2823803282 44.0591882927 44.491202021 44.7736649352 44.0193193826 43.6063710193 42.9792773645 42.9343039775 43.0025255122 42.7529607104 43.1827370597 44.0831019731 45.5894590855 49.372929154 52.6695303832 55.2623229887 54.7126196185 52.652934222 52.4917521129 53.4146184211 54.1515583256 53.9783919657 52.9194954873 54.5269242256 54.9860361367 55.620530219 55.9833196628 57.5370724168 62.6917568986 66.1366387283 68.7521351742 73.1930066849 73.4521630988 73.8127587467 77.0369894764 84.1163148671 90.3482784827 101.082595827 117.761868934 132.52373669 132.999328885 127.7789546 128.19302683 137.587635307 143.91576097 147.388512487 150.387125681 162.367534727 171.034888906 176.336637692 181.998774161 190.563554532 201.494338 209.101953293 223.759454679 233.532001302 242.398903144 252.011337654 260.624869735 266.448423575 269.338270721 271.5067282 275.80249585 282.948316288 290.409042826 292.908375292
98.491636865 98.2323532632 100.713819769 103.762179521 105.672739833 106.430081161 106.447755229 103.489521218 100.505273096 99.070087866 100.755426782 99.1784135806 98.9139211417 96.696415336 99.4104478595 94.6496470147 93.4438674805 91.7161188101 90.0481055623 84.7724179796 81.8136849665 77.4187099529 76.5099734699 76.774314593 76.3597290326 74.634839384 73.3542691126 71.9250805772 69.1088732056 67.7595016391 66.4336701931 64.4999295581 64.2060959246 63.4500526617 63.0953239804 62.7765911448 61.6891705523 61.6824568646 61.5211012887 61.0956059446 60.8552727822 61.0868219918 61.1426552409 60.0929112365 59.7701892126 59.8663762992 60.4742081008 59.4837205057 57.9690353392 57.9102517655 58.5332116641 59.1254122216 58.6897134999 57.9575740521 56.8625844368 53.9225727351 52.3680566843 48.1810679674 43.7215840761 40.302869317 38.0221639266 38.1576341604 38.7761779825 38.6080540757 36.935730149 36.2165001373 36.0755641211 38.1738828447 37.7443887847 38.273663764 39.9551224615 41.7012905442 45.1098761375 49.4366785642 52.0146338078 49.7094146926 50.256500176 56.8148675505 66.0633459514 69.9908478851 69.1606644805 65.4842437663 68.7366400493 75.9434861128 85.1669341826 85.7981698338 84.3669200826 85.4915160669 79.6834911065 76.2752740919 74.2212490354 72.1433662963 63.7681781645 62.0456538067 59.1455004682 54.0717398157 50.0835024858 49.4832650663 50.1029438559 49.00419264 43.9268004802 39.3553831504 35.6591333878 32.9622995676 33.0255398361 32.0296316109 30.2462090543 29.3822627359 29.2385670798 27.8454402987 26.3755335025 24.9210319834 24.2846607737 23.1963873023 22.3589935607 21.6710020166 21.195314473 21.1650620763 21.1232132362 20.9841243772 20.934638206 20.8686265336 21.1154685293 22.057929632 21.54043722 20.8629512732 20.6198007545 21.23935082 23.2918739952 24.8784399766 25.7849611484 25.368761713 24.7460660804 23.6962588103 24.866966373 27.575264882 30.2018228988 31.7287263142 32.665671699 33.5548426135 34.9867543438 36.1460437114 37.6314394859 35.5006815793 32.9151502055 31.0639155331 32.3500804953 36.016692215 40.7975807628 43.6110152471 43.6644846988 44.4660066816 45.6390978082 44.2722482079 42.7303028768 42.8827438333 42.8106102118 42.7252661619 43.2050248978 42.8761036055 41.6658839617 41.5011786288 40.9228127961 40.9583520798 41.2538949081 42.1059663588 43.436727979 45.7846186654 49.1235307137 52.1560614264 51.6741827815 49.467199618 49.8157743832 50.1261616098 50.5995990342 50.5101834134 50.06647879 50.2464351195 51.9193569469 52.0520479129 51.6359715515 51.8716194757 54.8777248734 58.8862141054 60.3085222013 59.9645031477 61.4474008766 63.9109218664 69.4026179485 74.1750028356 83.3888884861 91.0049336134 105.618554078 117.362924645 120.349403532 118.436193176 119.232471329 132.223984975 139.499079849 146.754788408 156.407509339 166.206986341 174.040234808 176.420334906 180.51920986 192.028693821 203.885413529 209.717006875 217.795046667 228.762794545 236.545950117 245.152905116 253.136777728 259.404833533 262.383579264 266.711330133 272.157114602 278.959792574 285.162685487 287.94462165
99.6440120442 99.4346873773 102.609168046 106.628571889 109.332674342 110.554687104 110.759316957 111.552798886 111.364814749 107.872855422 106.82153904 106.197330793 106.018912797 105.893527053 104.994820569 104.029477028 97.1882174641 95.8091711375 93.416753196 89.2822727185 87.0447857848 85.1675350287 83.5819544605 83.2106390045 81.099900794 80.1259853466 74.5896038144 72.619942361 69.4655934633 68.3149769728 67.2467395169 66.4779412397 64.7486004732 63.6352185377 63.3211167191 62.9486854526 61.964227151 61.2973294267 61.9280814194 61.2781950509 60.8348758633 61.3059104333 61.6791732259 61.6511580939 61.3310015623 62.0480982855 62.1297946062 61.0811842152 59.1727544407 59.0113315801 60.489189338 62.1180460214 62.1626923043 61.3775545663 61.1648930098 57.9832228805 55.0485635475 51.4844123748 45.2049363043 38.9156219359 35.8079713192 37.5054240112 38.9416004462 38.4577343029 36.5450059936 35.4649861794 35.1983833978 37.1294356043 38.8100756054 42.2035665682 43.8286368642 47.4145776605 52.5504841208 54.5104601386 53.8969161842 47.7109413251 43.7582260156 53.7384470047 69.0486818863 80.404259728 83.3746768517 82.6823398652 87.6697211689 88.7019716186 85.716375793 82.6105518165 83.6395804082 86.552629441 82.1315122866 74.124339098 73.5031406157 77.1816603444 74.1645507728 67.8932292372 64.5393922873 60.5134876048 56.8909481364 53.2145751501 52.6734905702 51.1732679552 45.811807427 41.3301556708 37.8693176113 35.5177090152 34.4275801554 32.1710426309 30.4244654106 29.3898087183 29.0092528432 27.5357411936 26.2971535415 24.8881365715 23.3362791472 22.6189540056 21.6492368699 20.9233340424 20.8623892414 20.6644357054 20.8367025117 20.9274791319 20.767627125 20.7203798013 21.2114931777 22.2293843065 22.2524480011 22.2052564329 22.2131633765 22.8165476185 24.9108242224 26.0857151418 26.392773423 25.3315005695 23.5643481515 21.6865296466 22.8964950294 26.8261098609 30.7546682932 33.7001463328 35.318289097 36.8958352044 39.1122377408 40.1387328647 39.9313935675 38.4300475005 36.1604776577 34.766899454 36.1366856435 40.6599565702 44.2456291964 46.5912256985 46.7024527346 47.2616733768 45.611705818 44.4937519202 42.5394707806 42.3607687412 42.1389316186 41.7045137423 42.0687032815 41.0910199571 40.4423655249 39.2676121326 38.0719359083 39.186487565 38.2953195606 39.6777996718 40.5204657544 41.7909101603 43.0847946777 44.8822184423 46.2063193488 45.4618147452 44.954494956 45.216458766 47.3734532047 47.8198269513 48.5106322938 49.1436066332 49.5408973217 50.390580619 50.7065730334 50.9508972787 51.6936451939 51.6815213636 54.9747171688 54.342152542 53.4065825238 56.9392985848 62.0654045151 68.2764843222 71.037478504 78.7244435777 85.1365159143 95.8062942305 102.380818443 106.081978135 110.744069867 122.06502251 131.532614605 144.789618982 163.836744824 178.561529876 179.687234396 179.998366907 185.02808914 192.828020532 201.721944432 212.323756447 217.277771856 221.423802614 227.91095202 237.167329048 244.912687498 251.730477835 257.567958526 262.997925624 268.612345014 274.314967287 279.05649125 281.507343103
105.716016209 104.981846797 107.968511415 111.540523015 113.929768326 114.976687064 118.707226143 119.561296109 118.816094509 115.695362725 111.394507196 110.902475543 110.704177122 112.194236049 111.927643476 109.85827559 113.189587755 105.063717525 102.383010955 100.99282083 92.9694751956 90.8177931422 89.5939559378 89.1957091906 83.7944489641 82.17935002 79.9491468414 77.8201112434 69.9388806854 68.8087666243 67.6972850112 67.0851903639 66.5844971091 65.3703900863 63.5350892333 63.1715588701 62.4046569622 62.4708114898 62.3681044849 62.2286593542 61.8338563855 62.1883517711 62.773429729 63.6352664942 63.4832387308 64.362325478 64.6361297012 65.1280680466 64.3799148967 65.4432527901 66.658664534 67.4153722882 66.3609446029 65.743603613 64.436863909 61.9244003717 58.4777298266 55.0268048109 49.3146930671 41.5370944041 37.6783424002 39.1945596406 40.1308398579 39.3583030242 36.51890911 34.2119146878 33.8216409758 36.1934898066 38.540823211 42.2132596186 48.8201618579 52.2014685328 57.939481476 63.7723376241 60.7481592684 53.4686612478 50.5077498172 60.6640911603 75.8475463617 89.6166188176 95.6016661079 97.9331105293 100.606328675 95.0094130181 82.2422687843 72.3767275072 80.3253305821 90.070042802 84.1340435748 74.0777592468 73.5061075875 82.5851929934 82.9895611707 77.0677714497 70.4630600541 65.3731002911 61.7602195679 59.3288246294 55.1705946817 52.3096214347 47.893777477 44.8649508585 42.3157335552 38.2732353858 34.379670134 32.4920924599 30.2774613736 29.0305165807 27.7207136562 26.5486934638 25.1790675913 24.423401259 23.6273147964 22.0202254093 20.930825719 20.110011074 19.8812832586 20.2016622052 20.6867241454 20.9862630157 20.8625827681 20.5236288513 20.9319786888 22.0160087845 22.6976582317 23.3549432543 23.8180813715 25.5125577183 26.5802160638 27.5257085806 27.5741439895 26.3279662761 24.711218354 22.5785603472 23.9409362031 28.2011084193 32.5525078529 35.992441155 38.0642597415 39.9095491403 42.3130357173 43.3288713264 43.2133696662 42.6865928326 41.6819311138 41.1733596684 42.1619610621 45.5368144065 47.5327702577 48.8325883065 48.3255604141 48.641126254 48.3403713322 45.7916285116 43.360184395 41.3603592982 41.5896586098 41.1624833048 40.6217691161 40.2562507809 39.0866640282 37.3181074585 36.6133217787 36.1621448098 36.2739458239 36.3992200484 37.3858962477 36.7801038469 36.6787541602 37.4980992073 39.092732629 38.7380854129 41.3344811283 41.8582854404 42.4894305602 45.2633343484 47.258478586 48.8919565711 47.950815456 47.510165152 49.4190220941 49.3904807567 48.9983883795 49.2034729752 50.605200254 51.8084889481 52.4829763384 55.1064263252 58.7997303883 61.6739867224 65.5599770731 67.7085080456 70.5954170571 77.0958591082 86.62986214 96.0685135459 103.025142635 113.605019775 124.882940134 143.661687301 167.372872708 188.054899943 186.738921258 178.014209286 182.676421338 193.127608867 208.531877915 215.734559702 215.91961902 217.420046175 221.997741535 233.37382392 240.766559731 247.719995098 254.097300292 260.043401653 265.650515382 270.681182041 274.586550561 276.855381768
113.731964252 114.732843258 117.312577038 119.945099926 121.635276378 122.588391347 122.668913799 122.196932597 122.598793813 119.246213927 117.090384721 114.523695892 112.793039229 113.22476039 114.135404233 116.955634682 116.075398642 111.74420687 109.262733489 103.581662238 93.9468369608 91.3499771476 89.2794611792 89.6239152859 93.2026774762 87.9434937299 80.6371271949 78.3639421118 70.2564381441 68.4997506787 67.4987583973 67.0049251652 66.0525610115 65.5422684356 63.1899170548 62.4132287439 61.4585927508 61.760910296 63.0517898562 63.2321071655 64.1792156977 63.6141028387 64.6136922838 65.2511247621 66.4488364376 66.8886049189 67.5087106941 70.067531655 71.6985214375 73.8883971969 74.8348192663 72.2682833185 70.0832472031 69.5210394063 68.0538492421 66.3273927338 62.4657665021 60.2837136831 55.5029724884 49.2822430526 44.9968325416 43.0242509288 41.7905067392 40.0632876408 36.1061663971 34.0597039326 34.0763424859 36.5620492542 39.5865298678 47.8985631591 51.8443441834 59.1004756789 62.7432228231 70.2641164929 70.0954491627 67.6263919245 71.6184414065 78.495860186 93.3535866807 103.353655809 114.448121099 117.29425867 118.597041168 109.153629712 88.672165584 76.3648263847 86.9838075657 100.452262897 97.042692756 87.7309630263 87.6881270743 92.5846813497 92.8319036225 86.5199502573 82.6132090342 72.63650656 63.5522808503 57.2969737623 56.32074829 53.8378178132 48.7499096374 47.2353360887 45.276203683 40.3654473819 35.2054942808 31.8593609517 29.8495866148 27.7749927412 25.7684472273 24.6939579506 24.192287988 23.7095575131 22.2991266384 21.5976658927 20.6858745052 19.6654843599 19.3436260457 19.9397538394 20.7334881301 20.9858481136 20.521316853 20.0698338366 20.0770432035 21.5377222158 22.8618596785 24.2342255813 25.2629001099 27.3445650584 28.3619176087 29.1528481129 29.3373889114 29.7947949844 28.1616806993 27.3696131571 28.8382291213 32.5292112353 36.3961738013 39.2402273412 42.5406023589 44.1474716665 46.640839911 46.7670542471 48.3551371489 48.4122355442 47.9460646339 47.1582731142 49.2085807817 49.8831755117 50.517656594 50.91211254 50.0408047646 49.7241650222 49.1501763694 46.3522913987 43.6463575762 41.3827389457 40.8468134621 40.5823251535 40.3894540213 39.6935744271 38.3008174002 36.1782021201 35.3520066066 33.5747878613 33.2379936623 34.261385264 33.1729725648 32.515659362 31.9133509599 32.2546845533 33.2551320329 34.944438918 35.6901387165 37.1349639647 37.7382932383 39.2347473121 41.2597593533 44.1443103824 44.1151608405 44.0172271342 46.2555897122 46.4895094519 48.0501402875 48.8769921311 48.6764025297 49.6722113189 51.3167570232 53.8631344516 55.7601413161 56.9792985708 59.9910439064 63.9316631604 63.4630201109 67.7296172396 77.5882017334 87.176783342 93.9572626687 101.520189452 119.588737729 135.180281069 158.293261474 179.959449218 181.082070457 174.833519046 181.299515891 193.641224618 210.079225496 216.971786612 216.250913678 216.895387589 220.73866884 226.664491857 233.517643381 245.466736569 252.155348574 258.534974808 264.468592111 269.623810105 273.547610243 274.952967328
121.150164457 122.295736399 124.025539709 125.331967113 127.988999167 128.743404291 129.206630125 129.09507098 128.285059329 124.183674421 119.476525136 115.002215975 111.980540598 113.276092724 118.532979676 119.092834675 117.668131414 115.83125061 111.77492529 107.976274482 99.3078425857 90.868653095 89.4413722229 93.1170566223 94.1890691034 87.9961017427 80.6735112768 77.1596126757 74.4784962961 70.6751167489 66.9701979494 66.8415962189 66.1839710189 64.517237238 62.8204850308 61.7390659544 61.3901252448 62.0452623145 63.8903931616 64.5730684346 64.4581500841 64.831241448 65.4712647348 66.3823746295 67.6992174564 68.7267641521 70.7620841902 73.7792357921 76.9552934798 80.9030847585 80.6901491294 76.9220966727 74.5380514976 73.3327885776 71.150176614 69.1653626154 66.205692305 66.0347489466 63.3233906189 56.7135858602 51.2716155871 47.2335054651 43.6920182334 41.3333530027 37.312177166 35.55589542 36.5264611798 38.4187379981 42.2483611722 49.4358547336 53.8282009793 62.2234921367 67.0456184183 75.9434730881 80.0189660719 82.48350639 90.3787906493 95.6910914684 108.530681354 123.05013783 128.631212988 132.773132422 137.637933394 130.396051798 117.929970551 107.990537344 113.302930529 117.49410848 116.987970214 107.486278111 104.09196243 103.346058871 100.593538445 93.2611536885 87.9989256663 81.0471805153 67.8535051944 56.7379335478 56.3906811681 54.5121194069 49.6844090239 49.0053091667 47.0253553382 41.3178224956 36.1804815105 30.899567946 28.54125661 25.6410743209 23.90854806 23.0550773879 23.1617828266 23.0424003455 21.8733304998 21.2204568995 20.6402386252 20.0941065672 19.7598661349 20.2940147185 20.7898687437 20.9078193706 20.5319094589 19.4131251095 19.4513462758 21.1568912631 23.3387832276 25.0237439538 26.6123270569 29.0810647043 30.2159324811 31.1972681836 33.3253605822 33.7215569953 33.6107829937 34.2319587152 36.1056191602 38.6337541758 41.1282241573 44.8313857598 46.9013423593 48.3923456028 50.1121022154 50.8217887649 52.2654946937 52.708756735 52.4014669897 52.1685632784 52.2783688234 52.0713512737 52.1985161496 52.4596951053 51.2362068297 50.6432349062 49.8903556516 47.1058490604 44.2479214717 42.5197030615 41.2933615166 40.7960020115 40.4680930024 38.325725351 35.9896399434 33.9645026303 32.9010843378 32.279745072 30.8413063346 29.9448654943 29.9509706603 30.0180079043 29.0682469479 29.1820661371 30.7267342776 32.2920903673 32.8579887981 33.3241340955 34.6603797868 34.2627911025 34.0635165303 35.1673759671 38.838805124 40.1414407686 40.9856822347 41.3734853079 44.2633345014 45.792748173 45.2312531132 46.1503560811 47.8944451317 51.0729271738 55.6203868647 55.6370214402 56.5504315425 61.471881313 63.5259952475 65.8052934485 74.4987754948 83.7126128976 89.1112791227 95.450773223 109.822305889 120.473806719 136.679917635 156.488410764 164.806322682 166.437676796 172.566010908 187.904439925 204.370879266 212.826339889 215.147646977 216.834864716 220.755505566 226.263410232 232.718014155 239.746961501 247.116516098 256.959811315 264.043210977 270.492806618 275.517175998 278.335446777
126.722797568 127.157664315 128.850764783 128.724817428 129.336410923 130.561241325 131.260030265 130.960227168 130.192233493 129.149965644 125.114117072 119.031680035 117.055390208 118.670078396 122.241661021 121.074465173 116.895492123 114.021206124 114.740165301 113.902330734 106.108243366 98.8906951965 96.7353069418 97.5962261428 95.5170151218 85.8805007883 79.0514749316 77.3078730712 75.6240061901 72.0626567186 68.6630593028 66.7131304698 65.3639008648 63.8631485729 61.7859363115 60.9352758983 61.0399075586 62.022839447 64.0430023214 65.3558507154 64.9360086607 65.7736510889 66.7661536784 67.238090834 68.0718323234 70.3052786257 72.4681463912 75.4342410263 79.0687877181 83.1705280323 82.7634678857 79.475139691 76.7971953418 76.463219949 75.3289203755 71.4336372879 69.0321818049 69.9133209921 68.0977679225 61.019647214 54.1046633001 49.7053645993 46.3653750441 41.5301849645 37.6914746883 36.7184976946 36.3736471052 37.5991077526 42.1947294712 45.6197645122 55.2004147907 63.8752886942 69.6102681264 80.0755939924 87.1220364965 94.7124523614 100.884319449 110.096777754 125.685213643 135.744587387 144.32656497 148.980265275 157.793918357 158.068488061 159.170022637 153.52034889 148.077806972 143.390290793 139.078920097 127.831981567 115.36266994 106.795436086 103.96352924 102.25763544 92.9537495907 87.7049412123 78.8290526864 65.8139606095 60.0188714247 55.0314358025 50.6956039424 48.5832314674 45.8727219611 38.9223597655 34.7655845767 30.3693570029 27.4728721209 24.6651495372 22.3587903617 21.7239849313 22.4484608958 21.9453012489 21.343928343 20.9921680441 20.7405828433 20.6867642277 20.5664917505 20.8186879764 21.1825635018 21.2961991714 20.9256097648 20.0270741543 20.2695914609 22.0776606637 24.4349498828 26.3266836381 27.8460166049 30.9489492906 32.2753837153 33.7252295522 34.9394299557 37.7806579808 39.1693453533 40.9079252591 42.8867051992 45.301255533 46.4179050868 48.5962144868 49.8509163233 51.9481281445 53.8774015228 55.6828098594 56.4757607015 56.4895690553 55.8876072751 54.6786050131 53.0216574612 51.9779009193 52.5466877841 53.2559227954 52.1312503518 51.0197914353 50.1226983262 47.7859592012 46.3088711048 43.1216228638 41.2952315087 40.784990142 39.8217856152 37.4601552581 34.9098038044 32.3139874141 31.9235422169 30.0391818013 29.6831701309 29.3396276585 29.1677419717 29.0080877255 28.8519189576 28.9024151548 29.769757606 30.1082493322 29.9536849767 30.661008898 31.2471540358 30.1409195856 27.5323648645 29.2312500788 33.2819014805 35.9449314772 36.7037322361 36.4204190293 35.6932616023 37.2129971793 39.7974581543 41.713047477 43.8632787945 46.6946810271 51.841268522 52.2994462647 54.5551711708 58.7582554279 62.869974307 69.1375999602 75.5584683263 80.8032724904 86.0042888273 93.5183246318 98.2235422762 106.350289211 116.689979609 136.03136303 145.696654989 154.273659499 163.192424752 180.311040605 196.159816966 206.816825121 214.314596345 217.80866346 222.053361325 227.168349609 233.224823461 240.175234867 247.887781404 258.361083932 266.926143128 275.399699167 282.28299485 285.668796375
133.309987182 131.59342893 129.4498014 128.059237302 129.232610138 131.775048681 132.714991258 131.31909017 129.669292024 130.125021668 130.79728555 130.758654844 126.970780176 127.511222502 130.888290575 126.056440797 115.730587665 107.558007736 112.519705799 119.093467351 117.973231977 110.62943708 107.396436537 104.0415476 96.809206272 82.4927785744 75.5123528084 76.9888713081 78.1670993879 74.3166640285 72.071179716 65.6391663615 63.5938678004 62.5281311038 61.6565757941 61.3508906501 60.7113728767 61.593369878 63.1762186841 64.5964904051 64.5673018399 65.8676318836 68.5161545399 69.068213598 69.5480269403 71.6878649162 73.7238517601 75.3149654486 77.5003718373 80.1980924587 80.3640587264 78.6888934629 77.5346644983 78.7484033533 77.9628025825 73.1461728756 69.831962106 69.1977853539 66.9335166323 60.0255128671 54.4669776911 50.255681357 44.8346914741 40.5193756221 37.2824918461 36.2027879743 35.7179359652 37.1251171727 41.5154673596 45.7866208276 55.2229446464 63.8955685585 69.8008585769 76.8861338689 89.6608890202 95.2249784468 98.6065794637 117.155068249 136.996278212 148.88875089 160.310852227 168.103062545 180.084132664 189.251378593 194.066584909 187.101750148 178.608919751 166.055118426 159.016488133 146.511251163 128.559822026 104.18420504 105.95303037 107.939979299 98.1038430275 91.9496674793 88.0339571956 76.1443841073 64.7721723975 55.8451983193 48.8548200216 44.6961271868 38.4732982375 33.8447051742 31.4870141519 29.1136981345 26.5863803268 24.720783638 22.7320534435 21.960540767 22.2200251651 21.5270586796 20.9073250476 20.5905481937 20.3998289326 20.9473436545 21.1417807655 21.4360850042 21.7967752615 21.7443036524 22.2001969197 21.9083602498 22.9041439486 24.5933834506 26.654265451 28.1844921373 29.5534575336 32.4474816751 34.0410263339 35.3237639356 37.5112896725 41.2983523869 43.7933542247 47.0256048221 49.9725726168 51.5824227848 51.3869879165 52.4612679939 53.2138556376 55.0570199801 57.331346481 59.5859304056 60.3573766852 60.6420963064 60.50759378 57.8883707893 54.4362883715 52.4297511669 53.3270732266 54.369421667 52.6087921486 50.8693316924 49.9254524243 49.426426681 48.4765340674 43.8448654184 41.627059876 40.3429801445 37.5426740483 35.5759239237 32.7642976972 31.5726172792 30.4491392162 29.7189815272 29.3401187408 29.1881980909 28.9952391471 28.3655205932 28.2092891255 28.6428285906 28.6120771018 28.6952805298 27.8914246163 27.5563064855 28.2000605228 28.2122926442 26.2937116979 27.6705117256 30.8972870933 32.7865412807 33.7826018621 32.4479604102 28.1111511619 30.5471378243 36.0551791338 38.3733198827 40.0801590344 40.5131860054 42.6421768763 45.2850705019 47.9753234562 51.1455108844 57.8842737973 68.3423395249 83.1138734078 82.5095634576 81.4957588274 87.8038709904 95.8815170495 97.0269173722 103.706370763 119.709420153 134.594365189 145.04925713 155.912222596 174.461143145 186.074958566 199.962845628 212.001339837 219.5128006 223.269267971 227.461433382 232.956173224 239.860740687 247.957417397 257.235447928 267.93302309 281.263644162 290.512899186 294.470693446
137.614753591 134.819453903 131.487770098 129.559905675 131.068737577 134.039445951 134.477397248 131.017390057 127.147370149 129.037625483 134.034063976 139.885196876 141.715543659 140.295697339 139.610975462 132.658338518 120.211256036 109.684169246 116.269706104 125.318094871 128.584816831 123.276524371 117.664891951 111.473786719 101.231477725 85.9363520298 76.0615303429 80.5099113357 79.5441690244 76.4945335974 73.185224423 64.9205778611 61.2877567705 61.1333226273 61.8691251209 61.6270649002 59.1085301131 58.6799197164 60.6697871198 61.842480618 63.5491556809 67.7114441483 72.1979176486 71.3330617013 71.0090424116 73.4050762721 76.7976593116 76.3935150659 75.5973425167 75.8845923247 77.6469047383 76.9704984641 77.4085923397 78.8144177527 78.0288092074 73.2451723702 69.3507614438 66.0031716974 61.9591650586 56.6279718071 53.0324683219 49.853355845 44.5201154937 40.418480236 36.4906265565 35.6535427792 34.7164737009 35.6601445239 40.2815390523 45.4171828847 50.0064589728 62.674704203 66.884376864 76.3862846663 87.768288455 96.3657539222 102.590107031 128.837875366 153.686496543 166.129532273 173.407546376 186.233529691 198.252149679 210.513980018 221.549542847 210.064697129 194.438167992 184.10709507 175.704512059 166.924201725 154.558424263 131.690580631 120.876805166 114.183387302 100.293718509 92.5541950656 90.5741562242 83.610404325 72.0024656431 59.1779738785 50.0260194268 40.4487635681 33.2164165617 28.9489905879 29.5302545936 27.3686043663 26.1977671424 25.4980005739 23.8153333725 22.9113905751 21.6087175926 20.9893246877 20.4788063727 20.2828861111 20.3300602884 21.0376364293 21.4846106168 21.9502876809 22.1701655646 22.6329635909 23.6103388594 24.4239758027 26.3124308028 27.892365135 29.5377502248 30.5369526371 31.747779697 34.3002743704 35.3541924109 36.9815910164 39.436697884 42.1950342238 47.3768636454 52.0147740342 55.7700044665 56.5935215869 55.1907543639 55.3124752918 56.1155446643 58.2226643583 60.5309135462 62.035547869 64.4442124737 66.2907414434 65.7773554482 63.4847347562 59.4221781138 56.567979869 56.1821544406 56.0761526633 53.8256006375 51.50225581 49.8968722416 49.7320680797 48.9649201974 44.3437261876 41.0003851706 38.8715457342 34.7313433007 32.8331841205 31.676683282 31.2045249524 30.6283395243 29.0571276435 28.7692778401 29.5539427032 29.2675534293 28.0572323655 27.4334622259 27.3518787304 27.6312090276 27.0692128038 26.3362749726 26.1120371335 27.0579512912 28.2065623445 28.5079981245 29.6662347506 29.9456750649 29.3855172934 30.8232169261 32.1188102318 29.1986192086 31.2914728667 34.5067974639 35.7100086492 36.6562954313 33.555590344 34.1014813484 40.4918015663 43.5916438816 46.4012089543 50.7978518242 62.4307383756 77.203240113 76.6157575224 78.277984228 85.253169884 94.684097802 95.8665880405 99.2940030693 112.685627115 123.311078156 134.701263798 147.215323779 168.306063746 183.652374726 207.694753485 217.779802466 226.283761969 227.825515241 230.176735861 234.950104173 241.828769552 249.984485363 259.228936352 270.304066386 283.438912562 295.346866114 300.052798503
143.390538038 140.528759406 137.2920839 135.554863141 136.489521845 138.405076987 138.178603897 134.299705379 130.084721344 133.776293457 142.433271773 148.480692574 152.413935783 154.06831333 152.291696276 147.406066455 139.673486358 133.453803868 137.289088513 140.431812744 142.860830102 135.799847876 129.090366899 120.811648961 110.727451949 99.8256599702 89.6473441161 85.1479786609 82.8051874722 79.1413739358 71.0998422766 62.4734532759 58.8037051538 58.494315206 59.013472841 58.9906459461 56.92789209 56.0110134393 56.8216741872 58.7636320306 62.2540404066 68.7341575216 76.5942703196 73.0986496946 69.614398864 73.3719612399 79.486700912 77.0042544288 73.3800106926 72.7140506206 75.1818707727 74.9859843637 76.0559313461 76.918478256 76.2965901375 72.6210085684 68.1754637102 62.3857272999 57.5176999556 52.9082093756 51.4065500871 47.6470877746 42.6819981102 39.8004678981 36.3871749537 35.4678891033 34.6082442299 35.898059307 40.6396324337 45.2647280246 50.8762763344 59.0105162579 60.6791858711 64.4398258581 84.5175410094 100.967040648 122.114616457 149.26334578 174.231820957 177.142826401 184.236177563 196.169456868 200.761927548 212.768366652 222.273918976 213.917185886 202.99339328 198.424729232 192.155173116 188.795001197 191.568586634 166.943763521 141.126026151 122.614984242 109.85650058 96.5921094193 93.5543820483 81.6125860303 71.3348737994 58.7490361521 50.6053025818 38.715976503 32.3491864627 28.6715770244 28.5587556365 26.4682092775 25.9199743151 25.6763768712 24.0317497708 21.8833229455 21.3328027706 20.7673018714 20.4479623432 20.275712469 20.2133261462 20.822170658 21.5217363082 22.1253803087 22.2917512898 24.1409619723 25.1632437165 26.6769910644 29.3569271693 31.4092981954 32.8084969209 33.4087169801 33.6221803405 34.088742698 36.6379936706 38.1728697844 40.2912201895 43.2446091371 49.0664608969 54.5690565517 59.0411932148 59.3166631774 57.1289362804 57.2371484384 58.8138608178 61.5387638849 63.9496686194 66.2906249889 68.7412039952 71.7000156929 72.9292570312 70.9883244354 66.2727356831 62.3082168009 60.0501601295 58.4152351395 55.2146923903 52.4526341084 50.494997038 49.9299179426 48.4589609982 44.5358318511 40.9217747601 37.6571635885 32.8895836021 31.5324077212 30.8071585166 30.9012939013 30.2655119749 28.2426060271 28.0248754262 28.9886370363 28.318874049 26.5311483104 25.6137636195 25.3918463828 25.4277221652 25.5104583438 26.3573267696 26.3040902075 27.0992872764 28.8512529604 29.584893206 30.5340638419 29.2224449213 25.8570394662 29.2027362673 34.186928019 35.3244630198 35.1177730843 31.8334217661 31.669113292 35.9024996919 32.3833247643 33.0287278236 37.9530494287 40.655726924 42.2306893245 44.0936891168 48.2147133797 56.754308235 62.1451935763 68.0367318656 75.6932852967 85.2625451232 89.6597714985 91.7260519802 108.11599653 118.781941558 130.527291671 143.890336531 167.131829221 187.396389652 213.576749536 232.077124013 234.603986399 233.618572159 233.227939717 237.528317585 244.863555425 253.005641782 261.083456416 270.297033088 281.994107709 293.389281029 298.151382049
150.701174071 148.377345385 145.492518087 143.717271771 143.786671312 144.762529649 144.951344757 145.760861996 144.565402281 148.176420716 154.761471164 159.788158401 163.824296678 166.270032874 168.89672294 166.742944584 167.085279109 167.112326864 167.096852066 162.166466482 159.011644597 152.446912789 140.894914446 132.016532878 121.675716903 109.088412467 103.387249797 93.6315421257 85.4531137508 79.2296519869 70.6388065809 60.2262469881 54.1785565953 54.548596055 51.7829762496 53.3868097185 52.0697787703 52.5638442373 51.2847883886 55.09918393 57.6535966207 63.2991381341 69.0889927243 67.6270188794 66.2583975534 69.0273087481 72.9478801048 71.9684847562 70.3864984115 70.18483301 70.9692949862 73.6697440647 75.6416015631 77.3812107565 76.2214672393 72.9129045018 68.0513741166 62.1142436267 55.596828532 50.4714259009 50.4487087865 46.1783340598 41.1855432778 39.3867207255 37.4994630603 34.9345915652 34.5458350065 35.4435407343 40.3551155167 44.9751927354 46.9914607294 56.3832282062 57.8657109948 58.0388830137 83.2989261796 109.236421636 129.869677037 156.339810979 177.345155849 177.808207911 190.423097742 205.414296383 203.048745856 206.137684383 210.911755003 209.376153885 211.392064446 217.676361899 203.551990509 197.246694123 204.32918402 177.614552978 150.079384357 129.041429912 110.74559681 100.979778434 94.3232276304 82.8452790432 73.1389558062 57.9188200138 46.051747751 38.0818158797 32.2239435817 29.9590135582 27.5781902595 25.313833291 24.6461604075 23.5614826639 21.5514836593 20.5623047948 19.9505737535 19.9000909905 19.4789848118 19.6649147474 20.0207725537 20.2152870724 21.1579537101 21.9213807208 22.6208414927 24.8721702239 26.9752914233 28.9399562687 31.4400936741 34.6511347057 36.0901081335 35.886068957 35.2507640825 35.3462482851 37.5863865751 38.9087526867 40.6585275704 43.0795320471 48.2631651217 53.5482425916 57.8371617072 58.498524245 57.2225413353 58.827336965 62.1042381094 65.9579073764 67.3452273231 68.7458952392 72.0817967006 76.2845808833 80.2338034411 78.6186170746 72.3454118567 67.1164692817 63.6533698713 61.0782922217 57.3655612858 54.8015532856 52.1648284562 49.7930524519 48.4243069249 44.2178068524 40.2511834025 36.8048519602 32.1302437892 29.9517478511 28.5193585682 28.816174313 28.0242869643 26.683734034 26.4039875904 26.0890153527 25.742788395 24.7667680005 24.4103697179 24.4500160443 24.5247260821 24.9058172692 25.2509943052 26.0210127332 27.3316564551 29.4116688457 30.9467577025 32.7409382987 32.517720728 31.0195159471 34.1199645274 38.2306328886 41.8472975789 40.6713845846 35.4073836868 34.8028053497 39.642307861 37.9385372145 37.4113204642 37.0150443082 38.2363357195 38.2387054986 39.1540928828 37.7047225523 44.3097878452 51.2550946571 59.8860660797 68.5814453631 76.4479999592 84.3634696428 88.1934859367 101.388006858 117.29375322 128.856912772 142.078349186 164.588368839 188.459681633 221.851998785 244.132148339 244.582236779 237.570753175 235.443778406 240.596960291 249.647871038 258.32160381 264.437148259 269.608544442 276.789762264 284.976025531 289.246225853
158.285465347 156.479516432 153.611715015 151.655376393 151.363212349 152.31918186 156.788087515 158.927802158 162.620354643 167.763423723 171.453371102 173.066712034 177.181019066 178.300294807 182.717119503 185.780575166 194.761206891 201.102485911 196.5861355 184.446596339 175.279085497 167.398689608 154.917620312 145.196958445 131.255112868 115.154859173 108.906342464 98.077392355 85.8415549498 78.0587845434 68.6960733306 58.2695571605 51.276496094 47.7573797368 46.0160967344 46.0100516768 46.9834998846 48.3120486864 48.1771611931 49.1686971674 52.6117054397 53.7276786417 56.3421366136 57.4988917448 58.2850541133 60.3770926297 64.7945501291 66.3483378116 67.1107465753 66.9923681537 67.6069253266 71.5689438135 75.3600518833 80.6487485278 80.6783963643 74.3267998327 68.8872012623 65.8473277343 58.319226031 51.8587597515 48.7255199446 43.9211108465 40.1377004188 39.7559751039 35.6618273522 32.3040466248 33.2705893346 33.0482780914 39.348510975 44.0563886374 45.4339132414 53.2488847391 63.4693980074 74.5660442034 95.3089560627 112.467316853 132.816715604 148.396188266 165.01898342 173.80052455 191.036656485 202.716358255 201.284900809 204.487633909 206.366815928 205.093507591 211.915153102 221.550804877 205.226054698 188.623903422 180.663717997 163.973452424 150.123359025 133.10483539 114.91896619 99.1227715516 95.3240662724 82.0914916137 66.7913875008 56.1690647471 44.9283043241 35.265052673 30.2148411353 29.5550219851 26.9484857354 23.9428877574 21.5723758499 20.0965902221 19.7421723628 19.4734690585 19.081379841 18.579735068 18.9859634071 19.0804650408 19.4942002201 19.7927324589 21.3275177581 22.0664767103 23.3520048086 25.2556234945 27.8319673944 30.0717460243 33.4900949797 36.8375491272 38.7412002527 37.7125392855 36.3088089136 36.1121637899 38.3094591631 39.6323394193 40.8121790016 42.1745172358 46.2135754873 50.2260094847 53.5750032068 54.8082165886 57.2203944931 60.3331944746 65.52709997 70.4536057577 72.0402890165 70.9093653667 72.3067270189 78.0505636815 83.4391273295 81.6907047035 75.1315094051 70.11466971 66.6414474399 63.8256253761 59.6752605633 56.8052347298 53.6198994494 50.8397549888 49.1620020576 43.5379712046 39.7768848086 35.3130651168 30.8623254621 28.2549848045 26.312407993 26.0314587844 25.2405366906 24.1064837863 23.7735352452 23.6528510838 23.19241406 22.7844978705 22.8471030876 23.0877190519 23.7961742086 24.1423169849 24.183129962 25.168512933 26.7527429442 29.4496238986 31.4385222715 35.9707909555 38.0589425352 40.5250474295 42.0709629642 46.0748445815 47.6129799814 49.4010371029 50.1588145374 48.3804634038 46.1865271713 44.4051717409 39.9326715875 35.3757850455 36.2116619765 35.2597778947 37.7979910122 37.7410121657 41.2932037032 46.9030467657 51.3207565285 62.5598689589 74.5927436906 83.0826576437 86.4719426414 105.68928846 116.292093507 129.842889649 141.696538152 161.397553391 182.988991758 215.77572577 238.654757003 239.990543958 233.53499911 236.016783823 244.162510705 256.644657923 267.065768456 271.252037137 271.364801428 272.587314442 276.157072884 278.931563808
163.886378742 162.409898419 159.723191123 158.179704399 158.320281393 162.770505315 165.861962462 171.192404846 179.253120613 186.8121193 188.980349032 186.920720022 187.219463285 188.793042359 193.079980325 201.633362028 215.48202968 227.866091249 219.49616317 204.482097307 193.272854792 184.828059052 171.661774382 164.735003028 148.449188621 117.839559328 109.355207437 95.4695556882 80.3501033306 73.4139857413 61.1763377116 54.765283261 49.8094393979 44.186071725 44.1843208847 43.5661740406 42.0706779442 44.0473921648 45.390445669 46.2807280407 47.5090441131 48.964839583 49.7527738603 50.7508532768 53.2486360832 54.864756467 60.3417817581 65.7493969176 64.3136817997 64.5079646146 66.5778687172 68.4601263526 71.4302373838 79.7755332084 80.1573528947 72.3347237402 72.181596614 73.7384311128 62.9214703504 52.3990087833 46.3231505258 40.5661843014 37.7589806683 36.7321031649 31.9738846197 29.666172979 28.2629401925 30.0243807667 33.4742351652 38.8119395598 42.5292516938 53.0435451519 65.8495257502 90.9161816741 108.802400608 117.06211202 136.70828039 145.134346069 154.810273691 170.492851248 183.042092909 194.339003645 194.62095409 195.270325661 196.454441568 192.662312508 198.641073312 202.554642164 190.678731673 179.344766825 165.698313494 158.048813847 151.303721367 134.094374037 124.13428993 102.990777133 90.4847202644 70.6386273725 59.596350662 53.8582613032 42.7356863613 34.5941089541 29.1443342123 28.1888062123 24.6939244856 21.7239266086 20.3145353062 18.86882105 18.8894695169 18.5641775333 17.8024463731 17.9620908912 18.6018901722 18.9698690461 19.1082369745 19.6515561266 21.1243306807 22.8036136276 24.5373955529 25.7473864387 28.2306967958 30.6397639206 33.6180226581 37.0940525991 39.0366007683 37.8349485089 36.4126358843 36.4569855497 38.9462469086 40.6656064705 41.3895310217 41.4490117005 43.7676599174 46.3740564767 48.9801337764 51.0031881618 54.9089669598 60.4141048655 67.1957779435 74.0315040095 74.9219860474 71.3675244826 70.7512327331 75.4464349996 79.0859797815 77.9674239635 74.1736799942 71.5299546291 69.2721823611 65.535635112 62.4695365619 59.0063990015 54.4957595445 51.7620438531 50.1259692827 44.0291339195 39.0549317613 34.2936856979 29.3241120592 26.533475858 24.3330158924 23.3922832549 22.9522322968 22.0461881752 21.7149913469 21.8718172809 21.2543720682 21.1945541791 21.8870271256 22.5201882257 23.0387663224 23.5462286051 23.1345435113 23.890444133 26.7511152991 30.1350113288 32.3630711604 37.0167454435 42.3253257845 47.077194179 47.4663482776 50.2061739473 52.5723727433 54.8538166068 57.5157086184 55.8297544417 54.0041833992 51.0090022215 47.4987613297 40.9262189764 36.9234677625 35.8014664849 35.0853978722 37.3384890266 42.0696045033 43.9873341137 50.299452878 55.4775909757 67.607903165 81.0169643751 95.303401663 119.996466729 126.152926857 131.93132686 143.012161623 158.67451611 172.561947252 197.55183002 216.613944574 223.150142024 222.933208168 230.998667382 247.413645631 263.782858445 276.515282044 279.40226308 275.221990608 271.259067053 270.425413465 270.943740511
165.783199705 164.747311697 163.281718223 163.277630393 167.033408525 169.246397587 172.900490953 179.566290358 189.776115633 199.02437742 198.587195045 194.399532068 195.17842273 197.796063785 200.990706305 207.568977918 220.67464821 232.395295868 225.135477611 214.215958131 216.717982585 209.62381328 188.47897073 190.3192467 184.35287113 134.885430725 108.769608133 89.1520372987 69.3494644628 67.7083530673 58.33758499 53.1611395322 47.5281495758 43.3963529854 43.0933884011 41.6917551501 41.1270536974 41.3365802368 42.0575498151 43.4735439675 44.3428890869 47.2302966167 47.37964125 48.0885462201 48.7336128755 50.84377834 54.4009982036 60.9732750419 61.8221748517 65.309266684 64.6892167647 67.1188101433 69.7254934059 70.1453258025 69.124742119 66.8000106817 70.9136262228 75.545980714 61.1879168488 49.4057155065 40.7615857445 35.3420881364 31.2941596383 26.9449033542 25.6627473045 23.864925746 25.1353461983 25.3578217885 29.1154550114 31.1989372183 37.5456639112 51.0608193435 64.141591563 94.2903810132 123.78753162 121.774858657 136.903033455 145.356972686 155.728397363 166.110857813 183.488332809 200.25979024 197.226360587 187.341349558 183.449172697 183.522166448 190.015001812 192.018185238 184.047170537 171.032898461 164.276611967 157.101557889 146.20271085 137.413581318 128.615328588 101.890212131 79.6111801286 59.6341340296 55.2024816049 49.8845429055 43.4847081776 38.4692268027 30.6112264075 26.2918248697 22.8945622687 21.3907149057 20.0570363761 18.6810342843 18.1782768439 17.3449563693 17.1809225384 17.145104417 17.9614693978 18.7933980794 19.1510042744 20.3625238723 22.3252545399 23.3507143448 25.0571515109 26.539686541 28.5477264146 30.220755811 32.2582531953 34.8322567653 36.1599096789 36.252249016 35.7341772393 36.3513071561 39.1794019131 41.6868020086 42.3223051006 41.2349623754 40.3781136744 43.0539648793 45.0327444021 47.3145064446 51.5964519835 57.056566245 64.2232456568 70.7635174525 71.8166307831 68.8617417895 67.5704406153 69.5359244048 72.7552505179 73.2634341856 73.4810433474 74.2849890671 72.0373957801 68.9871497568 66.7085996137 63.079450423 56.6438752656 51.9630417997 50.3283912323 42.0925799694 36.9024390534 32.6082501521 27.8730475953 25.6981161031 23.4759216804 23.1143964343 21.8154962033 20.5095441704 20.4751265025 20.6060801787 20.7005791913 20.8074864885 21.5468850509 21.8948764277 22.1614866896 23.1058578092 23.4221256207 24.9004478373 27.8747012886 29.9515056624 32.7643932859 36.990008557 41.8703604053 47.4334900503 48.4042153774 53.4025984011 55.4722259382 57.1902824144 57.9298839216 58.5383961409 58.1779747969 55.3235180425 54.2763708545 44.5324518961 38.8755217821 35.510677444 33.7320367744 34.5218080428 39.3518043804 41.3053915855 48.9066991204 51.6942864 61.4637713212 79.3511558708 104.811614455 137.634112003 132.118270999 131.385901034 151.07918089 160.487523457 164.840743261 176.838172604 196.372080568 206.729431654 213.864638972 223.816847476 247.978434401 265.774379514 279.068750671 281.636909841 276.241220846 270.104057576 266.667381575 265.279466298
165.238278314 165.136581473 165.879593068 170.083697777 172.67641541 174.645445158 177.417811815 183.096258146 192.614019699 199.297682191 199.184674059 197.6077031 201.958005178 206.935597907 207.706218417 208.654972982 214.255821208 220.772545264 219.456301296 227.355109961 251.344596554 249.170317657 201.191406438 192.603363814 187.88788162 133.653233483 105.127588751 85.5370492438 68.1531154128 63.5020330394 54.8782672288 54.2525642863 45.6288338749 39.6946301557 38.0032679392 37.6883315158 40.8111504622 42.3427969673 40.5536933729 43.1032306921 42.7580749029 42.5512451491 43.1552561773 47.9891530228 46.596397356 49.4934249602 49.048773337 51.5580803118 56.5240123706 68.6082756289 63.757867712 68.1451220132 71.2951065811 61.3150825318 57.3872872785 57.404251799 58.0006770009 57.9897345304 51.7463203808 42.8436447589 36.8413387951 32.3994226329 26.2513702198 20.4452359521 20.6042494462 19.0674697711 20.3755771932 21.3681334225 25.0347463777 27.2489205793 34.9966023241 45.8674504072 58.1666612026 74.0487213311 100.891249498 112.082430306 128.609934468 146.458667774 170.087924339 176.916521413 183.195528096 215.140195258 202.424731603 175.266804923 169.532100792 167.852275769 177.793588111 196.759080696 179.859088815 177.216315498 177.10630197 151.834825527 132.750283978 119.608253365 108.718310625 93.6275890675 76.2213364182 64.7293778694 56.3114015743 48.2613075618 43.1418956419 38.0640122484 29.381677269 23.470252242 20.8568790045 21.4483493885 18.9464664543 16.6625074288 16.0699290346 16.1493131959 17.2413869558 16.4812305027 16.7493265839 17.8354852192 19.4939481071 21.9097726893 24.3566737261 24.7962636073 25.5477715891 26.9467477507 28.349241623 29.5575196152 30.6111120207 32.0569912494 33.0775701734 34.31992911 34.5102634631 35.2189922461 37.7974466377 40.5450120205 41.2980239577 39.6680323157 37.7334896782 37.9153057614 40.9230144817 42.9941084256 48.266707842 52.0077174255 56.4020846129 60.5235476054 61.8316855916 62.8111359436 62.8110957665 64.5130741986 67.3713894157 70.6161922195 75.0297871095 80.236705856 78.23364265 72.6365508645 72.3738587576 71.6965020907 61.2454020186 52.2346342314 47.099744059 38.6741777535 34.700232128 32.1528431238 28.8076554135 27.4184442025 23.5174765154 21.5550806639 19.8834556314 19.2377541997 19.0160240223 19.3176189958 19.897185611 20.6627182161 21.235178843 21.5385308766 21.7300161277 23.1339712746 24.5071527439 26.8520461716 29.5728932758 30.2318140981 32.6373567792 34.0729412997 36.7045919766 44.3953150936 48.9482999718 54.5588142876 56.3306492497 58.7033899724 59.9624547222 60.710408289 58.9446332867 56.1158437596 50.3126955789 45.3782705694 40.6550312595 34.9036912868 31.3316593013 30.2623426185 32.4267222412 36.8250038607 43.4852738497 48.6135565194 58.4039966009 75.4319257209 94.3504304984 119.837899185 124.335647607 133.647472687 158.127183852 164.312387478 160.98635512 167.660126976 183.874108949 195.213698464 205.918940115 218.754574317 235.755066409 260.378757902 272.069060194 275.219113527 271.691772803 266.536360652 262.74544804 260.552974241
165.114014223 167.87400882 171.118431736 175.428905616 178.50737733 179.372811799 180.17047095 184.853301397 190.407351411 194.931538029 196.626599807 199.39235246 207.110709187 214.133583279 212.967375608 209.166234737 208.260225248 211.697979463 214.934325603 230.095747055 260.130460843 260.406144133 202.471256316 162.999098394 134.137081391 108.47057709 97.7781129113 86.7299856841 74.3848136806 60.2479608232 49.5453270084 46.2044621679 39.1256970021 34.5548962797 34.105682868 34.3986975332 36.3270496204 38.7100928759 37.3972897952 38.3761155018 37.4958378106 37.2517875411 37.4803607373 39.9039284384 41.1644772861 42.9532273296 41.2801330128 40.978241523 44.985616556 50.4942046926 51.4996631558 54.6229723119 53.417309459 50.8685525928 47.9820807572 46.6390394801 48.0272583798 48.3382344943 44.3026686639 39.4570879943 34.768619499 31.2402634018 25.021940289 20.1302753927 19.3430002844 16.7288511135 17.2174655155 17.3931030221 20.4189714345 27.2510592139 38.7964204087 45.04765225 51.7091112249 56.5308414439 72.7663654577 91.9912128471 112.726092835 140.620316739 195.533403088 196.550940409 170.491568637 182.137825397 171.52912078 155.21373122 151.218752431 151.95016912 155.863903392 163.264021009 162.918485215 169.485206042 169.342394443 136.606246398 118.275074327 97.3129676436 87.0046085257 83.3599550786 73.9235212288 67.6341266438 55.182148709 42.860867838 35.1792131298 28.7005436086 25.0173749516 20.3321045413 16.5714212043 15.6165883701 14.9811690719 13.9603157914 13.4228902503 13.6209906549 14.6653928702 14.7428161349 15.0581496839 16.7846942519 20.0168333741 23.2937342415 26.497426051 25.9792289189 25.8417561933 27.3503529932 29.1707474488 29.6977965884 29.7892378489 30.3313899178 30.88652693 31.1834570227 32.253725108 32.8721198035 33.8473405421 36.6374036292 36.8919656847 35.2071711486 33.3403458012 33.0802184488 34.5489296481 37.8030081419 40.0037343975 43.777512799 48.0233585992 49.6672852529 50.4660960193 54.0252850242 56.1451905922 58.3336490753 62.9487795114 67.2612351069 75.2718010292 85.6161154766 83.0313367639 73.6660317383 76.327755656 80.4068904905 65.9434483488 52.8044883655 43.803410009 36.5121938058 34.3179511064 32.062140966 28.4560111926 26.9437401362 21.7285119022 19.0491351633 18.3821584291 18.6562724223 18.7614105953 18.8747504081 19.3244972512 20.0359641611 21.2314197907 21.8718423089 22.1676393842 23.2849569313 25.199698347 27.3590105823 29.8439999394 30.3604819437 32.3063796247 33.428599844 35.4914483311 42.1865579129 49.8330941629 55.3669517945 64.8228495613 64.2426951715 62.1679138118 64.4376906863 65.0615267525 55.1519635068 50.9991648682 44.5487067081 40.1402042092 33.7371927141 30.7764443808 29.5204558508 29.9873640237 34.3033505363 41.9418780622 45.8174303274 61.4729361849 74.4318142735 81.1623835124 95.9720586796 112.905214014 128.42785295 148.458796126 157.526402609 157.447493399 159.752662567 172.88879221 187.518900042 198.990967041 212.089739492 227.298399274 246.890131768 260.562478525 264.450594033 263.516399463 260.597030131 257.814982695 255.807628237
168.160046992 170.779715544 175.088238271 180.150156199 183.261372257 183.308296395 182.772365916 184.570867471 188.303094227 191.917976135 195.142199665 199.873870318 207.22847862 213.013078871 211.996531298 208.03620965 205.794546782 204.548077258 206.956967873 216.767311131 226.896615425 218.647447296 179.887733394 137.92190794 104.162826266 95.0326429749 94.6102015607 94.2927101526 70.1020835028 55.8577941524 44.2440452623 33.8864813531 31.3894361276 29.9751972656 29.6184621879 28.7542990766 28.7023843771 30.8865710944 31.9471678274 33.5643970609 35.0164076089 34.7128679964 34.1135008965 33.9828870255 31.8703002361 32.1938735688 36.6191655066 35.9865560256 37.9677736767 38.3183712371 36.8782669253 38.0682137152 39.8467697086 41.667427941 40.2295406717 41.1630528377 39.4008489696 46.6184232081 40.2157865583 37.8282193661 33.0857690125 34.6259981584 26.5693146054 20.1494144848 16.6072721359 15.6377136862 15.8495996141 17.7881494997 19.8285105617 24.8276607163 33.2869093669 42.0556621212 48.9528756057 57.4061811968 69.9271203117 82.0843867975 92.172003148 111.237194189 137.516128788 145.190073321 131.687137647 130.699389923 139.878311855 163.403425212 140.984052237 148.959877621 152.509063412 132.325876849 128.537913721 123.363115016 111.175741789 105.385583985 97.1716482039 91.3843501428 86.5277209394 78.7737542872 75.0920169946 66.617952824 49.366102819 37.71522763 23.9271261768 19.652892172 18.8881016302 15.5222920605 13.0176754006 9.79803052657 10.72153524 10.599799934 10.6563518443 10.305474411 10.3441605196 12.0537233345 13.8429693615 16.1373772856 19.0174403823 21.8703785696 25.0352743163 25.2070035623 25.6428241634 27.1854149515 29.1947043597 29.7082905301 29.4966380885 29.1647413222 29.1613396677 29.1659348004 28.8293849556 29.7328933703 29.5223080213 30.2970046327 29.5051192542 29.4161213876 28.3865465836 28.8678789429 29.6408962393 31.1848452352 35.2457139364 38.3512954307 39.2023026573 40.2483260253 41.3731492392 43.959503693 49.2682700464 52.5419718601 56.2466817669 60.9474460463 67.5120077004 75.510902596 74.4228477181 68.7671087925 69.7010075002 69.8916772199 59.5349265341 49.5010623137 42.3983515033 36.7489678078 33.5231184125 29.1887027691 24.6173649274 20.4995414966 18.0881562993 16.0624286514 16.1302166352 17.1443482688 17.8813533124 18.9880263179 19.5458981734 20.7605459541 21.3242686799 22.0035542655 22.5911771905 23.4911453596 25.2742637471 26.8691656341 28.0524140486 29.795496861 31.7631272156 34.6416835733 36.6709897981 39.7933597659 46.7616648916 51.8164164011 64.3357900134 63.8501797354 69.1193161411 61.6078884377 56.9363421506 60.1284541087 56.4061945165 44.8607151115 37.6534997625 32.7101534128 29.7447537191 28.626041101 28.4751258638 30.8554292819 36.8403913727 46.5287626033 63.3013295619 74.9450065902 76.0118521321 86.0077424552 103.874392552 118.273599413 132.298554689 144.686270686 150.96136847 154.557330365 167.647189514 177.196429636 188.179471133 204.837066107 217.710635934 230.067412709 241.66847995 250.721237489 254.405730483 253.535557 252.11479634 250.796479278
170.043192488 173.070097408 177.3229521 181.870102065 184.534097372 184.152412699 183.331751709 184.374581266 187.031192836 190.279095831 193.903041486 198.453213168 203.768511253 207.29727945 206.78522411 203.71048638 201.694068157 196.411912008 197.048715592 199.222125187 195.064333726 181.471327979 156.726699916 125.913912193 103.371756423 94.7940013501 85.4053861667 70.5830803957 63.5100342124 54.3851056751 44.9294149162 32.5089029235 28.1713920347 24.9051421989 25.5300376506 26.5892468432 25.6667573849 28.4470268182 29.1066865611 30.2700901829 30.7373932648 31.4498023234 29.7202620826 27.3785570238 25.8768635367 25.9587169463 27.9739698087 29.048396124 31.5839905418 28.7218277543 28.5245700183 29.2511622048 32.2752427864 37.9742275746 33.8220921055 41.624804708 33.6426817774 30.5828331415 31.111129761 36.1265879823 29.1218065226 25.2003973818 21.0657061828 17.6374137187 14.2001214329 13.5854178712 14.7564148192 17.3860000489 20.4421555997 22.2661520455 24.0188022229 31.5653022985 42.7235040954 57.4924306161 72.5199441142 77.1972182673 79.9542505357 82.2104223082 80.7883328538 89.3337535352 83.9005729399 86.0476276727 94.1247978272 113.2539333 108.909025124 108.251419662 103.279466176 88.710432544 88.9055747913 92.9500887852 93.9624036909 94.0042898424 91.9395683779 91.1131851151 79.6682930953 67.3010315804 56.8890510134 45.6177766835 40.540140258 30.7054995266 20.9087610391 16.5883898745 15.5798534633 12.6296187716 12.1138303296 9.89197448044 9.69483557034 8.73143623088 9.27517257112 9.00355038319 8.91608063732 11.2680451663 13.2012473449 15.4777415151 17.3790773309 19.6677966479 21.3704754798 23.0483959062 24.923098797 26.711497718 28.2181516594 28.7270922086 29.1791882485 28.2770283483 27.9699637066 27.3539977439 26.2753104143 25.6559668915 24.5635885672 25.3722304521 24.5146520671 22.247530266 22.9649586751 24.2398341403 26.1896675287 27.5639685767 29.3305837056 31.1719666078 34.8203987912 35.0287015689 35.6014578418 39.422867906 43.4444569804 48.2540011845 50.7097742489 53.8413640645 55.421804943 58.7777826549 61.3454939676 59.0374425523 57.381873083 55.4074819743 50.2425352241 46.197755586 39.6771542015 37.0849231743 34.3530022259 26.8288609783 20.4822425717 16.0891746344 14.4714252676 14.4411692821 13.9339842838 14.990865708 17.0847010377 19.3010921686 20.1956997301 20.7612779159 21.4991009775 22.4197975902 22.7220597034 23.3556854799 24.639041575 26.1760413386 26.898918589 29.6272070143 31.5114523824 33.8636022284 34.9916728661 37.8784915947 42.774856474 45.7937233933 47.1652605495 50.5226451073 45.1872647777 40.9071566638 36.2456375785 33.8347967545 39.6035439988 41.266476218 37.7842365072 32.8601745707 31.7528441502 27.850919104 30.0197947793 31.0795103529 36.109947394 42.4955130631 57.6018041467 68.4685206454 72.9068849613 79.415024692 95.1609901043 106.748056654 119.289805805 133.875685403 139.034174178 148.715331677 163.285704033 172.040081027 181.974365331 192.821326555 204.044946643 218.665698987 229.257858956 234.377735011 242.170548519 242.733448306 244.772010463 245.652782326
171.308803766 174.149586546 177.617057011 181.623146933 183.283361918 183.377951322 183.231774272 184.208873058 186.312695341 189.154058545 192.465480781 196.196524759 199.94363361 201.955812794 200.313255521 198.761128 196.97049606 189.35384062 187.272237021 184.747247947 171.679255452 159.740478882 142.279875704 119.077784989 100.655422784 89.2475170977 76.4903327807 65.5936158333 61.8171920094 58.1852862767 48.0674304038 31.9579912414 26.5749045409 27.1895546096 25.4965510844 27.4504753338 27.6787212861 27.9730221604 28.8330947835 28.4902473996 29.6629955371 25.799011944 23.4978419827 22.4843382868 22.7845076821 22.4541059901 21.457393871 21.5001846324 22.8950159862 25.6877798745 24.9272621722 23.955138854 24.8746502265 22.5929172066 22.4375726299 25.174881159 21.7184518162 20.6371027285 22.5914838357 22.6432300756 21.3384163656 18.9137407364 16.7491668565 13.7775952473 11.9606680376 9.9646894835 12.4365554986 14.5350817277 16.7764569832 20.9650156097 25.0208889145 32.4181972068 40.0061039603 52.8046749066 73.8927061698 67.4035530976 79.1293081296 68.5014030621 68.1008776296 56.5546442478 50.8608057427 48.4728926446 37.6299570021 44.0874871001 61.112293194 64.4241033662 56.7730468774 52.2215116122 60.2023183011 61.0543668397 72.28655293 75.6430050111 80.3695885689 79.9859819009 66.1166616285 56.8172456555 41.9248110151 33.6083218212 33.686406664 26.7476799647 23.4236314497 18.394213701 13.9980487886 11.9953343016 11.0869463204 9.44837323581 8.88424855499 8.31570014967 8.49187205521 9.46674466661 10.2040853137 11.0612138421 12.3286970479 14.937181875 16.4412948937 17.1255297455 18.9119451875 22.3776417195 24.7531886437 26.4072433327 27.549594585 27.9158506578 27.8341660694 27.5531523727 27.0187705176 26.0203780709 24.6466557731 23.6575648522 22.2487567699 21.5126711107 20.0153894621 19.3134656588 19.6327262052 21.7732408834 22.7238840829 22.911928333 24.1259872863 26.7822277498 31.3865676792 34.0142327058 34.7775174203 37.7819307232 41.3178640441 43.337703626 46.7756199042 49.3654914147 50.4823407948 50.1956406238 49.9653486164 49.2670521842 49.0938341471 48.1840969027 46.4220754122 45.1315958286 39.2641064951 38.1479918072 33.4762346818 24.379356134 17.6746440569 14.9908625652 13.9823230131 13.2547228567 13.4589845525 13.7444442596 16.0485382222 18.059801072 19.9803309497 20.9660884595 21.6986403656 21.5645484066 21.9934171146 23.6483288212 23.9612013056 26.154971142 27.3580552545 30.3507757928 32.1421111572 32.7422739359 34.5156938313 37.572567072 39.3686227188 43.9847357911 46.2993565292 40.448308149 39.857482422 29.4146224018 24.249562699 25.4529097435 31.1892246055 39.9073440258 43.6985366348 41.6169352195 38.5706555951 35.0657939059 32.6478306716 32.6153918521 36.0983434702 40.5859217113 51.0296884778 63.8958002918 69.50041713 75.4783583878 90.1807893081 99.203423875 107.511864897 123.633841263 132.161817573 137.740498922 149.818523084 167.479792494 176.379949221 185.801990196 195.268821039 204.048820025 218.927646378 223.974599247 227.050181816 233.903529135 235.901717885 238.830359499
171.976832809 174.367553547 178.373478351 180.448968384 181.787397922 182.382655304 182.927807437 183.975628754 185.797415208 188.21288226 190.999911647 193.955460675 196.748010431 195.001535664 194.998486834 193.812646569 189.581953943 182.477560348 178.785641772 171.479075175 157.341926396 146.550609264 133.104793942 113.38910606 95.3646808907 85.4594041873 68.6566213052 60.8439479457 57.7181439842 50.8389026118 32.0227449246 21.0857722802 22.6938994025 35.3869774698 38.5117116216 31.2305860757 27.0459283551 25.9047529048 26.1960362034 25.6383542197 24.4021586005 20.9131902856 20.4074372826 16.9533538866 16.8891902249 16.561848752 13.6648808385 16.6833294847 15.7406214151 17.9177262436 18.5102432576 18.4428227258 15.9705333091 14.5280357598 13.2250026619 9.95157047791 11.9579876312 14.184571201 15.4935312186 19.1982720612 19.5163820335 18.8879187662 15.6871251926 11.8795283828 11.6601260683 11.3032575297 10.9663373507 12.928459856 13.0023680355 17.7019321907 23.8786410529 34.3817937417 38.7902526955 42.4749841149 48.5617125111 55.831614701 61.7949232875 49.6673870186 39.8456606505 19.3152281958 20.8062963245 21.8030592193 24.0224608349 29.3195554901 35.9212161237 37.5605406943 40.5842523733 41.7088850447 46.3071200961 47.3675180133 51.4635814744 59.3829898958 56.2011748902 53.9601104212 52.5323970247 46.6206774307 42.1483977185 36.5037592 29.106881133 26.094372523 22.6499206019 16.4229145661 12.6276061194 10.1090755166 9.41204048182 8.45155335317 7.6327469612 7.31923715511 7.69417455607 9.32905533289 10.43449087 10.5712428171 12.6543127594 13.3501999443 16.1778788865 16.3901610824 19.1245589048 23.4502805811 25.3120805541 26.648478343 27.3327085477 28.108798859 27.8872263298 27.2147198019 26.8328006405 24.3188267929 22.9895987579 21.6844981864 20.6277759606 19.5546354026 18.8140333185 19.0535362829 18.9737294325 18.6814914711 20.529934705 20.9297599901 20.7447252774 22.6660850504 27.98668985 31.2557779519 34.561261324 35.913975208 39.5010335278 41.897570552 41.6167864534 45.0684820257 49.0981182619 47.6723878596 44.6754687745 42.8826119456 42.4510463554 42.4688530059 43.0718569277 41.9856880439 37.2906833317 33.1189353393 27.127264387 20.5723778217 15.7607253423 11.6698859255 11.7146356239 11.4213562706 12.1603758301 12.9241207403 14.7086482524 15.6472739471 19.638911087 20.8062368461 21.0566860293 20.4924818182 20.3544418262 22.0800513219 22.8762568915 25.5916050871 29.9528160697 32.2923765363 31.7599610389 32.0208851347 33.2136177314 34.9084716656 37.7606220148 41.4320398339 49.2271748271 66.1722749002 52.6309125723 37.6728833016 28.2145953197 23.4556283192 28.1803930618 35.7289953355 43.5213200904 43.490311366 41.4889990418 38.4904403375 35.6283571444 34.8506059878 37.6562294016 39.4872932178 48.1255388628 59.039316432 66.4700975291 72.1517562238 77.868727655 93.7017328141 100.464913812 117.394284197 123.878452577 132.612160426 138.617553104 160.625599493 171.37776669 179.615323945 187.734865537 195.24853849 201.648741174 215.270288554 218.693385908 226.841106723 228.233379478 229.018206013
174.453730726 176.187191932 177.967726275 179.561906221 180.783104336 181.700047999 182.557185369 183.700531292 185.327169846 187.363418724 189.651984291 192.003977826 193.121301455 192.472101564 190.452431762 187.54778985 184.253029334 176.211117977 169.160187703 162.978980481 147.565157642 137.985655339 126.967556321 100.530151658 91.6482426997 80.9367770683 65.5361154026 56.9305970352 52.4453313538 44.6606070254 33.9118589757 29.2659516923 35.3660611115 40.4405554023 34.2963687888 25.6606765153 23.7342370277 23.9121520454 24.2242671362 25.0546417239 22.986242709 21.478192194 19.3545642929 18.247751758 15.9190825247 13.6837725927 15.2123009827 14.835938909 15.3533973204 12.7958331852 11.6508050958 11.3782304269 9.30862500705 9.81948605876 8.533572049 9.7568523123 8.86266187957 9.75239167292 11.4258968472 13.2773321196 14.7394960005 14.9415306655 13.5480986338 11.9186727915 11.3338346838 11.6251415675 12.6367612863 13.6665276189 15.7999535254 16.9730494064 18.0909477376 21.9435344609 29.333350392 32.5086917706 32.9256386706 33.4511293469 23.4451139161 24.2459718654 20.8832444915 20.5445340176 21.4689710651 19.0296687209 28.0359174388 26.1953340194 20.3782959556 19.8167427509 21.5119907457 29.1762153234 31.0780723837 35.5173329229 35.7156006934 40.4303958318 43.9283977963 48.952320865 47.019582192 45.0336253435 42.460795416 32.0514366542 26.524310515 19.3140759005 17.1033125689 14.8556544486 10.6624273216 7.06488683763 7.37357137378 7.14381379841 6.81309038845 5.80259118472 6.84357017891 8.27487458877 9.77500242667 11.9562768272 14.0914504143 14.2507322086 17.7395959183 20.275044677 24.078952851 26.628752046 26.8177063773 27.4343548705 27.8490250677 28.2288588746 28.6711483698 27.5953539828 24.536465024 22.8379107633 21.8494740084 20.0275679438 19.0819085557 18.1478966616 18.008102437 18.4938648538 18.8293037044 17.6964417624 19.2699311591 19.3527340687 19.9552049134 20.6135821039 24.4310237374 27.7592210822 30.3779846335 34.078609768 38.2617930869 43.0038254901 40.9407530793 39.478164449 41.1116408376 41.250159215 39.0882878863 39.8218241431 39.2483748223 39.76661193 39.1636450844 36.3675317264 31.0348436709 28.2106962966 21.8883779782 16.1604415931 16.2444058882 12.0856433628 10.4284318277 9.41129648091 8.74652317824 11.5380656541 14.8658447894 18.3516486732 21.0612368524 21.1122289715 20.7391664363 19.1836131163 18.2957221679 17.1111572517 19.247046472 23.608102469 27.4024341646 30.5902243229 31.5671930408 31.6178619999 31.666509237 30.6118806609 27.7153041654 34.8562370879 40.1563336968 58.2125313406 57.7930880848 51.1574514067 29.6466191305 24.6817097576 27.4224720729 34.4136504807 40.8347678984 43.9552985067 42.9459815957 41.5705549233 38.7923093404 35.7287304312 38.0779180827 39.6367083549 40.7445655919 49.7179947246 62.0050309923 69.1029130297 73.969999604 89.6367310737 95.3126608772 112.791849413 119.080042662 125.092390295 131.08541189 156.483018277 163.946803239 174.2354827 181.323310726 187.89103317 193.61484513 198.260778566 209.078085961 214.076491741 222.429470582 223.692932145
174.805369549 176.247930598 177.698960266 179.046079679 180.228936424 181.314995841 182.21928475 183.386946298 184.8498094 186.573937358 188.454756104 190.352476116 188.770299851 189.069590635 184.6514537 182.281622649 179.471340325 173.279385091 162.874366396 147.947774053 140.603571696 132.12471435 113.773970799 93.514215335 86.1232325879 78.9469404286 63.0566394698 53.6166644388 48.4907746845 41.3074354804 36.9227022647 33.2016809648 33.5957253718 33.3288105732 30.037256424 26.7819371029 23.9624055003 24.1618642777 24.7905652202 25.1881173975 23.0540920581 22.1349517256 20.207523182 18.7217290864 16.472818561 15.421458074 15.7280929998 14.995532019 14.4696360486 13.04392882 12.2685054892 10.0209662716 10.2174774639 9.20169290016 9.39942294659 8.31187530238 9.64137856779 10.4044026279 11.7910017957 11.9631455795 13.230223719 14.457565738 13.6074433852 10.8212930464 8.34019971694 10.5163841384 14.4690224015 15.2738047255 15.4704768391 15.1563705182 14.7621655061 16.0168880376 19.4840578745 17.2703025819 24.14864554 23.2169867067 19.513979306 18.555350686 12.0820727109 19.2090508815 29.2157800024 39.8595553246 40.3786097743 38.6540795858 27.7363089473 21.1478897735 17.5089784372 17.6663031928 19.5382013628 24.1913886504 27.4352695656 31.4406459837 34.7745558803 36.5805334823 37.2757531192 36.3100642379 31.4671715087 26.2355815123 21.9146839815 15.7529989724 14.1353798014 12.5389143865 10.8593151208 8.52781589159 7.38000987107 5.94776260133 6.15630394388 6.81172959435 7.77221274841 7.10461237992 9.54686396161 13.9264334571 17.0608910686 20.0911916263 21.1026095699 23.3464344305 27.1745512465 28.6280182813 28.0630170625 28.7463582138 28.9085068632 28.2323950752 28.5754743075 27.0788859308 23.53490466 21.6205060364 21.094297623 20.2643660475 19.0776614576 18.6640148568 18.115262474 17.443633061 17.7956114825 17.2714723379 17.5439247062 18.3150395629 19.2736655073 19.582861323 22.7821153919 26.4671238791 28.0731788071 32.1202064408 33.3863081696 37.1172074448 36.1159216823 35.4687748177 33.2309920859 33.9766074388 37.9469125918 39.004653257 33.6250191229 37.9015038586 36.1673797908 31.1167342212 28.634871674 27.5149408135 23.5555340385 21.0526740798 19.0731845333 14.5885456493 7.76860923936 7.45857951713 6.18801559876 10.03820301 14.7418170566 20.7901300448 21.8605392629 22.8025638732 19.0461595737 16.8391877743 17.7400356598 15.8887131716 17.4471840622 20.6970120362 22.4537224817 29.9040820117 32.3582755397 29.6507286725 31.2211842131 30.9559752033 29.6970117351 33.2530268239 35.0552802293 45.7859610701 47.0341952605 40.8790957136 30.8322919479 25.8454255878 27.6659164401 32.1433218513 39.4769381716 43.7414373619 43.4379216006 42.9354542056 40.3086066748 38.6994233089 38.3287863267 39.331459627 40.5772069806 48.214275543 60.1167674144 64.4039700307 71.5495225806 74.8830037208 91.1924091505 108.618308136 115.262925077 121.017069861 126.715869905 144.425692592 159.628134737 166.379583707 172.88912861 181.706770706 186.884275605 191.243092843 202.499308467 205.370605811 207.50791589 218.802635244
175.08131904 176.327145037 177.582443519 178.797147548 179.958232755 180.920012171 181.91178002 183.044964029 184.358442159 185.83056948 187.391591587 185.818866439 186.181094928 186.144914847 180.856543412 178.203581303 172.727021863 168.496760763 155.282998523 142.231289883 135.48956548 123.490357125 105.816941709 89.9782102212 83.7293983076 75.5607234886 60.2824357085 50.1399634226 47.0270167441 40.8391332806 35.4170617617 34.2139479231 32.5756264378 32.1191078679 28.9228943685 27.3103213911 25.8627645852 25.5025446446 24.7301551648 24.3181068253 22.9106978903 21.6596966592 20.076698688 18.6467802391 16.9935628911 15.8532706328 15.2677431919 15.0690088594 14.6533126926 13.612986785 12.7593896018 11.7924126955 10.6683296751 9.97313966643 9.99814006494 9.73632739433 10.2441404719 10.6139653715 11.5436663544 12.3789135086 13.2726806204 13.5896270528 12.9490108329 10.6658305269 9.75360947341 10.5566557894 12.8910309817 16.6597308276 16.3413804869 13.1034565143 13.4897392564 15.3505078668 16.2517494639 19.9457503514 21.3849096754 21.5328265726 18.387383633 16.0069623055 14.7987401602 19.0605539409 34.3471910086 42.0672602783 44.2324712922 47.4713177797 37.8069658195 25.1523741308 5.35919917907 11.2019657401 12.5449001958 12.8463749896 21.7785093147 27.4646188145 31.0116166284 28.9241423097 27.1714605804 25.4661327312 21.3530543039 22.238570707 21.1604613006 19.7300716115 17.0596943182 12.8535040366 11.2782845878 10.3185853618 8.91766939171 6.76572117677 6.81779547644 8.74769590923 10.3547935144 12.0073706735 14.6616279659 16.5362870446 19.1375955997 23.2207776896 23.0120443974 25.1974174544 26.117726498 27.5478502621 28.7961323337 30.683602135 29.6049992987 28.2350525434 27.0313954961 25.0148222576 22.1344944609 21.3990577028 20.9485226144 20.1758763586 18.7864841805 18.624038935 17.9359461044 17.2326452134 17.6126378245 16.6517291478 17.2794054096 16.615516444 16.2011577653 17.1757534768 21.1537647778 24.759160774 26.2667224638 29.071300229 30.3885217174 28.6595153988 30.826296792 32.5592626553 28.3601158758 25.5972257724 26.8926795244 28.0927965897 26.5875504369 27.2673720351 25.7876432094 24.9611245585 26.4077286665 27.5686983265 26.1357718834 24.8723365929 21.4695539426 18.1233577119 14.5570728125 13.0136374111 10.795586164 8.6782728166 12.6948144 16.2868169667 19.7833573248 18.3883851548 16.0580870091 16.8797766606 18.1562613418 17.9264972443 17.1221169574 18.9251602877 28.7228295803 36.0719572355 40.047014479 34.1150283903 31.5321351609 31.7498091531 33.8105991807 36.0037639742 38.7336587637 41.2226242161 41.9121662485 37.841878106 33.9074187421 29.5327999458 27.8489652156 31.9642944565 36.1292006252 43.0258550237 43.7016884737 43.0088633123 42.9503973895 39.2065581621 37.6190736696 39.1722014023 40.0394395273 40.9092017293 58.0365051617 62.3953665949 69.1489505883 72.5110979678 88.6559288297 106.342004192 111.44552193 116.901111413 122.934105079 140.680769823 147.01009129 161.970045018 167.837950131 173.302325546 178.213795265 185.280164664 196.812787413 199.772095371 202.10600836 203.894092961
175.329713099 176.443298019 177.576855103 178.709999758 179.726353647 180.646251746 181.618932844 182.684792589 183.860198887 185.127256055 184.504143865 183.843123539 183.902130349 178.908823804 177.556947647 174.692267375 168.669792924 159.762179718 150.69993616 137.759892999 126.936152559 119.937281727 92.4893809858 87.3181055231 81.9745975681 74.3779608617 50.93111097 48.7694222454 46.298579778 40.6476054357 35.5375091859 34.482843171 32.1149846955 31.3114872472 28.2829581674 27.29051314 26.5426506941 26.2366649796 25.577886603 23.8016129765 22.6762564397 21.5493481065 20.0577710418 18.9374317929 17.3826436843 16.1710005087 15.3784469913 15.175804864 13.7461246834 13.8275172875 12.9303491178 12.3625716431 11.002124569 10.3504772757 9.5250286615 9.98345357843 9.70193171427 10.9602020156 11.67640359 12.3806383867 13.1517403383 13.1267942364 12.7628888412 11.8384315753 11.1338835822 11.7791422665 13.2418086357 14.7139837025 14.6798761915 14.3424596497 15.2224474363 16.4363655263 17.2404730897 18.6067194538 18.4391610202 16.9457106031 7.4799361598 10.9650648315 13.4191403885 23.7758801791 41.0819786038 43.4264894627 44.8723493281 62.9715119792 40.6370796983 31.6667082589 23.2545879644 12.4347645666 12.1667000362 10.3436522576 17.8207941931 22.1595123476 26.4704269053 24.8687750196 22.4825879491 20.2539219728 21.1112874142 21.6846600139 21.119202129 23.1790450921 21.6940494168 17.6720525514 15.1434150204 12.8659630507 10.9401497465 8.68757850307 8.57218431252 10.5843136995 12.773004317 14.4359137578 16.3619880649 17.8132667306 18.7877109534 21.5977984939 23.6027730885 25.7077286457 26.0747288874 27.5562851135 29.2451965783 30.318151134 29.4498202358 27.5318614142 25.90537747 23.8997938514 21.6131944833 21.4573907876 21.0026251499 20.3459874895 20.3262226487 19.1426545018 16.3686902048 15.7093706519 17.3767679888 15.6884208341 16.2713642479 16.0798671638 12.1394871827 12.2776261185 18.2650879118 22.6801159551 24.8790787781 27.9221353055 28.7123583107 22.2918241712 25.2786288504 29.9755114354 25.8489610974 20.9048299187 13.8581421026 16.9345459958 18.5059818897 18.5616489574 21.2937988992 23.4832535187 27.3813634889 27.9345424209 27.7897919518 24.3271469918 21.3288929612 20.9926726884 18.4103790421 16.7903748602 17.1813076272 10.8560731486 7.26928449674 15.9988851279 26.0946342325 19.5426661865 14.6612071857 16.6573570828 18.0648214525 18.4435471619 19.8955137082 23.2217427592 29.9140252843 34.1811902432 36.5057004659 34.8134345988 32.3331912844 32.9549649792 35.3405775105 37.5268074441 39.887552865 39.5739081168 39.0735963627 36.3954923478 34.1856385358 30.1606792501 28.9929986877 31.9405039035 35.0760476815 41.1627402831 43.7543751493 43.0446616289 42.9966089958 41.4928562921 39.1058695181 40.4179097009 40.9536194164 40.3638570231 58.0566107861 60.1783092716 63.9766701352 70.179603089 86.1529560927 104.119038135 109.308621397 114.413053223 118.944516841 137.420151368 143.235592477 148.936033998 163.491448882 168.477533737 173.007302169 176.997561746 180.400149975 194.853264467 197.290439977 199.245136062
175.566817526 176.588083207 177.638768869 178.711827563 179.529496908 180.408629805 181.33118874 182.315054162 183.363983041 182.540663992 183.208206908 182.052016695 181.884518809 179.062874413 174.69470568 168.621087015 160.381813631 155.898364992 144.630761319 129.350372926 123.517587447 116.036113754 89.7791379889 85.328479342 78.3746573755 64.7875658475 49.7036968555 47.89621237 45.9164549306 36.5222421048 35.4819056451 34.5650910298 31.886027412 31.0524992458 27.7645249545 27.2348051308 26.8123098621 26.3474606585 25.4962585428 23.7054529645 22.513633684 21.4570132574 20.0874531288 18.7924201845 17.6129020156 16.3471577258 15.359650809 14.4699190992 13.7270733939 13.9782737847 13.1019107086 12.6641166624 11.2237973332 10.6071726602 9.10048366061 9.20970167288 9.91119582281 11.203046771 11.7493264953 12.2545650431 12.5214100127 12.8607497684 12.7158055096 12.2984896649 11.8667112087 12.3822946968 13.1039379656 13.9874874898 14.1233450048 14.5734878119 16.5290599889 16.3398591928 17.0315257382 17.1175279052 16.2817010203 14.7562148063 12.8099972429 12.4585145962 15.6183698431 30.105526167 38.9639312698 41.1392829617 42.4128952243 45.1362844454 31.2118169445 34.1949898997 41.9863716306 29.8706851868 22.2902941044 15.9036803 17.8376870971 21.4510315627 22.7918226964 21.6852508765 20.2937646502 17.9459253439 20.1897999748 22.6449965259 26.6079139356 27.6264791068 26.7654756345 20.2557368284 15.7692254555 14.2727499221 11.7781438701 9.01438755838 9.7769932925 11.4611732574 12.9647760044 12.4570101881 16.9542224406 19.1824842111 20.6450452526 22.1172214521 24.0174224231 26.5678881621 28.2976127845 28.3557552799 29.7589585716 30.1245504846 28.7391514212 27.0534630113 25.4041539709 24.3564114067 20.2796070529 20.492117427 19.8306326848 21.8707219417 21.0183313846 18.6483393284 15.8965348896 16.4501306723 15.870994008 17.2149085039 14.9030929904 14.8944943623 11.2397364865 9.83350943156 17.7027460027 19.2819613492 23.1904213535 25.4639101349 25.7288387283 28.0851281159 30.5761689912 30.731350595 21.1974869822 20.7132770122 14.8835081548 13.915740289 12.2805199666 11.4589873025 12.5138004028 19.8148529824 23.0802850573 24.1098158656 25.9295873054 24.8864239283 22.7669957067 22.7564415293 22.5437361439 18.5174671555 18.8023594629 14.6473218407 13.3682684771 16.2449973254 20.0875111777 19.2070394058 17.5025091799 17.1543001794 18.2755972051 19.7495761204 21.3820957552 24.6519213929 28.3434730283 31.5115024396 32.7734656969 33.3809619372 32.3994977184 33.8689740978 36.1044623144 38.0527142196 39.04193621 38.0520899594 38.4073858408 35.6371228203 34.3028732328 30.4665306251 28.526144513 31.1524857557 33.5684542419 39.0316855335 43.5537542399 43.6337356606 43.0244594029 42.9954781501 40.3949528127 41.6786766051 40.7790938188 41.2479779904 49.2344594711 60.041817256 62.6039097363 65.6987549569 70.6560210991 102.363512306 107.143161738 111.861938321 116.507411237 121.065009915 139.953490547 145.176504776 150.193976178 164.32397305 168.521549044 172.274421285 175.54346328 190.528284358 193.005067391 195.058064072
175.79501258 176.747599041 177.735533852 178.559947642 179.360640987 180.185871522 181.044517592 181.942543118 182.876999983 181.520784111 180.532975557 180.427259047 177.802890781 176.698322941 169.203836501 160.7027854 156.978012265 152.700283931 138.956516279 125.003766343 119.537859491 113.743758732 96.1700651362 81.4278398439 77.3185410916 50.1847932676 48.8417464497 47.3278483877 41.5590373688 36.2241022229 35.390792262 34.2805647314 31.5802459972 30.9697421335 27.4955657973 27.1553373673 26.5829693952 26.5636280006 25.6879820245 23.6659000268 23.194023742 21.4226779394 20.0988265634 18.2167210027 17.7587444554 15.5403612795 15.1289936246 14.5081165972 13.7308115042 13.1171268706 12.5238790043 11.9963564231 10.4704315618 10.7966815828 9.21073907016 9.33449683946 9.69486857593 11.3771153622 11.7972199124 12.1767285198 12.3697675012 12.801215825 12.4894676043 12.6178599123 12.2025922472 12.6390365315 13.1824438831 13.7136728784 14.0792888624 14.7931570765 15.2934757365 16.6985712275 16.6209356373 16.5267772483 15.4968015595 15.5738031161 15.6531706262 17.1018101231 21.7292846842 29.7678229226 35.8246429229 40.4188193716 41.7508161803 41.3609373343 37.3759115413 37.3409137177 45.3890662957 31.2163994919 23.6612441868 19.2350950752 17.9290400241 20.7728872777 20.0954254083 20.0326131403 20.6339339644 18.3332332046 18.610160477 23.0017966755 26.5020995654 30.2858051624 28.5360135786 27.7351322641 23.7597365826 15.4109098113 15.0856941098 17.0118081101 15.9161057708 10.7934323305 15.7198422905 16.5818207337 20.5229614758 21.4290269788 24.1141809079 23.8363022775 23.7931769263 27.2916205837 30.2831268911 28.4549698013 31.7320937443 31.4100501 28.6515336893 28.2914911131 27.2366031586 24.871948288 20.0160622537 15.7348345949 17.8973230157 21.2172599252 21.9619387507 20.0619002472 9.02514494645 13.4072340262 17.5803018302 16.7219436294 13.8951124866 11.5468960724 16.7138426253 18.4929795502 22.4526801108 13.7051132545 21.0385115142 23.4088265167 22.1630807865 41.5151905311 44.3437640885 38.8369470506 25.3396070023 28.0545965261 23.9374904109 15.514161075 9.23195882647 12.9921387087 13.2665949146 15.8797438028 19.7227681025 21.8894530653 24.1644446508 24.6280402417 24.3276440002 22.6208079788 20.584770842 18.4721260617 17.1067929513 15.5711070037 15.560611 16.3469487408 18.1980352169 18.3519240061 17.9659814737 17.5854422837 18.7990548161 20.4815529817 22.1424170063 24.6978037938 27.4573110942 29.6691723948 31.0077664543 31.7848895593 32.1147096294 33.5416149452 36.8469787904 38.566292412 38.9786076401 37.8107128767 37.4471072969 35.5189328195 34.9810835185 30.6202965917 28.5756757605 30.0382997805 32.2057296449 37.3250447148 42.1384399372 43.5255367367 43.0151863393 43.0165534155 41.5229380937 40.3324451003 42.0113439136 41.0332796654 41.3881136096 59.1093691515 61.4866717749 63.6023702194 66.2236840432 85.534333167 105.36303718 109.710562896 113.991103193 118.181042401 137.108575395 141.91187077 146.524784152 150.88086163 164.637570441 168.168638423 171.295383483 174.003765161 189.193112912 191.294779678
176.011904875 176.909631717 173.589220101 178.457483728 179.201704216 179.967822548 180.758184533 181.572455051 180.12321916 180.552048223 179.195793061 176.700806032 175.825885158 174.625500407 160.798892276 157.683454548 154.104057328 150.060728301 136.072237503 122.135785487 117.190381846 111.989287437 94.8358441746 81.2712324301 66.6059692789 49.3916591289 48.2292017541 46.9517905252 41.2417954377 35.9954243387 35.3084196411 34.257126311 31.4868496581 30.9607446417 27.3153105908 26.9206693566 26.5949548494 26.7041443258 25.8364007356 23.6491179156 23.240128759 21.3957781678 20.1042952155 18.2326269663 17.8562521318 15.6696614217 15.2032285997 13.4914225572 13.9374447458 12.0727697576 12.5760956975 12.0856910658 10.5423442279 10.1506532525 9.28895076278 9.42219592811 9.78297056879 10.7893379362 10.3268315571 12.2183146746 12.2788175429 12.6002571703 12.5739245618 12.8205964628 12.3765734719 12.8911550767 13.1684038183 13.590984031 13.9786487576 14.6761888962 14.7491464669 16.8970640144 16.5089328602 14.6599995351 15.4596400212 16.4950173221 17.7362408313 19.9480301851 24.3946472343 30.1643142998 34.5417583693 39.0059687871 41.0862961667 40.8989255614 37.9852400966 35.4482954604 33.9486732496 28.8708500536 23.7358814783 21.293442331 19.9018795713 19.2142201681 17.0321250092 19.4797719062 26.1913370938 21.2133445661 16.6386559606 20.7564390008 26.0397042397 39.0884210134 47.5616045262 37.6569085335 34.5592806434 26.0381422173 25.1820658814 30.9767817102 26.3288718547 22.5372355048 22.7932715784 22.9085563381 24.3649574145 23.2882087214 22.0008425804 21.4164922808 24.3021658122 23.8827836181 25.20053934 26.7605144311 29.3339723949 28.9254654613 30.9938531448 30.6075290461 29.1659613135 25.0093019476 23.300061645 13.1098214948 16.4994018608 22.1345092517 18.0416677173 22.6953399531 20.8118561954 21.4805714847 11.230337456 13.5800358258 14.8686432046 11.6283240852 22.8864099235 27.7978005045 31.9879140312 30.0674259293 35.3549664276 43.4279958624 52.0340286715 61.7589020254 60.1562934262 54.8665750729 37.584710597 34.5545024833 28.0017981111 22.1457298971 23.6411631373 20.2404971678 14.1786901038 13.8675402802 13.9395805387 20.9063412014 23.3141258576 23.5962537624 23.7607184798 22.4524951205 20.891664416 18.2675772019 17.1932102674 16.0635985955 16.3235808775 16.7457746236 17.6621503793 17.9084276124 17.9471683177 17.7200077688 19.2134511611 21.0162848384 22.3320369494 24.6400741463 26.8579445075 28.7025067138 29.9845826157 30.2650959196 33.406795484 33.6517983409 37.3364859149 38.9135343503 39.6945252436 38.4364935794 36.0282849129 35.458937171 34.9891804848 31.6505191031 32.5434636907 30.0397528291 32.1765782432 36.2263190113 39.4329526621 43.7537695287 43.6331292455 43.0309580706 43.0137874306 40.4170722229 43.0811389471 42.0268013548 41.1738268544 58.4016376006 60.4762089952 62.4859128887 65.8597879814 81.3555228396 103.895730687 107.894807161 111.834009677 115.68610145 134.647197236 139.077070796 143.334390704 147.366831968 151.124037416 164.584690774 167.566672589 170.192917918 172.46232141 187.915617616
171.793080133 172.554518719 177.685175255 178.355315137 179.043976625 179.750324202 180.473091087 178.938448526 179.324208112 179.105207449 175.733342981 175.025350005 174.064076237 168.580308379 158.106549726 155.090858327 151.68148982 147.884757038 133.700972625 119.80259436 115.326591095 97.9361987907 83.4160519242 80.3327540858 66.0690149727 48.7975805784 47.7888481599 46.7012688228 41.0181140066 35.8211509756 34.8907076644 31.8730785947 31.4335379327 28.5762181574 27.1892167454 26.8363333604 26.5877070351 26.6050062814 25.9503413619 23.642964057 23.2895999877 20.5074014389 20.1080756125 18.0395050995 16.1482291231 15.7211368071 14.2975598117 13.4819913321 13.2985550307 12.0517691073 11.845738708 12.1578905892 9.91231311196 10.253048692 9.3451837098 9.48551974014 9.84493531434 10.8419246959 10.3017407509 11.2978784941 12.2267803281 12.6369886361 12.6428715222 12.4008601418 12.4716158124 12.9951718754 13.1654178852 13.5302543299 14.5275638592 14.7026882868 14.7466205527 15.1257517313 16.4432907634 14.4522560578 15.6133695573 17.2223804195 19.0991022593 23.6403266039 25.8484991096 30.6143438887 33.8881347611 38.106301936 40.2681729312 40.4472470427 37.5590060614 34.1306561136 30.8168480288 25.8937003525 23.5348502289 21.9510641205 21.1562125117 19.4654800392 19.2185322137 20.2466323287 22.9381119053 22.1571125598 21.1465970049 26.3890743819 46.2392387324 50.2528047156 46.7835488484 35.5702848254 35.6225100761 36.2977460385 34.4393320645 33.2490325721 32.9540691072 27.8485600892 35.3972171625 29.5394251007 31.0976009004 23.4670635479 19.1133002265 20.0376938137 16.1905071677 19.5988822294 22.4862106822 28.3360913233 28.8021399574 28.297444052 29.9723637329 31.0439606662 31.2487960523 28.8377295838 25.0030320646 26.0059908826 27.6501905751 29.3597346132 13.442490985 28.3045333159 37.9265983713 37.0388278622 29.5577472891 27.6722098588 29.2647422565 30.1131083559 31.43455792 34.1716379002 41.009204065 49.0618237348 49.9307507723 57.5290534298 75.4745081425 79.5955236872 78.1806757354 78.5316095061 49.2699516232 38.0761780872 22.8337532786 19.2671562966 24.4966942395 28.1539029352 27.8237119683 18.0918639437 18.0284005985 20.2148735617 22.5072872815 22.7445043204 23.3136376018 22.3359118894 20.3422414587 18.2121023561 17.3898378943 16.3994896927 16.6546352759 17.3769968189 17.3049700595 17.6925899952 17.4477879907 17.7398530682 19.5006766048 21.3914563394 22.5198113943 24.5332490086 26.4375621489 27.9093188665 29.3406975271 29.6491182799 33.3733009306 33.6845583689 36.3778819488 39.1592429061 38.7734213466 38.192557797 35.6761546997 35.3812739902 34.9872590927 31.703642175 32.6816730244 30.0458239109 32.1630082536 33.6103435664 37.8110081149 43.2932513601 43.5228865367 43.258848266 43.0256571773 43.0133005085 43.0370794196 43.2703422243 42.157026133 51.8863043308 60.7465544324 61.4583658984 63.1404895085 66.188258706 99.6714105987 106.360831375 109.985055565 113.528762017 116.961726403 136.614479962 140.555224296 144.299371367 147.80660015 161.445123747 164.283519473 166.817017179 169.041992394 184.882113269
171.653700752 172.356791971 177.628903772 178.248574948 178.883833275 179.532305087 177.915726201 178.267816415 178.058959643 178.094189621 174.292046547 173.510182747 172.497817026 166.64848781 155.759242262 152.86647042 149.640309838 146.091366827 131.750547821 117.901312101 113.845932604 96.7922173264 82.369001009 67.8760602725 65.5451413137 48.3486086073 47.4693691952 45.9687221696 36.1637704746 35.6889000583 34.804015971 31.7853120383 31.4046341769 28.491996986 27.0978662896 26.7689695132 26.2609108634 26.6593194933 26.0384739998 23.6423266115 23.3369603234 20.4600331473 19.3328513139 18.0448097543 16.1221725495 15.7579260754 14.3145343112 13.2869329963 13.3250308012 12.0398489088 11.8702869279 11.1610257543 9.95063925756 9.40134272087 9.38634327878 9.53232263562 9.88938829925 9.93706841879 10.2817364007 11.2607329271 11.7418664746 12.4513645233 12.6966448142 12.4666135345 12.5263892765 13.0443734037 13.1670946912 13.4973799636 14.5497569142 14.7150534683 15.5247889939 15.0829837868 14.6747579645 15.8623199405 15.7879389674 19.4048215042 19.9923602595 24.9883449769 27.4650579638 30.9408592153 35.8035606365 37.5613049759 39.7322618007 40.0544115701 35.235867345 30.9737424682 29.5653761444 24.7389007977 23.8939891925 22.0787446944 21.8639234009 20.1927475998 19.763255546 20.101705718 22.1422931165 23.7641954862 25.4835535876 31.1003038352 41.5371435101 45.3732218367 41.6908427735 40.0742988466 54.3286123663 75.3484125574 70.7882176899 51.2591307505 40.3153970016 58.8356610536 62.6463493774 49.1493535163 54.2074759904 36.2325152305 7.66023265574 22.7712219587 7.24406953132 19.5143235637 23.7174819188 30.5291264339 31.1029299268 28.7913487046 31.4139497355 32.0414862423 26.6490356204 30.5666592967 22.6302884499 32.9012381186 41.6097798475 43.4595267938 49.8170624468 54.9908431239 58.6955897525 58.7133590364 53.7484699912 51.5845149444 43.7276777723 36.4246853354 33.8124940771 38.7942183421 42.2180786734 50.1610305176 54.3121998807 61.5144546214 65.4866322534 72.8923482206 85.4289613351 76.6925828034 74.3119564424 58.0566527712 30.6768496924 16.6517345835 22.0105227267 26.0932828794 24.5993104155 19.726802566 18.924750279 20.7714959979 21.5661169927 22.9154194745 22.9870398866 22.9648915941 20.427765953 19.2298084866 18.561859598 17.0074969129 17.7763622533 17.4837635579 17.2309969343 17.585910089 17.3143841215 17.7262199685 18.7911088884 21.3699396496 22.6298001355 24.0955892108 25.4014484209 27.4540457168 28.9117197858 29.2061445028 32.1330887765 33.6906997943 36.4788626962 37.6786354711 38.7550688 38.0340855119 36.8103766056 35.2058793749 34.9812152409 32.4183956026 32.6235563294 30.0536072268 31.305470391 32.2548164959 37.7897015388 41.6956692993 43.753655605 43.5814391966 43.0079997756 43.0230870239 40.4256520046 43.2008659809 43.3455658098 42.2321086813 60.1357994072 61.6916269008 62.1388046557 63.5410455913 97.9077828097 102.061057851 108.399463197 111.662771942 114.825337663 134.47360663 138.129935345 141.614620029 144.894514158 147.940761275 161.384487716 163.819592507 165.986645264 167.887450004
171.509939811 177.005684612 177.56304411 178.135539079 178.720328358 177.022883329 177.347031927 177.142175777 177.200385984 173.616558437 172.973289679 172.144797871 166.714997654 156.184233426 153.714240584 150.958168668 147.919946394 144.612843127 119.852676882 116.350136611 112.670373551 95.9016720164 81.5593496779 67.234417879 48.7186425645 48.0065398298 46.6928635621 45.7802035694 35.9960182275 35.2150994043 34.7406535335 31.7208807688 31.3908885667 28.4334986429 27.0297251776 26.7153932555 26.2219586494 26.6989497296 25.975624615 23.6447331311 23.3801105398 20.424640842 18.9893807177 18.0455933072 16.0965020138 15.7847819554 14.3281686494 13.3043797997 12.1643141404 12.0342213754 11.8929095767 11.1863183765 9.98041442175 9.42833273392 9.41705127809 9.60874372569 9.92190298646 9.96289954623 10.3010225361 11.2359768313 11.7270198657 12.472225721 12.9481025853 12.5099745391 12.6132663163 13.077489337 13.1703013746 14.1389221711 14.5720856363 14.6988722335 15.0567516833 15.0473930442 14.612360637 15.9865400045 15.9412633436 19.9999079166 20.5841649974 25.0163887012 28.0639124398 31.1637837604 35.8127418615 37.2215810867 37.9544216439 37.4607496566 34.6589792138 30.1010615269 29.9082149634 24.0114645508 23.6861150517 22.2497211387 22.3349356597 20.4172861245 19.8562266506 21.842857929 22.3945969966 24.9859894601 27.2902378052 31.591516102 41.4030285148 44.0546072904 47.8940068507 53.562291441 74.704272281 88.838716699 82.8382446912 78.234205282 75.8523817541 114.806562773 125.334324955 55.3804516882 75.2053612465 20.6559104887 56.6312393524 47.9964797939 27.0794122219 15.6427288578 24.9449762918 28.884015767 28.9172467422 39.2494662377 41.0230906869 38.0811665354 31.397962661 40.4878962248 43.3506677119 46.3427937337 49.6622961578 51.8697562135 62.3979547799 67.5112626181 76.3015679897 77.9979900485 65.1087134311 57.2356769015 48.570174349 44.4284147295 40.5926480836 42.1052579591 43.3360968151 48.5887514693 53.5673959297 58.0407746509 60.3607806511 61.2356211398 47.5700684854 59.3856907538 86.2699199317 88.6721199805 67.785324194 38.9759249362 28.9089120092 27.1652490861 25.7656130086 22.2723686121 19.4899112842 20.6520144348 22.4782121201 22.7776238406 22.2109333262 21.9178193232 20.4970388452 20.0857411156 18.7279261213 18.3947425759 17.9639095778 17.561984674 17.6018325367 17.5322123213 17.2407996034 18.5429096882 18.8521312289 21.527539534 22.8743157687 24.019203705 25.1304376391 26.1861281703 28.6131021676 28.880154923 29.050001357 35.5399324091 36.5436968813 37.7241247841 37.5998328847 37.7687402534 36.9431462491 35.6550509427 34.9735843185 32.4360027957 32.6910010823 30.0618067832 31.3015233585 32.237154277 35.5710816355 39.6313862792 43.5591850865 43.5219717278 43.2593995646 43.0306518479 43.0219893418 43.1502966176 43.3167820366 43.4279189517 52.3853772346 61.0406927165 62.3751265078 62.5913006013 82.2271553895 100.217591752 104.044781768 110.047421501 112.966164082 132.610550425 136.00970453 139.25915144 142.331040154 145.201035326 147.849592578 161.152431451 163.252902504 165.119173843
176.469889624 176.971255826 177.487611671 178.016177583 176.238479356 176.537699028 176.331776168 176.405390714 176.396570304 172.45670318 171.771902238 170.917888811 165.185192075 154.299988864 151.933067046 149.320393623 146.4688805 143.393226197 118.28461013 115.08361701 111.73869521 96.063068771 68.565540103 66.7365407501 48.3793201851 47.2162681358 46.4518383041 41.2385011501 35.8654599344 35.1079771954 34.8413330148 31.6738064235 31.3552839446 28.3920762942 26.7878706918 26.6725929546 26.1885322937 26.7290221234 25.0481794557 24.6897315328 23.4185372487 20.3976187939 18.9697267161 18.0439675467 16.0729037458 15.8047476313 15.5463418009 13.3201134255 11.6714423906 12.0328610245 11.9137328423 11.2084933697 10.0039982874 9.44910395175 9.44039690366 9.64103417969 9.94612890519 9.96095543472 10.2876321573 10.3525761684 11.7197641472 12.4915354257 12.3522775327 12.5393762428 12.6347847346 13.1009338168 13.1737171014 14.1662980049 14.5920561423 14.6833614562 14.3676247438 15.0215398743 14.5741402275 16.2706582875 18.0567397264 20.4421182173 20.9821818353 25.597913071 28.4595488604 32.9619505163 35.8529821465 35.9870224622 37.565471101 37.6822310329 34.999655811 29.5094937373 30.1670756185 23.5288027819 24.8430828054 22.3432059052 23.2064266719 20.5259259291 19.8471954658 22.220965379 24.1212823312 25.9525851499 28.3349299836 35.9871790878 42.1539897511 47.9098567633 51.3166174034 59.4002557276 73.1367110216 77.7004953448 81.9975222429 90.2207368637 128.38405064 198.581416558 196.734929026 184.027681742 147.938754747 118.649243587 120.044711772 84.5567222082 53.1762095994 36.5044097232 26.4781757276 35.2641475633 37.7691790993 53.1575300132 54.613851843 54.0377334283 58.9060333053 58.8545774932 60.5060210364 56.3832131901 49.0792244605 52.0350704967 56.9338367019 71.5422341756 92.6532822217 96.1301571623 86.5460130061 64.0862132505 48.6138478052 44.1464426835 43.1612843447 48.0440877367 52.4477563741 50.8001931176 50.7415743216 51.927856738 55.0910473991 64.3050235692 55.8981093585 48.2473929866 56.3676360391 68.7386237276 63.0539336674 46.9229096992 37.8932737573 30.8144986595 27.4756457403 23.1248948302 18.829778024 20.7882647007 21.799283061 22.8746998648 22.0815871773 22.1522029963 20.3434241815 19.769233628 18.8340310267 19.2249449875 18.0905834127 18.1770518599 17.2655617464 17.7411980277 17.1910803096 18.5822196287 18.8890766839 20.5102216346 22.4499231743 23.9599088114 24.5486373687 25.9004112222 27.2968354417 28.6350717598 28.8033338679 35.6398937674 36.5902033391 37.7567820093 37.568519519 37.6934302105 36.8389107313 35.5611186025 35.7293970709 32.4465283456 32.7397551491 32.7682214939 30.1372326356 32.2259027799 33.8642483374 37.9464650502 43.1472356784 43.5236947892 43.5818471004 43.0100440472 43.0285029277 44.6200686351 43.2553704065 43.3432741592 53.3986937873 60.514754871 61.7161047657 62.8566202622 81.3416794202 99.043593223 102.144680389 105.660070183 111.345833839 113.941255356 134.152886591 137.18793669 140.068680994 142.774238254 145.287552624 147.596032967 160.802904657 162.625001841
176.45891299 176.925076066 177.40346894 177.89131114 175.82267852 175.611394569 175.694589611 175.711143856 171.961798276 171.39108839 170.681164739 169.817793498 161.904085684 152.638093184 150.381494191 147.913779289 145.243722814 142.386564667 116.978780451 114.049156341 97.3382800694 95.476247057 67.9964722246 66.3511878723 48.11005047 46.9518978759 46.2688830447 41.1217164795 35.3759102564 35.0249718009 34.793759279 31.639557412 31.3374419182 31.0355065599 26.734589887 26.6381221697 26.1603147607 26.7526133783 25.0556973242 24.7391029934 22.4166904066 20.3765867718 18.9530536197 18.0410810558 16.0519098237 15.819830932 15.5948812677 13.3339604875 11.6569871858 12.0343417725 10.7583908128 10.3807091057 10.0230032905 9.46534386549 9.45846364213 9.88084840599 9.96449255015 10.1539900734 10.2771992992 10.330759102 11.56641975 12.508635249 12.37283421 12.4126047184 12.933991086 13.1704660337 13.6640383212 14.1906282024 14.6091261394 14.6701239474 14.3352412626 14.5334042383 16.2684329242 16.3778537733 20.0077772232 20.4724903347 21.2540302332 27.8365391866 28.7294246629 33.1903706611 35.8992525752 34.0904511438 37.2771351697 38.1833242472 34.6396016249 29.686519026 29.8894732349 24.0586486434 24.7781167145 24.0194483013 22.6287678802 20.5802666296 21.7663077978 21.8550065704 24.689929703 26.5096460956 33.7253919894 36.7958880661 43.2556005379 49.4557315401 52.7852103981 67.7354040862 72.5015278094 82.017307822 97.280259244 111.135678065 148.365223974 179.688906342 225.879433897 372.370467442 215.166268762 168.301906208 153.928982518 161.119893864 61.9606011282 42.5076027382 37.7831126196 62.9905152487 96.4492255386 75.2298474398 59.9340619939 61.8232391458 78.0044417416 70.5231851935 75.3490844945 80.1838313514 70.4841651235 61.1072667728 55.2004723873 61.5362541894 70.5617258831 84.6318088315 84.4153643825 68.6891905557 45.1134907976 35.8301947972 36.1895927328 45.4566991057 52.8589672221 52.8175393086 45.9008886507 29.076950515 50.0033130799 60.7404202004 60.8113058699 57.158335288 57.5490230886 60.7780286548 58.3472284564 53.2386829906 42.5845328996 33.2896656155 30.1455034575 27.4284224566 24.0552610047 19.9331041479 20.4953754538 22.9401013475 22.0189128541 22.0773487051 20.2180319472 19.7207552632 19.7937314889 19.3624183314 18.1762429925 18.0571153279 17.2910810101 17.7609260652 17.157396537 18.6288902394 18.9124539741 20.5290699542 22.4593152556 23.9138263379 24.3965471178 25.6843734153 26.9140179846 28.4471758855 28.6064687147 35.7267243412 36.2396011911 36.5140488801 37.5457473035 37.6405047973 36.7636379941 35.4905352963 35.7127121044 32.4527548902 32.3260505941 32.8213789647 30.1343000529 32.2188596989 33.8497602241 37.797527034 39.7780251453 43.753579351 43.521671413 43.2599610231 43.0337288716 45.6573318904 43.2079423037 43.3306515966 53.1386261291 52.6761963731 61.1735241545 62.2109406486 63.1853909767 82.969556893 100.91470321 103.726893081 106.947795715 112.339709622 132.52389934 135.362808819 138.067365207 140.619398168 143.003853434 145.20926056 147.227974919 160.375028988
176.435045371 176.868605653 177.311879487 175.188807391 174.968772347 175.056958893 175.09096447 175.060460042 171.010398769 170.415586822 169.693435201 162.123162359 160.590807449 151.172703555 149.029351927 146.704559275 144.208135747 130.381924917 115.890029356 113.204349468 97.4947247642 82.2036519604 67.5401980593 66.0542418516 47.3225662069 46.74309842 46.1303278336 41.0344963191 35.2709195421 35.1052177619 34.7596372667 31.6147865026 31.3273488021 31.0609740027 26.6919625704 26.2632695342 26.1366350763 25.6517384625 25.0613744906 24.7807650456 22.4229084296 19.1416183843 18.9387828837 18.0375718196 16.0335251862 15.8313888152 15.6345519754 13.3460100343 11.6461847969 12.0376762346 10.7608064073 10.3914742103 10.0385557821 9.47822905752 9.47267662134 9.90589336088 9.97863437399 10.1550211135 10.2690205787 10.3139687629 11.5802818588 11.6591631908 12.3882622116 12.5417130527 12.9515204637 13.1821527767 13.8969887069 14.0968030765 13.8494060063 14.2557654645 14.3095929752 14.6300211165 16.3593016081 16.4670816163 20.2750008741 20.6996751343 24.5853171987 28.177591314 31.7342018771 33.3638168282 34.6888221423 33.8774093538 37.0609286968 35.257757941 34.3775554262 30.4959629441 29.7042734966 25.2316501075 24.7350145757 24.769811841 22.7128069922 20.610902992 22.027961652 22.5748484146 25.893225227 26.8395174461 34.6347691665 41.2255238668 47.335610571 50.3879694928 55.7346960756 69.4077269482 73.1777356375 98.3939972754 107.402838938 129.19447416 151.23353297 181.750991858 230.387648376 274.353616856 214.006567482 184.093721865 156.048357212 141.646843636 66.856337154 24.9781793154 57.4057270181 106.187366798 85.5753755649 52.7918932419 54.3678335772 51.4375047843 63.5008567979 71.753393117 88.974346763 79.2372774452 71.964387978 62.5322283582 57.2656549287 62.8118021016 69.6766297986 82.0827939258 108.45431451 73.2267391342 59.8154683504 45.3291571927 41.7341364037 51.1018249315 58.0486799272 57.2372604386 50.4781234842 41.2077009661 49.7436275037 56.9225833513 60.387779883 60.2495676957 57.5989318134 58.4476847511 56.387271504 53.5704102833 46.6232220983 38.8479708963 32.6155173593 28.8413106279 24.7945583916 24.2007817189 20.4441777338 21.6411340338 21.9913639933 22.0343683035 20.5476183138 19.6732042126 19.2096393339 19.4589362995 18.2621008708 18.1246600134 17.3129008077 17.3146093626 17.1343466304 18.1398002136 20.1631190523 20.5373059712 22.4625494573 23.8775422558 24.279540004 24.5623637769 26.7327904965 28.30054678 28.4480016601 35.8036839922 36.2627755342 36.4721323463 37.4041741309 37.6025422978 36.7079753655 36.3565332537 35.6991032011 32.456292481 32.3485547191 32.8628335095 30.133117453 31.4745627998 32.4606694514 36.0607763605 39.6313376926 43.3088260807 43.5229969055 43.5822592421 43.0114074195 43.0319614936 44.6771290147 43.2785614132 43.3832905167 53.7041413069 60.7246579088 61.6709065315 62.566195214 82.1639789265 99.8540652893 102.464077063 105.003838096 107.95068012 131.09229973 133.751273511 136.293074418 138.701714377 140.963782549 143.068793133 145.009377695 146.781306538
176.400048884 176.803402636 174.625283207 174.394070025 174.483737835 174.529185203 174.522002506 174.453167003 170.133570274 169.525018337 168.800650937 160.907167771 159.422396959 149.880494497 147.850228901 145.663905566 143.331779617 129.507695656 114.981366874 112.514916737 83.9298319353 81.7518878346 67.1741324946 48.0193908852 47.1036460823 46.5778813432 46.0259708152 35.4511817246 35.3423613351 35.0433960819 34.7737594244 31.5580870685 31.3227855045 31.0864751334 26.6573871752 26.2266687197 26.1167757297 25.635364568 25.0658603082 24.8161339373 22.4289085692 19.1046666143 18.9264595765 18.0337999455 16.017535946 15.8403575845 14.8044071526 13.3564507004 11.6380758277 11.5289836308 10.7633242316 10.4006439327 10.2142895218 9.4885918832 9.48402671116 9.76262822599 9.98968279641 10.1556465313 10.26255894 10.300837794 11.5922136467 11.8657701202 12.3999840641 12.932793785 12.9648639666 13.1912922311 13.9234748371 14.1147936147 13.8360537432 14.3008122014 14.2897317685 14.0400434926 16.4370123975 16.5402231974 20.4871153618 20.8692470615 25.7964721957 28.4312112974 31.100214121 33.4963171967 33.1694076612 33.7116325147 34.6376384814 34.965560238 34.1847082744 30.2466355705 29.5780757622 25.1003867144 24.7059081921 23.9822149988 22.7692409724 22.5260636676 22.2312641835 22.7498673784 26.2207535352 33.399428487 35.3068047393 45.3694138048 48.3050681937 53.5991963149 67.5807148178 70.6488936458 81.7742188346 104.95263991 114.592200665 136.623744854 159.007446248 177.100760399 203.531318052 214.240382132 196.553139313 172.982461843 147.136567849 115.450758303 76.0153836028 60.4780798913 68.6296787349 80.7192294712 69.487598186 55.2781974656 54.5536578105 52.4519142004 54.0908404426 57.4677408619 57.7805573542 67.5115634661 69.7563677052 63.0024596186 54.8068006374 64.1378762632 71.7080975692 74.5988575741 79.3759474569 61.917062931 43.1987180874 37.3621657418 45.8464711898 70.9457949477 73.8472907244 63.420956803 55.9297368204 50.7846433941 52.1132830163 55.7965428021 59.5562466157 59.2138436353 56.9440662054 57.1947581759 55.4950719251 53.6241874606 47.3458176854 41.7428839795 33.6918296052 31.8789485541 29.6971544987 24.759196535 24.7902248455 21.6048297264 21.2599459461 22.010703245 20.4970189216 20.0676567277 19.5017468234 19.5269850567 18.3246356677 18.1734112178 17.4178475843 17.3280483434 17.1184126911 18.1498685144 20.0952514038 20.5396706947 20.8827833132 23.8484837378 24.1878315531 24.5162665665 25.5357704741 26.8338036957 28.3192372344 32.3750764508 36.2841831725 36.4380661891 37.3718841625 37.57485974 37.6195376388 36.3317650945 35.3574637673 35.7243230185 32.3654433643 32.8955580418 30.1330683963 31.3460582432 32.2530329704 34.9349037097 37.9471890849 42.2038714281 43.5240325995 43.5216166446 43.2234972327 43.0092522824 45.7197689142 44.7481103023 43.3299313998 53.4608977701 54.1538854767 61.217154016 62.0411604762 81.4736090371 98.9385369024 101.364309995 103.729245723 106.015516126 110.903742288 132.325567073 134.716782766 136.991464616 139.137577921 141.145507605 143.00821161 144.7212519
176.355612707 174.122901967 174.321673683 173.967561492 174.019939525 174.029178964 173.98787753 169.844123806 169.327657691 168.713622616 161.102920426 159.815207976 158.383200221 148.740602345 146.821123544 144.767278554 142.589357645 114.746797523 114.222451594 97.3197464886 83.3840119544 81.3880550258 66.3262396064 47.3771992829 46.9254138449 46.4470791048 45.9481142048 35.3561283655 35.2633257417 34.9949309736 34.7561034295 31.5324756733 31.3221718905 31.1114133199 26.6289968843 26.1962812683 26.1000840616 25.6212175737 25.0695542529 24.8463573325 22.4345882923 19.0733301434 18.9157276853 18.0299702604 16.0036567157 15.8473954088 14.8187858423 13.3654947267 11.6319741936 11.5354452099 10.4772320222 10.4085328055 10.2279652183 9.49703010058 9.49321467558 10.1603398551 9.85389160166 10.156051134 10.2574109888 10.2904185044 11.6023444542 11.8710570842 12.4089991791 12.9473814757 12.9752472438 13.198602172 13.9456348153 13.7879749691 13.8253132144 14.2862950879 14.2745686988 16.4211361791 16.5027471048 18.556384692 20.6558256821 20.9968376167 26.0192902936 29.2453162757 31.2852321463 32.080880444 33.1265841767 33.580157869 34.4391479897 34.7394001309 34.7980750464 30.0600812482 29.4908351391 25.0054816555 24.68562364 23.1828628906 22.8097700626 22.7189010604 22.3858111628 25.8458667175 26.4480121181 34.0637848683 39.906876008 46.3017371928 48.4339397773 65.7914430197 68.9124517901 71.5135092927 103.413394561 110.037806737 129.369244226 140.540871764 159.476620812 177.183583914 187.801741401 190.110874928 179.559505211 162.481679083 139.676982311 114.657929754 95.72386565 73.3828177828 65.3681669501 68.2905027259 63.1342179237 58.0434327341 56.8867279272 53.0303211357 51.942653744 48.1752404277 58.6230242657 60.7120226957 87.1168754553 86.1778370319 65.8760466817 62.4980042892 68.1662742342 71.9590109469 66.1177503925 45.4639587132 28.1548850433 34.60790184 45.0424573081 62.9692537487 66.3502021677 59.4474560315 56.8286027671 53.5874943787 52.3625719809 56.9097494323 59.9742896936 61.549760251 57.3812022581 56.3833530076 56.1026225463 53.6303536521 47.6762514209 44.717192294 36.6710679588 32.7440077029 32.6034120682 25.2100516886 24.7691260012 25.9650217464 21.2071131417 21.9981233132 20.4595682906 20.0890201989 19.4915258742 19.0710025975 18.3702618677 18.2345320351 17.4547097707 17.3400499213 17.1688315121 18.1585501727 20.1343558264 20.538846577 20.8365501366 23.8248008662 24.1146998286 24.3966349694 25.3977912718 26.6940694216 28.2136039134 32.3415776679 36.3047010608 36.4110436968 37.3466517894 37.5544150845 37.5912211097 36.3130212521 35.3389014764 35.5327333147 32.3782947019 32.9216830126 30.1337558078 31.3440377923 32.2471101824 33.8635757958 37.8023809731 39.7761599247 43.5590833803 43.5226608561 43.2028368459 43.0123764333 45.68136527 44.7095080741 43.2861168175 53.2898938537 53.8899313436 62.0829295272 61.5941038118 80.8809440178 82.7629542019 100.405264007 102.610511022 104.74725429 106.800620125 127.140647189 133.313620888 135.463146371 137.499611406 139.41417725 141.200151816 142.853023758
