DSAA
220 83
-56.4072153855 475.934599302
823.298720393 1022.40384125
5.35929078179 372.402805729
42.7364508342 42.5835687037 42.4304189704 42.2667446772 42.0775810306 41.8452943956 41.5541150135 41.1971942793 40.7853578191 40.3550089479 39.8979976869 39.6883842092 39.6240088075 39.7090879045 39.900386284 40.1282763067 40.3280511038 40.2945671279 40.325076122 40.2952690322 40.2238723035 40.1327444199 40.0410662568 39.9609822288 39.895245339 39.837311736 39.4480033639 39.3540337119 39.2256893852 38.7723703118 38.5765234875 38.3497987345 38.1057594413 37.8655249833 37.655018779 37.4473159685 37.3748780639 37.3030906664 37.2888956458 37.2564660937 37.189631512 37.0835500769 36.9428182527 36.7769192859 36.595936111 36.407882065 35.7849282502 35.5866755116 35.3940575387 34.8285625875 34.6377616708 34.4495401535 34.2630006696 33.5764820704 33.4004653785 33.2279245241 33.0574081952 32.8867309395 32.7131206703 32.3778157922 32.2059170187 32.0276321748 31.8453490875 31.6649025498 31.4958231742 31.2596097673 31.1862324199 31.1445082377 31.1304696017 31.1349059455 31.1464472725 31.1445076092 31.0803918851 30.954679216 30.9001301337 30.8460136018 30.7957512907 30.7517337839 30.5046047981 30.4726184768 30.4517413884 30.4415498029 30.3979224424 30.2469952424 30.2765871815 30.3174876756 30.3687425112 30.4286252148 31.121101156 31.1705161721 31.2143738322 31.2537873133 31.2923862142 31.3209128839 31.3761852057 31.452417497 31.4721270341 31.8449722028 32.0446849154 32.2855537139 32.5657366646 33.8527482204 34.303587545 34.7827291417 35.0456733482 36.3860860214 36.959845333 37.2736969605 37.5957493762 38.2038814086 38.845269012 39.5255105465 41.8307086267 42.5981967827 43.4208787968 44.3135345565 45.2937869471 46.3806447801 47.3507709592 48.7057525411 50.7373673743 52.2082481729 53.6853202757 55.0491447526 56.1513559541 56.8550622961 57.0920041 57.0128217137 56.7339472577 56.4461796752 56.2960464357 56.8319799312 57.1568219398 57.7762823019 58.4888755681 59.2903520453 60.1343640693 60.9886553847 61.8414886439 62.7059410515 63.4820949041 66.2255170257 67.4539124192 68.9185057631 70.647853433 72.6267679341 74.7807238542 76.9682127628 79.6059820563 81.0366397234 81.9723024819 82.3987703686 82.4301502679 82.2710786766 82.1446824948 83.4655353252 84.2929712413 85.4440907758 86.8593274262 88.4600526333 91.746657293 93.559565487 97.9693873534 99.8038072487 101.594003005 103.376041454 105.194593612 109.863232101 111.877840262 113.991655229 116.189992123 118.430559587 120.643597658 122.737357824 126.729788448 127.968962514 128.895712531 129.547042868 130.011547684 131.693241901 132.339449141 133.247582042 136.688910319 138.587923615 140.730161395 143.032746794 145.419196621 147.827945318 150.215505433 152.555893291 154.837906626 160.786794753 168.074628234 170.247369848 172.328500037 174.330869341 176.264608895 178.13743525 181.085994643 182.741736942 184.356320303 185.938446531 187.497660157 189.042974515 190.580002073 194.580374454 195.749034896 196.825950611 197.77470545 198.555460375 199.13705289 200.098904323 200.140872174 200.196684828 200.315403287 200.529552683 200.852313576 201.280556828 201.800497942 202.393221271
42.6700804627 42.522862816 42.3856899213 42.2482441785 42.0930262656 41.8974959363 41.6397536497 41.3074288822 40.9082156554 40.4789018671 39.994898567 39.7758713088 39.7062213086 39.7902633286 39.9806611503 40.2020327138 40.3851767217 40.3178564391 40.3137450268 40.2426815427 40.128970676 40.0015908135 39.886636597 39.8006668654 39.7466713691 39.7141183239 39.3878934075 39.3208755828 39.2130773749 38.7777533464 38.5792814021 38.3404633114 38.0767249211 37.8129188545 37.5805573896 37.3806046743 37.3092178606 37.2834963933 37.280890008 37.2535865579 37.1821691765 37.0628162434 36.9039127326 36.7192967244 36.5224172314 36.2255044711 35.7114489849 35.5119062859 35.3200253906 34.7757755862 34.5862679648 34.398428225 34.211590709 33.5427714484 33.3678462363 33.1975864592 33.0307178469 32.8648014476 32.696373607 32.3759386252 32.2052845439 32.0254406774 31.8383387534 31.6500688755 31.4713442497 31.2378587285 31.1616019894 31.1204888696 31.109731916 31.1182016608 31.1324820988 31.0933792783 31.005944225 30.9409361432 30.8795649416 30.8196603395 30.7650084154 30.5194100981 30.4794771258 30.4479109847 30.4282020927 30.4197716457 30.1251954585 30.2351945962 30.2684199178 30.3143662311 30.3724110066 30.4409061797 30.4853063061 31.1237504171 31.1628544392 31.193916911 31.2209050551 31.2382213628 31.2801040025 31.2808543223 31.3706047857 31.6998365052 31.900428017 32.1452593431 32.4309548423 33.6549894339 34.1150275653 34.5998189299 34.8680634254 35.3785889423 36.7595663115 36.8032993404 37.3737873269 37.9709136255 38.5989118981 39.2627828728 39.7805238925 42.2190222454 43.0132988685 43.8759488659 44.8281182009 45.6398690761 46.8514074577 48.2269936746 50.3104492964 51.87762287 53.4846549164 54.9944789119 56.2285845511 57.0170347149 57.2722838745 57.1064478845 56.7602103496 56.4127820219 56.2280483668 56.6950461185 57.0998473438 57.7674668516 58.5370133429 59.3931779398 60.2765890006 61.1429028424 61.9719779492 62.7754227307 63.4605735178 64.3651357546 67.0646182898 68.5013012233 70.2647216885 72.3484068156 74.6735808503 77.0777967369 79.8672954624 81.4524188552 82.457977166 82.8606161731 82.7997391523 82.5282050583 82.3176337827 83.4807268218 84.3708141145 85.6321251733 87.1845560154 88.9268238177 92.2832846772 94.175356857 98.52184221 100.337136133 102.078813861 103.796939685 105.552909256 109.983366863 111.996290269 114.151837328 116.437609069 118.806438027 121.175537041 123.431901085 127.222305019 128.493769836 129.38659777 129.942570354 131.032955646 131.37699509 131.907258861 132.801329222 135.85827355 138.118944022 140.459972343 142.958828116 145.521359852 148.075759991 150.57482163 152.993781343 155.325913422 161.94510788 168.364449356 170.545109825 172.629971166 174.634464975 176.569532063 178.442368469 181.314181659 182.965344022 184.571414902 186.141693984 187.687980673 189.223364732 190.759056302 194.692993281 195.884902022 196.996983002 197.986099883 198.801654548 199.512415605 200.079063266 200.087066364 200.114256241 200.219204028 200.438624515 200.784729695 201.250280952 201.816397211 202.459487742
42.577297661 42.4315932248 42.3103727353 42.2050154995 42.0963841617 41.9569259754 41.7580634594 41.4815735956 41.1316060082 40.7431416598 40.3814420467 40.0566166924 39.9533524059 40.0185740165 40.1776248287 40.3584227854 40.4939158922 40.3620165188 40.3045180391 40.1749038743 40.0025610533 39.8250975106 39.678394505 39.5858104268 39.5507369919 39.5564202264 39.5727370757 39.2847777557 39.2094643938 38.8003302222 38.6076795064 38.36533449 38.0906045412 37.8113900377 37.5634496199 37.3983873805 37.2860660019 37.2797573924 37.2776579085 37.2470433258 37.1629175801 37.0231421485 36.840563751 36.6339115785 36.3322313174 36.1198776923 35.6145506691 35.4184820844 35.2317796729 34.7132090467 34.5273655098 34.3411278377 34.1543233331 33.5049254319 33.3314569325 33.1643863241 33.002889654 32.8443958026 32.6847293586 32.3834138296 32.218390464 32.0417458223 31.8548950574 31.6640598361 31.3532451784 31.2401415342 31.1612102886 31.1192641456 31.108641562 31.1167347676 31.1288495094 31.0847347574 30.9894755521 30.9173806152 30.8498160462 30.6126778809 30.543092231 30.4877297419 30.4488418356 30.4188707205 30.4011161678 30.3948623268 30.1036623839 30.2206789946 30.2569897966 30.3075310015 30.3722327683 30.4497025535 30.5366844209 30.5987317641 31.1197117346 31.1437430395 31.1498261311 31.1665326609 31.1520396914 31.2007560121 31.2796637895 31.5665447745 31.7688354074 32.0182665182 32.309609708 32.4868364925 33.9434627555 34.4304094655 34.699116168 35.2027853002 36.1813294502 36.5855176901 37.1422751534 37.7235596655 38.3329137468 38.974118401 39.4650602032 40.1791895176 42.5435666129 43.3545568163 43.9860135681 44.9968343625 46.1588486676 47.5014696615 49.0370858874 51.1926585166 52.8700151138 54.4716644218 55.7982806873 56.6587065294 56.9555602207 56.7506167547 56.5450984576 56.209283194 56.0516039883 56.569338604 57.0295832829 57.7686074761 58.6141771449 59.5432481936 60.4824505776 61.3716239491 62.1769839454 62.7861102636 63.4721611538 64.2276695451 66.5871249372 67.9403339511 69.6781879988 71.8019159938 74.2285766093 76.7789602553 79.7300517671 81.4469788655 82.5308992742 82.951958703 82.8680503995 82.5671972019 82.3564175329 83.5487480063 84.542944222 85.9477780174 87.6649053711 90.9766214959 93.0140105197 94.9822446444 99.2353324034 100.999202078 102.651790238 103.698664 105.327147462 110.04699215 112.021915975 114.189415671 116.539860719 119.021241256 121.537473823 123.953569472 126.111827149 128.931030281 129.799373611 130.266802571 130.815268728 131.043250955 131.560990166 132.608164732 133.986196946 137.607553284 140.385283938 143.088895315 145.827037786 148.518300768 151.113170296 153.589947215 160.105767451 162.410087854 168.735758757 170.901575679 172.971946514 174.964391758 176.889706665 179.844843417 181.538275339 183.174980937 184.759973657 186.302000367 187.814396979 189.314212489 190.818906732 194.688652928 195.886935833 197.022068651 198.045393625 199.06685488 199.603071908 200.068425851 200.057877051 200.070083208 200.17322256 200.407923211 200.785056478 201.293128376 201.908321668 202.60273511
42.4516901684 42.2983618081 42.1879811245 42.1162963094 42.0638621496 41.997586611 41.8806981767 41.6879124676 41.4189503505 41.1048189189 40.8036251575 40.4553745697 40.3770710231 40.4175998463 40.4620749236 40.5759470105 40.6397341789 40.6135849043 40.2937821728 40.0892905503 39.8407185683 39.5964778549 39.4069380447 39.3065205052 39.2995551415 39.3595065443 39.4217372236 39.4840034532 39.2144182934 38.840143456 38.6629268608 38.4277607926 38.1539793763 37.8714986408 37.6639850606 37.4547711308 37.324181693 37.3089206516 37.2754415123 37.2287243692 37.1213695629 36.9532432385 36.7416951715 36.4317558974 36.1976933941 35.9800899395 35.4906398053 35.3044338319 35.1287340047 34.6415380916 34.4619501415 34.278293398 34.0912139954 33.4623862471 33.2899910893 33.1263911206 32.97156027 32.8229297902 32.6755483901 32.3983171731 32.2435003986 32.0751085072 31.8940995103 31.7068119764 31.3833911805 31.2676064608 31.1859570418 31.1408222409 31.1257891534 31.1276726703 31.0707159233 31.0305745921 30.9595020742 30.8808986976 30.6528840617 30.5706102634 30.5024142582 30.4493689386 30.4133494104 30.3862743751 30.3712467994 30.3674378601 30.0941874409 29.9415221652 30.2419713744 30.2959524121 30.3664296505 30.4524761239 30.5507316852 30.628459187 30.7341455157 31.1051286934 31.1047381432 31.0829315121 31.1002230512 31.1360320583 31.2043709573 31.3151793135 31.6574309354 31.9113827777 32.2076364483 32.3917465777 32.725178334 34.2784792045 34.5415311167 35.0330633498 35.9771938243 36.3641457925 36.9026795554 37.464029836 38.0506787455 38.6645372201 39.1225971499 39.7920768557 40.5052426586 42.759272839 43.2984092144 44.2144889537 45.2778837458 46.5272117789 47.9855017248 50.1211481839 51.7918629322 53.4127685523 54.7781430402 55.6938666353 56.0654199364 55.9651424709 55.556193434 55.8076124933 55.7277367475 55.9124772274 56.9354061347 57.7702126535 58.7125120556 59.7368344395 60.7560095561 61.6899134132 62.3850890478 63.0217701528 63.5629715025 64.1247953777 64.8653648529 67.2748726238 68.9175500067 70.9979571309 73.4272169924 76.0150890525 79.1038599717 80.9050830465 82.070730512 82.5702231236 82.5666882782 82.3580717335 82.2630559582 83.692236611 84.838226274 86.4214171493 88.3313202243 91.8038148717 93.9687326048 96.0134868852 100.133772264 101.285721518 102.789113333 104.217669326 105.67822096 107.280671889 111.944997497 114.086342686 116.467746814 119.03171518 121.668897937 124.223376013 126.510278748 129.211725971 130.074025615 130.652570895 130.668644775 130.819117761 131.319972693 132.398673718 133.90827035 137.627096111 140.593441765 143.495220519 146.394839241 149.202173648 151.86668449 158.285000215 160.720645507 162.993444152 169.188028308 171.31382758 173.350676456 175.317429432 178.198502875 180.083653599 181.761171692 183.37603345 184.929442393 186.428082797 187.885733726 189.322882988 190.763455596 194.55894319 195.741134275 196.88128573 198.196663222 198.9757828 200.007176125 200.071176507 200.06784955 200.087103826 200.205658567 200.467666874 200.882963001 201.436606503 202.100848809 202.844423154
42.2930810624 42.1176991088 42.0070007546 41.9650344291 41.9740501329 41.994180839 41.9772645561 41.8881706307 41.7205083417 41.4996673307 41.2742559176 40.9085220359 40.8304481812 40.8333745749 40.886965302 40.9396991704 40.8078589772 40.6973138092 40.286266992 39.9948108313 39.6537276909 39.324541954 39.0786146557 38.9680952397 38.9993619973 39.1308831304 39.2817713946 39.4214762983 39.3328150837 38.8965507117 38.7433719943 38.5256191476 38.2646758855 38.0766539893 37.8064530995 37.5968872135 37.473714426 37.3852341988 37.2675513207 37.1891285358 37.0465642289 36.8417527929 36.5250037618 36.2631419521 36.0167911958 35.5278570432 35.3364677449 35.1682888296 35.0110199848 34.5622661452 34.3917564855 34.2113420942 34.0228762174 33.4147816535 33.242107466 33.0814158762 32.9339136674 32.7971657221 32.4920336938 32.4174951335 32.2770329864 32.1213107733 31.9509578635 31.7725090548 31.4329592392 31.3153275631 31.2299955446 31.1784590946 31.1539286921 31.1437454383 31.0413693653 30.9168645279 30.913508416 30.6861202681 30.5961206453 30.5176338609 30.453939724 30.4057683686 30.3745602178 30.3517130879 30.3400810002 30.0832509288 29.9281628954 29.940121372 29.9683528535 30.2787852445 30.3531472121 30.4462445422 30.5547656369 30.6469832896 30.7669301933 30.8728939612 31.0530133882 31.0595360852 31.0662907147 31.0908367797 31.1496451757 31.2540834829 31.5740311822 31.8312886306 32.1305072565 32.3170209047 32.6469556643 32.9981828186 34.3968561803 34.758139253 35.7746859846 36.1395847787 36.6559431154 37.1943300786 37.7558587411 38.3399613659 38.7620650127 39.3814516254 40.0275928328 40.7108474336 42.5318471696 43.3174885969 44.2355107967 45.3335752814 46.6461909366 48.6881481646 50.2801147776 51.8553583634 53.2161881949 54.1816884904 54.6682967365 54.7531040941 54.5547519562 55.2180877902 55.288620612 55.6180531843 56.2235577841 57.6964464154 58.8107947384 59.953558453 61.0829930174 62.0955789656 62.8190452321 63.393686639 63.7790710716 64.1128214946 64.5926288218 65.4175625745 68.0558558491 70.0059024478 72.3306207008 74.8361263134 78.0154923571 79.8448252186 81.0923275598 81.732484865 81.918546987 81.9301947412 82.0713457224 83.9217017678 85.2682582309 87.0646489701 89.1967250483 92.8558918826 95.1639281199 97.2941804973 100.725419268 102.283921573 103.615142826 104.827496953 106.058408327 107.448198128 111.767556755 113.838528292 116.207787868 118.810636634 121.524561421 124.175679961 126.557881688 129.269482578 130.155010826 130.638589225 130.615216586 130.749002753 131.334939366 132.44948776 134.112113416 138.02654208 140.919144278 144.247256414 147.279303952 150.169681208 156.515167215 159.117728535 161.496753449 163.698102108 169.714850224 171.774070444 173.758545028 176.662431991 178.606084435 180.326963703 181.986210314 183.5755673 185.090377551 186.533484837 187.917761945 189.266358285 190.609585013 194.30368319 195.443706308 196.939399287 197.892534254 198.71029265 199.963333984 200.083920245 200.125140131 200.182961536 200.340143325 200.643947709 201.104348941 201.704844624 202.415620047 203.203530764
42.1136327971 41.898452324 41.7713349455 41.7499108931 41.8210846332 41.9363200088 42.0311733868 42.0566363172 41.9983785451 41.8757329945 41.7283900339 41.5992165819 41.2781116083 41.2479266481 41.2403940545 41.2160351614 41.1302075048 40.9444143108 40.3001858112 39.9189754541 39.4766914282 39.0487772193 38.7339123678 38.6099483578 38.6869631356 38.9024404367 39.1517299167 39.3755173308 39.509909356 38.9701474111 38.8461113277 38.652648362 38.5334586744 38.263733492 38.0077220774 37.7996861353 37.6762841639 37.522301587 37.4323376788 37.1219832368 36.931681583 36.6141538832 36.3252026589 36.0381847559 35.781468952 35.3180423966 35.1492190711 35.0091500016 34.8795929827 34.4777577953 34.3194444587 34.1426152176 33.9507847913 33.3621589558 33.1867487745 33.0274137993 32.9890356033 32.8587380964 32.4973902855 32.3870276291 32.314244558 32.1741259039 32.0172736297 31.8505797637 31.4934326731 31.3731326417 31.2819850839 31.2205354491 31.1821448483 31.0372463968 30.9959371373 30.8420155726 30.6251900937 30.6109353622 30.5275413103 30.4563384572 30.4002497864 30.3595600189 30.3351238842 30.3178002648 30.3100533052 30.0780408785 29.9331705564 29.9404859068 29.9630410711 30.0079016909 30.3308996442 30.4281153248 30.5442247421 30.6475113011 30.7797061918 30.8918568897 31.0458642228 31.0500184189 31.0505984136 31.0672481955 31.1186866599 31.2177450444 31.3692744733 31.783076551 32.0820704617 32.2650701247 32.5879826511 32.9282603339 34.1536950236 34.5984777664 34.9360153105 35.9113155344 36.4022757214 36.9159472653 37.4518884828 38.0065658225 38.3933349821 38.9618603505 39.5374227966 40.1240369488 41.7187656845 42.3455555666 43.0801713551 43.980466609 45.0951148828 46.4354102029 48.4446019865 49.9402837697 51.2824381409 52.3094970974 52.9481055213 53.2709524284 53.3416944046 54.3105982936 54.5984505344 55.2429805791 55.9988421932 57.0044222168 58.8696418329 60.1475204312 61.4161877277 62.4685902809 63.3502264938 63.8971892818 64.1370229956 64.2279124015 64.414513786 64.9391662842 65.9649841072 68.9365397585 71.0659550504 73.3905409902 76.6109960622 78.4229548071 79.7505573716 80.5760379172 81.0319491622 81.360087876 81.8302038194 84.223613143 85.8142852188 87.8570012436 90.2425610364 94.1120190936 96.5910365512 98.8301097472 102.057893752 103.493236177 104.612570809 105.552976126 106.490907056 107.604086552 109.429722754 113.460631783 115.769779731 118.358935447 121.092694655 123.783962249 126.214947062 129.159883983 130.521175647 130.679581927 130.71325569 130.918467756 131.616294739 132.863862692 134.693570035 138.895083344 141.954720702 145.082095211 148.521661008 151.452748666 157.642103293 160.162238845 162.435246913 164.520862849 170.303147771 173.280148661 175.147212945 176.977884069 178.869213033 180.573229663 182.216400959 183.781270729 185.255085369 186.634917019 187.931294247 189.169253447 190.385483533 193.97487219 195.449818722 196.447407776 197.413269654 198.270407181 199.866680375 200.092266947 200.22582072 200.362834739 200.58824353 200.951881925 201.465665276 202.114193448 202.868077422 203.694195357
41.9440560548 41.6737423685 41.5138899199 41.5012549646 41.6309412452 41.8437113206 42.0536167064 42.1941721563 42.2423200672 42.2122613796 42.1370214428 42.0511127297 41.6912570945 41.637289197 41.5824336327 41.4968612115 41.3439679883 41.0880388683 40.7026560805 39.9082967795 39.3738830901 38.8499313613 38.4637754426 38.3233945401 38.4438987404 38.7320589478 39.076925953 39.3749895031 39.569512698 39.3565840968 38.9694374389 38.9460884822 38.7271871102 38.4813689875 38.2399348838 38.0300372577 37.8938195052 37.6472635612 37.5304127211 37.08959237 36.7107037553 36.4026640264 36.0700443155 35.7528417377 35.4857953125 35.0630551754 34.9269324678 34.82702708 34.7719691675 34.391239437 34.248604084 34.0754781929 33.8775738044 33.4297649055 33.2362514076 33.063551858 32.9189813048 32.5875249121 32.4994372855 32.4085916798 32.3036105072 32.1389781152 32.083788785 31.9287891464 31.5543972216 31.4290736185 31.329331694 31.2550164276 31.0330034011 30.9879840637 30.9356958094 30.7268032619 30.5209572218 30.5251999499 30.4514334993 30.3906041277 30.3450758495 30.314488743 30.2988124751 30.2882834733 30.2847032622 30.0817501828 29.9473985707 29.9457925922 29.9575827787 29.9920964528 30.0576461437 30.1594413895 30.5153530075 30.6238740456 30.7084386399 30.8567559399 30.9693296015 31.0484946493 31.0491936266 31.063253795 31.1109602955 31.2064642481 31.3551550271 31.7685043403 32.0633350208 32.2362443052 32.5485127095 32.8739848144 34.0302368097 34.4446786685 34.7557908159 35.6779258048 36.1410699118 36.6295872614 37.1414793835 37.6699607682 38.0259905501 38.5482294085 39.0566232775 39.5470841392 40.8996652323 41.3504395938 41.8773826698 42.5512845193 43.4397441915 44.5745232148 46.4451099851 47.8634634199 49.2002614381 50.3088142248 51.1734638235 51.6942782976 52.0450575643 52.309068702 52.6890016162 54.7831157818 55.6865040386 56.8257022915 58.8312002267 60.2431270042 61.5758799083 62.8749502525 63.8771053472 64.4465146193 64.5765010049 64.4399585546 64.3325565905 64.5438381156 65.2558066013 66.514018237 69.7717091867 71.8571243325 75.0833042279 76.8513333077 78.2542080813 79.2812452776 80.0404512324 80.7292016524 81.5751186437 84.5557294101 86.4216379169 88.7378240195 91.4071542761 95.509483352 98.2004196607 101.792167449 103.605143564 104.914224676 105.791433482 106.409403669 106.995071757 107.772710778 109.276024135 112.986504403 115.189453979 117.712003443 120.406872233 123.079944483 127.237267991 128.76627624 129.771252144 130.799711427 131.004322771 131.454063701 132.286139195 133.704188772 135.711005471 140.273581333 143.455747266 146.679117551 149.770633553 156.323870035 159.031271023 161.413919741 163.528998247 165.4519498 171.909776003 173.717119426 175.504564668 177.402733291 179.126360132 180.819264372 182.453523623 184.00001513 185.435566152 186.749490524 187.948588334 189.059277695 192.555457022 193.450174921 194.837536571 195.800967673 196.774329433 197.616173653 199.688403156 200.073089423 200.353497507 200.617019819 200.946099337 201.392236616 201.971036573 202.670983949 203.465800982 204.324502815
41.9239917133 41.5494373826 41.3061864709 41.2929609254 41.4723083191 41.7734698968 42.0870325527 42.3288466602 42.4683543156 42.5162805671 42.5012787056 42.4524841518 42.2774239839 41.9990253695 41.9133128905 41.7872843825 41.5912646518 41.2929486198 40.8643074966 40.0166464943 39.4250259502 38.8364958201 38.3980770577 38.2410625933 38.3849758179 38.720647984 39.1145343638 39.455150962 39.6857293403 39.4900953676 39.4547296609 39.1319821038 38.9382688847 38.7130415274 38.4815095403 38.3004615364 38.10869732 37.7632838199 37.5710799254 36.9860592435 36.5271667476 36.1560799841 35.7676179313 35.4104769252 35.1294223685 34.7631926336 34.6987424709 34.6547252391 34.6187658207 34.5636377921 34.1836593079 34.0142968826 33.5809820986 33.3651694199 33.1579461874 32.9773034139 32.8347703009 32.564626093 32.4974417967 32.4275287638 32.3399250964 32.1914101785 32.0497310755 31.895961779 31.6062385919 31.4729168244 31.3620722562 31.2731595192 30.9861115672 30.9262570283 30.6996783291 30.6273505356 30.4110204668 30.3340732856 30.3724668779 30.3247435672 30.292680206 30.274978437 30.2702410877 30.2678745382 30.1795183504 30.1621580545 29.975372378 29.9596410576 29.9547469104 29.9725957495 30.0233475406 30.1132308713 30.2425155257 30.4877353256 30.6513310268 30.8016467919 30.9174991993 31.0452176373 31.0533772491 31.0716825501 31.1208454427 31.2159010956 31.3630135073 31.7847005898 32.0717331798 32.2286629257 32.5273465924 32.8348019543 33.9162275542 34.2947645554 34.5577426348 35.4374053411 35.8710284707 36.3350622105 36.826177734 37.3343166353 37.6678753003 38.1537432885 38.6057744872 39.0104166404 40.1195258414 40.3915801463 40.7038000456 41.1435120496 41.8028740948 42.7388399293 44.4524776775 45.8184777606 47.1732536977 48.3759274128 49.4157878777 50.1595362303 50.7192596166 51.2546579863 51.8597501265 54.2319416901 55.2593162166 56.5030486206 57.9586024215 60.1438149418 61.5986673706 63.0568378269 64.2027309166 64.8412908803 64.9187573659 64.6100748976 64.2546433332 64.1848759556 64.5999110819 65.5448863298 66.9469499092 70.3684389899 73.5860158982 75.2996223618 76.7687905838 77.9877101825 79.0413824346 80.0859991741 81.1328763945 84.0820459462 87.0044589662 89.6069482663 93.8941796715 96.9335418498 99.8823725906 103.449661809 105.299912824 106.500022226 107.122130545 107.381616816 107.569629006 107.967606262 109.10756158 110.456590992 114.522421408 116.934353471 119.541883571 122.150845114 126.595526295 128.224009782 129.470252581 130.191829199 131.621187403 132.264634858 133.333311261 134.961735101 137.158975943 139.821124928 145.400168028 148.681929597 155.172436803 158.111321734 160.663342231 162.856537663 164.762431237 170.779230963 172.467834061 174.141883814 175.840722267 177.662423782 179.367791964 181.060056229 182.697270284 184.236219456 185.64100972 186.891214098 187.988629179 188.960976241 192.071233102 192.831203182 194.096588689 195.01841078 195.930449776 196.891962349 199.405751986 200.004581105 200.487586099 200.927228447 201.398977812 201.954609138 202.61441567 203.37294122 204.209399082 205.097015129
41.9341174138 41.5156104842 41.2545031376 41.2367143849 41.4459310654 41.8078543747 42.1920756473 42.5027960044 42.7052224893 42.8078692442 42.8360734411 42.8150947941 42.6410757806 42.3393554711 42.2384195146 42.09344613 41.8812326668 41.5741030066 41.14531936 40.5818869899 39.6901940767 39.0946003638 38.6438581086 38.4727992291 38.6026754095 38.9242615077 39.3080734715 39.6429387269 39.8747806705 39.6652869337 39.6459086987 39.336969962 39.1617463926 38.9507195064 38.7227609123 38.5405575747 38.3138479452 38.0757288922 37.6019266926 37.0499211735 36.6447771465 35.8979531589 35.4393042769 35.0282234182 34.7248607638 34.449332508 34.4095858953 34.433857741 34.469436284 34.4632844103 34.0777341785 33.9075107979 33.5366852494 33.3030581014 33.077585085 32.8848160197 32.7416081972 32.5378733124 32.492748664 32.4437017464 32.3714122171 32.2680667415 32.096614412 31.9421792626 31.641301003 31.4974544168 31.3740125655 31.0070728046 30.9271218606 30.667299716 30.5963313686 30.5243730175 30.3005771323 30.238115874 30.2943324243 30.2623164033 30.2467868532 30.2451539676 30.1698245609 30.1883265395 30.1987492793 30.1829892024 30.0203603324 29.9846599409 29.956824967 29.9516947716 29.9810873348 30.0517508914 30.1638190705 30.4003961606 30.555623375 30.7008144022 30.8156543948 31.0293676673 31.0517960522 31.0815160583 31.1383349332 31.2374377239 31.3857541227 31.5815836938 31.966099795 32.2387247514 32.5224465583 32.7222657494 32.9084803808 34.1470093615 34.3728816995 34.7302055563 35.5906190589 36.0314694945 36.506159633 37.0016296875 37.3236388373 37.7874887245 38.1082643549 38.457780795 38.7235686408 39.5309417601 39.6411984186 39.8604887174 40.3096650801 41.0727985605 42.1458489357 43.9632801615 45.3501824956 46.6412966112 47.8255596385 48.5771785023 49.4869500801 50.2164769693 50.9947351754 51.9056128109 54.6949645409 55.9957271433 57.4953704853 59.6288172619 61.2591043084 62.8158904125 64.0741701471 64.7974095023 64.886591976 64.5015033492 63.9994235201 63.7356551077 63.9200454264 64.6019984704 65.718593238 68.9777318354 72.1938062341 73.8533808192 75.3771207279 76.7620203841 78.0740905651 79.2230386169 80.765520064 84.2244638211 86.587394761 89.4278005958 94.9025309081 97.9970787284 102.435933639 105.04784507 106.989360327 108.119431901 108.500205993 108.394232387 108.169214415 108.430136817 108.938435967 110.012914437 111.650712382 116.102347911 118.592394904 121.112115119 125.879335095 127.770482697 129.072976799 130.06855111 132.333322154 133.309283314 134.673761242 136.552602421 138.961888079 141.810186529 147.708826485 151.030889103 157.352787922 160.143708852 162.502254128 164.462162803 166.111577048 171.514806098 173.001672292 174.52838276 176.241401545 177.88471845 179.582979485 181.289036871 182.944626058 184.490264103 185.875206424 187.067358524 188.062321169 189.340687779 191.525242232 192.524643172 193.239109471 194.050873796 195.055030322 198.017188423 199.016255716 199.880813905 200.617593855 201.2797484 201.932532788 202.626385274 203.38627687 204.213937956 205.095750045 206.010906417
42.1380622646 41.718295021 41.4575562734 41.4442190774 41.6959586544 42.122538901 42.419334969 42.7508097518 42.9772219667 43.1051369761 43.1560865868 43.1513463139 42.9783410833 42.9102355774 42.5605592075 42.4156112895 42.2124140906 41.9290635462 41.542582 41.0401195092 40.1737774304 39.6304651039 39.2085409824 39.0251094574 39.0920783915 39.3475268822 39.6617316233 39.9427852161 40.1410218831 40.1821939777 40.1777565642 39.5619710255 39.3971865913 39.1935799259 39.0187811537 38.7780967233 38.5162588383 38.2213335777 37.7812172922 37.3575917993 36.4968958802 35.9290391205 35.1248448024 34.64605651 34.2309929442 34.097143954 34.1146693616 34.2196427299 34.3299298746 34.3803499556 34.0419659727 33.8747961492 33.50450595 33.2515095972 33.0056599272 32.7983256384 32.5607025373 32.5125966998 32.4885524707 32.4577029437 32.396161207 32.2962556677 32.1260078407 31.9665637071 31.8055421092 31.4977804286 31.1663695557 31.0526529824 30.6472120567 30.565939321 30.4904098962 30.4196605736 30.1915572882 30.1442710127 30.1155879368 30.2047849163 30.2090463063 30.2271139415 30.1886103845 30.2215348333 30.2368545043 30.2209185269 30.0813748287 30.0200002876 29.9636073457 29.9302726042 29.9331500117 29.9789377411 30.0671956296 30.2893377986 30.4294832148 30.563900562 30.674372083 30.7484126941 31.0342711706 31.0813736608 31.1519338905 31.2604435777 31.414284774 31.6125625396 31.9993256929 32.1750029766 32.4439908371 32.7125948619 32.8803861285 33.1303729992 34.1882518366 34.5048828411 34.6605585847 35.7178574883 36.1805148142 36.6714413658 36.9936614781 37.3478320851 37.7559132148 38.0715019543 38.2727747657 38.3654569347 38.7690507717 38.8033493241 39.07800253 39.7015874414 40.6795464528 42.4130680785 43.8246634323 45.1766846848 46.2655785827 47.3026777605 48.3540816713 49.2133937383 50.1033426085 51.0956244142 52.2517236215 55.2847741164 56.7557093146 58.8711373646 60.4668900033 62.0116918514 63.2931821808 64.0705819287 64.2215338973 63.8759873067 63.3684880543 63.0421198227 63.1042430339 63.6115350813 64.518387692 65.7255669221 70.9126397674 72.5264560337 74.0931681653 75.6114048433 76.8740569747 78.4744719115 80.3012952812 84.1948739545 86.8021237323 89.8920680808 95.3088140465 98.918623855 103.504747689 106.335412529 108.413705678 109.527379251 109.715908995 109.285756063 108.684256907 108.545507738 108.751327914 109.565707303 110.97183609 115.282292941 117.644936725 120.596099346 125.371484389 127.184457523 128.712560241 130.01623623 131.229227578 134.480257965 136.178850365 138.34170442 140.990420135 144.047927208 150.25505715 153.513747868 159.714710871 162.348973624 164.494809113 166.19023603 167.543293329 172.210519602 173.478363057 174.851059912 176.445535304 178.056457513 179.762421444 181.498978463 183.189720963 184.757285617 186.134380562 187.821069519 188.601663933 189.189784921 190.924176864 191.675115828 192.283478878 193.071933638 194.132818833 197.254288235 198.549909919 199.724210137 200.756259933 201.678640275 202.544989811 203.4030624 204.28174005 205.190022948 206.12227458 207.06488112
42.8432243436 42.1699036948 41.9459628218 41.9452147284 42.1764874878 42.5576221 42.9651801048 43.3088056046 43.2903487472 43.413909324 43.4675837736 43.4675544627 43.2939651843 43.2292265533 43.1312555794 42.7455868137 42.5704659417 42.335674537 42.0226220503 41.6188165748 41.1372981371 40.361762335 39.9894086293 39.7918760688 39.7787133234 39.9285277991 40.1375123268 40.3340448887 40.4190946374 40.4771614203 40.4579253523 40.3680856631 39.6461735283 39.5018703539 39.2776221633 39.0218904708 38.7296817564 38.2854975458 37.8771480437 37.3754434677 36.4152182873 35.7565260084 35.045111118 34.3466851416 33.9172726609 33.7927583985 33.8636020502 34.0434620983 34.225537042 34.3287297009 34.3128504927 33.8626547786 33.4907338713 33.2207994183 32.9569751977 32.7363566663 32.5302422309 32.4956719256 32.4877373853 32.4684346902 32.4102391924 32.3069369548 32.1316718592 31.963779085 31.7947853723 31.2678601079 31.1185397838 30.6519600804 30.5483451853 30.4592840146 30.3810297398 30.13322878 30.0828538676 30.0509722602 30.0420312747 30.150228876 30.1771999412 30.153371402 30.2189530741 30.2686449796 30.2891115398 30.2708796875 30.1492164481 30.058254927 29.9700193146 29.9058355081 29.8797080827 29.897763602 29.958725337 30.1627317925 30.2839584257 30.4045031348 30.5088762818 30.5867711262 30.9946972277 31.062875091 31.1519812492 31.2751547471 31.4397684028 31.6455936159 31.9478542369 32.2052712704 32.466886828 32.7210493648 32.8738817568 33.0932561427 33.1312796232 33.3482935359 34.4105574516 34.7706391198 35.848313159 36.0605118801 36.5569899242 37.0352681327 37.4527153993 37.766843267 37.9462761847 37.9880000668 37.9366313858 38.0565260818 38.2039338814 38.7187705309 39.6111360009 40.7748647016 42.4597595696 43.898966047 45.115517401 46.1631227667 47.3308958475 48.2551070968 49.1954788878 50.2107482989 51.3509696636 54.381466164 55.7535704954 57.7738685419 59.2269783911 60.6360368407 61.8269307023 62.5954799848 62.828103414 62.6198676367 62.2450071535 61.9967734484 62.0619291104 62.5021196779 63.2920251278 64.3609344038 65.622707408 71.2931649677 72.6110193763 74.2040739181 75.8593419907 77.6536806429 79.6899945293 83.9253528048 86.6974868586 89.9456191457 95.4887081431 99.4233507085 103.132372612 107.007704491 109.231691053 110.381308431 110.464007797 109.814731131 108.944239809 108.519230806 108.492565875 109.096186779 110.303451437 112.009238906 117.372151116 119.630384056 124.704139944 126.660643184 128.419892336 130.036982462 131.625069149 135.666667419 137.71149921 140.177031515 143.088764152 146.38370879 152.733140489 156.127050155 162.137838334 164.632078136 166.567644189 167.983893523 169.012273813 172.825513678 173.867781714 175.177316792 176.576249384 178.170017417 179.900348712 181.683664227 183.424464983 185.026896255 186.980602425 187.944452405 188.623620945 189.061025513 190.283961382 190.759317307 191.218447406 192.067205683 193.223085071 196.44711988 198.0759987 199.591477491 200.946019585 202.152981391 203.254646332 204.295285975 205.306613415 206.304246613 207.290570468 208.259784407
43.5147936059 42.80784647 42.6390502856 42.649552284 42.835633934 43.1299975605 43.4406231651 43.7025993014 43.8936242682 44.0175793184 44.0852491752 43.762190907 43.5870481414 43.5259241213 43.4364767472 43.3191377786 42.9305609953 42.7567109911 42.5309731215 42.2387273949 41.8823022716 41.165441958 40.8403793945 40.6263125945 40.5348380461 40.5771980079 40.6764666613 40.7811185734 40.7933206794 40.8078267093 40.7643936897 40.66418546 40.2964121784 39.7765896599 39.5485680624 39.2817540856 38.8566209799 38.4851095358 38.0339832123 37.4792031973 36.8031337371 35.6870916093 34.9392222478 34.1896124462 33.7485804873 33.6235901169 33.7275146553 33.9579995451 34.1882711005 34.3252949992 34.326705638 34.0027912141 33.5006186328 33.2201759785 32.9456531877 32.6068786223 32.5190627668 32.4907024538 32.4885373929 32.4697330531 32.4053758918 32.2918352132 32.1437139035 31.7508442134 31.5545352363 31.3770853465 30.6844918805 30.5497444863 30.4383921503 30.3448821785 30.2660032579 30.0112129958 29.9710973774 29.953928971 29.9640514469 30.004144771 30.0747304307 30.1551156135 30.2466608836 30.3143124374 30.3401542982 30.3177319419 30.2037754432 30.0836838649 29.9649162515 29.8714707081 29.817593056 29.8085232324 29.8421816963 30.0270835263 30.1285060167 30.2345543296 30.3326039376 30.414602825 30.9312348233 31.0217291694 31.1322717717 31.2743705051 31.455027801 31.3960115728 31.9812518823 32.2435608417 32.5053396018 32.7516043588 32.8295147193 33.0862159258 33.1031580705 33.271285811 34.168477942 34.4924818336 34.8912711321 35.7263987619 36.2355554739 36.736095439 37.1813554848 37.5234705504 37.7239737176 37.7714264484 37.7033379884 37.6240853961 37.6774748056 38.0865486064 38.7966812458 40.3261783341 41.6199027176 43.011569495 44.1577345083 45.2297740577 46.4155998253 47.3462204559 48.2832514606 49.2722237813 50.3495793744 51.5392141887 53.7474758592 56.4095763425 57.638780868 58.8160260272 59.8208137851 60.5131899596 60.8150472626 60.7927729013 60.6426750914 60.5830896613 60.7623091568 61.2384962157 62.0032616515 63.0118590602 64.2068401941 67.6282402178 71.3881835543 73.0501611934 74.8103172939 76.7304519199 78.8947310812 83.3715297324 86.2101549507 89.4257882602 95.0661995277 99.0127143541 102.786301928 106.792952509 109.118393682 110.33792331 110.427742331 109.724033125 108.892618979 108.229912416 108.084830719 108.560069227 109.627348333 111.185126503 113.708327653 121.911660251 124.121607558 126.216891705 128.196182789 130.108551912 132.048954364 134.684234387 139.150387192 141.915582174 145.098252469 151.584861559 155.164619349 158.685506355 161.897800068 166.871328883 168.620144505 169.762332754 172.643731099 173.324031687 174.148576253 175.291504864 176.632825892 178.227718938 179.998078168 181.840355844 183.64039365 185.911175384 187.157706322 188.079325393 188.660081239 188.948759812 189.805044359 189.819504395 190.240341615 191.124058198 192.412643245 195.722358615 197.70362606 199.572509477 201.257955806 202.75671854 204.100800817 205.330590591 206.479512148 207.568765144 208.608250826 209.60006727
44.2754667377 43.9809364639 43.4060983802 43.4127833911 43.5354205109 43.7236355779 43.9178960092 44.0807929577 44.2029991975 44.2885755896 44.3407956567 44.3581470279 43.8529218099 43.7945928507 43.7118533959 43.6100842246 43.2626510469 43.1479766537 43.0059972432 42.8170364764 42.5707267133 42.2856728881 41.6406208858 41.386996936 41.2606504803 41.2163566352 41.2237320254 41.1876404129 41.1896744162 41.1597556208 41.0886531679 40.9735458355 40.5882715757 40.0658142837 39.836201122 39.4464004697 39.1240371813 38.7388620477 38.270274076 37.6952830416 36.996988149 35.8338730447 35.0615813288 34.2904731884 33.8418272966 33.674027576 33.7779287071 34.013481092 34.2477392256 34.3851481406 34.3842020467 34.0545832466 33.7982103364 33.2531628754 32.976932802 32.6171491771 32.5258517286 32.4920237569 32.4807844571 32.4487779497 32.3686305246 32.2396202494 31.8842676606 31.6697227758 31.4680227633 31.2864577435 30.5669419588 30.4286934234 30.3147451708 30.2202587291 30.1426755609 29.8827288895 29.8516420706 29.8470353722 29.873416862 29.9335593064 30.0280150262 30.1334094424 30.2482535025 30.3323348286 30.3635506748 30.3298440214 30.2164524391 30.0744544669 29.9328085424 29.8169195598 29.7407145146 29.7086003778 29.718085212 29.885516939 29.9685449451 30.0612226309 30.1536675982 30.2399631945 30.1449304298 30.2122425921 31.0895006201 31.2532724121 31.1655109442 31.3958402588 31.6638060521 32.2872082115 32.5596179642 32.8080971438 32.8966292368 32.9960929676 33.1218928232 33.2350582096 33.370341144 34.2266935016 34.5942860139 35.3906690206 35.9099570794 36.4343406013 36.9157751883 37.3044763805 37.5584061315 37.6594256337 37.6342656602 37.5730765389 37.6048106173 37.8431104369 38.5403092174 39.3108950804 41.0905779483 42.3827935525 43.4359073128 44.4450482805 45.5971893238 46.486922016 47.3791663558 48.3069705954 49.2928946601 50.3459591671 52.4210439577 54.889581659 55.8555292186 56.7512511114 57.5134234961 58.0762369544 58.412137732 58.5726115583 58.6800390765 58.8702553596 59.2401843672 59.8328535314 60.6484925751 61.6623336741 64.5893540199 65.9858521006 70.1852562041 71.889722348 73.7079545041 75.6895095949 77.9017667433 80.7418972975 84.9374839481 88.3992694231 91.981521474 97.8000968029 101.456807028 104.831048076 107.900675803 109.200723304 109.413810257 108.84594854 108.170725145 107.5770024 107.454320294 107.905684103 108.910441436 111.036452286 116.043968393 118.149407407 123.623501516 125.845939136 128.022270424 130.195561705 132.445524269 135.440348815 138.067950689 144.158678498 150.022209766 153.594580187 157.324212987 161.002270499 164.358408938 168.913731422 170.515568025 171.411063173 173.263425808 173.682731232 174.372940475 175.323351493 176.631564269 178.245905802 180.067180518 181.972752815 184.515341012 186.069591036 187.325718375 188.21089777 188.70317947 188.858166572 189.164212145 189.056050385 189.430401781 190.380156944 191.826349228 195.251309708 197.574964744 199.783151618 201.784978719 203.562893291 205.139396915 206.55050879 207.830201594 209.004058144 210.088685979 213.178614404
45.0373931237 44.7957397187 44.6435654642 44.1106374676 44.1528075224 44.2266898032 44.301614617 44.3664813616 44.4263003743 44.4853726979 44.5366133693 44.5643380614 44.5531913434 44.0310104788 43.9492715167 43.8513106186 43.7498848081 43.4664920734 43.3900593197 43.2835163079 43.1244210822 42.9167742328 42.5821632243 42.0617045123 41.8998090196 41.7990519054 41.7419605085 41.6380128086 41.5878536399 41.5188865054 41.4213967605 41.0341949841 41.2019664636 40.3693677261 40.0204720363 39.7488095671 39.4306128372 39.0514939958 38.5923428267 38.0323311079 37.3568491029 36.5732758577 35.4342284229 34.6571302559 34.2129972826 34.0368940991 34.0421869822 34.2287784232 34.4155137647 34.5148979709 34.6220938578 34.1385823658 33.8800356388 33.3150231125 33.0424424714 32.6412087693 32.5375075762 32.4839321175 32.4475017343 32.3890181109 32.2852147939 31.9695210859 31.7535888548 31.5377970206 31.3373509849 30.7767490129 30.6126219993 30.2872750456 30.1758610712 30.0835668823 30.0086109532 29.7441787965 29.7196528871 29.7237037895 29.7611009538 29.7261856809 29.8582945253 30.0664726282 30.1969450161 30.2926066114 30.3290814732 30.285158863 30.1597777135 30.0098358451 29.8588087803 29.7318209039 29.6421454609 29.5937887823 29.584512104 29.7380409046 29.8055150142 29.8868756737 29.9747807045 30.065282414 29.9527131202 30.0430536142 30.1524370258 30.2952990915 31.1190377247 31.3825951877 31.6870610084 32.3306666722 32.6261706744 32.8902397931 33.0056270429 33.1080647227 33.1972831266 33.2509692497 33.3133429612 33.9875777315 34.3117911882 35.0583531023 35.5770110648 36.1164808232 36.629509827 37.0673602261 37.3878263806 37.5686442806 37.6241976895 37.624106605 37.6730686837 37.8687386237 38.2560735273 39.1320791869 39.9049460593 40.7120452459 42.8688096622 43.7763778214 44.8574249386 45.6728309655 46.4932738621 47.3412654825 48.2270282844 49.1456581489 50.0765237148 51.6192789559 54.0366776071 54.6431616991 55.141276296 55.5375975278 55.8624814976 56.1692572206 56.5222449751 56.9791350334 57.5787269985 58.3381378694 59.2565416122 60.3218064331 63.3272320831 64.7404377388 66.2513672615 70.7122405091 72.5479255696 74.5346633462 76.2845996116 78.7257945911 83.6056480951 86.8856230043 90.1607390886 95.8400668667 99.21311337 102.351334719 105.633507738 107.011611317 107.442225449 107.37185545 106.874292211 106.518747591 106.558114151 107.09454699 108.398122084 109.796825081 115.361430476 117.458256638 123.191846358 125.525911298 127.869337526 130.259632222 133.444407145 136.033292807 138.9227285 145.497962959 149.671500271 155.184071684 159.045999209 162.875168132 166.386985847 169.251613276 172.079603532 172.778309055 173.690537922 173.899910583 174.421731045 175.306433866 176.60855288 178.256349342 180.130815453 182.812910688 184.619981915 186.21102501 187.476293766 188.335083307 188.762062658 188.820252114 188.81435286 188.614170016 188.982456375 190.017787111 191.622324389 195.230294529 197.849304241 200.352085324 202.630810559 204.65441165 206.435531669 208.004787338 209.395367345 212.60442538 213.771352073 214.826082711
45.7471659332 45.5202881201 45.3407351106 45.2033630838 44.619680514 44.5668603261 44.5180580586 44.4907180028 44.5072426027 44.5697183249 44.6525036343 44.7174491453 44.7327494422 44.682225851 44.1485094882 44.0364710792 43.9214846744 43.8254768093 43.6390143124 43.5893553693 43.4995722429 43.3617447493 43.0892763553 42.6034938637 42.433523734 42.3069247377 42.1510509188 42.061957767 41.9737371987 41.8739809252 41.7541527887 41.6843277467 41.5222389452 41.1165897555 40.3353230718 40.0744192274 39.772966787 39.4180624877 38.9926674309 38.4785628849 37.863842877 37.1568326747 36.1089787007 35.2568412792 34.8304074104 34.6470258678 34.6531732421 34.5797257051 34.6786199828 34.8458342249 34.7962293258 34.6347116316 33.9886048435 33.3425311136 32.8409553066 32.6626575113 32.535301137 32.4477375286 32.3718506144 32.2759436991 32.1425644163 31.7779689877 31.5617860823 31.3514448885 31.1598403243 30.5988616362 30.447028035 30.1258780577 30.0216771456 29.9340812828 29.862188235 29.5929147047 29.5711986226 29.5783928602 29.6195314582 29.5831257998 29.7167565344 29.9379027482 30.0732348731 30.1738756842 30.2159383512 30.1533186778 30.0197955797 29.8789093321 29.734430998 29.6095661978 29.5167967395 29.4602982703 29.4387812244 29.5829320097 29.6383117536 29.7106600496 29.7949667338 30.1441326409 30.248468006 29.8703580945 30.0087091966 30.3654458881 31.0475887217 31.3462853404 31.6917922627 32.3623983655 32.6931669968 32.9875790633 33.1463903565 33.2661815302 33.3259627472 33.3194917846 33.3015782143 33.3342715784 33.775007506 34.7387620376 35.2392455211 35.7763855396 36.3050979331 36.7794867691 37.1594559662 37.4210671759 37.5670957805 37.6463047647 37.7374441995 37.9182967996 38.5060989376 39.0494394974 39.6864222498 40.3647606568 42.4018557662 43.1868723439 44.1742590804 44.896004551 45.6314005684 46.3955886234 47.189457619 47.9967192205 49.46401338 50.1412741294 52.3180001708 52.6574529861 52.8937707492 53.0996881889 53.3688219487 53.7734074653 54.3376781139 55.0493223326 55.8866184428 56.8333942174 57.8800426561 60.7444510299 62.1052558797 63.5431288986 65.0636294748 67.1232713179 70.8718407427 72.7979317605 74.891462843 77.1949281631 81.9767058596 84.9573970523 87.8378827679 90.946724022 96.2602578217 99.0562946906 101.361872329 104.008606996 104.716092298 105.15595042 105.07299039 105.082388309 105.397304281 106.392813963 107.475629783 108.908368585 114.704332548 116.818317835 119.043374104 125.22985595 127.707633537 130.266856563 133.639936394 136.416648772 140.272382797 147.09824867 150.65880133 154.550763458 158.69411737 164.113064674 167.738499951 170.70454303 173.122136118 173.742206739 173.923231015 174.023262605 174.43173545 175.295568068 176.615506827 178.302051376 180.936343945 182.882529365 184.72708039 186.343109383 187.618165045 188.469497743 188.872618901 188.897549063 188.90409828 188.695115909 189.102578701 190.227560435 191.964802582 195.844771044 198.677604624 201.402308674 203.895890111 206.112911327 208.054541731 209.744314126 213.114049503 214.441524728 215.602297388 216.622064074
46.3900400766 46.1473706616 45.9086249658 45.6609540145 44.9321985658 44.7291176498 44.5384097602 44.4165358882 44.4125144178 44.5214308186 44.6828025008 44.8222771343 44.8867742899 44.852647501 44.7202584882 44.3143654912 44.1250572154 43.88054213 43.8194088671 43.7217949631 43.6938656773 43.6327760171 43.4408853407 43.0208608954 42.8692821135 43.0976447795 42.5664259538 42.4532979718 42.3397325387 42.4182377769 42.2860589319 42.1335969347 42.2971511783 42.0935669809 40.6600500734 40.4161058479 40.1414095127 39.8250892853 39.4520219068 39.005697666 38.4753692981 37.8681341532 36.8704179711 36.0020373084 35.6308848638 35.3818484131 35.290981522 35.1810925754 35.1548008782 35.1226427224 35.0125148898 34.8180190835 34.1150336187 33.414822053 33.1808958393 32.6669405948 32.5041059091 32.3700416499 32.2431395081 32.1007699497 31.7310875919 31.5210837641 31.3076226879 31.1088945941 30.5422933266 30.3873267957 30.255748696 30.1411276388 29.8538606305 29.7725769661 29.7031136596 29.4278904137 29.4041581032 29.4078994296 29.307758101 29.3960271723 29.5186673751 29.6633040116 29.8731711328 29.9734048645 30.0223559918 29.9378143347 29.8735834543 29.6849402974 29.5607262034 29.4496569928 29.3633028798 29.306383521 29.2790066368 29.4182180564 29.4648903508 29.5302750787 29.6114743592 29.9912068497 30.1042324086 29.6880652812 30.047767252 30.2541722529 30.5188047707 30.8523969897 31.6589318477 32.3627681706 32.7368519012 33.0735912825 33.2869595878 33.4367983203 33.4784233415 33.4174538502 33.3191197245 33.260540627 33.5875497966 34.440129785 34.9021008372 35.41555053 35.9382948148 36.4279656531 36.8475596718 37.1731748585 37.3980463381 37.5540425912 37.6981612476 37.888828232 38.5187494893 38.9697526179 39.4977812165 40.0667785218 40.6498650658 42.6435043969 43.5271086025 44.1477746565 44.7955056389 45.4822261879 46.2035295552 46.9352848718 48.2955173586 48.860878022 49.27851709 50.9182184101 50.9138083415 50.9186570284 51.0948746011 51.5498383942 52.283410666 53.2208106353 54.2800980484 55.4086234531 56.5838098873 59.5359338692 60.9492704753 62.4079449044 63.4572046775 65.0311522598 69.5799987201 71.4337530592 73.4106680578 75.533368864 80.1525467065 82.7634892834 85.2066514088 87.8003980011 92.857246971 95.2719419469 97.3580074505 98.9134840792 101.508475603 102.501349295 102.897844704 103.346282229 104.012775022 105.223909161 106.459782583 112.050100098 114.050098592 116.205571191 118.48210103 120.863074575 127.512610138 130.992746703 133.673236872 137.407486724 140.450749682 143.842053327 151.142069318 155.031877365 159.168813553 163.38921072 167.396200446 171.403159584 173.265881884 174.016736282 173.885819712 174.057428659 174.466278591 175.352666821 176.706122628 179.092775754 181.031986396 182.998872857 184.859565962 186.490019034 187.781489245 188.655798737 189.093747305 190.013993331 189.562514751 189.444154637 189.939425991 191.150526615 192.981035277 197.225512673 200.172263711 203.029946333 205.662002274 208.007162669 211.812503683 213.631722701 215.181367416 216.498616704 217.618955656 218.574440225
46.9790355886 46.7068439006 46.3964405328 46.0263071152 45.5810687302 44.7688992441 44.4093328334 44.1808666238 44.1745194394 44.3724189275 44.6575917634 44.9047530392 45.0379160228 45.0299805097 44.8843707046 44.43374722 44.177652448 43.9275565974 43.7592748118 43.7470935518 43.8091581748 43.899702288 43.7658344089 44.0341239422 43.5686918762 43.4897176625 43.375908443 42.8132611037 42.8732769328 42.7411812617 42.5961363915 42.7878017504 42.6067954382 42.4024547475 41.6324481727 40.7632715917 40.5216122435 40.2533356248 39.944281194 39.5773285665 39.1396287789 38.2313725264 37.6943074189 36.866682287 36.4501885913 36.1472749228 36.1069981297 36.0051296058 35.5574242424 35.4330280382 35.2574126127 35.0229728705 34.7366875177 33.481065878 33.2465555397 32.9882078522 32.4370958093 32.245898856 32.058029308 31.6429458402 31.4241058404 31.2003228696 30.990456382 30.8089979984 30.2689529196 30.1463252222 30.0428955876 29.9498692586 29.5735900576 29.601568505 29.5327834 29.2500280077 29.2187169819 29.2119972005 29.098397507 29.1687149792 29.2711793571 29.3952550682 29.5207887309 29.7061702562 29.6519988571 29.660084089 29.6253434413 29.4428971703 29.3472086428 29.2575460597 29.1843802558 28.9829647246 28.9535514284 29.242698366 29.2834355692 29.3432922331 29.7301377453 29.8283533033 29.9462700676 29.7113366391 29.8861160518 30.1105310568 30.397935755 30.7600080669 31.2021152098 31.7656940006 32.7218375399 33.1045305962 33.4074162893 33.5682657613 33.5916317027 33.4896766886 33.3225102751 33.180460971 33.3579705679 34.1612704939 34.5673376159 35.0378849123 35.5341185217 36.0173284073 36.453799507 36.8206361047 37.1038198746 37.3235530362 37.5212688613 37.7392940357 38.4431664356 38.8397253926 39.2953987758 39.7854283072 40.2882618371 40.9596154631 41.4305033806 43.4232154947 43.9863879218 44.6061500335 45.2774865261 45.972610196 47.2748821758 47.804289979 48.164487622 48.3244842306 49.3130807366 49.1277513543 49.1888594123 49.6523117205 50.5077799218 51.6265707985 52.8704852191 54.1514858209 55.4330403954 58.4404679896 59.8908209719 60.878698053 62.351134551 63.887007186 68.2974751473 70.0620810878 71.9060241237 74.5872730174 78.5502540691 80.4614600414 82.4541852189 84.5300685859 86.6551281083 91.2833976236 93.1674554476 94.7550070825 98.5773139155 99.5963716224 100.493176497 101.412249344 102.723151742 103.936012903 105.372704057 111.307047872 113.386756462 115.604116451 117.938633333 120.382986288 127.086832328 130.797074859 134.431143553 137.241664837 140.30114235 143.67207452 151.130921961 154.909806566 158.906515317 162.978197604 166.855017367 170.141343305 172.777391001 173.747264824 173.675839384 174.099432467 174.5785433 175.523038364 177.507863151 179.2863206 181.224416425 183.18699594 185.046984051 186.6882854 188.011485847 188.948497743 189.488324209 191.059156759 190.820844669 190.892013992 191.527900923 192.829704443 196.609800999 199.414241173 202.381877519 204.99709144 207.638406118 212.049294711 214.194507941 216.012229455 217.532063267 218.79144311 219.829924577 220.685667051
47.5386779367 47.243672944 46.8749113974 46.3999885382 45.7973373753 45.0920053408 44.284490263 43.9465697492 43.9459993256 44.2459855232 44.6627563397 45.0188772315 45.2206834914 45.2428069032 45.0951309119 44.604031134 44.3021892052 43.9964130706 43.7900072357 43.7731043847 43.8710499659 44.0346651411 44.4170585955 44.3207691586 44.3843824546 44.2387369244 44.1840381933 43.5951098115 43.1855992346 43.0420180666 43.2493716545 43.0823950707 42.8958006796 42.689421266 41.9321002274 41.7174501784 40.8967156443 40.6810268903 40.441657821 40.1574173477 39.808986862 39.1241241273 38.3712575391 37.87343309 37.4206335311 37.053084654 36.7799340998 36.5670733302 36.3790129701 35.7553747252 35.5156100409 35.2374106765 34.922886836 33.6008114835 33.2938837879 32.9961518745 32.7106808104 32.2789221882 32.0130770836 31.3485267806 31.0603717078 30.8157785016 30.6085990663 30.0726936833 29.9622231639 29.8810143978 29.8141180714 29.7487404099 29.3935032174 29.3185350309 29.2415573548 29.0622192623 29.0600733627 28.8488289769 28.8633638499 28.9098417932 28.987656761 29.0887446791 29.1970108441 29.3962858615 29.3178181245 29.3487681709 29.3456935383 29.1730073322 29.1080147917 28.8914028097 28.8306133266 28.7861344907 28.7607736055 29.412341618 29.4472281408 29.1479354186 29.5563837005 29.653121626 29.3765397811 29.5160309811 29.6952535771 29.9262455773 30.2223070833 30.5955707261 31.0525423997 31.5869229082 32.375606662 33.1150443797 33.3668160504 33.5531524327 33.5799985261 33.457477997 33.2463324803 33.0441586861 33.0395203653 33.2432923939 34.227168 34.6430015945 35.0985998612 35.5590602834 35.9939909287 36.3820814404 36.7040541635 36.9730545613 37.2204945033 37.9422539937 38.2677712316 38.6457298749 39.0673201996 39.5136364132 39.964802067 40.5666285117 40.9641713296 41.37689611 43.2088287725 43.76939789 44.4081221043 45.0981111706 46.3883850156 46.9530837735 47.345024765 47.5158679234 48.1738717327 47.8457464946 47.7948345312 48.2307829573 49.149177448 50.3839400914 51.7519418677 53.1348392932 54.5113987162 57.0757598079 58.4947753885 59.903097264 61.3344774373 62.8175510827 65.1895762362 66.7484876995 68.3662049489 72.9394052792 76.6227439896 78.1819959399 79.7394064679 81.3249291057 82.9605303585 84.6320294417 89.0062334317 90.6493781554 94.2332675641 95.6982608208 97.0769813489 99.6504701331 101.062507004 102.587875392 104.487832837 110.531353103 112.715386869 115.008891194 117.404187215 119.902217525 123.415428423 129.429477413 134.055039312 136.851381857 139.85893284 143.127173235 150.684406507 154.256143521 157.993036181 161.77257995 165.363120504 168.423614463 171.663627105 172.995732432 173.893517998 174.179710837 174.431726822 175.31947622 177.837053181 179.604568273 181.521799941 183.464894664 185.317784596 186.976206791 188.353945653 189.396145667 190.100617979 192.535603137 192.60839762 192.951916294 193.783972952 195.200570485 199.364832018 202.062309758 204.931633546 207.761581995 210.399992315 214.885080776 216.98665506 218.741526822 220.17445991 221.323870918 222.234217393 222.950369013
48.0885328764 47.7955557543 47.4077646052 46.8815955288 46.1871503277 45.3544030728 44.4017278848 43.9857352563 43.9828177395 44.3364108019 44.8218619012 45.2351395103 45.4751186198 45.5187336662 45.3812926877 44.8654191676 44.5639269057 44.2589240771 44.0523839026 44.03431431 44.2130416542 44.4694796231 44.701575373 44.932107315 45.0276831795 44.5658289313 44.5051811978 43.9013666729 43.8287822737 43.6839098927 43.526367524 43.3530948961 43.1611817558 42.9502773737 42.2082988191 42.0016885732 41.8021616982 41.0863750465 40.9183056272 40.7154546003 40.4467415787 39.845133051 39.1337223332 38.6316472834 38.1470333288 37.7335988701 37.381106809 37.0776219832 36.7998817785 36.5231771824 35.6751268354 35.3492717912 34.5275191375 33.6697003599 33.3246093607 32.9772600771 32.4618075588 32.1160062067 31.7623874819 30.9865528158 30.6427464015 30.3668432369 29.8057943971 29.6883438372 29.6266188392 29.5976550536 29.5767231218 29.5451613579 29.2168858945 29.1470532215 29.0644874434 28.920422128 28.8522295234 28.6221152775 28.6104958327 28.6304609261 28.6836711412 28.7645893082 28.8600939668 28.8973623529 28.9774127199 29.0304532041 29.0566775651 28.7393798972 28.6994634623 28.6542535125 28.6123229257 28.5795981439 28.5596873215 29.2670533741 29.2995317183 29.694632341 29.9845833875 30.0769518807 30.1841434532 29.2978104648 29.4716116498 29.6964866905 29.9851415947 30.3493752368 30.7959196066 31.3195186011 32.1249787115 32.6223569701 33.1615109304 33.3673572224 33.3666514571 33.2468921946 33.0884266818 32.8913910895 32.7674072829 32.4869339615 33.0150792057 34.2230428347 34.6327219164 35.0620839887 35.48430633 35.8801948859 36.2269133047 36.534096015 36.8272941847 37.6582958881 38.0087018757 38.3992170901 38.8235681203 39.2640202962 39.6977985373 40.2498391433 40.589216186 40.9257427288 41.2966637033 42.9790763579 43.5892259193 44.2883213087 45.5969204189 46.2490419448 46.74554709 47.0185372568 47.0588943329 47.1428440081 47.0191507473 47.4012821116 48.3101178794 49.5732824643 50.9848595049 52.4321363076 54.865974969 56.3161831446 57.6970945353 59.0496150809 60.4168395534 61.833734465 64.1223609146 65.604343083 67.1202995615 68.6341280293 74.7978072862 76.0314584254 77.1821660186 78.313620078 79.5096322573 80.834372799 84.5779267679 86.2509476249 90.6604363773 92.5826063587 94.4601057892 97.5905721555 99.4043791818 101.508408296 103.309304452 105.182628119 112.049552986 114.425623713 116.880148909 119.5100858 121.973510182 128.836132556 133.540398468 136.279835079 139.185120179 142.290605305 145.623061091 153.201813529 156.60036135 159.996077285 163.202924491 165.952526071 168.125777426 170.704459524 172.487115927 173.858287554 174.513492834 175.51746803 178.269708255 180.023425786 181.916346047 183.839859674 185.691989252 187.382865129 188.841409107 190.02675127 193.927814549 194.35028972 194.793073081 195.466551579 196.547362926 200.556781592 202.830633319 205.476883052 208.290591039 211.076652765 215.804273104 218.168928549 220.17375209 221.81008486 223.10010674 224.085868443 224.819197426 225.35343556
48.6292659657 48.3717529133 48.020277547 47.5224274839 46.8404811385 46.0063801537 45.185729217 44.5057638884 44.4707463702 44.7793269508 45.2212683698 45.6055044283 45.8328832015 45.8779979916 45.7555242626 45.2266378977 44.9643911842 44.7078249923 44.5402412723 44.5271181291 44.864187145 45.1031362039 45.3200482092 45.4721468023 45.3194815107 45.1432488078 44.7957662807 44.1796381521 44.0920087642 43.9374538497 43.774673736 43.5982025915 43.4021329659 43.184145093 42.4571590213 42.2474910135 42.0586294887 41.9005666568 41.3512518596 41.227028116 40.8283000705 40.2954488635 39.8219447292 39.2935938316 38.7788912198 38.3107325012 37.8936798601 37.5202945611 37.1735507907 36.8342643766 35.8932368328 35.5244132848 35.1362040616 34.0155473087 33.6050542457 33.1793007143 32.2706402875 31.9290936542 31.4746441939 30.5944608505 30.2038465943 29.857030123 29.3505113296 29.2704815504 29.2687785557 29.3050980503 29.340379289 29.3483675593 29.0510886475 28.9840835895 28.8917594633 28.7328560417 28.6376963529 28.3894562482 28.3490431733 28.3426456186 28.374836609 28.4419312293 28.5317019549 28.5682277364 28.644180633 28.7254862992 28.7756982013 28.4583498705 28.442455777 28.4179140344 28.3916965478 28.3692176747 29.0939068608 29.1183931238 29.4012711125 29.5608093556 29.841872203 29.9255596289 30.0221446108 29.0563697662 29.2148548515 29.4208321216 29.6858382625 30.0205671662 30.4311196479 30.9127613765 31.7148386819 32.0588163563 32.4743198091 32.9734718105 33.0390190699 32.8905442213 32.713151377 32.5242830876 32.1262379497 32.0490443191 32.5674297878 32.7762453314 33.0645749584 34.5290549506 34.9344357538 35.3311973768 35.6944738105 36.0330627018 36.2129150731 37.2961128347 37.6881333874 38.118263781 38.5808932497 39.0565566777 39.5150041026 40.0465051724 40.3504766205 40.6138391444 40.8839811354 41.2274709853 42.8236545375 43.5213401886 44.8513152142 45.6094293376 46.2470070854 46.6803265628 46.8693178299 46.8669921585 46.8450077276 47.1703753392 48.0031546849 49.0113796682 50.60232746 51.9743003016 54.3706487226 55.7592973067 57.0606885673 58.3233881089 59.6013981674 60.9389307325 63.1363036671 64.561397954 66.0123437642 67.4311157059 70.6599802798 74.0908010011 74.8671531757 75.5759303956 76.3713920176 77.4012385684 78.73202136 82.6848631761 87.2429303125 89.6318293483 91.999106674 95.1065611715 97.2871602915 100.173156739 102.197699287 104.227896494 111.412438957 112.974672008 116.435788865 118.859779436 121.277378237 123.802851705 132.92497262 135.582146059 138.357530191 141.269726437 144.329612775 151.909995238 154.944246388 157.930431578 160.731375765 163.450347453 165.180294736 170.93216256 171.574639379 173.676574624 174.547977963 176.02176957 178.748577706 180.505695798 182.389462164 184.308756095 186.177689734 187.922202219 189.486807422 190.843879498 195.596493164 196.395204557 197.230139039 198.352436913 199.686708639 204.33873669 206.661197566 209.30289192 212.092434094 214.849388241 219.587607622 221.844680962 223.716723181 225.188243767 226.283177295 227.052199324 227.558996247 227.868498498
49.1350837377 48.9381645154 48.6727392181 48.2807136362 47.7142549898 46.9977010769 46.2806923981 45.795091819 45.358283398 45.5406263559 45.8502954775 46.134897216 46.3045247579 46.3286015666 46.21522027 45.9972994849 45.4566944983 45.5217621663 45.3703973028 45.3607581077 45.436577422 45.558026585 45.6643357054 45.7355044162 45.7143388597 45.407602211 45.3490537904 45.2614990606 44.8435813331 44.1540317281 43.9902792401 43.8160838996 43.6197327238 43.3941092052 42.6798091836 42.4525389403 42.2572360216 42.0315086477 41.9636983808 41.670039453 41.5405188429 41.2542845754 40.4118536663 39.8450979773 39.2902505738 38.7754197481 38.3101474756 37.8869759168 37.490841331 36.4866412114 36.0893927621 35.6828703085 34.9642039461 34.5038274738 33.6523854006 33.1679528028 32.1674715803 31.649453286 31.0917992307 30.1970649156 29.7108059635 29.0557390352 28.8696554331 28.8316277005 28.903023654 29.0181144441 29.1184529454 28.9221505883 28.903539918 28.8359975407 28.7295481879 28.5511502381 28.4239263112 28.1599334183 28.0901614978 28.0599847079 28.0771733554 28.1384386494 28.2297242962 28.273197604 28.3579329009 28.4474677172 28.1848406729 28.2005493139 28.2004552918 28.1902091858 28.1752654317 28.1602299166 28.9441401859 29.226871325 29.2722053168 29.9493125448 30.0063645858 29.7632329546 29.8446404394 28.7939402886 28.9279806001 29.1033584058 29.3300203082 29.6170802186 29.9695921864 30.3832962194 31.1604290678 31.404359908 31.7668191669 31.9483151229 32.017812106 32.2946309545 32.1604623286 32.009492073 31.5802792789 31.5121693679 31.8357326292 32.2284013747 32.4825517067 32.7899494276 34.3471344454 34.576400765 34.9538373139 35.2927807867 35.676488031 36.8728548055 37.3193592114 37.8119110705 38.3463158154 38.9011802165 39.4357990944 39.9919198279 40.2972865149 40.4969185771 40.6453447767 40.8416559444 41.1840950506 42.6762651988 43.4530931449 44.9559702091 45.723036974 46.3218035999 46.6888976067 46.8364600687 46.9273648211 47.3752485157 47.9751851777 48.9875625324 50.198398883 52.7012052824 54.1127447268 55.4007569265 56.5863666724 57.7255901806 58.8871897172 60.1299972972 62.2275968587 63.6193164597 65.048026646 66.5360246967 69.9502885228 70.7535754769 71.3091960388 73.1656722932 73.5843934574 74.3561458109 75.6107248798 78.9731373565 84.0779616124 86.9518745783 90.5956800854 93.2946699636 95.840085402 98.9905084106 101.214879861 103.382144572 109.866817912 112.300778793 115.828237185 118.171674223 120.58272718 123.083252689 127.67427338 131.577447066 137.459259866 140.179104583 142.972311041 145.822839311 153.235831977 155.8424085 158.686114955 160.664116374 161.874727574 162.960622101 170.570709068 171.125110984 172.054871655 176.195740288 179.219248973 181.014162593 182.91923264 184.861486125 186.772100404 188.593352042 190.284956968 191.831300182 197.142657097 198.641029277 199.809873976 201.166966175 202.816814039 208.215250809 210.653741427 213.360705294 216.188207189 221.172636658 223.680769536 225.834101569 227.555956492 228.827246836 229.679983173 230.181118084 230.412983912 230.456592006
49.5589159876 49.4192997168 49.2567714149 49.0126467731 48.6237208118 48.0917810099 47.5309277558 47.1152357477 46.9606936121 46.4716612196 46.6276217432 46.7881773138 46.8785561277 46.86565362 46.7491329148 46.9028722786 46.3244516797 46.1283197615 45.9817520963 45.9190047521 45.8884154505 45.8826407313 45.8832422705 45.8931460537 45.8603899182 45.5804414124 45.492795317 45.3683658815 44.9654245302 44.785174558 44.6144538094 44.0031457629 43.8152628096 43.586333194 42.8832743153 42.6230295297 42.4007620589 42.1873960985 42.1500474216 42.0987308754 41.9302452108 41.656984341 41.1715270226 40.2644960581 39.6694669677 39.1224068568 38.6277373217 38.5197443518 38.1051880926 37.0552457648 36.6289972359 36.1904354128 35.7297825838 34.5889348787 34.198648616 33.1725713705 32.0961543444 31.497176317 30.8345080124 30.1292944153 29.2421556765 28.5992258887 28.398678716 28.4060942682 28.560473495 28.7619967074 28.9293089972 28.7879511474 28.780865637 28.7083896106 28.6210751167 28.3084959922 28.1517761394 27.9456983289 27.8487862268 27.7997197182 27.8091497623 27.8720393306 27.9697374205 28.0237641237 28.1138914425 28.2039348298 27.9482142818 27.9701373289 27.9780565352 27.975874532 28.5812549986 28.6146374981 28.64401146 29.102293224 29.7929091938 29.8453510414 29.8926150701 29.9369865444 28.9418074523 28.9799019347 28.6168986301 28.7519269883 28.9282893958 29.1534463611 29.4315438775 29.7593049367 30.4906128487 30.6162917344 30.9125005272 31.065471674 30.9916040347 30.9320656585 30.7763522619 30.5801897322 30.9142309513 31.1950933796 31.2444607809 31.6226057369 31.8585025262 32.1459748746 32.4709850863 33.882773414 34.2733919575 34.6704530607 35.0964357308 35.4583209315 36.8995506909 37.4698550751 38.1025298126 38.7772262404 39.4434802133 40.0863526405 40.4477193926 40.6068238286 40.6156531887 40.6165664671 40.6747638627 41.0372801793 42.7097977311 43.5583164397 45.090568417 45.8137347787 46.3394637627 46.6535275957 46.9703134337 47.6019254307 48.2279313912 49.1579135778 50.1201266973 52.753651683 54.0621015404 55.2328650028 56.2775553521 57.2612911388 58.2751740815 60.1392606458 61.3853684329 62.7644045845 64.3291523302 65.688793071 68.9712679895 69.6557694941 69.9940208249 70.108265666 70.257348566 71.5256774164 72.7072324882 76.1826075715 78.9386369345 84.6710295473 88.7144327952 91.8194419055 95.4791608274 98.0370074644 99.5662233133 102.789824327 104.947177242 111.699717787 115.171372053 117.51343042 119.910586714 122.383757656 127.106717477 130.851731316 133.310693904 139.124231662 141.692335858 144.244653074 151.646889242 154.438969294 155.902106065 157.596083911 159.045648586 160.198911347 169.109957572 170.272863483 171.522943322 174.92529146 176.507328113 181.521621339 183.487414481 185.485995183 187.465733961 189.3851618 191.322171117 197.299670062 199.244719545 200.696500347 202.232368175 203.948490061 205.928492244 212.02116937 214.636801085 217.483411335 220.426060806 225.475972587 227.964618304 230.041417917 231.612843069 232.658665105 233.227155048 233.412152576 233.323824721 233.064854453
50.3158922752 50.0743980293 49.6362628862 49.5296696489 49.3350887111 49.0192350198 48.6475747084 48.3392676339 48.179406746 48.2520313008 47.4671242924 47.5181794866 47.8742705421 47.8360390758 47.7121862557 47.5139690453 46.8979008966 46.6914483207 46.4950722938 46.3253629239 46.1529838163 46.0047818401 45.9126739495 45.8775876433 45.914312727 45.93190735 45.5986564795 45.4329706363 45.0288768925 44.8206342967 44.6480862151 44.5033915863 44.3496550315 43.7218013766 43.3535780785 43.0355339093 42.7221595432 42.459717717 42.3268680305 42.2962038186 42.2126038688 41.9723265974 41.5931377522 40.7782220303 40.2193289308 39.7018358999 39.2260524762 38.7389245498 38.3141833683 37.2381512683 36.7929053787 36.3340061317 35.8515081278 34.8297528954 34.0894331864 33.5064192065 32.2909934469 31.6113140758 30.6758097892 29.7692406718 28.9881151665 28.2353323626 28.014578276 28.064312243 28.296763019 28.5745841982 28.7954384143 28.6920124982 28.8065302461 28.6468170483 28.5084273158 28.3229947876 27.9871429575 27.8128832211 27.6794168281 27.5847195553 27.5931098549 27.6615301549 27.7651193474 27.7399359653 27.8159362568 27.878020239 27.7457792158 28.2894398443 28.3388783523 28.3727581092 28.4373094237 28.4747571815 28.5052916902 29.7363562434 29.6964642273 29.7416652522 29.777582637 29.8059883712 28.7478437041 28.7555783481 28.7741791461 28.376975855 28.4942590593 28.6475650055 28.840671765 29.0721367148 29.269328285 29.7421887994 29.9679430326 29.9875044461 29.9601255855 29.9479682052 29.8696266914 29.7611415175 29.6599880511 30.5174440625 30.5879744951 30.7145156659 31.1910615631 31.469680664 31.6018374741 31.9408576531 33.5843594486 34.003348869 34.4650375683 34.8684961759 35.472193595 37.0591685252 37.7996713928 38.6164454412 39.4544847187 40.2469438029 40.725053428 40.8813415417 40.7488012127 40.4701679512 40.3407427076 40.4911977085 40.9561932026 42.4950626128 43.3665507023 44.2288530028 44.7318103286 46.0253929319 46.4827600386 46.8068803003 48.2985753094 49.1884728763 50.2906638487 52.954708688 54.1905546065 55.2580950407 56.1520561693 56.9495041509 57.7766379461 59.4182806168 60.5985978054 62.101999923 63.5500714024 64.9912973479 68.22287829 68.8679890417 69.0628546959 68.9379132122 68.8194873117 69.5103121078 70.670993035 72.6059885282 77.0721392744 80.914231166 87.3500495351 89.8196631077 93.8667811201 96.5070695238 98.9149275569 102.222386891 104.39775579 112.26253257 114.5706597 116.899374141 119.277397574 121.726251838 126.453337683 130.184443532 132.562752995 134.960859512 137.343528648 142.93988276 150.863527113 152.093670469 153.740927133 155.270490295 156.655041548 157.873252932 163.216108803 169.382135055 170.955860616 174.845871974 176.633312086 178.539614742 184.084763151 186.303602873 188.295359784 190.250615642 192.159941107 199.201587879 200.934227061 202.697841313 204.565794166 206.617420878 208.924008726 215.635007464 218.470684787 221.520342502 224.654713845 229.770856583 232.307142915 234.352003867 235.786426627 236.589865122 236.836937388 236.662176278 236.214912564 235.625423208
50.3932063475 50.0549914051 49.861041435 49.8365624411 49.9335338648 50.006529443 49.9798255963 49.9266649957 49.9034507302 49.2900630353 49.2944450878 49.1291074309 48.5825437092 48.503709663 48.3610914219 48.3414402715 48.0536384534 47.7183926083 47.6068343675 46.6296524942 46.2863938435 45.9779780031 45.7983371796 45.7965087948 45.9050696215 45.9812668854 45.6763847252 45.4601612418 45.0280219898 44.7723326796 44.5935613749 44.4897418149 44.3035806624 44.1519347701 43.5213426616 43.1733287303 42.8139638667 42.6059324485 42.3849668628 42.301205037 42.2739513999 42.1307532796 41.8597698953 40.8545184347 40.3113918099 39.8144350871 39.3565866174 38.8817885604 38.5288754927 37.3801258685 36.9259233492 36.4556751962 35.8965418218 35.3900268725 34.1894973057 33.5936888115 32.3584688533 31.6558421527 30.8367307375 29.7082944158 28.8456871041 28.1574104598 27.8356314566 27.9072542835 28.1833037154 28.5597581284 28.8315718576 28.758841996 28.7593405807 28.5826702606 28.4245197859 28.2152010698 27.8622341557 27.674063242 27.5259900227 27.4514856292 27.4518102748 27.5226896573 27.5394754718 27.6080102832 28.0360236814 28.1642547096 28.0828392229 28.1511703627 28.2021968889 28.2376594235 28.30552408 28.3452636479 28.7773081722 29.6519812416 29.6032296673 29.6403508049 29.6637966235 29.6746612189 29.6745668571 28.5311029349 28.5073510488 28.4902846355 28.0425984017 28.1177061122 28.2196423229 29.039118188 29.3398348092 28.4001393632 28.8007665676 29.0788326819 28.9001912832 28.9322758202 28.9258118203 28.9000735464 28.8771676908 28.8764220174 29.8795935613 30.0211557276 30.72819319 30.996879516 30.8816395951 31.2223131589 31.6030546276 31.8485992812 33.769433559 34.1980619458 34.8520659688 35.6380747232 37.3601245536 38.3035519749 39.3080618769 40.2756283439 40.9016931593 41.09235783 40.8334574688 40.3587352581 39.9871779281 39.9212709787 40.5696734995 41.1540497459 41.9043478351 42.9457886883 43.7298847456 44.3840657011 44.9099041442 46.1733373004 48.3182542829 49.2986232978 50.4987908022 51.8238137204 54.4788346988 55.4930812994 56.2463786069 56.8282549952 57.418920165 58.7737777507 59.9889395942 61.3199405858 62.8293369476 64.3794263449 65.7966800913 68.3479718293 68.4982093286 68.2276560719 67.9116719403 68.1846464229 69.3401252338 72.1298591887 75.7538305375 79.222430726 85.7343384762 89.593761405 93.4314738421 96.1262089605 98.5465121856 101.873590889 104.023576432 111.753788541 114.03573877 116.338360349 118.692224397 121.121554075 125.851692507 129.595916874 131.95119334 134.31642143 136.639333666 143.081628824 148.933549652 150.526223449 152.017052185 153.423826763 154.760980466 156.033374553 161.747195913 168.475943011 170.381105567 174.724540885 176.898203236 178.919979198 180.99437892 183.106152239 188.922526422 191.004428353 193.065562685 200.59871305 202.573423894 204.607856258 206.765856374 209.117240885 211.728128512 218.967075339 222.039263274 225.331299592 230.895136525 233.900609118 236.555743291 238.622596112 239.942592413 240.493607282 240.388669359 239.81977237 238.987780084 238.862865733
50.899501357 50.1096966529 49.7226633136 49.7581828329 50.1888587662 50.7441597328 51.190450281 51.482307096 50.9940929002 51.061174104 51.1082971732 51.1263537608 50.3508000341 50.2808596272 50.0432018562 48.9982285443 48.6861900149 48.6152013882 48.1186115475 47.5080505117 46.4463065729 45.9935758017 45.737029147 45.7552325965 45.9288527126 46.0534568125 45.7480833751 45.8178589931 45.1679224752 44.7885746825 44.5521021159 44.4802476463 44.5292014726 44.2035522163 43.96309998 43.5101357165 43.1044639122 42.7497782894 42.4759610546 42.3553162818 42.2258577201 42.0616616762 41.7760044689 41.0997044346 40.6804896567 39.8251936902 39.3599074124 39.0234147786 38.6320997231 37.4841924257 37.0288193305 36.4866756585 36.0109662656 35.5016091851 34.948505489 33.5402365166 32.5081569327 31.8309020153 31.0366267966 30.1253850075 29.0372585182 28.3252780266 27.997075106 28.0710134942 28.408612283 28.632715324 28.875354632 28.7689459615 28.7460057561 28.5463825401 28.3728022389 28.15077072 27.7940177388 27.6030784713 27.4557562762 27.3847187642 27.4118830567 27.5144403359 27.6497225465 27.8003200736 27.9383218276 28.0579831925 28.3853970441 28.0314894074 28.0815120424 28.1165459623 28.1859420478 29.0416062349 29.5383779667 29.5724413685 29.5147838932 29.5433757207 29.5537625325 29.5462310173 29.5213185145 28.3130097339 28.2448766774 28.1717509738 28.0979999576 28.0293141818 28.3723747292 28.5713538877 29.0685720493 27.4604741485 27.530437022 28.0415645738 28.1397132016 27.9195468625 27.9790143326 28.0290651157 28.0787277645 28.1384238394 28.1646726878 28.4496841001 29.4364716256 30.2768565057 30.1376961875 30.4777151605 30.8601615663 31.0920775541 31.5887163026 32.1870179686 34.0967694469 34.9066228604 35.8860281804 37.7069816842 38.9068504746 39.9002169275 40.6373428043 40.8668256256 40.5585495507 39.9603674223 39.4375570055 39.2214219293 39.7547550406 40.2163959084 41.0958523523 41.8797117735 42.6572901271 43.3803375574 44.0584318305 45.6163544429 46.4899874954 49.2826760807 50.6710950106 52.2244353786 54.8946095355 55.9431965973 56.5933473855 56.9383588552 57.5446416054 58.1064982982 59.281641363 60.5785669501 62.1302762063 63.7829420531 66.4198981241 67.4717983774 67.9396871159 67.9809874303 67.6024879589 67.6846619112 68.7077061462 71.3002568647 74.4624021412 79.234394576 83.1152802789 86.9256970331 93.4909418886 96.1306419762 98.476387763 101.751359705 103.830099719 111.335192883 113.570500497 115.833641044 118.156254492 120.567918502 125.296003964 129.081064955 131.477367977 133.904265125 136.290929631 142.507762245 147.889355414 149.39549503 150.768564738 152.06839004 153.354837251 154.662909296 160.503020757 166.032341712 168.240243597 174.617942059 176.831808949 179.061161923 181.301307762 183.550525647 185.810241106 191.824920482 194.02834824 201.96039349 204.141791303 206.404001396 208.804998865 211.409490929 214.283081228 221.950431029 225.242510063 228.779549006 234.473484198 237.688964972 240.522123233 242.663119867 243.895427944 244.192035125 243.71777945 243.303617249 242.141635846 243.157097466
51.2157045 50.3868311924 49.8512735727 49.9023061268 50.4669518296 51.2311621124 51.88343651 52.3274988865 52.6010455686 51.9712659939 51.9929275479 51.9685200737 51.1039572197 51.0160128631 51.0297504695 50.7822344279 50.4279279888 49.3124338411 48.7505250377 48.049853598 47.2600341221 46.2700280848 45.949951308 45.9445362011 46.1040924765 46.2084700409 46.2184148351 45.8566431186 45.2845378007 44.5855208065 44.2832226837 44.2811275443 44.4539265525 44.2908622148 44.1122282003 43.7000816947 43.3103422663 42.9620011003 42.6592198343 42.4723660666 42.1200500744 41.8942631045 41.5728599864 40.8970325611 40.5204710866 40.1889964554 39.8778603349 39.0546688419 38.6851179881 37.5527751074 37.2940568901 36.5823269469 36.1083095529 35.6027961177 35.0615987047 33.7084923737 33.1473025829 32.1159320877 31.4125990304 30.6031213207 29.5289192013 28.8921689568 28.5543302226 28.543023163 28.7726569465 29.0517699526 28.8662963242 28.9153609189 28.8669101777 28.7320340881 28.5269716656 28.1297809364 27.8327946882 27.7438119424 27.5345942811 27.427530009 27.4500042968 27.5375137747 27.6767963903 27.8179445172 27.8653421813 28.3481069482 28.3145464146 28.4322788194 28.529832754 28.8338803267 28.9113449534 28.9658222373 29.4697666788 29.4984685895 29.4322988233 29.4523594763 29.4496963101 29.4237109014 29.3737097691 29.2990155304 27.9946538413 27.8642584844 27.7188881102 28.2961851652 28.6095728578 28.4310759319 28.2836237487 26.5438490079 26.5461203838 27.0104422506 27.1185488438 26.9293558894 27.0935471119 27.2185963204 27.2417475903 27.3592325817 27.6676407594 27.8002548033 27.9515357354 27.700143334 28.1026720039 28.4188863007 28.790348806 30.2849251706 30.7688213837 31.3473845158 32.0499210456 33.9618574206 34.892103916 36.0243822368 37.3870685764 38.5351375685 39.3604224157 39.6721909809 39.3487372613 38.6644976044 38.0143738296 37.6576247935 38.0903083889 38.439306805 40.0277444916 40.7687957099 41.5472828376 42.3336974751 42.9986724662 43.8966419133 45.0036597898 47.6271896379 48.7448786537 51.8248905049 54.734303478 56.1598864297 56.991203115 57.083059418 57.1951732618 57.3472639001 57.9524656521 59.8786546583 61.4299232497 63.14734282 65.9474715122 67.1825792114 67.8519997428 67.9693119973 67.8911908229 68.0562192788 69.0644408028 72.0862117525 75.2799257025 78.6870762791 82.3076821508 85.1305541561 90.3456643856 96.5223891632 98.7003183875 100.724173969 103.623739443 105.459140936 113.175090357 115.385357638 117.665215755 120.052647305 124.761593798 128.607582295 131.106933068 131.930403691 140.003902414 142.332909685 144.123724363 148.734749166 150.004028707 151.181405977 152.517539381 153.815037737 159.536564976 161.95757114 167.570696785 174.356483987 176.849441655 179.298936232 181.711341379 184.099650668 186.480520146 188.873657901 198.095635092 203.278732386 205.631249154 208.07792444 210.671939898 213.473940771 216.550028065 224.539562774 227.996865177 234.028055104 237.507046679 240.932651341 243.967844863 246.216797658 247.386864344 247.441502701 246.946132434 245.652297391 244.164907991 244.761987974
51.9695240734 51.1882017743 50.6299475393 50.7157616581 51.2924694247 52.0687527536 52.7402360873 53.1981905529 53.4712544825 53.6188733727 53.6847277226 53.0842311495 52.9858992074 52.8428153936 51.7269977462 51.5095572692 51.1860452138 50.719269435 50.0851979914 48.8351073904 48.0517329303 47.3892336679 46.9017483281 46.8184456356 46.8563697708 46.8788849389 46.4528423001 46.1915530905 45.4891827489 44.7282793502 44.2423678053 44.2755181361 44.4883635102 44.6872900901 44.3190723822 43.9106780613 43.5922131153 43.2127435026 42.871655618 42.5886890906 41.9730947628 41.6395918935 41.2479221098 40.5828063701 40.2607021936 40.0027132692 39.7565626023 39.4789593217 38.6912594526 37.7874575898 37.3480095803 36.6507153397 36.1827890663 35.682733417 34.8744893597 34.4448435022 33.3617144173 32.4568258403 32.0798523078 31.4043275727 30.4032496621 29.8152026481 29.4497131132 29.3519281333 29.2756756707 29.3983637118 29.0351997205 29.0161297314 28.9244829461 28.7664913904 28.5548561333 28.307195663 28.0656477489 27.8416868427 27.6628968652 27.569188108 27.535940894 27.6013450213 27.6949752005 27.7943987201 27.8916954745 28.3905269047 28.2498371816 28.3698849794 28.4730089147 28.7653178445 28.8450042963 28.899216003 29.4070446128 29.430224384 29.3563839796 29.3683458336 29.3532358089 29.3095672274 29.2353365407 29.127975832 27.7641611464 27.5768225217 28.024845673 27.9325705388 27.636646132 27.7269512185 27.4572435683 26.5042505357 25.5873895536 25.6725014917 26.0696771597 26.2562462901 26.2255297628 26.4185841004 26.4982777543 26.8573283522 27.0123021786 27.1632223863 27.3203790742 27.0482521302 26.7759691404 27.6943635998 28.0467420666 28.4595265537 29.8806145537 30.4092196744 31.0367797894 31.9931345859 32.0689083372 33.8648784418 34.9908616766 36.6267140098 37.3587091662 37.6538613212 37.4688881349 37.0105385487 36.5765205476 36.3678840903 36.907839865 37.2633167991 37.8050360771 39.6114950549 40.3995903373 41.0673181211 41.9712603702 43.0192984212 44.3193666766 46.5358272136 48.5949384548 51.1201109469 54.5523321936 56.552091454 57.6465293795 57.5666567583 57.2619548055 57.1198668159 57.5028196478 58.2729050838 61.4737276146 63.3143230076 65.0959511242 66.8486276257 67.4896993028 68.0415534596 68.6227163861 69.0890986077 70.3066676333 72.5250238458 77.0120214092 80.4743925114 84.1131535665 86.8707316326 90.6061893821 94.9026823746 97.9175530921 99.63159321 103.637540039 105.373700887 110.206446945 114.995844735 115.903295413 118.221513636 122.849262479 125.395494519 128.825175327 131.797203907 137.808240112 142.192360033 144.419244797 146.180122643 149.792339221 150.7804575 151.84213787 153.120981626 158.608466566 160.894143747 163.751028631 174.248768431 177.029305753 179.696443111 182.272335326 184.787566196 187.274988322 189.767694859 198.275990088 200.869958729 206.698247235 209.297916569 212.373613879 215.312954079 218.517070173 226.71808456 230.247776164 236.290150516 239.850510225 243.41411096 246.610203629 248.959452952 250.085369568 250.069037443 249.004065396 247.429213762 247.35296044 246.216938934
53.1323497653 52.50697421 51.9665239829 52.0882461502 52.5723062834 53.190697429 53.7126394128 54.0576954537 54.2568720095 54.3608675099 54.6769709358 54.6653115473 53.6144008305 53.4674754591 52.3977555936 52.2370294948 51.9776897291 51.5726370433 50.9995479808 50.3730721471 49.618165108 48.7996227961 47.9507353108 48.1683157841 48.1474816167 48.0980647206 47.5189277189 46.5445811245 45.8724997489 45.1620951501 44.6970761802 44.6954153175 45.0359468543 44.90713726 44.804595888 44.5138502632 43.8543640706 43.4683933477 43.0708819412 42.6668083608 42.2239766731 41.474250985 40.9415052923 40.1591963831 39.9039228637 39.7516072935 39.5938414321 39.3612824445 38.8952083649 38.0640432836 37.1129559199 36.6863811702 36.2300905621 35.73308808 35.0261115027 34.5311266459 33.5428022941 32.989120003 32.5564096872 31.7394088879 31.1983394731 30.6850809331 30.3025900679 30.0936128493 30.0199461196 29.692285469 29.219023298 29.1298024072 28.9944761955 28.8143790849 28.5981597144 28.360381026 28.1545126366 27.963391742 27.8120986489 27.8380481012 27.8230653542 27.6478038182 27.6880337491 27.7443356021 27.8153581177 28.3288253751 28.0999549671 28.4252124596 28.4205253274 28.5112144295 28.7865735904 29.1263237848 29.3494870661 29.3672155799 29.2869178226 29.2915546734 29.2651117448 29.2053095133 29.1088873171 28.9712843195 28.2824500591 28.0277347853 27.8967881155 27.5256579674 27.0673024004 26.624791385 26.1642913105 25.525418561 25.1431466921 25.1350678272 25.2506498958 25.3541595017 25.407908266 25.6706757289 25.8042178915 26.2092131926 26.3876372207 26.5475069601 26.7022502494 26.4051757205 26.5828515579 26.3393142094 27.2808589023 27.6541738954 27.9132249448 28.420755375 29.1950507235 29.8438633573 30.6186161188 31.4776195031 32.7951667179 34.2785640476 34.7748012135 35.0232021342 35.0133476996 34.8687270108 34.7608033227 34.8076936449 35.5438964879 35.9781963873 36.5470895675 37.4845952539 39.0197948058 39.8796014906 40.8398495473 41.9664627772 43.3596835351 45.701159991 47.8763210869 50.5658764793 53.5447283972 56.478190025 57.6380111485 57.4972783614 56.8630681959 56.3979736067 56.8106722476 57.6001617382 60.0729927409 61.9150938023 63.8220527711 65.9877763383 67.3146755255 68.2776044444 69.624315343 70.5638197498 72.2822110684 74.6400644562 77.5938259262 83.0314277379 86.6409195664 89.2570941667 92.6143016114 94.0803113156 95.2911853929 100.258909197 106.157430077 108.079337645 110.108065723 112.217950768 115.616450235 117.95341333 120.362268467 123.095692445 126.244947803 134.428690263 137.918071708 140.970283625 145.241449699 147.170725606 148.350246345 150.616962334 151.478735673 153.51925342 157.930354734 160.572225464 165.786672855 168.496447676 177.464320213 180.326290987 183.038466494 185.653378902 188.221386236 190.788126332 199.355408159 205.418470902 208.002156535 210.696757234 213.541235881 216.578523634 223.135386461 226.613991611 232.424329491 237.926112057 241.412899607 244.955382966 248.180871234 250.657934377 251.667097581 251.4121843 250.198589158 249.430790596 248.161169102 247.021633085
55.1096901455 54.0806707172 53.8420297369 53.6204089489 53.9305657113 54.2933944454 54.5720204532 54.7435916261 54.8550027186 55.1368378409 55.199307421 55.1883528378 55.0897320707 53.9884480882 53.8241845523 52.9193522026 52.7469462082 52.4264858109 51.9343337152 51.4150653201 50.7720228341 50.0949882609 49.634547961 49.2861683771 49.0769687025 48.8466177041 48.1344328231 47.0896617708 46.5248108101 45.9612862328 45.5827265968 45.5202131313 45.6934241931 45.7222619927 45.6132394514 45.0856804785 44.7837023866 44.3815854266 43.8989849316 42.7303235848 41.8492200765 41.1216669786 40.4687919373 39.755286783 39.590850544 39.4619677217 39.4155087376 39.2162962724 38.3631864709 37.9589863997 37.5625029999 37.163362604 36.411696913 35.9164865178 35.3608740721 34.3781262574 33.9260797153 33.2073987548 32.9185501285 32.3072160277 31.8707090908 31.409677496 31.0091264947 30.714225347 30.433085489 30.3014754152 29.389303237 29.2385161606 29.0642846118 28.8638794488 28.6416782986 28.7322286264 28.3802533504 28.2642400586 28.1007039298 27.9852255132 27.922214535 27.6048223418 27.5973087079 27.6245273074 28.0589677304 28.2268387804 28.413005675 28.367138927 29.5234629173 29.3133488756 29.4590021101 29.5674499035 29.911788578 29.953112603 29.9577497893 29.9257913353 29.8563398337 29.110972984 29.0387791719 28.3521895141 28.1873917884 27.8874262232 27.6244191981 27.1057432549 26.5206255964 25.9262619885 25.3491500357 24.8787307811 23.9250654081 24.1413955689 24.3216183309 24.4935502647 24.8754389179 24.9885104376 25.3740176198 25.6126473632 25.8019938347 25.9587656888 26.100870927 25.7740553546 25.9276326049 25.651140092 26.5019952952 26.8289957466 27.0146809258 27.435334155 28.0981848137 28.5755657622 29.0694801431 29.6620835442 30.611693218 30.9654625645 31.2319738204 31.4024154563 31.5204097602 32.4607780906 32.7232202417 33.0816262149 34.0598311005 34.2076855134 34.8274411821 35.8021851311 37.7588624715 38.6239335663 39.5901385381 40.7154384925 42.0850960193 44.3906684087 46.4651208043 49.0275610837 51.8897221289 54.7818699839 56.1347995441 56.2091500528 55.247920141 55.4266457506 55.4199693891 56.0651226838 59.2894420881 61.1158666907 63.0658945158 65.4611618655 67.0813001527 68.493308749 70.6733033398 72.3749116972 74.4353238522 77.1985752266 80.5123899808 83.9771360491 90.0926043996 92.5043779772 95.1028092835 96.1013492707 96.8579203332 100.674915676 103.174177541 104.685623537 110.114228078 111.6372361 115.516169004 117.559426528 119.816888449 122.482024149 125.592441028 129.392736402 137.535491764 141.56677188 146.217431507 148.445383593 149.53143526 150.469987086 150.92011711 153.183330099 156.687044366 159.507801139 166.214643039 169.276749086 178.259453569 181.266441077 184.0659061 186.737621541 189.350183789 197.784039908 200.485761703 206.615101239 209.266205807 212.029658433 214.932266045 217.997573309 224.582752321 230.35702504 235.584180411 238.683615098 241.986605982 245.368810364 248.640326692 250.84866142 251.863092518 251.70854699 250.857680303 249.708913808 248.546102367 247.520411311
56.6945872746 56.2794419369 56.0794080331 55.9159968152 55.8141781698 55.6727399132 55.497621751 55.434325067 55.2479575334 55.432874125 55.5839041903 55.6111380068 55.484448598 55.2307540952 54.1945539156 53.4851073652 53.4022892707 53.1728222464 52.7678303913 52.3527237034 51.8160905266 51.2087021664 51.430744458 50.3309251149 49.9991921591 49.6530426533 48.8598587368 47.7565364265 47.303768514 46.884158404 46.5896971133 46.7714668399 46.8028047538 46.4633154598 46.1968413629 45.9862992583 45.1271191636 44.6992384599 44.1566476049 43.4614665003 42.3275861978 41.2407305663 39.9320933704 39.1638963202 39.0729646895 39.3078136794 39.3795344757 39.206985911 38.4823374627 37.8664436837 37.4969602319 37.1722168246 36.8012371307 36.3019380773 35.3111291086 34.3190259496 33.835810447 33.5202389021 33.184012453 32.7143545626 32.3565554775 31.9303874645 31.5174923472 31.1668218236 30.8071397041 30.587910677 29.9669776421 29.3271206508 29.1219228415 28.9038914708 29.1206723657 29.0966236693 28.4577236032 28.3544158563 28.1653556364 27.9969857343 27.8577825063 27.7612617641 27.3783752208 27.6106777725 27.8613181081 28.0665931347 28.6914966355 28.2978170841 30.7147903701 29.2773568274 29.4339880365 29.5478084451 29.6199995584 29.9039446032 29.9015157027 29.8603165742 29.7793628301 29.6561652488 28.9480377013 28.3455948394 28.0865600711 27.7487477107 27.3692120839 26.8089387682 26.0813943655 25.2968978463 24.504382513 23.8464846972 23.3306620757 23.312889913 23.4022760327 23.8383020795 23.693531007 24.0145654168 24.8221968632 25.0757847561 25.2593979097 25.398219583 25.5161719724 25.1554906797 25.2801693321 24.9710712405 25.176607034 25.8014228141 26.1148989121 26.4532671742 27.0140556247 27.3423268762 27.6315539886 27.7392575791 27.8120310925 28.5501964107 28.5132164565 28.5817399076 28.8370518037 29.2669591659 29.7992208132 30.3702305299 32.1462623834 32.832343039 32.5825916229 34.5270515365 35.2513081342 37.3061631041 38.2320430331 39.2838868347 40.5218536937 42.6343828786 44.3986999283 46.5572884947 49.6014705098 51.7690815457 53.1395372113 53.5727736232 53.1575098424 54.0158055022 54.239694341 54.9991872796 56.2576263046 60.2388308472 62.2447097763 64.8744645553 66.7789737562 68.6296076815 71.1418249341 73.9099435762 76.5605115491 79.8906018117 83.7679002637 87.7671939836 93.7702337117 96.0715805078 98.0552873944 98.4285340443 98.5597313847 99.6978732487 100.589140577 105.102808126 109.781373155 111.816099205 113.772641541 117.262579813 119.249602176 121.701318505 124.712582334 132.548339526 137.043809605 141.825974224 146.201298868 149.646953873 150.669020275 150.832644396 151.038858292 154.060607217 156.917913025 160.2497226 163.652298155 170.623119069 173.628471032 182.593588993 185.406704664 188.077610717 190.69183353 198.95573086 201.693793159 207.824078014 210.523076153 213.342270716 216.294962297 219.37758686 225.945562784 233.879832582 236.525741593 239.263367148 241.44016751 244.54190616 247.448868029 249.931592615 251.218944459 251.117155341 250.456170815 249.543298872 248.617485244 247.804561847
58.2371172083 57.8479636719 57.5283636377 57.0950699148 56.5648258038 55.9128626055 55.2987067444 55.0570695782 55.1578826722 55.5537038182 55.8826692688 55.983883534 55.816564029 55.4254968074 54.9326210355 53.8497203703 53.8309603501 53.6931656367 53.4630309029 53.102895843 53.2203227592 52.8809205137 52.4813987116 52.1007571461 50.8822674858 50.9434898854 49.9101073998 48.4561830096 48.0687354066 47.7312044126 47.8298658915 47.6681584535 47.5703839591 47.3645870574 46.6948712387 46.4169787011 45.494047202 45.0498379666 44.4798594954 43.720767388 42.4772402534 41.2109014039 39.8870435063 38.9089235358 38.8388394561 39.3079145443 39.2759688604 38.9832000801 38.1289115646 37.4582868397 37.1311582906 36.94121827 36.7061510659 36.2683497365 35.1612952741 34.4180908852 33.6575812236 33.3364076964 33.194207626 32.949779476 32.6524420305 32.2513949292 31.8966802087 31.5289191172 31.0519940495 30.7795844737 30.3681266078 30.1069157098 29.5394600994 29.3991979209 29.1851997231 29.1914797431 28.6100192033 28.3789523083 28.1276543673 27.8640505951 27.6100648898 27.412361549 27.1930214674 27.2562883529 27.5567340963 28.1990978504 28.5333551644 28.6370918437 30.6520910491 30.235775642 29.4039429185 29.5216942058 31.1157647579 31.1563169923 31.1432549256 31.1976509478 31.0866967518 30.9223567252 30.185316575 28.2840153069 28.0115844482 27.7103891945 27.2338644191 26.5602454404 25.7319604148 24.735885113 23.6801397491 22.7817381434 22.20738478 22.245607539 22.6957564551 23.150002166 23.2021990673 23.5926688114 24.3569256462 24.6020772954 24.7578865236 24.8610877092 24.9429133449 24.546522881 24.6403381284 24.0925335941 24.2647808499 24.4626042361 25.2322489273 25.5005443683 25.767906825 26.2010820949 26.0578953981 26.28094641 26.1090418882 26.4521905811 26.1428067851 26.0852553502 26.4332098035 27.1302474415 27.9872056058 28.9197377349 30.0242681815 30.7626533476 31.4441794135 32.112385004 32.8097740012 33.5715041783 35.688989252 36.6712664928 38.3702656524 39.5883405137 41.8637368737 43.2734793032 46.0083632902 47.8040201997 49.3941758018 50.1280904322 50.3866274802 50.5442526009 52.7029874155 53.7017017225 55.0782683667 59.2678294911 61.3517837079 64.215081501 66.3767467314 69.4087384345 72.4643401581 75.1147673343 78.3788555466 82.3761297233 86.9986060907 91.7822554857 97.7738044248 100.112602978 101.385199898 100.96793464 100.123907263 99.7940074074 101.374408707 101.330826162 107.298010113 110.961418656 112.852713818 117.190423837 118.755148795 120.681233569 123.473979698 130.972361904 135.832088429 141.176541777 146.185054936 150.002737377 151.08783617 150.958760853 150.770276876 151.739876665 157.77557208 161.70545805 165.606233653 169.150072422 175.807076859 184.37419389 187.100830748 189.70213206 194.599648475 200.263956842 206.453275117 209.07450951 211.805425237 214.679747376 217.701145028 220.833466667 227.780667096 233.806284403 236.301319066 238.746585139 241.202007825 243.670490315 245.990154766 247.813039627 249.696559493 250.15056801 249.762659671 249.171632816 248.554110105 248.006885378
59.7522580962 59.3922398551 58.8752672505 58.1869731816 57.2619211313 56.1377517176 55.1214045515 54.7397967114 55.1901873779 55.7089144342 56.2234993623 56.3937389463 56.1718944691 55.6139153604 54.8774104935 54.2544961951 54.0261576462 54.1519224821 54.6333008593 54.821781801 54.7927753339 53.7221061774 53.3868499629 53.0137741507 52.6045539947 51.7904282775 50.6520178687 50.0047795011 49.173018949 48.7467293939 48.4619470325 48.2676223926 48.1196558031 47.8624681538 47.1543208489 46.8206527354 45.8640681362 45.4312295584 44.8894429275 44.4284844017 43.4032160728 41.6664774505 40.370994572 39.3395933101 39.2021963467 39.5460996639 39.664947184 38.937568316 37.4969667603 36.8223860034 36.56550913 36.6073971296 36.6048981955 36.2951877875 35.2100479585 34.3745660472 33.6116366163 33.1664556611 33.1451608719 33.1294946233 32.8204249509 32.4484868837 32.0456705558 31.6662993027 31.258524742 30.966827865 30.4398207497 29.7920021112 29.5897378353 29.8394728553 29.6313763536 29.2587224513 28.895531646 28.3601869229 28.0204914769 27.6240148148 27.2105318395 26.8757815524 26.6459989018 26.763323018 27.0602917472 27.9095213233 29.334755174 29.8306802669 30.5774245145 30.1809332857 30.6519106192 30.8184495788 32.2781122563 32.2935253311 32.244481923 31.0650400969 30.9426251456 30.7646115357 30.0439441349 29.5183492617 29.1753236748 27.6500665679 27.1734202168 26.4668065532 25.538259254 24.3457154846 23.0106755874 21.8383999741 21.1845906937 21.2990030389 21.9587645008 22.8135495318 23.0876267264 23.529211621 23.6821319586 24.1871494021 24.2871053943 24.334718801 24.3692873638 23.9399298992 23.3189571175 23.4394818045 23.5800584243 23.7371094735 23.9048372233 23.7933307 24.7973210314 24.8707930922 24.9906356025 24.9611287862 24.8668058913 24.8202936999 24.2750781913 24.0791592535 24.4772031946 25.3838824432 26.5584147238 27.6689270532 28.9074631373 29.7135513316 30.3997859366 31.0348095285 31.6806834399 32.3790769563 34.3280846669 35.1698882991 36.6364842367 37.5248658767 38.3818922264 39.9293805005 41.1213506574 42.4947704706 45.1620797806 46.3861236644 47.3463795519 48.1907192555 49.4964238877 50.6069239593 51.9771566856 56.6499706062 58.7348728269 60.9877559417 65.3583156416 69.0501912513 72.703661569 75.8203579029 79.6263040486 84.2718262224 89.6974382 95.4235536267 100.824819143 104.04219584 104.761973701 102.87739611 100.803041063 100.338625833 100.69770387 102.280099969 104.841654298 112.230855739 114.264140955 115.570673703 116.076421054 119.390821697 121.471879435 124.984149813 133.726001396 139.216111007 144.459322209 148.820121272 150.218580985 150.455715121 150.820120326 152.474284754 159.529471813 164.139632797 168.551225075 172.343586032 175.432413602 183.274873818 189.166079395 191.625708845 196.22869755 198.632724308 207.792878005 210.398973178 213.140528494 216.075063347 220.544119956 223.681016376 226.79686573 235.064138832 237.349357868 239.374744769 241.22310689 242.977671253 244.102959772 247.677736265 248.315328198 248.499583208 248.32352819 249.526032401 249.356492516 249.227483555
62.729537618 62.1874880841 60.2714693414 59.4564792487 58.3131999354 56.9357441932 55.7249486657 55.2648873361 55.7282676456 56.2066539116 56.7713355249 56.9448037819 56.6658651031 55.9893935453 55.0869369847 54.3158196074 54.0319413581 54.3572913733 54.9524312522 55.3362546546 55.4594090021 54.470343377 54.1919037404 53.834075144 53.6493129664 53.3342161753 52.142105986 51.221650644 49.6685412509 49.108734691 48.7166067033 48.4925361124 48.5393955697 48.1888762039 48.1335289888 47.1510730508 46.7389609177 46.3017144249 45.80664258 45.0149191197 44.1512030713 43.0147577539 41.4802265239 40.4275924328 40.1163203496 40.1093585655 39.8258925323 38.6817318976 37.2571495382 36.0498332015 35.8731337475 36.2303224069 36.5354214881 36.411527507 35.39398657 34.547468065 33.7805385727 33.296523537 33.1881930931 33.2168220972 32.8241716543 32.4448715448 31.9657821594 31.5911711476 31.2634025025 30.9713939196 30.6977984188 29.5962091965 29.6003641087 29.8687800519 29.6133762756 29.3911502634 28.9329952227 28.563751259 28.0817008084 27.3594061745 26.7540145935 26.2454820405 26.0004475918 26.3571034961 26.9285845401 28.3721881661 29.9848891088 30.7040115297 31.4973766219 31.2580677173 30.5565042527 30.7175662472 32.1001820299 32.0964226547 32.0278226907 31.9068623866 30.7259745774 30.5329218038 30.4443851093 29.3490053214 29.0124426716 27.6019532608 27.1770895866 26.5115845438 25.5695092651 24.2689772209 22.7297843145 21.3324957981 20.5945408038 20.7717920731 21.5937028142 22.5956061068 22.961048119 23.4001276232 23.4514490394 23.299200691 23.2700819132 23.2109819961 23.1764800018 22.6945945328 22.7056385482 22.807236896 22.9226219225 23.0421964647 22.8535693303 23.0063998108 22.8758184337 23.2847882391 24.1034872231 24.0897624063 23.9736486837 23.4667707289 23.0610697765 22.7544615084 23.1360659953 24.1431931004 25.390867523 26.7491411339 28.0328962746 28.8304954001 29.4608655231 30.0193037116 30.5906932955 31.2250587782 31.9234322805 33.2463265325 35.0435157817 35.486125899 35.8013003787 36.6476310052 37.2503335437 38.3144638076 41.0486024283 42.7784192859 44.3901552533 45.8559627347 47.6565266968 49.1050535531 50.6820541847 53.2716847344 57.7656626061 59.9098347795 62.4315598998 66.1242024707 70.4887261311 74.0356245241 80.0545532858 85.1671423523 91.2248246084 98.2162829024 103.866943325 107.246975912 107.230379892 104.823442714 101.821426248 99.9556785317 100.979649697 102.995546434 106.421509466 112.841599818 116.257872231 117.157165529 117.080365172 116.887145689 117.575649362 122.574415181 130.878541545 136.063841289 141.123060749 146.162975857 148.095293604 149.565782798 151.01507981 153.840883228 158.055064641 167.800980426 172.762397658 176.689930367 179.537068547 186.306011638 188.487026259 192.800686002 198.124614063 200.514550072 206.637102725 209.335627186 215.819320149 218.732157703 221.939507889 225.350502878 234.119425492 236.794005203 238.120970416 239.856049032 241.171061733 242.260146344 246.225492976 246.907909887 247.402654399 247.660768423 249.493538017 249.555421045 249.6021042 249.66188789
64.9764135366 64.4255625617 63.7930203664 61.8643008403 60.6913234938 59.2307112292 57.3917037681 56.969545158 57.2618857542 57.9673203339 58.1377654922 58.3111282746 57.9965980688 57.2336248098 56.2124900349 55.343678407 55.1739289824 55.2571610363 55.880825567 55.9783579283 56.1292146875 56.0809911528 54.9298538418 55.0877655111 54.5458714075 54.012686283 53.3543033958 52.5180881795 50.5344687456 49.6480347055 48.6207931039 48.4054654277 48.4720551642 48.4707360771 48.3450366551 47.7653116653 46.9200729689 46.5231354474 46.0938393847 45.604979888 44.980014881 44.125981129 42.9608964042 42.0375232732 41.5256170811 41.1550505773 40.4798845543 38.8716961321 36.9911500684 35.6753772235 35.4792675946 36.0748617315 36.6147026004 36.9223444277 35.8718284394 35.2006575106 34.2704133424 33.7624854272 33.5929015585 33.3603485481 32.8707428402 32.2259010888 31.8094861066 31.447700536 31.1442278133 30.8759030149 30.2461205405 29.5469052371 29.5648728004 29.7903823996 29.6318787148 29.4326987617 28.9819934501 28.5932355109 27.9242818392 27.236404936 26.7454036688 25.8689897675 25.4854995446 25.9821212023 27.0123195866 28.774371439 29.8744349464 30.5960666783 31.3115901604 31.5242023221 31.3053151695 31.7951354398 31.8585498157 31.8263696846 31.727977377 31.5944836385 30.5010759598 30.3012242417 30.6399233549 29.1000607545 28.7527161077 27.5092647747 27.1657385862 26.6715911394 25.8494287425 24.6117053742 23.0676353498 21.6232832763 20.834114135 20.9995704939 21.8139012965 22.779407304 22.9932175202 23.391348464 22.7193888945 23.0026012604 22.864562132 22.7216973375 22.6393100142 22.16149099 21.9958648081 21.8806971886 21.7606051649 21.9641352979 22.0631533777 21.7568133242 21.884273862 22.125494341 22.3895526457 23.1184143838 23.206554541 22.9033066737 22.5527497837 22.2605992927 22.6265640498 23.6161453908 24.8537982451 26.4237157874 27.4079986348 28.1097151897 28.6160054582 29.0496752044 29.5255832203 30.1078217316 30.7819703099 32.0383700438 32.5528287705 33.7154124974 33.5403021351 33.2798302711 33.7595482766 35.4886966557 37.3679911557 39.6067154774 41.7856287447 44.1467162024 45.9450641932 47.6670513763 49.4131149814 52.1412991163 56.4890339794 58.8467566745 61.4204655958 65.1952121065 69.7269210127 73.3635386758 77.8175563618 83.3128644755 89.6789795238 97.0031808008 104.010197649 107.919511145 107.825403277 105.019777868 101.58007442 99.5062939394 100.664118122 103.188164607 107.564862825 112.804792958 118.338165097 119.445729846 118.492639526 116.875069023 116.329809196 117.519623075 120.623847527 129.460247419 136.194657081 140.286578953 142.241670256 146.229608683 151.508501364 155.944188875 161.807350216 172.846311014 178.522309648 182.463834013 184.689956768 188.55942464 191.853845604 195.21787862 200.499049122 202.608411932 209.232131114 211.812632758 217.067661469 219.994480632 223.438093142 227.300923682 235.04087296 238.206448126 240.589988753 242.054296617 242.770712996 243.095816564 246.503669334 246.819027111 247.133704265 247.392630465 249.696717496 249.914717874 250.122881472 250.327776683
65.6990295413 65.1879450269 64.7645787067 64.2888081342 62.5622380796 61.5060267968 60.5150033672 60.0056603051 59.2955928032 59.6268244045 59.3782684525 59.401730514 59.0619592185 58.3964806025 57.9737937885 57.2228695354 56.9023924494 57.1084475349 57.1254043058 57.3545811017 57.0969777336 56.722542814 56.5022570668 55.70989405 55.1750011675 54.6468735613 53.9897288734 53.100337286 51.5672631752 49.7090070621 48.5760239701 48.0885916795 48.331440976 48.7069743649 48.6766076705 47.8468881704 46.9151197614 46.5050585965 46.2001449958 46.0385167397 45.6927530516 44.8489852377 44.168603115 43.2646940622 42.6837077528 42.0771804941 41.2013835108 39.657114657 37.6313295832 36.3421454461 36.169264374 36.9341923424 37.2594577884 37.3922078329 36.5155566553 35.6213241022 34.9127345428 34.3605004467 34.0046432572 33.3924697568 32.603858269 31.9000962479 31.4699970374 31.1432831902 30.8990357962 30.3155437759 30.1155351401 29.4468341653 29.485813971 29.7241237491 29.6009597643 29.4521906098 29.2281317149 28.6987303793 28.0338133608 27.308290615 26.7461895335 25.8036869416 25.3676789187 25.8768453502 27.0406395727 28.8933184627 29.9395997166 30.5028351152 31.026387968 31.2604154937 31.4214454436 31.4808893188 31.5418064974 31.4574244403 31.3009154009 31.1562314986 31.1212178989 30.8908213134 30.2229909263 29.7099718094 28.2438696049 28.5049803127 27.7977618471 26.8633534698 26.3075109082 25.3269920334 24.0210618559 22.758799132 21.9760793824 22.0293637472 22.6238770345 23.3393222397 23.2540671819 23.3895952103 23.1403352507 22.1490294428 21.8289606626 21.5440074606 21.6129271327 21.5882288252 21.639409334 21.5416309828 21.2612801733 21.3087047823 21.0890448926 21.1415750138 21.2136722013 21.4450518353 21.765805861 22.1097348248 22.8624267924 22.7847343969 22.5493797377 22.4769905694 22.7768468789 23.665335148 24.7386971706 26.1669830479 26.9913981466 27.5185810626 27.8364055967 28.0967659219 28.4584442408 29.010761214 29.7211588749 30.9916239195 31.5001869837 32.3434697804 31.7856026561 31.0166255856 30.9177412979 31.8177273873 34.4259886344 37.1281543037 40.3115062374 42.4382732588 44.4957243376 46.3886908656 48.4964478116 50.4056658425 55.3406766985 57.6848051539 61.2600909322 63.9433395257 68.4510124567 71.9438999123 76.1761509476 81.3561314692 87.2791419771 94.1357933377 100.913395425 104.509431344 105.066339673 102.707167849 99.6916703836 97.9998720365 99.5417243316 102.439499846 107.43156419 114.055775704 119.099152128 120.872306274 119.222761195 116.457966316 114.771295789 114.89117046 116.950901271 122.663285991 131.893847654 134.481935846 138.356120176 144.440309584 149.215262728 155.710976619 163.984294598 176.681965035 183.82899647 187.880073545 189.01269235 190.638306499 190.777285684 195.170169406 202.351354256 205.28095887 211.446621054 213.682161552 216.036392782 221.22734468 227.49071281 231.963705061 236.632290928 241.336082769 244.05455754 245.300543283 245.343167653 244.811861771 247.363216569 247.309492164 247.437929331 249.955277726 250.279698591 250.613528619 250.942263956 251.254865211
65.9744137852 65.320767549 65.0016223569 64.9846384214 64.9563341959 64.6590749498 63.0279510748 62.6600106123 62.6082451854 61.5180710486 62.2328616958 62.0643380894 60.9375173618 60.3251143319 59.6113068608 58.9479350103 58.5247315627 58.2973478423 57.8088041548 57.7007801914 57.4264819316 57.476716886 57.2045557596 56.8715640921 55.7156089878 55.2129068533 54.6374614988 53.8497916808 52.3484732231 50.7910381178 48.9959445523 48.3679914737 48.6142663702 48.9772769355 48.8715008433 48.0508299078 47.1209789397 46.2003355751 46.102234206 46.2327181827 46.2090373153 45.6501067829 45.5655098223 45.0354844512 43.7651690081 43.1020415463 42.4897630371 40.9158546683 39.3960448434 38.3323836649 37.9903131587 38.323343582 38.7444386605 38.3934382816 37.4562607387 36.2421784902 35.5337619142 34.8764358027 34.2804221502 33.2547377279 32.3163814854 31.4635677404 31.0273729702 30.6556440711 30.5289265973 30.0840424199 29.9292077253 29.763847264 29.3419429624 29.5643655447 29.4862018757 29.420847621 29.3043149809 28.7256212267 28.3105260801 27.6717838296 27.3205955234 26.5494022065 26.1702199104 26.6447038376 28.1845069254 29.4129313417 30.1218952 30.3118415873 30.500579781 30.6192397041 30.863132679 31.0777539608 31.1560951534 30.9597025969 30.6715839955 30.5888916672 30.5702902111 30.4533109244 29.7621853199 28.9908407723 28.026227943 27.6672216889 27.8615923102 27.3836621297 27.265367568 26.6768575068 25.5881136923 25.0518347291 24.0548454681 23.5024727351 23.7672509851 24.1122964689 23.6115109739 23.4893557494 23.0086476946 21.8874763021 21.376898597 20.7460165414 20.9864247371 20.9966337619 20.9720981656 21.1021250781 20.860114175 20.8573996546 20.5699301215 20.5132805524 20.5023398701 20.7053786981 21.0804734269 21.5546006712 22.1191967823 22.3896495562 22.7290204003 22.7529092676 23.2638145708 24.029835164 24.8707063743 26.1061214653 26.7107730014 27.016273213 27.0983951821 27.1417202177 27.3724006506 27.9229419144 28.734980366 30.1044890531 30.7266762678 31.2672959127 30.5751850667 29.6770754203 29.1492764984 29.9839664396 32.0941028872 36.0217827822 38.9740563838 41.2446496148 43.5239578954 45.4721988083 47.4574454351 49.3542245293 51.3208304624 56.4502232317 59.8956095883 62.4224336225 66.7358156258 69.8828093338 73.6168261627 78.1075139189 83.0745945675 88.834998099 94.7104413868 97.8308966985 99.4609097163 97.920394209 96.3189097562 95.4314937583 97.4560452201 100.391040791 105.254147988 111.798321034 116.91093413 118.769561669 117.518564556 114.418654368 112.205881548 111.781285562 113.141351092 118.407266458 125.836450357 130.109519413 134.725861896 142.539372466 149.099994896 157.844316116 169.183726433 181.205073344 193.469898379 197.644488335 196.664777888 194.224254267 192.833972683 198.080721132 205.468017038 208.996956821 214.557454235 216.140755932 217.708697409 224.452233573 228.422568797 233.616903895 239.38117822 244.589158478 248.296528452 249.311676387 248.521443267 249.320625501 248.51829841 248.142852931 250.442517092 250.774828631 251.19066967 251.630692873 252.059648885 254.481937247
65.9593936469 64.921068589 64.4837801243 64.8720948667 65.6748296233 66.2748618399 66.5102506152 65.5884855651 65.8485393023 65.889118873 65.8446366864 63.7293986795 63.6604441912 61.8957140302 61.2295185555 60.4702252722 59.7156158714 58.8870221332 58.0372154407 57.3894126669 57.3237876434 57.6367404897 57.5836927898 57.2832917835 56.3489114517 55.8236106278 55.1658029407 54.6460376827 53.4640999579 52.131289554 50.562297894 49.8557822483 49.4924394057 49.5596001345 49.3178232404 48.2265792577 47.0503815381 46.0590691794 45.9936286166 46.3653432636 46.9333652166 46.7141684772 46.4461457319 46.028653696 45.4431854936 44.5988617814 43.6878439391 42.8773080021 41.3589649563 40.626726924 40.1869579514 40.0522846919 39.9872171959 39.7652843714 38.4467550538 36.8652610376 36.0832301783 35.2622629263 34.3818409132 32.9331647334 31.8395833053 30.6391746511 30.168852195 30.07881272 30.1850526035 29.8138118263 29.7084108812 29.7020131199 29.1006286983 29.2611474454 29.2300318935 29.2858870855 29.3393080248 29.2756673604 28.7123199697 28.2660598371 28.3454364964 28.0031362522 28.179923505 28.0407126202 29.4491097237 30.1418853194 30.2635978041 29.8680487273 29.5646388632 29.5840816856 30.0863007043 30.62383343 30.7509971799 30.3160298103 29.7879149132 29.5842257048 29.8433341631 30.036319545 29.372789478 28.1981038198 26.8035887798 26.4564895873 27.0656607712 27.3424334172 27.7382696857 27.6278394675 27.6167716364 26.940129786 26.4034741465 25.3794734443 25.3466218277 24.596111403 23.6977221914 23.2937717966 22.5701886638 21.2470778223 20.6253722642 20.1545392455 19.9080181081 19.9465218346 20.4590382623 20.6952555869 20.5142115377 20.4569735296 20.0787321735 19.8743099165 19.7446503968 19.8958815963 20.3207797752 21.0414953541 21.6595250841 22.1308104138 22.4286476096 22.9825880233 23.3494881551 23.7661845608 25.0563146752 26.1156396183 26.5042847637 26.589743597 26.4253372009 26.2281902619 26.318729038 26.8939969977 27.8541059545 29.3762717772 30.7651456818 30.8968168072 30.2991544347 29.3999251128 28.8212609185 29.6377092794 31.7419063672 35.4763905284 38.3277676721 40.73869304 42.7990032228 44.6614047425 46.5710781614 48.4023694959 50.2897453235 55.1824663867 58.4287172828 60.7275296132 64.716435729 67.3797706828 70.4367388306 74.0253787836 77.8112358893 82.3358824794 87.1578897784 89.7945258151 90.8344378475 90.1506631852 92.0145903381 91.9855953401 94.4091384401 97.0219453248 101.896365507 106.486540807 110.494987302 111.987304254 112.531223291 110.133214631 108.325597787 107.947827024 109.073350981 112.317125538 121.481384469 125.879233277 131.031156712 140.029018279 147.916806582 158.516039772 172.512013098 188.219827158 201.73703011 207.303463034 204.032781436 197.995208195 195.356852026 197.779116034 208.997999168 214.304664367 219.013469547 219.423521906 219.016893431 220.464362353 228.887870544 234.755701932 241.713981662 247.771696323 252.084190114 252.894083217 252.062518268 251.384871829 250.405009219 250.072744614 250.230134954 250.664490224 254.587221541 255.30073201 255.971881543 256.579095323
66.784553737 64.8838750956 64.0324196394 64.9081824163 66.910530923 68.7825909919 69.0753578132 69.5619188962 68.167832318 68.1100601834 67.9155989118 67.5465595851 66.9717132061 65.3381862323 64.426700756 63.3025661498 60.7006581447 59.1694120603 57.521328868 56.6537731602 56.9044109971 57.6903279021 57.9468761772 57.6643735124 56.6009710031 55.8879272896 55.4599889043 55.2948085006 54.9837228022 54.1534455058 52.992832377 51.5885857645 51.2256184897 50.7535334423 50.3038888451 49.1321022981 47.9104726515 46.9851263707 46.6838135899 47.3507847421 47.9511593115 47.8801999558 47.6162007675 47.3067008691 46.878494924 45.9729719402 45.3829136916 44.3366734119 43.1922765337 42.703212762 42.1820573359 41.6960484137 41.2389085767 40.4633241058 39.8245985784 38.3863483703 36.5882744104 35.5835385135 34.4088502918 32.4391937066 31.1853060293 29.6186002577 29.0892937424 29.2248628722 29.6473303004 29.5593549509 29.6781581457 29.3973614594 28.7287103741 28.4776448568 28.759866089 28.9857926175 29.2819527974 29.4810119366 30.1929920949 30.0108483656 30.8915452736 29.6288008847 30.2077666868 30.4754795403 30.8114475734 30.8813824524 30.3103920831 29.1926320163 28.2576434692 28.201129897 29.3405953768 30.5361134508 30.6575531527 29.8759005239 28.6501643567 28.1963450788 28.9469243795 29.5555497424 29.2787293384 27.7630424732 25.9401692631 25.4195209959 26.4395542536 27.3958387935 28.2549588197 29.0863762961 28.966624463 28.5804926383 28.156774026 27.8231559157 26.5304590559 25.4146061588 24.0784520815 24.0271433554 23.076929926 20.9343564802 20.0823441307 19.4473179275 19.2020730405 19.3778821579 19.6839442495 20.3564659515 20.2503659622 20.1373365801 19.6510776163 19.2722459264 19.0011825436 19.0916778646 19.5724869397 20.3980794016 21.169929569 21.7971529741 22.2506453756 22.7936582433 23.037671777 23.9157157675 24.2371724584 25.5347812808 26.3529117784 26.2777124034 25.9240219704 25.5255435196 25.496951497 26.1047311747 27.1955508658 29.4147015786 30.4632957612 30.8611460919 30.7191193786 30.0712198522 29.7616561061 30.5762622877 32.5171942342 36.0377015569 38.4892432401 40.5655053018 42.3698143223 44.0500139707 45.7101656402 47.5546397491 50.0161735052 51.8188932199 56.9328483302 58.9738282802 60.9812100341 64.6779735707 66.9863747458 68.7070435474 71.7446232351 75.5050296921 79.6692665746 82.04875855 83.590270133 83.9375646445 83.9825555597 86.8218324189 89.4935224481 91.6641984357 96.5255814835 99.5677790281 102.055545659 102.968047922 105.372809294 104.154404906 103.290649869 103.449497028 102.827382349 107.974441363 111.189320677 121.57095435 126.957589015 136.482948915 144.930296342 156.360693994 171.747360837 189.868271513 206.179845022 212.151802851 206.782673526 198.854847841 196.227277589 200.884397182 214.261858626 221.119970602 224.965393317 223.140363928 220.955762954 220.885523183 228.612826852 233.850085089 241.848660455 249.616435153 254.567558415 255.262841635 253.827405664 252.078209972 251.057212253 250.862065211 251.222322673 255.086718576 255.971848068 256.804055193 257.551329749 258.196841088
68.0212123973 66.054049901 65.2027502527 66.2371472569 68.571035046 70.8369362602 72.3480486855 71.9947505244 72.1995830304 70.3293795444 70.0184963273 69.5584049942 69.4434366009 68.5729145558 66.2904491234 65.028180916 63.2940494021 59.9835342889 57.8798907893 56.5435992596 57.1501190704 58.4646472428 59.2159048454 58.1596761035 56.8705938736 55.8357217481 55.1132628794 55.2041093796 55.5105024842 55.3228088839 54.6083436313 53.6283317477 52.6060960749 51.8190579924 51.2703439088 50.4432732486 49.5261725726 48.8079024733 48.2407431837 48.5819286062 48.8707630405 48.653818023 48.3565433765 48.060801714 47.6631038746 46.850982499 46.3027753111 45.4090215126 44.6398911545 44.3339359296 43.7571372148 43.0379378088 42.3172431102 41.3226443358 40.5426551748 39.0033469287 37.9698778562 35.948971166 34.416061056 32.439238347 30.5698581222 28.9493096372 28.1150566977 28.4956607315 29.2524932208 29.6837924023 29.5115118181 29.0508514402 28.5398749067 28.0990056929 28.1423766628 28.6293378004 29.2786920695 31.1699198072 32.2898744703 32.5023574835 32.431936047 32.6616172072 32.0850098051 32.2025126151 32.1412427515 31.6922142438 30.5374026619 28.7915112019 27.2913602219 27.1833057368 28.7596526033 31.2912690243 31.6543405774 29.7782875238 27.5158720452 26.9949307204 28.2980083521 30.1829808692 30.332104159 28.2865706408 26.3374253513 25.7560904319 27.0765476264 27.9791580469 29.5429036652 30.1469620224 30.2316354779 29.9968043719 29.6153308592 29.1860734739 27.5577109969 26.1236248436 25.1786610416 24.2550265812 23.0610841353 21.1376777372 19.632256109 18.803204958 18.5389678048 18.8614646558 19.4131934976 19.8365183856 20.0156969503 19.7548566655 19.3579378563 18.8310519791 18.4630825068 18.5121692864 19.0791497393 19.9259749121 20.778329079 21.4925787072 22.0413297369 22.6233353719 23.9047224621 24.3278851187 24.3062387949 25.5716829548 26.5285977438 26.3150620726 25.8203769499 25.2889113763 25.215545425 25.8526860939 27.0126354203 28.4095952365 30.0126421517 30.7038638526 31.3003922136 31.1825841698 31.2949130955 32.0309411325 34.4258408572 36.2301125075 39.0466196596 40.6524668792 42.1137799892 43.5680273646 45.0819342352 47.5658611026 49.138457314 50.9685414511 52.7247910396 54.3402538975 58.8923028326 60.4682375635 62.6600979077 64.3805908165 66.9365306748 69.2838325107 71.8339080384 75.3388404653 77.281413512 78.3380483468 79.1138149077 80.7415717412 85.090046181 86.7698409007 88.7641295922 92.6814845577 93.9587327428 94.3875666769 93.8743618881 97.6025486845 97.7461207362 96.7632169388 98.3330282741 100.663608246 106.903728849 110.820474081 122.1290392 131.795076297 139.884590937 150.693929164 165.206097654 182.496134969 197.932098274 204.934653376 201.418398541 195.233163109 194.849010589 202.647087196 218.971393887 228.479968966 230.511294264 226.957002097 222.254758931 219.48885667 226.207780952 232.189566048 240.185867245 248.055620829 253.145378828 254.244002092 253.337801134 251.997941278 251.472223103 251.755496576 252.506794277 256.640915715 257.69104372 258.62566359 259.429611684 260.094299143
70.6116289887 69.125065235 68.6583872136 69.732882508 71.838174698 73.8614646743 75.1934118687 74.6042439759 74.6572916986 74.4379584251 72.1273734449 72.0784788769 71.3677924067 70.5203790788 69.3480295196 68.1154789093 66.331850381 63.5593329233 60.797957216 58.8608968651 58.9020813566 59.9228747375 60.5607588783 60.1479943029 58.7732649258 56.6281215684 55.3312416223 55.4722154702 56.1307348311 56.6027302347 56.3840543975 55.0763416612 54.5031292049 52.9837732305 52.4093619617 51.7040932919 50.9537832769 50.4156257799 50.2044785955 49.7368143454 49.5391221447 49.3712194706 48.9984963664 48.6826265514 48.3017838466 47.6410011994 47.0092728109 46.3997360141 45.800768556 45.4115080362 44.8243110239 43.9772542037 42.8704438226 42.005224124 41.1457615225 39.5760624777 38.5009630645 37.4010491595 34.9998403646 33.546130286 31.1647594501 28.8072013607 27.9440410729 28.3873656196 29.2508454576 29.7202965291 29.5902732641 29.0667636906 27.8697679108 27.1772614437 27.2629248727 28.0688304981 29.1112203761 31.4480225786 32.9825843179 33.5993792993 33.8827926267 34.4304356842 33.7961206539 35.6125739997 33.565809605 32.837637903 31.4273161117 29.6672074538 27.9301514249 27.819289839 29.4622104303 32.1542232814 32.4956921025 30.8461325637 28.0566477367 27.5095781563 29.124466871 31.066244553 31.5957329819 30.0102583049 28.620466142 28.183249206 29.189343434 29.8473735686 30.8628022982 31.4120045128 31.5031853183 31.278177053 30.8626613091 30.3321803554 28.5442733565 26.5425513628 25.6787984372 24.6131995715 23.2869914777 20.773981676 19.5328734468 18.5858467647 18.3125706491 18.7207097532 19.3782434972 19.5644429179 19.6765606961 19.4947959916 19.282202234 18.7150919599 18.3057744751 18.3459477684 18.9164128335 19.7524260936 21.0714362407 21.2926700083 21.8670422863 22.5137233157 24.0066074742 24.4491044134 24.8490210099 25.7175504517 25.8886137858 26.4452446105 26.047281137 25.6067991408 25.597312001 26.3166419775 27.3109042885 28.5332485587 29.6312323957 31.0076309718 31.9022760425 32.2759537215 32.8533630632 34.1800837663 35.4343303399 37.5127172773 38.6742068496 40.4316361355 41.4735760378 43.1423669546 45.2074315287 47.6441906508 49.134001398 49.9912778965 50.8086220884 53.049663048 57.0185707637 58.6993851832 59.639287657 60.5665402901 61.793669513 64.0021044605 66.2742573382 69.8401363904 72.0657525946 72.3986482735 73.4900472002 76.5798343142 77.1869802022 78.4979171674 83.4495002042 85.0506024217 87.3455220578 87.4820344413 87.2190404771 87.3187714964 90.65698685 92.156448216 94.1371073791 96.6133829428 102.84865638 106.631620829 117.161495882 122.971267183 133.263988854 142.574790045 153.889896021 166.325692819 179.327740921 187.242400169 189.234204925 187.712095409 190.771957993 200.931684655 217.790010894 230.478482178 232.61358305 226.348463646 220.642772155 217.525120485 223.768021157 229.086685463 236.262876673 243.328278648 248.126860556 250.506375012 251.752858459 251.548894685 252.014227761 253.048266002 257.308425335 258.651588698 259.816297497 260.806600249 261.634224129 262.294887405
74.114802034 73.3387168036 73.3979977938 74.4809005284 76.1288296075 77.5607226893 78.3676727684 78.6058712538 79.0234287706 78.6774457167 76.2301041219 75.5617262185 73.2791540702 72.241040782 71.5015700769 70.6215882944 69.4047159716 67.3452383889 65.1666902491 63.6850077174 63.2844786751 63.8915507133 62.4823444394 61.5041288424 60.2981545323 58.3822036094 57.4294170372 57.6408478278 58.3737541544 58.021194859 58.2179792148 57.0649483492 56.4527908637 55.8273117661 54.1879793503 52.8905851776 52.0874242468 51.3189361699 50.6980145698 50.3001564312 50.2418106249 49.7921654818 49.4698495919 49.1125133262 48.7741444695 48.1931578628 47.4533916892 46.5607739245 45.9331045522 45.8451919347 45.3284300795 44.2988960103 43.3476068849 42.4682665048 42.4941193655 40.9545306475 39.9420003944 38.0782005345 36.6657067637 34.5378452092 32.3649246827 30.3286890286 29.366718515 29.5368685224 30.4640407415 30.9511411394 30.4460293024 29.1070759043 27.6360011365 26.7311783521 26.8988210544 28.4191756671 30.2727632132 31.9125193272 33.8074943899 34.731879234 35.2973751811 35.6056305576 37.660178055 37.5775355928 37.1314467853 36.0719696137 33.5885649567 31.8724187851 30.5134155581 30.4545391189 32.6085865554 34.1512526279 34.4009480153 33.3367821673 31.6040180536 31.1689562476 31.6242574218 33.0826190568 33.6398022699 33.1986017171 31.778715115 31.5789947423 32.1718773604 33.0905516896 32.5624119961 32.8626358417 32.8044617678 32.4748623743 31.9608018556 30.0635854412 29.5649568357 27.1901298978 26.2346117748 25.1250401907 23.8126993123 21.8030775415 20.0572316208 19.0827973121 18.7924119726 19.1302669612 19.4276342446 19.7538138152 19.8237147893 19.4335304856 19.178246112 18.8531990857 18.6651180705 18.711531735 19.1879357765 20.0160250843 21.157568441 21.9188339017 22.5525238137 23.2356250784 24.0721298532 24.5300426692 24.9342919252 25.8274153537 26.0249180716 26.6275760689 26.6726598331 26.4832562721 26.5851930038 27.1388407006 27.8255675227 29.6095924666 30.6464462298 31.3447291743 32.5201172473 33.2239953268 34.645951817 35.6669076556 36.8738486773 38.0269203092 39.9330913675 40.5842764173 41.3515536143 42.3889379058 43.6533676106 46.9879689132 48.3915801473 49.1314502016 50.4651397842 51.1684404522 52.4830165301 53.5920067675 57.2250606912 57.4504783117 58.0421788533 59.1195360027 61.1474594776 64.5734948613 66.8812466493 68.3583570258 69.594019524 70.7055737436 73.3024659216 74.4611297088 75.692505813 77.3002509222 80.0659272853 80.3003732414 82.3479928976 81.6381752247 82.5167054454 88.2454381423 90.5298024036 93.0757342225 99.1499216405 102.763239097 106.995976837 117.336803745 126.143329174 130.916442487 139.190740913 149.07341377 158.982882676 167.974618552 171.162854484 178.098892278 183.750890042 194.060838861 210.081858022 222.198716705 224.943286281 220.135368971 213.783224312 213.604182473 220.288749026 225.018250115 231.227827784 237.360060543 243.86093804 246.108036145 250.241479644 251.565003915 253.276384463 257.996726188 259.777071845 261.224859864 262.38988924 260.958209107 261.698369281 262.261527994
77.8306010107 77.6023673963 78.0104720297 79.0535007687 80.3084445007 81.177883787 81.7596294485 81.5490436234 81.1261324789 80.609192388 80.0149236601 77.4383256316 75.6874314179 74.1565885056 73.5815772284 73.1311149042 73.3561030148 72.3325577963 70.5764290464 68.0702501245 67.2703809757 66.6614986767 64.3511313923 63.6577110377 62.7662387249 61.2192355755 60.6772024255 60.6636937702 60.8238276863 60.7558570735 59.7642920575 58.4455940085 57.7456578416 57.0752335244 56.2626351492 54.7561031535 53.6675193759 51.9064006472 50.6458324463 50.0902401867 50.3555518012 50.3958431422 49.9807954976 49.3945754047 49.2150240845 48.647622102 47.9964643966 46.9732419307 46.1988592209 46.173699399 45.7898350876 45.1966506017 44.4949076015 44.2594336438 43.6171320507 42.8372952056 40.4424401352 38.8002063296 37.363414004 35.9655285784 34.2555954848 32.634178282 31.7043321713 31.4613923618 31.7852314231 31.4779074595 30.997261441 29.6088367076 28.7760866155 27.5940062361 27.7496700994 29.272380167 31.221527575 33.8168607714 35.0939370531 35.9703996051 38.0288613385 38.6453225962 39.5523357964 45.4053127576 44.8952844496 43.7884921706 40.4453661332 35.0275885678 34.1412078835 38.7014169967 36.2123633655 37.0753212134 37.5167845394 36.9149991374 36.1009869396 36.0674626892 36.8098731007 37.7614504931 37.5053221474 36.8099417229 34.8837625669 34.7837710643 35.0426454992 35.3949681126 34.3784056652 34.3719081122 34.0847130342 33.5797522515 32.9248607287 31.9372010379 30.0191570229 29.0591055467 26.8129627023 25.7321893468 23.8272940138 22.6933415385 20.9312470325 20.1749491483 19.8455964658 19.9456923996 19.9206808977 20.0800762656 20.067246337 19.6470306684 19.476430235 19.2732638505 19.0907850263 19.1301597714 19.8187837037 20.3645570978 21.3871647167 22.019843388 22.589112371 23.2478184982 24.1118040449 24.5824587442 25.0003674775 25.9270888293 26.1739003975 26.5702886569 26.6533526989 27.2968777696 27.4974332582 27.9506348281 29.1644529914 30.0504604619 30.97224225 33.107158736 33.9898297131 33.9134588322 35.5597856019 36.699898372 37.9313142053 39.01069044 40.0759264752 40.5288672103 41.1184457284 42.1450298376 43.4572972312 45.6420499461 46.8688130125 48.0040499143 47.8323121446 49.8289996729 50.7336743325 52.7701913024 55.0164463401 54.9974486321 55.1854834478 56.3949662001 58.2565489309 61.4268296463 63.6945989631 65.1372007919 66.3342187369 67.3989882355 69.8790009329 70.9991781168 72.3067299851 74.2377576928 75.6060570959 78.0096729393 78.333896604 79.2263009224 80.3028360621 85.3166151036 87.7290323561 90.1977569332 95.9140483706 99.3537630078 103.225104114 107.51962494 118.123830465 122.424182969 127.56498261 134.481814961 144.956168079 152.183656193 157.759048366 165.420783034 172.11453388 181.85830053 195.186009549 203.722498886 209.865359057 208.201428368 205.330763728 204.217819706 210.990991521 220.467139706 226.145615846 234.836513175 239.288324881 242.768031582 249.797702279 252.775461098 255.797731056 261.148313088 260.979279747 262.2590824 263.177202205 263.971971695 264.696872292 265.259907309
83.6527401103 81.2505450348 81.6503101408 82.4576913857 83.3582681792 84.020063239 83.9023822321 83.424320161 82.8359480697 82.2374620706 81.6224241767 80.4420732079 78.7577648804 76.8850603893 75.3486751283 75.8399801268 75.7486519662 75.4114675651 74.217877801 72.46042575 70.2281286479 69.1125652765 66.5189933312 65.4934005373 64.8391348271 64.2959892662 63.7192868461 63.7935360274 63.4819728599 62.7886638316 61.3166214348 59.7846322083 59.0526523373 58.2886159749 57.3486479066 56.5580093396 55.4352620751 53.4297588771 51.6316654676 50.773462156 51.0682437232 51.2228528851 50.1503492434 49.162965115 48.7675665071 49.18587071 48.6159075056 48.5015381136 47.5934014062 46.8820347519 46.2029228127 45.0032018242 44.2849587094 44.1913561246 43.7196355674 42.9903993671 40.8994819289 39.391935532 38.376512356 37.4021679961 36.1351424388 34.8538799181 33.4707971566 33.2225269634 33.0806518096 32.4063188149 31.8755174918 30.6054339267 30.5517412607 29.8476499176 30.0150846068 31.1949273094 32.7474990136 35.171801299 41.052219209 42.7556384237 43.0984550368 40.2954308858 46.3132323192 47.8780324355 47.7027214795 47.122678813 46.1798812379 43.9218745473 43.0783122029 44.4665134715 40.0894484984 40.5210709341 41.0029201536 40.8557416731 42.0692330859 40.7663944581 41.0412847345 41.3166595016 41.3365184036 39.7845472439 37.5909855584 37.3645408027 38.7424369782 37.2336046091 37.1710736673 35.7833404816 35.2549993684 34.5445080123 33.5217759268 32.5802242658 30.6075965529 29.5823134041 27.3472582754 26.3153610061 24.540941312 23.641075061 22.0104867768 21.4008203179 21.0223820569 20.8859719842 20.5070152925 20.478770563 20.3697574303 20.1980437523 19.9504352129 19.6106812791 19.611301261 19.646928916 20.0304549781 21.1637883449 21.6422329983 22.1260007143 22.6076345576 22.8759793386 23.5293603071 24.0338784404 25.0518008265 26.2815959676 26.6135196555 26.8641682178 27.056561721 28.176537575 28.5318628269 28.9315822223 30.0796179195 30.3313842271 32.7523387036 33.4708455803 34.4319425212 35.8001320071 36.7712795434 37.2830728605 38.5454946865 40.011887773 40.2412588853 40.1990681581 40.339359216 40.9073619923 43.4821335175 45.4849621727 45.9797091577 46.873641437 47.2957022147 48.4271847151 50.4636473787 51.9500288603 54.2522531664 54.2183627058 54.1889462778 55.0126638361 56.4363921873 57.9730514868 61.3469858857 62.5789338623 63.6124319832 63.9192503373 66.8315952487 67.8973598216 69.3181498413 71.7317211143 74.0793888046 76.558348711 77.9136791695 77.747687137 77.7465425353 81.9466529859 85.8786869175 87.8463056619 90.4966644444 93.9618501897 97.870939921 103.136150737 108.019286615 114.982508368 117.764721016 122.46320796 133.449442365 139.267220298 145.525154909 151.320677741 161.798154121 169.542485972 179.986055163 185.6743227 193.16107642 194.639689248 195.375269042 196.862594457 205.522979854 210.54038517 225.31757193 230.818870597 236.05629662 241.029885364 248.124949132 253.121590561 260.304076087 263.531959524 265.355871751 266.154999864 266.644950097 267.281923056 268.058909473 269.912805307
86.8766155973 86.3582798072 85.9985541495 85.6151246057 85.0783758869 85.0664961808 84.948489027 84.590441289 84.0925685396 83.5277175348 82.9395925553 81.8717475414 80.3044023163 79.423018802 77.7542293094 76.9874125039 76.8369594486 76.8554223869 75.9682839531 74.4147541036 72.7744574533 71.0444895321 68.242436144 67.6591638102 66.9725166267 66.630069128 66.396927967 66.657677547 65.7919000504 64.5314953813 62.9303064487 60.9718705982 60.1723619389 59.4303407976 58.6426305555 58.1261712423 57.3698341157 55.6348207118 53.9967484007 52.948159345 52.4178876707 52.0059228004 51.0683950764 49.6430619498 49.040564945 49.8185848029 50.0588153692 49.6685101837 48.8616203392 47.78942971 46.0812442142 44.9299437993 44.3326896019 44.4398921119 43.6588413033 42.9673397947 42.2283876578 40.1220412583 39.093707936 38.4975414019 38.4648447589 36.5004351792 35.6065349693 34.6708086471 34.2636527771 33.4058789694 32.9167311536 33.9103568184 33.0239152251 32.8094523148 33.1447630715 33.434969669 34.5116644425 37.1073370663 42.724078299 44.3994966121 45.7497926778 47.190173684 48.2927375565 50.0584610313 50.1678267114 50.0367845781 49.7353929424 48.0378968862 49.633658987 49.5093659706 49.5705634116 44.0709056138 44.5933054855 46.3054838502 46.2247762899 46.219814766 44.7516358717 44.5662478561 44.1835768358 44.2408897586 43.5948278434 40.8710952307 40.14115202 39.5166041555 38.1223185538 36.9584737079 36.2167752619 35.1259672952 34.077870665 33.034331371 31.0523230485 29.9731872922 27.9775563445 26.8047209145 25.1210257271 24.3955950054 22.9237882851 22.4243397413 22.0055613388 21.6952474499 21.4657594479 20.8754404351 20.701925572 20.4877837906 20.4650367288 20.3073768963 20.0055207869 20.2729209066 20.398777403 21.515276357 21.8368395783 22.2151737539 22.650384397 23.3259183447 23.5471319179 24.0754938406 25.6985264 26.3793584805 26.7601768686 27.0667200032 28.3760075848 28.4391534931 28.7168378466 29.0678846915 30.704169907 31.0766157551 32.069998978 33.7741542849 35.0909249104 36.0372585653 37.0206167661 38.0715815694 39.5791286447 40.1224304696 40.2593678751 40.2350722766 40.425092802 41.1079290715 43.6805570618 45.085393262 46.0163256512 46.623481379 46.8492677177 47.7402823438 49.6587391357 51.2932922992 53.2428738194 53.9126796181 54.0243394428 53.9978017483 55.601493868 56.6348165273 57.8566939892 60.4933679391 61.3047948726 61.40995748 62.20162089 64.939748041 66.2352083541 67.1178234925 71.1639881659 75.721488567 77.8716045994 77.5191395383 77.552550526 79.4670462224 81.3406682687 84.0775267308 87.7284569625 90.7096916958 94.3908384887 101.143195269 107.598150683 112.431512921 114.363178423 116.837219986 125.294756262 131.929869574 137.950811501 143.804335154 148.998350583 159.107842208 167.0998967 170.798834637 178.592423687 182.298021089 185.822540948 189.552298642 193.91927807 211.462492047 217.580167989 227.619505094 233.903836093 242.844989807 249.811005451 259.626171327 265.43694671 269.242305391 270.553513598 270.357034943 270.162662021 270.723645828 272.804945983 273.664014658
92.5757302563 89.1030386495 88.05080503 86.8389258914 85.4975596069 85.1699329624 85.3391100975 85.2837519829 85.9800390798 85.6210201851 84.9552322319 82.97159245 83.0516177146 82.1905429849 80.0116428153 78.3061292598 77.2458743985 76.990979032 76.4711473338 75.1847492005 73.9547899483 73.2253703143 72.3492170904 70.0855614235 68.2399170276 67.6727073046 67.4721956453 67.851213677 67.333132888 65.5564678607 64.1886834171 62.5793891764 61.2265830249 60.4476568503 59.815617634 59.6932599707 59.5568516647 58.6537656377 57.0215626188 55.6370118957 54.4092710672 54.0539978571 53.1822363506 52.0569966717 51.2079269117 51.5575109167 51.3865005371 50.9886360087 50.7318297508 48.8321027202 46.6384626865 43.8443027181 42.6102290855 43.4955131345 44.42064987 43.8803933795 42.0143861115 40.0603130501 39.599751553 39.6362122745 39.3111001943 37.5713846575 37.3282838372 35.8770919715 35.3922758009 34.8183175814 36.0506658567 35.8729603719 34.8274126562 34.9177609357 35.2609431978 35.865936671 36.4080345376 38.3835358139 44.1544939833 45.8810849249 53.3979146091 55.2845926011 55.8702599624 51.7383459811 51.9219739531 52.0075188005 52.176380786 54.4814235058 53.6311040432 53.6653681347 53.8001416616 54.0483009922 53.8546004897 49.6035798572 49.3837226747 49.1624347831 48.9454085406 48.2022540304 47.6084976327 46.2910814035 45.3622060268 43.9603305802 42.1295347234 39.4913787816 38.4455344941 37.8339435047 36.9077379989 35.5391570817 34.3688247184 32.6618993687 31.5509069364 29.2667892969 28.2199031689 27.0105198712 25.4092129911 24.7568927466 23.6784384177 23.2613994126 22.8323689503 22.4227834295 22.0628049159 21.3503638283 20.9637710747 20.7233417672 20.7637105594 20.6281835374 20.6767972885 20.5460409947 20.590210346 21.605095445 21.7958301484 22.1117952197 22.5547756838 23.2655032034 23.838158381 24.6544950563 25.7410568675 27.2914992053 26.8179121782 27.1602601776 28.3963454897 28.2779858034 28.9783991582 29.3139172329 30.2742712751 30.9746894078 34.0306840419 35.1494640487 35.2370908721 36.0679703815 37.2787175835 37.9254982075 38.9869674647 39.7889846452 40.2254762748 40.4229224787 40.5871659483 41.4569434014 43.2603106523 44.333879124 45.4060397254 45.8944097807 46.5766895713 47.1156266734 48.7511506146 50.2897417408 52.3663335897 53.2337005021 53.5125019922 53.2963735478 53.2169273761 53.3871881114 55.7644442879 56.8874875712 58.6489850471 59.2796702505 59.9369190461 60.5696728037 61.7412144592 63.6808668628 67.1109200644 72.351454192 74.9356772795 75.6998479081 77.3377989978 80.9399191447 84.3056691452 84.2205261792 87.3209427521 90.3663936748 92.9712586897 97.132626862 106.286779323 113.150428357 113.999410108 115.275931335 122.10585971 127.892387881 133.156273702 138.296216084 143.130619491 151.145903938 157.797021117 160.054026692 167.113570124 172.373225267 177.852588094 183.234449203 188.722946198 205.958725806 212.688293194 220.298660018 233.66447478 242.768337133 251.726567223 263.416111988 270.990403056 275.424206 275.860311047 274.213157119 273.278433187 274.981728643 276.780303211 278.092147192
96.1178366277 94.9369691397 93.2193420881 90.8941374462 87.4216137149 86.4898845331 86.2747206465 86.8184081657 86.9066457123 86.2446184106 85.5253899001 84.3737731966 84.0825645505 83.1805323755 81.4390284421 79.6714624266 78.2927440963 77.3057107018 76.8897102267 75.6821287311 74.789732032 73.8403352567 73.1469237344 71.5533223165 70.4758712994 68.714579141 67.7089767555 67.8392162229 67.4013587411 66.0648434667 64.4874087754 63.140655112 62.4152146991 61.2425494039 60.9747558479 60.9944213826 61.3235364338 60.7745516777 58.9914540719 57.3699908143 56.2057561332 55.5386293856 55.1538844328 54.7661481931 54.8244453201 54.7738683083 54.458687051 53.9013383203 52.2553649766 50.0375715587 47.8088359713 43.995312853 42.2607581753 43.5037440207 44.7863906589 44.1491756483 41.8974681863 39.7588887795 39.5151669384 40.2810079137 39.8040761407 39.4921149655 38.9220280411 36.8729326548 36.3724683939 36.0634940038 36.9774587599 37.1126744853 36.4419076769 36.4855695518 36.6262407351 36.6724213494 37.5923578366 42.0628003148 45.2038187592 47.1187399479 54.5596158235 55.9649221295 62.2716358792 57.3523292514 52.633012993 52.510025253 56.1032702862 55.8201387612 57.6859604092 62.0366978644 62.8450634675 58.1359988844 57.1125680157 52.2285227251 51.4525498457 50.6259106325 50.1397361562 49.6552611521 49.5819089526 48.6592392836 46.6539565102 45.0424801892 42.5935523031 39.3043703433 38.3642000466 38.4661240816 37.0655962946 35.7857017412 33.8972888075 32.8513654119 31.8198561497 30.5201539768 28.38523405 27.1922681544 25.5436110659 24.6779021652 24.3309531531 23.6673514013 23.2550072232 22.7893031967 21.879088067 21.4949437035 21.5751038716 21.1301168636 20.9720083811 20.8355582168 20.7157095978 20.6602394205 20.6084796718 21.3838074173 21.4454207455 21.7527635393 22.6994879663 23.4119226828 24.4281680298 25.0061523997 25.6998577348 27.0362231723 27.6397398908 27.149746072 28.2673067693 28.4660306959 27.8108700522 28.142237355 29.5661467786 31.7644399718 34.0390390583 35.1698066755 35.0869319507 36.0556267344 36.8734038284 37.9140363037 38.6853606265 40.0722589601 40.5978139274 40.7720063671 41.8660704634 42.8924560512 43.7417697317 45.1330490564 46.0594163664 46.5249730236 46.2530312982 46.9350053578 47.8508113207 48.8920065193 50.1527019618 51.0441202457 51.4147470203 52.1733570106 52.2762160289 52.6270281817 53.1814377552 53.5519815103 54.8553702864 55.7562780971 57.0168507081 57.7129623275 58.1764457846 59.6898831186 62.7970149837 66.2663187991 69.004755951 71.0442773243 74.8331379618 81.8355746438 87.4113050427 85.5037844391 85.3159169448 90.3815108453 93.0066058198 94.2336291893 101.536536128 108.325937642 110.500322224 114.201012798 121.335785612 126.53622749 130.897506863 134.858998896 139.707072793 147.648686175 150.147007992 153.345849842 158.955766098 165.360151244 172.126758611 178.541519608 189.111173327 202.635400708 210.299028433 217.623714511 228.453555449 242.818772142 253.142646969 265.750184581 274.908938205 279.970154419 279.594367031 276.692171722 276.192284944 278.232269906 281.420747891 283.328609417
99.3247226669 97.3373991748 96.0827282471 94.2692643894 92.3421971577 91.2476337448 90.0246963844 88.4621300822 88.1672490732 87.4878595623 85.3605646493 83.511883242 83.3898298013 84.4490948648 84.5926135244 81.5725709404 80.5074070384 79.5598636393 77.7376429172 76.318259561 74.9503056531 73.7937942284 73.2936158951 73.0556792736 71.5066206868 69.6469361138 68.621244985 67.6655118691 67.0636993117 65.7393782205 64.6031058384 64.1222261914 63.3932029463 62.60373115 61.460422857 61.3426533368 61.6753789445 61.2838504408 60.0703637318 58.5299960146 57.9898621532 57.0406118348 56.9232543816 57.7660189911 57.8312046965 57.5428832364 56.344774685 55.5857620205 55.0145653676 53.6894460446 50.7462074322 47.4222043551 45.3444010197 45.9561330762 46.0361559266 45.2260132267 43.1675209116 41.2066669443 40.6664822125 40.453174598 40.2512422847 39.9115043194 38.9827511538 38.4245267062 36.8906608886 36.2867207921 37.9552308037 37.7542228656 36.9797516227 36.707531453 36.3679236755 36.5614782384 39.9022613316 43.6814407019 46.0995056396 48.2065840845 55.2366199355 56.7026557147 62.7082012486 61.0486304677 57.86905925 54.7287022135 55.7350021594 61.6253939883 63.6016171315 70.1778151692 71.9312879708 67.0059078335 67.0850947614 59.763657891 52.7852879382 50.6810547405 49.6793859485 50.2307830912 50.2676236188 49.2546348475 47.5162599219 46.277705435 44.0256783114 40.3456370209 39.081986009 38.5137267958 36.4975118486 35.0641136264 34.1056610623 32.6507313959 31.4855641614 29.5338631621 28.4715527841 27.1688782288 25.3590814081 24.4084124913 24.1277002233 23.8525051312 23.4542447548 22.5310775086 22.007853921 21.5844773835 21.6771997143 21.1526323798 21.093131773 20.9517925397 20.8038349835 21.419510916 21.1305531444 20.8850712125 20.7908387003 21.1504283051 22.2491364003 23.4733664104 24.3281420538 24.9253645588 26.7233219026 27.0643136638 27.7593614628 27.8306228459 29.1406765508 28.0704747889 27.0701214021 27.4218403144 29.4932793437 31.9135494852 34.2240556382 35.0925396305 35.278099394 35.1405797837 35.8961010358 37.193532194 38.2181433853 40.066606187 40.9336763873 41.7547693426 42.4947321446 43.3917042858 43.9962096425 45.1874644393 46.0647353294 46.5476763783 46.1654819594 45.5319627566 45.4333437528 47.6027520775 48.4397595042 49.1707403483 49.5830139089 50.7968046954 51.270300151 50.1928621814 51.5899955449 52.7306605691 53.6379580276 53.7650507043 54.5811061167 56.8973950091 57.2222885685 57.2922934338 58.5089098117 60.5392199236 62.6834547503 66.9406928094 71.0276228722 77.6146557253 82.9419649688 82.7601657106 84.0685476801 91.0235715032 93.3181525366 89.8895976805 93.9801225355 100.265583625 105.301247989 109.575285468 122.345077323 128.119553317 130.860730655 132.926313529 137.501451898 146.284244434 149.602636045 150.102626005 152.959774278 161.687277593 169.041757273 175.913958138 182.464860231 196.624220624 203.783812543 211.405587898 225.965933249 240.841221332 251.638871204 263.722049187 274.07105399 279.818580875 279.567952815 277.321252864 277.505246119 281.531312323 286.528420265 288.900113371
100.123258371 99.7090411324 98.4936109424 97.6863405455 96.6083208618 95.8305480004 95.9439514536 93.7439722522 92.9107161287 88.9056373077 86.3987746338 84.1659586805 83.9924170695 87.0160689356 86.2990252652 87.5268966811 82.7438126781 81.4951572307 80.1621629468 76.9467453649 75.0646117956 73.3466055663 72.8511066202 73.2932998854 72.4040251559 71.8460219923 69.7408613966 68.9156813441 67.089233282 65.7479888807 64.5277836757 63.7695626629 63.7360975633 63.3555335696 61.8051196624 61.3621275245 61.4617947333 61.1857630241 60.4437778792 59.9129613011 59.5091429686 59.4441759061 58.6986269207 58.858013381 58.9425062927 58.7352096262 58.2706437643 57.3966186121 56.8617208573 55.8644000044 54.1890598489 51.9546416064 50.3746587317 49.3936211542 48.5274094845 47.1232164862 45.3751469593 43.7333392996 42.5566571841 41.9944593961 40.4050401842 39.5889835976 39.1929550209 38.6895565428 37.1477301967 36.8064401972 36.6373804195 38.0860368462 37.6832454281 36.5936481524 35.6445515525 35.9237191596 38.9819162072 43.9199574632 51.1248749253 53.6459758629 59.7344599154 61.7195017534 63.6754727519 61.5337009567 55.4664002572 49.8614730434 51.6019179323 60.2012274221 69.1608195724 72.8780302513 75.0978953792 75.1733798788 70.0644201075 66.8617994854 58.0274368409 52.5514177597 49.6604250821 50.5977863397 50.7922211579 49.0493747101 47.4175383544 47.1275971762 45.9175779883 43.613171748 40.5852450248 38.4483419143 35.3596021593 33.8014506555 33.3010522853 32.2796874423 31.1792745564 29.527853754 28.6795737642 27.3947802952 25.4040747263 24.2337024766 24.0204728024 23.8827581914 23.1488191103 22.497569009 21.9462225773 21.522859345 21.6547038532 21.1786433506 21.0464926031 20.9174796289 20.8418710174 21.3611983197 20.8770804101 20.4307509606 20.1067223928 20.6909257392 21.9145321114 23.3189638448 24.2836680046 26.0904011518 26.2848092078 26.471843233 27.2147416229 28.6755889269 29.6725386529 28.7998399313 27.8808957145 28.362996803 30.3880193402 32.7263425662 34.7139133194 34.9139567768 34.1754780044 33.4634937754 34.2431176608 35.7692001057 37.8030159639 40.1268778489 41.4629374732 42.300561055 43.023839687 43.7409277466 43.2611760377 44.8087353607 45.5489167995 45.8794625759 45.3524041066 44.7705984769 44.9708574438 44.3134084101 44.735252896 45.1477574145 45.0579314313 45.7247588082 48.3069438762 50.1551427271 52.6252375529 54.4686180187 54.3492989316 53.5473822049 53.8326811854 55.3383782317 56.8385404502 56.8972852682 56.5638289909 57.5413900301 58.6519689165 60.2514130324 63.8445284406 68.3699789449 72.3987337406 74.3459438957 78.8763251427 84.015315442 86.2668844633 84.2200820383 84.5458813557 90.6855843002 95.9368394435 107.532751536 121.714166531 132.67247741 133.539934938 131.964851569 135.062733333 144.540012832 149.006159894 149.953905601 152.845890579 159.157219625 165.483903305 175.211042488 181.520176743 187.992575151 202.038308952 210.668651835 222.932689668 235.997766968 248.108465545 258.921773823 268.563267556 274.236167389 275.136353388 274.428670053 278.104418585 284.039181979 290.37720291 292.905290434
99.4876209357 99.5541797239 100.721793087 101.921156298 102.371159383 102.326621332 100.046604345 99.4890933049 96.6592681101 94.6483863861 91.8376185442 89.2618475457 89.2692776849 90.9601215129 92.4706802724 90.790310584 89.8845925967 88.4430506405 85.6987787768 78.1623881397 75.9987886383 73.9233554937 73.2342088248 73.8943990733 73.8172915287 73.1190276932 72.1069776288 70.8613636963 68.6379008874 66.9952739002 64.6772806224 63.9001948123 63.8370031048 63.5017493652 62.3585386785 62.3612736483 61.5154424975 61.4055987488 61.0637257882 60.953398082 60.7547166961 60.8223269854 59.7795161306 59.2756967143 59.0474716865 59.1074537791 59.0399998973 58.9785151933 58.2307912637 57.5939722419 56.975132508 55.7705499915 55.0968740123 54.3153864773 52.7660191956 51.0868821037 48.4176734404 46.5067585322 43.5769449846 41.8786605252 40.0296679908 39.1974851417 39.0930886362 38.6955756658 37.2379744674 36.7458380393 36.5997150821 38.1800843837 37.3945847812 36.9711491984 36.4950070349 36.527636505 41.0089287728 46.7346240339 51.6309826668 52.5519170663 56.9785934908 59.6901228427 63.8252644118 63.4659853215 58.0035214014 52.2531343118 53.9143982445 66.4759640155 76.2755332942 81.0612301075 78.1104402384 79.4604523647 73.0668097474 70.5208278233 66.5783459524 60.6529076005 55.3127209272 55.5098708949 54.62882017 48.7966060441 46.6692548658 47.3189544408 47.3244609406 45.7305697614 41.8900538434 38.4207695812 35.1040179085 32.632130376 32.8044128641 32.0567903508 30.6775470801 29.7527604247 29.089542009 27.5087438169 25.9088674982 24.717967545 24.2541885707 23.8906358485 22.883553739 22.2120436437 21.6780305188 21.5126024046 21.350107883 21.1187155646 21.0247321142 20.9238020377 20.7932605421 21.7986673946 21.1137453056 20.2190707218 19.7932768497 20.4625198703 21.9104376869 24.2380084504 24.3720207478 25.7822062052 25.4337189585 25.2399777278 26.9740658576 28.4346623386 29.9392249937 30.2650001786 30.0950821939 30.7887946183 32.4378505151 34.2106783623 35.5356194594 34.8206536953 32.9070552106 31.4660646629 32.4413851886 34.9447752284 38.7440862004 41.3678865337 41.9971126031 42.8932632188 43.5248834598 43.9278512398 44.2822149745 44.0590356434 44.4910309424 44.7735005779 44.0192197073 43.6063370498 42.979303718 42.9344624912 43.0027415369 42.7532398566 43.183071374 44.0834835465 45.5898908341 49.3734379623 52.6700942533 55.2629213534 54.7132170315 52.6535223335 52.4923895846 53.4152880964 54.1522651542 53.9790938263 52.9201607082 54.5275987398 54.9867118574 55.6212234868 55.9840344296 57.5377920033 62.6924974543 66.1373757461 68.7528989952 73.1938558224 73.452987593 73.8135604036 77.0378346651 84.117247851 90.3492679855 101.083678583 117.763135216 132.525113506 133.000711968 127.780213333 128.194267506 137.589033215 143.917309546 147.39014573 150.38881749 162.369433655 171.03669326 176.338396632 182.000459329 190.565249164 201.495875332 209.103469771 223.761175034 233.533581172 242.400122932 252.012114379 260.625213544 266.448492863 269.338324586 271.506945895 275.802811978 282.948456719 290.408764818 292.907948201
98.494114116 98.2348407731 100.716174173 103.764356924 105.674796898 106.432080757 106.44973461 103.491479192 100.507209346 99.072115676 100.757414565 99.1805031702 98.9160027595 96.6983201579 99.4122256432 94.6513238097 93.4454579829 91.7176447076 90.0495004981 84.773842251 81.8150816714 77.4201392482 76.5113752121 76.7756681838 76.3609284596 74.6359263401 73.3552483499 71.9259654827 69.1095659543 67.7601305315 66.4342467895 64.5004729345 64.2066124094 63.450487883 63.0956650206 62.776849475 61.689345201 61.6825341325 61.521043988 61.0955199225 60.8551907578 61.0866695823 61.1423479277 60.092430655 59.7696392449 59.8657721096 60.4734749836 59.4828401907 57.9680627043 57.9092680016 58.5322297425 59.1243788985 58.6886717323 57.9565240715 56.8615654075 53.9217056114 52.3672487658 48.1804947747 43.7212936682 40.3028088906 38.0222569883 38.1577311116 38.7762568834 38.6081902844 36.936035651 36.2168746711 36.0760354839 38.1745266463 37.7453254866 38.2748640479 39.9565088648 41.702753304 45.1114412519 49.4385498485 52.01686885 49.7119454057 50.2591460303 56.8174747404 66.0660025803 69.9936149621 69.163548315 65.4872811804 68.7397293474 75.9466721133 85.1702031119 85.8015452937 84.3702276432 85.4946590598 79.6866626832 76.2785941235 74.2244422824 72.1460514248 63.7703385426 62.0474859356 59.1471034567 54.0732537623 50.0850018966 49.4846516185 50.1040901996 49.0051398492 43.9276438294 39.3562247296 35.6601470154 32.9635412107 33.0266166122 32.0299445545 30.2455115423 29.3809501589 29.237453355 27.8447864088 26.3752022434 24.9208401616 24.2845212538 23.1962175162 22.3587566947 21.6707382529 21.1950184561 21.1646976328 21.1228473632 20.9837403382 20.9342563426 20.8682504246 21.1151170502 22.0575596866 21.5401308254 20.8626761021 20.6195273562 21.2390685208 23.2915537756 24.8780847778 25.7845846485 25.3683779892 24.7456848172 23.695881491 24.8665794791 27.5748748354 30.2014552212 31.7283778361 32.6653437082 33.5545205652 34.9864554471 36.1457505218 37.6311305395 35.5004355102 32.9149474926 31.0637410188 32.3498887653 36.016455269 40.7972760462 43.6106357595 43.6641799972 44.4657193928 45.6388410793 44.2720669722 42.7301820629 42.8826352186 42.8105307985 42.7252010453 43.2050104611 42.8761299355 41.6659856072 41.5014009746 40.9230970643 40.9586758879 41.2542657315 42.1063734695 43.4371682766 45.7850984887 49.1240563567 52.1566390891 51.6747610801 49.4677561825 49.816348263 50.1267797096 50.6002060811 50.5107958644 50.0670920416 50.2470676098 51.9200064723 52.0527310551 51.6367227966 51.8723761723 54.8784420876 58.8869051819 60.3092529391 59.9653148711 61.4482815245 63.9117694348 69.4034611855 74.1758441254 83.3898394869 91.0059063374 105.619693041 117.364172029 120.350680848 118.437501068 119.233834847 132.225342361 139.500594029 146.756490912 156.409507891 166.209323687 174.042652271 176.422687743 180.521490736 192.03074929 203.887454891 209.719110671 217.797144154 228.764902662 236.547767653 245.154379085 253.137927024 259.405764614 262.384599779 266.712356144 272.158070815 278.960474554 285.162978665 287.944720576
99.646424867 99.4371021412 102.611375943 106.630498251 109.334400465 110.556316934 110.760918059 111.554272518 111.366233067 107.874271409 106.823015217 106.198827954 106.020397863 105.895001279 104.996262344 104.030917019 97.1896170444 95.8104661859 93.4180461903 89.2836295469 87.0461552719 85.1689002761 83.5832586503 83.2118806651 81.1009542942 80.1269219358 74.5905887593 72.6207668736 69.4663217956 68.3156438111 67.247359459 66.4785220796 64.7491294122 63.6356465479 63.3214508521 62.9489417587 61.964381189 61.297359015 61.9279983045 61.2781028671 60.8348028253 61.3057715966 61.6788553438 61.6507043433 61.3304140212 62.0474143141 62.1289806926 61.0802691593 59.1717719275 59.0103375635 60.4881679002 62.1169466674 62.1615580177 61.3764214307 61.1637306269 57.982207333 55.0476632803 51.4836972901 45.2045971564 38.9156711708 35.8082142788 37.5055663236 38.9416660274 38.4578639096 36.5452370995 35.4652908361 35.1987264422 37.1299365109 38.8107822982 42.2045998623 43.8299062282 47.4159872873 52.5520642143 54.5122958827 53.8991633839 47.7136133941 43.7610298937 53.7411065119 69.0512828672 80.4068522567 83.3773825964 82.6851951907 87.6726888712 88.7052076792 85.7200293735 82.6144683033 83.6432677148 86.5559680398 82.1349659816 74.1282345641 73.5070239559 77.184699783 74.166724679 67.8949879839 64.5408799384 60.514848254 56.8921892931 53.2157427577 52.6745157701 51.174149591 45.8126001227 41.330896158 37.8700817771 35.5185414973 34.4282474275 32.171201343 30.4239215164 29.3887846098 29.008346746 27.5351459565 26.2967897889 24.8878693743 23.3360526193 22.6187127165 21.6489266204 20.922969003 20.8619870124 20.6640186718 20.8362575448 20.9270363112 20.7672066917 20.7199469545 21.2110508186 22.2289352153 22.2520358965 22.2048939362 22.212816899 22.8161879437 24.9104317465 26.0852963973 26.392374438 25.3311042658 23.5639653892 21.6861569313 22.8961145343 26.8257096668 30.7542593037 33.6998118328 35.3179703361 36.8954859694 39.1118700335 40.1383737498 39.931053928 38.4297424781 36.1602225855 34.766668501 36.1364272421 40.659613452 44.2452329091 46.5908086947 46.7020720866 47.2613230478 45.6114391532 44.4935953 42.5393943952 42.3607264559 42.1389216686 41.7045522236 42.0687871635 41.0911275783 40.4425360416 39.2678443612 38.0722474941 39.1868534466 38.2957059881 39.6782229641 40.5209055871 41.7913646345 43.0852827833 44.8827290765 46.206852515 45.462323566 44.9550273758 45.2170032577 47.3739812184 47.8203802749 48.5112342689 49.1442534552 49.5415288553 50.3912387263 50.7073157459 50.9516539945 51.6943183778 51.6821446046 54.9754564473 54.3430788785 53.4076555703 56.9402325906 62.0661902343 68.2772828588 71.0381926138 78.7253044826 85.1374543266 95.8073846668 102.381950784 106.083154612 110.745306383 122.066445015 131.534249302 144.791625512 163.839097108 178.564383282 179.690102045 180.001016848 185.030670029 192.830594221 201.724588272 212.326512547 217.280552981 221.426470243 227.913436912 237.169646523 244.914782018 251.732405353 257.569798287 262.999717319 268.614039527 274.316451358 279.057712336 281.5084367
105.718115451 104.983887329 107.970294144 111.541998299 113.931043438 114.977885636 118.708320362 119.562273238 118.817113662 115.696374593 111.395576644 110.903540289 110.705224444 112.195300442 111.928790631 109.85955502 113.190705244 105.064782564 102.384107733 100.993877119 92.9707102767 90.8190936381 89.5952110324 89.1968557469 83.7955043678 82.1802726959 79.9499004981 77.8207936712 69.9396229606 68.8094520278 67.6979324778 67.0858064472 66.5850648749 65.3708343806 63.5354248931 63.171809627 62.4047601239 62.4707448259 62.3679859416 62.2285022904 61.8337064876 62.1881061158 62.7730662924 63.6347677893 63.482592583 64.3615214655 64.635228879 65.1270746415 64.3788808726 65.4421559143 66.6575158976 67.4141883988 66.3597193861 65.7423337802 64.4355961642 61.9231821427 58.4766598123 55.025892704 49.3141083385 41.5369916522 37.6784737392 39.1946071399 40.130832863 39.3583411543 36.5190897663 34.2121953483 33.8219254779 36.1938793375 38.5414304916 42.2141238507 48.8212514311 52.2027708719 57.9410076347 63.7741389179 60.7502970895 53.4712065317 50.5104353097 60.6666472765 75.8499667719 89.6190852185 95.6042156751 97.9358161498 100.609220637 95.0127451385 82.2463222658 72.3812884099 80.3294485535 90.0732431766 84.1372606436 74.0817331017 73.5100890922 82.587941218 82.9912935975 77.0690102362 70.4643643339 65.3741786622 61.7612604612 59.3298443354 55.1715557515 52.3103442146 47.8943447237 44.8653995822 42.3161881873 38.2737720345 34.3800722822 32.4922245543 30.2772139403 29.0300305048 27.7202169594 26.5483040216 25.1787567378 24.4231450461 23.6270642587 22.0199217854 20.9304513945 20.1095619037 19.8807925812 20.2011801598 20.6862522364 20.9857468781 20.8620642987 20.523127403 20.9314681401 22.0155130391 22.6971820908 23.3545045845 23.8176541275 25.5121236962 26.5797675824 27.5252462563 27.5737166001 26.3275497789 24.7108157058 22.5781790696 23.9405443604 28.2006874645 32.5520674835 35.9920622818 38.0639152505 39.9091650556 42.3126307204 43.3285406622 43.2130448423 42.6861980245 41.6815673811 41.1730001146 42.1615876683 45.5363638997 47.5322949343 48.8321178729 48.3251483778 48.6407562991 48.3400575944 45.7914254001 43.3600304529 41.3603543988 41.589730571 41.1625796861 40.6218981362 40.2564226633 39.0868689309 37.3184002063 36.6136834035 36.1625303978 36.2743653031 36.3996516985 37.3863348904 36.7805470321 36.6791851177 37.4985306356 39.0931844165 38.7385213181 41.3349553339 41.8587638004 42.4898740679 45.2638224248 47.2590489889 48.8925999268 47.9514047022 47.5107231466 49.4196352221 49.3911034705 48.9990041597 49.2041223951 50.6058798113 51.8093822796 52.4840716534 55.1073259879 58.800444466 61.674613191 65.5606308175 67.7093037034 70.5963689883 77.0968395523 86.6308343794 96.069576482 103.026205297 113.606266082 124.884436072 143.663677917 167.375501725 188.058107355 186.742100403 178.017153519 182.679234464 193.130389738 208.534826095 215.73752078 215.922610374 217.423102611 222.000823967 233.376655034 240.769295501 247.722657569 254.09993038 260.04602585 265.653119642 270.683720558 274.588999458 276.857795666
113.733564411 114.734222895 117.313625712 119.945858965 121.635916953 122.589010631 122.669589108 122.197656082 122.59943029 119.246880801 117.091162865 114.524521614 112.793852012 113.225615349 114.136366458 116.956586161 116.076404424 111.745024177 109.263591171 103.582667461 93.9480990821 91.3513667631 89.2809151488 89.6251455576 93.2035118024 87.9442200873 80.6378509926 78.3646023351 70.2571775122 68.5004484752 67.4994371546 67.0055735775 66.0531141299 65.5427280832 63.1902732716 62.4134168791 61.4586526174 61.760881378 63.0516193376 63.2318957281 64.1789409971 63.6137628046 64.6132583647 65.2505760692 66.4481061754 66.8876953284 67.5077202363 70.0664110543 71.6973326451 73.8871569706 74.8335345339 72.2669847512 70.0819456423 69.5196667298 68.0524611751 66.325984502 62.4644517904 60.2824492913 55.5019948784 49.2816634857 44.9965296776 43.024068976 41.7904080947 40.0632933596 36.1063636946 34.0599625994 34.0766342764 36.5624316176 39.587055468 47.8993660238 51.8452965786 59.1015931852 62.7446070187 70.2657744963 70.0973501221 67.6285232137 71.6207624774 78.4981513524 93.3555698107 103.35558084 114.450099135 117.296374509 118.599366778 109.156497729 88.6760448749 76.3691925515 86.9875931167 100.454888089 97.045351493 87.7338632076 87.6907785293 92.5865699468 92.8328607549 86.5205335766 82.6135933494 72.6371228957 63.5532297378 57.298063547 56.3218050522 53.8385378351 48.7503236917 47.2356294155 45.2764947778 40.3658222964 35.2058111293 31.8594916833 29.8495555058 27.774830517 25.7682202615 24.6937345027 24.1920729767 23.7093352509 22.2988628831 21.5973564831 20.6854568676 19.6649887266 19.3431116413 19.9392425266 20.7329693974 20.9853182076 20.5207769634 20.0693075994 20.0765207086 21.5371741274 22.8613357513 24.2336982008 25.26237031 27.344063172 28.3614323083 29.1523609096 29.3369066267 29.7943417641 28.1612491903 27.3691875244 28.8377837521 32.528782692 36.3957495946 39.2398163945 42.5401833686 44.1470647789 46.6404619917 46.7666986452 48.3547261494 48.4117212947 47.9455474733 47.157790167 49.2080207076 49.8825999867 50.5170870055 50.9115820957 50.0403553602 49.7237939026 49.1498809862 46.3521173885 43.6462412483 41.3827844885 40.846940429 40.582513513 40.3896474142 39.6937822566 38.3010666999 36.1785440006 35.3523818605 33.575214413 33.2384288298 34.2618446992 33.1734238132 32.516059069 31.9137138169 32.2550425992 33.2555059276 34.944823529 35.6905223577 37.1353236786 37.7386423809 39.2350713727 41.2601410869 44.1447559582 44.1155782325 44.0176173857 46.2560367731 46.4899753843 48.0507787028 48.8777342873 48.6769834281 49.6728235733 51.3174330432 53.8637506044 55.7606780045 56.9797958673 59.991591964 63.9325017428 63.4640978817 67.7305918874 77.5890433346 87.1775986092 93.9581195321 101.521162458 119.590139143 135.182070991 158.295658882 179.962450138 181.085121436 174.83640719 181.30230165 193.644055381 210.082185064 216.974720246 216.253917456 216.898576308 220.742024493 226.667947364 233.521150927 245.470072449 252.1587425 258.53846413 264.472203283 269.627547538 273.551453497 274.956867349
121.151239052 122.296393532 124.025721694 125.331853672 127.988825872 128.743414988 129.206768999 129.095243284 128.285271792 124.184035022 119.477074692 115.002952595 111.981323394 113.276889295 118.533744145 119.093713435 117.669096226 115.832087713 111.775759762 107.977159665 99.3089734752 90.8700854028 89.4428600183 93.1181793249 94.1898434513 87.9967919323 80.6742263543 77.1602452331 74.4790908834 70.6757297579 66.9708877189 66.842287125 66.1845515898 64.5176669777 62.8208172913 61.7392636736 61.3901792333 62.0451988135 63.8901536151 64.5727610289 64.4578247024 64.8308235963 65.4707372854 66.3816737515 67.6983017927 68.7256943312 70.7609159066 73.7779807406 76.9540262699 80.9017737125 80.688832113 76.9207393647 74.5366406673 73.3313450763 71.1487059526 69.1638219786 66.2040927558 66.033009981 63.3218445269 56.7125026552 51.2709166557 47.2330540351 43.6918202262 41.3333105099 37.3123558787 35.5561521063 36.52678153 38.4191750041 42.2489503131 49.4366064876 53.829062652 62.2244919782 67.0467725323 75.9448835262 80.0206540831 82.4853448101 90.3807981851 95.6931304693 108.532425578 123.051748277 128.632942496 132.774945348 137.63984634 130.398303666 117.932676648 107.993552682 113.305349361 117.495855459 116.989398112 107.487640153 104.093247041 103.347029233 100.593977476 93.2613583224 87.9988410664 81.0472014515 67.8541360237 56.7390913343 56.391760469 54.5127706065 49.6847019792 49.0054765149 47.0255883287 41.3181438978 36.180744207 30.8997337817 28.5413248883 25.6410301687 23.9084673412 23.0549758524 23.161645564 23.0422185134 21.8730911382 21.2201106718 20.6398348587 20.0936237098 19.7593649106 20.2935012417 20.7893196823 20.9072584138 20.5313616454 19.4126067283 19.4508267889 21.1563370097 23.3381914595 25.0231378806 26.6116955938 29.0805106953 30.2153939326 31.1967312319 33.3248066229 33.7210202967 33.6103323484 34.231448572 36.1051281868 38.6332581638 41.1277666549 44.8308899325 46.9009051991 48.3919325081 50.1117055665 50.8213957662 52.2650501255 52.7081797148 52.400869266 52.1679285104 52.277697991 52.0706596899 52.1978529325 52.4591027556 51.2357396405 50.642884343 49.8901053184 47.105718182 44.2478358608 42.5197287024 41.2935121015 40.7962483193 40.4683294886 38.3259571131 35.98990554 33.9649031865 32.9015218799 32.2802305696 30.8418082616 29.945372488 29.9514186699 30.0183847295 29.0685424631 29.1823605172 30.7270695579 32.292439888 32.8583299343 33.3244251903 34.6605976549 34.2629638817 34.0636636959 35.1675289 38.8390127393 40.1416540624 40.9858546337 41.3736720384 44.2637056838 45.7932204365 45.2315812045 46.150636304 47.8947461142 51.0732638489 55.6208915314 55.637498434 56.5508467578 61.4725101983 63.5268805696 65.80604459 74.4994431367 83.7133248713 89.1120122292 95.4515849674 109.823454249 120.475215178 136.681748701 156.490826907 164.809022053 166.440416545 172.568795439 187.907274267 204.373931204 212.829449634 215.150856087 216.83832452 220.759210664 226.267295189 232.722033284 239.751109116 247.120821335 256.964133939 264.047825598 270.497766517 275.522454548 278.340892544
126.723477019 127.157723628 128.850075396 128.723761603 129.335558342 130.560820114 131.259815053 130.959956766 130.191903933 129.14982506 125.114332808 119.032257839 117.056055957 118.67076163 122.242360978 121.07531868 116.896510022 114.02218352 114.741062962 113.903179548 106.109055708 98.8917014463 96.7363477483 97.5970080965 95.5175822588 85.8811837314 79.0522420807 77.3085552359 75.6245983606 72.0632350112 68.6636731635 66.7137742312 65.3644202272 63.8635435814 61.7862451176 60.9354648761 61.0399951127 62.0227668349 64.0427104117 65.3554759231 64.9356417892 65.7732253056 66.7656540544 67.2373773949 68.0708932934 70.3040654967 72.4667968805 75.4328378562 79.0674213429 83.1692171399 82.7621504816 79.4737457312 76.7957413895 76.4617381704 75.3274062497 71.4320511584 69.0303671456 69.9111729331 68.095792116 61.0182623602 54.1037651101 49.7047780511 46.3649793223 41.5300898156 37.6916750866 36.7188038603 36.374018144 37.5996045886 42.1953428656 45.6203944983 55.2011655743 63.8761560103 69.6112771309 80.0768725377 87.1235562004 94.7142308985 100.885970226 110.098401222 125.686459085 135.745741773 144.327964478 148.98178531 157.795398357 158.070053751 159.171285261 153.521363367 148.078580527 143.390604477 139.078933529 127.831798557 115.362948247 106.795971754 103.963943601 102.257469398 92.9534170637 87.7047129698 78.8290363886 65.8144370936 60.0194052298 55.0318803013 50.6958662091 48.5834114809 45.872906858 38.9226592169 34.7658689464 30.3695657445 27.47299521 24.6651709221 22.3587548779 21.7239372505 22.4483662864 21.9451346889 21.3436625522 20.9918767012 20.7402392566 20.6863262156 20.566011434 20.818179124 21.1820282951 21.2956142167 20.9250456305 20.0265381433 20.2690492778 22.077075015 24.434314124 26.3260314633 27.8453529689 30.9483078907 32.2747485785 33.7246883624 34.9388914281 37.7801134714 39.168822196 40.9073743671 42.8861325778 45.3006804607 46.417367415 48.595710295 49.8504673395 51.9477316471 53.8771054282 55.6823444961 56.4752522279 56.4890279072 55.8870202542 54.6779254294 53.0209271385 51.9771425175 52.5459602104 53.2552951298 52.1307872293 51.0194848664 50.1225346941 47.7858952208 46.3088099896 43.1216349557 41.2953576268 40.7852081031 39.8220201306 37.4604071332 34.9101321625 32.3144394604 31.9240560367 30.0397256107 29.6837285787 29.3402107285 29.1682627151 29.0084814373 28.8522165059 28.9027086754 29.7700871884 30.1085715323 29.9539870519 30.6612900651 31.2473033139 30.1409682807 27.5323092858 29.231221518 33.2818879783 35.9448763267 36.7036430454 36.4202846479 35.6930768788 37.2128777789 39.7973681223 41.7129728528 43.863198551 46.694666072 51.8415310049 52.2997036666 54.5553735307 58.7585360679 62.8703966651 69.1380678488 75.5590173078 80.8038939451 86.0049318736 93.5190765091 98.2243590812 106.351304373 116.691287472 136.033369684 145.698892686 154.276139797 163.195114078 180.314201229 196.163106297 206.820354017 214.318316746 217.812633797 222.057562615 227.172731035 233.229365335 240.179957172 247.892735737 258.366191418 266.931695528 275.405808318 282.289635986 285.675695
133.310413556 131.593148849 129.448707482 128.057678133 129.231366768 131.774407166 132.714533175 131.318345313 129.668245636 130.124198274 130.797059481 130.758823617 126.971200216 127.51174796 130.888737765 126.057116279 115.731623025 107.559324687 112.520809006 119.094066048 117.97366485 110.629883343 107.396878827 104.041882303 96.8095874964 82.4934689888 75.5132541873 76.9896323242 78.1675786627 74.3171198872 72.0716209341 65.6397142058 63.594306463 62.528468975 61.6568784844 61.3511459304 60.7115088893 61.5932705673 63.1759388211 64.596138097 64.56693509 65.8672777001 68.5157723028 69.0676161726 69.5470487694 71.6864288055 73.7221178131 75.3132327951 77.498840377 80.1966911855 80.3626554522 78.6874546517 77.5331837858 78.7469224767 77.9613067566 73.1446328815 69.8302003511 69.1957645909 66.9316660867 60.0241812423 54.4660513886 50.2550400736 44.8343424466 40.5192839197 37.2827062199 36.203194619 35.7184804668 37.1257415626 41.5160039402 45.787176067 55.2235683825 63.8962764019 69.8016871346 76.8871913153 89.6623785391 95.226803069 98.6083673464 117.156400501 136.99745539 148.889814267 160.311764923 168.103921618 180.084814861 189.252062186 194.06725316 187.102009484 178.608415255 166.054133736 159.015211363 146.509848565 128.55912341 104.184890427 105.953475872 107.939299461 98.1033357891 91.949582283 88.033633958 76.1441720394 64.7720801274 55.8453887532 48.8549901643 44.6963204809 38.4736776626 33.8451456742 31.4873708256 29.113969924 26.5865536065 24.7208736983 22.7320386053 21.9604832805 22.2199056587 21.5268457475 20.9071028688 20.5903426918 20.3995530648 20.9469531507 21.1412966358 21.4355450413 21.7962078688 21.7436856648 22.199579543 21.907753058 22.9035199956 24.5927087349 26.653544274 28.1837779016 29.5527360817 32.4467902776 34.0403419827 35.3231185436 37.5107436391 41.2977488091 43.7927716409 47.0249482392 49.9718371518 51.5816904947 51.3863371285 52.4607340879 53.2134138117 55.0566937093 57.3310617484 59.5856065184 60.357024388 60.6415448931 60.5070930301 57.8877857279 54.4355878615 52.4290042898 53.3263741354 54.3688506349 52.6083388341 50.8691294317 49.9254817688 49.4265094671 48.4765018528 43.8448418352 41.6270893917 40.3430851975 37.542875644 35.5762090375 32.7647404429 31.5731857632 30.4497501645 29.7195874992 29.3407626436 29.1889162875 28.9959016989 28.3660184838 28.2096635451 28.6431785397 28.6124124113 28.6955949057 27.8917161934 27.5565503712 28.2001876483 28.2122943413 26.2936203553 27.6704279164 30.8971505537 32.7863091139 33.7823417124 32.4475437584 28.1105410066 30.5466021582 36.0547383701 38.3728960412 40.0796945319 40.5127061703 42.6418191923 45.2847962937 47.9750706977 51.1453260899 57.8842117299 68.3425981988 83.1146537263 82.5102888144 81.4962594493 87.8044457047 95.8821997907 97.0276387052 103.707407019 119.71099543 134.596417521 145.05163568 155.914943274 174.464482773 186.078636739 199.9667832 212.005801262 219.517447456 223.274050189 227.466318191 232.961195554 239.86596751 247.96292391 257.241328872 267.939421411 281.270661989 290.520614287 294.478724884
137.615373095 134.819383815 131.486929657 129.558639028 131.067727596 134.038905902 134.4768769 131.016333076 127.145761768 129.036293762 134.033547373 139.885188354 141.715660013 140.295894429 139.61125327 132.658860578 120.212139499 109.68541347 116.270686719 125.31847211 128.584850469 123.276400491 117.664754208 111.473710559 101.231622041 85.9369098297 76.0624163276 80.5105406755 79.544564021 76.4948847906 73.1855544786 64.9209841633 61.2881465287 61.1336448655 61.8694287447 61.627357178 59.1086972795 58.6798805725 60.6695571438 61.842147195 63.5488527429 67.7112790109 72.1979198746 71.3328099338 71.0080600167 73.4032899549 76.7953280113 76.3913409384 75.595578627 75.8830824292 77.6454036427 76.9689664184 77.4070976152 78.8129325995 78.0273105329 73.2436923469 69.349188419 66.0015886799 61.9577962426 56.6269465428 53.0316796557 49.8527560927 44.5197887866 40.4184017953 36.4908476885 35.654116667 34.717336808 35.6609212866 40.2820509986 45.4175186663 50.0068203498 62.6751827475 66.8849233945 76.3870576185 87.7695280742 96.3674389463 102.591763255 128.839081813 153.687695382 166.130592267 173.408414371 186.233829048 198.252222876 210.514323483 221.550226643 210.064816041 194.43699334 184.105269846 175.702452212 166.921945062 154.55654721 131.689433913 120.875596668 114.18180775 100.292831184 92.5542083534 90.5736321515 83.6093297137 72.0013661747 59.1774580368 50.0257522776 40.4489062431 33.2168686271 28.9496764457 29.5307369974 27.3688869919 26.1980700498 25.4982679401 23.8153832207 22.9113128802 21.6085537932 20.9890845922 20.4786104302 20.2827550273 20.3298356835 21.037240555 21.4841012393 21.9497055577 22.1695116743 22.6322820908 23.6096223771 24.4232532084 26.3116781228 27.8915807873 29.5369351715 30.5361628791 31.7470035895 34.2995152046 35.3534682577 36.9809059771 39.4361160943 42.1944226922 47.3762045649 52.0139804692 55.7690849342 56.5926037285 55.1899942383 55.3118930588 56.1151061823 58.2223656251 60.5307305358 62.0353950271 64.4438718179 66.290310554 65.7768676783 63.4842373949 59.4215695934 56.5673110643 56.1815142257 56.0756027449 53.825200711 51.5021007655 49.8970664336 49.7323295148 48.9649333757 44.3436430638 41.000308982 38.8715401845 34.7315092055 32.833497 31.6772434843 31.205304289 30.6290804336 29.0577521128 28.7699854408 29.5548143878 29.2683673819 28.0578257055 27.4339047154 27.3522494038 27.6315648722 27.0695044854 26.3365488599 26.1123171853 27.0581219165 28.206600099 28.5079562469 29.6661168458 29.9454373202 29.3851826696 30.8228452522 32.1182991553 29.1980031095 31.2908428811 34.5061288941 35.7093099175 36.6555272366 33.5546744612 34.1005583317 40.4911183786 43.5909981116 46.4006161289 50.79736836 62.4306420323 77.2037498374 76.616215998 78.2783685611 85.2536616091 94.68475348 95.8673111224 99.2949453532 112.687128802 123.312961355 134.703533565 147.21801089 168.309559154 183.656439208 207.699574205 217.785101008 226.289268428 227.830984113 230.182172311 234.955637432 241.834529472 249.99055163 259.235366518 270.310973771 283.446481249 295.355133128 300.06137384
143.391684669 140.529333996 137.292040611 135.554465126 136.489177289 138.40489325 138.178289626 134.298874332 130.08340731 133.775192529 142.432843183 148.480739921 152.413996853 154.068404628 152.291718546 147.406198263 139.673713712 133.454194382 137.28927146 140.431599009 142.860271239 135.799173374 129.089697508 120.811074914 110.727154102 99.8257150611 89.6476459165 85.1483341076 82.8053852261 79.1415131999 71.1000162807 62.4737974651 58.8040383227 58.4946224986 59.0137432726 58.9908904803 56.9280316469 56.0110367311 56.8214324917 58.7633406659 62.253741134 68.7341247394 76.5946945176 73.0987157517 69.6134718343 73.3699781754 79.483889551 77.0018182878 73.3782138345 72.7125272412 75.1803641509 74.9844757783 76.054416124 76.9169323393 76.2950309417 72.6195424708 68.1740522252 62.3844293707 57.5166783795 52.9074959729 51.4059000506 47.6465898362 42.6817214771 39.800387855 36.3873626388 35.4684148639 34.6091231744 35.8988097763 40.6400419561 45.2649007576 50.8764199433 59.0107728848 60.6794699925 64.4400584866 84.5181187142 100.968042948 122.11557058 149.264443937 174.233450489 177.144167388 184.237035887 196.170246247 200.762264581 212.768423758 222.274472251 213.916757047 202.99165395 198.422437483 192.152470655 188.792259208 191.566002811 166.940767986 141.122804084 122.612053309 109.853909982 96.5902947106 93.5523733048 81.6106542631 71.3334450562 58.7480537173 50.6047096598 38.7160257314 32.3496034436 28.672231226 28.559193504 26.4684489482 25.9203245775 25.6767196299 24.0318093821 21.88320003 21.3325786844 20.7670005095 20.4476943679 20.2754822174 20.2129937758 20.8216907363 21.5211355391 22.1247059768 22.2910033866 24.1401763226 25.1624351603 26.6761451892 29.3560493446 31.4084016219 32.807582539 33.4078504498 33.621341603 34.0879369279 36.6372525709 38.1721829098 40.2906171661 43.2439776466 49.0657654134 54.5681824379 59.0401308002 59.3155962428 57.1280971587 57.2365673581 58.813467619 61.5385235201 63.9495345864 66.2904358055 68.7409589216 71.6996513273 72.9288238288 70.9878523152 66.2722385644 62.3075887378 60.0495347332 58.4146568572 55.214212367 52.4523197993 50.4950086225 49.9299947098 48.4588112942 44.5355764363 40.9215345708 37.6570549453 32.8896631757 31.5326651587 30.8076930634 30.9021066668 30.2662551565 28.243205307 28.0255225089 28.989451536 28.3196255174 26.5316968796 25.6141811432 25.3922056003 25.4280371315 25.5107198312 26.3575953508 26.304356549 27.0994579075 28.8512674766 29.5847968045 30.5338525268 29.222098617 25.856674294 29.2023626236 34.1864237725 35.3238616915 35.117029609 31.8325779093 31.6682502187 35.9016120697 32.3822946014 33.0276940277 37.9520960782 40.6548391751 42.2298009275 44.0927811123 48.2138648587 56.753841611 62.1449754548 68.0367270633 75.6935146867 85.263074644 89.6605573701 91.7269923879 108.117514193 118.783839807 130.5296062 143.893127335 167.135543351 187.400891646 213.582315066 232.083398706 234.610361195 233.624670192 233.233854627 237.534325916 244.869863095 253.01230237 261.09041976 270.304294083 282.001802187 293.397497457 298.159846892
150.703131941 148.378851278 145.493471818 143.717821898 143.787055652 144.762843958 144.951500646 145.76064408 144.565009056 148.176208387 154.76161025 159.788516097 163.824457143 166.270059526 168.896477932 166.742463555 167.084651563 167.111592925 167.096004483 162.165424375 159.01046533 152.44569121 140.893692689 132.015487215 121.675013167 109.088173324 103.387189377 93.6316069423 85.4531526781 79.2297053492 70.6389309265 60.2265699573 54.1788925502 54.5488872657 51.7831971714 53.3869890307 52.0698827685 52.5637841919 51.2846073514 55.0987871071 57.6531777507 63.2988417433 69.0889600983 67.6267221313 66.2574267857 69.0256752267 72.9457726505 71.9665727264 70.3849457173 70.1834208897 70.9679060516 73.668251896 75.6400235123 77.3794965963 76.219807713 72.9113817715 68.0499910585 62.1130278397 55.5959852011 50.4709526811 50.4481768522 46.1778877903 41.1853678554 39.3866813844 37.4995043343 34.934918485 34.5463456819 35.4439621232 40.3552828232 44.9751217822 46.9913871307 56.3833828991 57.8658792536 58.0389972622 83.2991515128 109.236651983 129.869956192 156.34053998 177.346778251 177.809438854 190.423952828 205.41633465 203.049785709 206.137129353 210.910550358 209.37415855 211.389657672 217.674250383 203.549005727 197.243523415 204.326732545 177.610349305 150.074202514 129.03671473 110.741404933 100.975901601 94.319595361 82.8423055934 73.1367078033 57.9175641431 46.051275809 38.0817024269 32.2240329242 29.9591946988 27.5783687411 25.3139449501 24.6462723622 23.5615233604 21.5513625067 20.5620882032 19.9502956922 19.8997073809 19.4785382049 19.6644303551 20.0202076485 20.2146619294 21.1572249588 21.9205976859 22.6200081055 24.8712796542 26.9743490494 28.9390088429 31.4391258898 34.650141184 36.0891258695 35.885106445 35.249870741 35.3454241399 37.585635902 38.9080439148 40.6579038621 43.078901481 48.2625015756 53.5474242942 57.8361732808 58.4975495766 57.2218239962 58.8269103953 62.1040149441 65.9578353165 67.3451773674 68.7457843294 72.0815437015 76.2841861531 80.2333128395 78.6181205417 72.3449246737 67.1158853176 63.6526949295 61.0776179592 57.3649194178 54.8010061655 52.1643206946 49.7925884596 48.4237720304 44.217318309 40.2507921748 36.8046094265 32.1302010046 29.95184698 28.5196420065 28.8166300034 28.0247794399 26.6841964903 26.4044694277 26.0895790015 25.7433061255 24.7671931256 24.4107424767 24.450354021 24.5250028254 24.9060867943 25.2512486192 26.0212097019 27.3318139117 29.4116632462 30.9466497268 32.7406778063 32.5173763145 31.0191375782 34.119534212 38.2301009071 41.8467419685 40.6706813599 35.4065751674 34.8019695128 39.6414748952 37.9375797041 37.4102691733 37.0139194634 38.2352474956 38.2375451999 39.1528257207 37.7032383578 44.3086606388 51.2544071275 59.8857586721 68.5815225157 76.4485909512 84.3644506729 88.1945981294 101.389499689 117.295767064 128.859348471 142.081275031 164.592178224 188.464402467 221.858032696 244.139088323 244.589173184 237.577224621 235.450022379 240.603405085 249.654796381 258.329004988 264.444790711 269.616216011 276.797487208 284.983939251 289.254255427
158.288399401 156.482062891 153.613634295 151.656752238 151.364256715 152.320043287 156.788712579 158.928387296 162.621038844 167.764317995 171.454350758 173.067569888 177.181432702 178.300342522 182.716695346 185.779609699 194.759716456 201.100648514 196.584331341 184.444820873 175.277324175 167.396874118 154.91576612 145.195265294 131.253965014 115.154584183 108.906464451 98.0773875143 85.8415209427 78.0587825905 68.6961544646 58.2698330856 51.2768018094 47.7576661426 46.0163761583 46.0102345981 46.9835820901 48.3119425491 48.1769435577 49.1683586164 52.6110801541 53.7268989875 56.3414061401 57.4980980718 58.284020491 60.3758302286 64.7932367618 66.3471457302 67.1095691612 66.9911322814 67.6056931846 71.5675543897 75.3584729381 80.6467598729 80.6763881865 74.3251367709 68.885734606 65.8459921666 58.3182203106 51.8581097034 48.7249457771 43.9207143271 40.1376786434 39.7560214328 35.6618441836 32.304178226 33.2707788092 33.0484880859 39.3485872801 44.056278284 45.4338143176 53.2489911564 63.4696350907 74.566089211 95.3090691088 112.467475409 132.816606946 148.396048875 165.019036061 173.800349674 191.036528243 202.717403109 201.284852968 204.485561273 206.363550738 205.090125086 211.912078731 221.548837224 205.222349726 188.619035527 180.658340329 163.966363795 150.116025327 133.098318712 114.913398084 99.1182362646 95.3196462142 82.0881837846 66.789369129 56.1677431418 44.9277368494 35.2648440862 30.2148162155 29.5549957462 26.9484707995 23.9428192825 21.5721676343 20.0961933916 19.7417575722 19.4730960757 19.080948751 18.5792061477 18.9853265905 19.0796938142 19.4933898033 19.7919153557 21.3266780052 22.0655950397 23.3510505063 25.2546178404 27.8309349189 30.0707025902 33.489052957 36.8365272592 38.7401608511 37.7115381347 36.3078916121 36.1113241589 38.3086933662 39.6316050554 40.8115152003 42.1738842797 46.2129452465 50.2253269975 53.5743149019 54.807564755 57.2198985868 60.333014411 65.5270571255 70.4535894864 72.0402500917 70.9093060084 72.3065680002 78.0501657686 83.4385945487 81.6901896052 75.1310307626 70.1140722788 66.6407082976 63.8248430627 59.6744137424 56.8043715681 53.6189021087 50.8387160907 49.1610192748 43.5372427221 39.7763373438 35.3126736108 30.8621495465 28.2549103464 26.3124212546 26.031561491 25.2407443711 24.1067590254 23.7738449926 23.6531887009 23.1927496213 22.7848076806 22.8473933169 23.0879865018 23.7964424227 24.1425974663 24.1834183457 25.1687419318 26.7528936253 29.449628922 31.4383906675 35.9705633226 38.0585921776 40.5245968849 42.0704631687 46.0744812933 47.6125120857 49.4004530047 50.158091821 48.3797977217 46.1857664721 44.4043894047 39.9316835725 35.3745607658 36.2104659097 35.2584454809 37.7967469083 37.7396116923 41.2920894624 46.9021217395 51.3201343825 62.5597519205 74.5933263152 83.0837846192 86.4731090877 105.691135432 116.294364488 129.845538658 141.699654267 161.401452045 182.993669751 215.781606964 238.661496915 239.997333983 233.541454696 236.023203272 244.169371427 256.652298758 267.074111799 271.260598963 271.373101599 272.59525204 276.164821619 278.939226622
163.890190792 162.413340581 159.725869543 158.181706819 158.321864646 162.771744498 165.863131874 171.193695806 179.254764135 186.814145493 188.982230652 186.922050777 187.220184842 188.79311607 193.079510818 201.63211657 215.479852957 227.863352188 219.493644574 204.479819009 193.270527902 184.825628326 171.659190747 164.73226919 148.447051557 117.83901479 109.355322903 95.4694859333 80.3500813104 73.4140136181 61.1766403587 54.7654897974 49.8096696471 44.1863607633 44.184650577 43.566398988 42.0707617157 44.0473247714 45.3902130535 46.2803671149 47.5083353029 48.9636403994 49.7516725132 50.7497942812 53.2475081669 54.863550126 60.3407457912 65.7486701471 64.3127592482 64.5068833657 66.5767285948 68.4589060358 71.4288778451 79.773581395 80.1553400165 72.3331237761 72.1799813562 73.7367374313 62.9201640375 52.398096695 46.3224242648 40.56575917 37.7588629956 36.7320603486 31.9738368834 29.6662013361 28.2630206363 30.0245134712 33.4743285366 38.8119934718 42.5292749788 53.043564253 65.8496312958 90.916179777 108.802515779 117.06209408 136.708089173 145.13420496 154.809166861 170.490917545 183.039545806 194.335951413 194.617576221 195.266321027 196.449926314 192.657163073 198.635550774 202.548839786 190.672429385 179.337788622 165.689833408 158.037978488 151.294273781 134.085937698 124.126942792 102.985634538 90.4807185895 70.6360862107 59.5947273597 53.8569382 42.7350512974 34.5938006871 29.1443749416 28.1887930003 24.6937912254 21.7237155797 20.314160607 18.8681386968 18.888861485 18.5636921491 17.8018862993 17.961478398 18.6011227649 18.9689057473 19.1072675716 19.6506387242 21.1233712257 22.8026101864 24.5363348942 25.7462842239 28.2295608154 30.6386303831 33.6169239125 37.0930126958 39.0355548707 37.8339321735 36.4117172227 36.4561756428 38.9454979225 40.6648361625 41.3887857871 41.4483480174 43.7670970879 46.3736315125 48.9797382065 51.0028649326 54.9087411749 60.4141037952 67.1958131324 74.0314767796 74.9219455397 71.3675362791 70.7512144582 75.4461677422 79.0855589136 77.9669769569 74.1731778794 71.5293247479 69.2713754296 65.534732755 62.4685180549 59.0053093079 54.4944296613 51.7605258894 50.1245932667 44.0282064506 39.0542854208 34.2932037136 29.3237891321 26.5332694016 24.3328779374 23.3922043503 22.952270181 22.0463312324 21.7151806849 21.872016183 21.2546163945 21.1948052209 21.8872703612 22.5204266848 23.0390192994 23.5465158545 23.134891442 23.8907443897 26.7512822776 30.1350484274 32.3629804615 37.0165690464 42.3249360772 47.0765622862 47.465805758 50.2057631178 52.5719103867 54.8532414728 57.5146847519 55.8290935658 54.0036911496 51.0083861047 47.4980073755 40.9252903193 36.9224564883 35.8002940357 35.0843857176 37.3373928501 42.068381778 43.986212144 50.2985537628 55.4769572933 67.6080842346 81.0178696152 95.3049164173 119.999020802 126.155689229 131.934284833 143.015634208 158.678592642 172.566454767 197.55715021 216.619905482 223.156334679 222.939430199 231.005155634 247.420859621 263.791145825 276.524498425 279.411690059 275.230922851 271.267322006 270.4331817 270.951220027
165.787399112 164.751160501 163.284771706 163.280003987 167.03527378 169.248043417 172.902076343 179.568053258 189.778381929 199.027214486 198.589917642 194.401343189 195.179377021 197.79636713 200.990460544 207.567819395 220.672353145 232.392397311 225.132788468 214.213309087 216.71504124 209.620743624 188.475701952 190.315026581 184.348778279 134.883599005 108.768925588 89.1517923616 69.349596885 67.7084593118 58.3377425982 53.1612529829 47.5283257338 43.3966170996 43.0936651402 41.6919126459 41.1270658963 41.3364901206 42.0573594867 43.4732678331 44.3423659059 47.229260466 47.3785940111 48.0872899719 48.7323153338 50.8424447619 54.3998396177 60.9724025187 61.821205951 65.3081856209 64.6881651764 67.1178077823 69.7244040632 70.1440457701 69.1233672613 66.7987031278 70.9120485345 75.5441994902 61.1866386073 49.4047566996 40.7608790217 35.3415383164 31.2938110091 26.944732104 25.6626545274 23.8649046842 25.1353731844 25.3579328451 29.1155961218 31.1991245608 37.5457744889 51.0607960753 64.1415862766 94.2902582257 123.787901611 121.774905975 136.902800096 145.357525964 155.726333099 166.106747962 183.482875133 200.252420156 197.219448355 187.335691267 183.443417212 183.5156691 190.006649452 192.007890395 184.038086678 171.024165113 164.267293574 157.091127957 146.193377294 137.403956509 128.606898341 101.884709177 79.6077502273 59.6325523083 55.201328465 49.8834503478 43.4841634269 38.4687490107 30.6110351616 26.2916926809 22.8943458974 21.3904549394 20.0567002639 18.680509252 18.1777333716 17.3443825268 17.180270527 17.1444376546 17.9606888833 18.7924665717 19.1500353393 20.3615377145 22.3241950385 23.3496128711 25.0560006362 26.5384706704 28.5464458701 30.2194945201 32.25706566 34.8311731737 36.1588835165 36.2512698939 35.7333097911 36.3505221524 39.1786577561 41.6860013247 42.3214674892 41.2342607962 40.3776113996 43.0536907914 45.0325778002 47.3144427752 51.5964762342 57.0567620865 64.2234128287 70.7635808626 71.8166901468 68.8618980667 67.5705993138 69.5359471688 72.7550445779 73.2630652826 73.4804327353 74.2840952591 72.036394217 68.9860542272 66.7074044954 63.0781434811 56.6425057362 51.9614207783 50.3269301617 42.0916534671 36.9017903829 32.60770472 27.8725779651 25.6977718159 23.4757476045 23.1142638388 21.8154877863 20.5096163467 20.4752477237 20.6062249499 20.7007855104 20.8077266403 21.5471007301 21.895130832 22.1617434688 23.1060889186 23.4224335035 24.9007230502 27.8748819654 29.9516207994 32.7643200167 36.9898803461 41.8700540816 47.4329295615 48.4037426996 53.4021120748 55.4713032694 57.1898920178 57.929503517 58.5380299763 58.1773136644 55.3230177061 54.2756887638 44.5318134231 38.8748749963 35.5099276814 33.7313153842 34.5210432311 39.3508200673 41.3044564006 48.9057753361 51.6935302009 61.4636718891 79.3518902396 104.813479838 137.637415282 132.121350737 131.389057413 151.083268017 160.492095504 164.845297979 176.842949622 196.377388854 206.735083929 213.870595495 223.823314449 247.985786816 265.782874877 279.078194557 281.646549914 276.250338075 270.112436022 266.675162444 265.286843551
165.242236666 165.140236499 165.882616348 170.086130103 172.678566239 174.647421058 177.419683353 183.098221433 192.616323594 199.300511081 199.187371759 197.609470491 201.9589571 206.93621304 207.706489588 208.654338846 214.25405781 220.770169411 219.453786813 227.352150613 251.340884242 249.166533958 201.187925806 192.598972365 187.88352545 133.651074911 105.126621021 85.5367081105 68.1532458934 63.5022367042 54.8784197212 54.2525720108 45.6290135996 39.6948553226 38.003473616 37.6884413772 40.8110690756 42.3426476295 40.5535150432 43.1030303483 42.7577840302 42.5506787202 43.1543350606 47.9875762634 46.5949609995 49.4918617399 49.0474169669 51.5570691059 56.5230600355 68.6070915941 63.7568659366 68.1441366185 71.2940619279 61.3142660296 57.3864753134 57.4033612266 57.999621338 57.988636743 51.7452990131 42.8427774783 36.8405164432 32.3987245889 26.2509435573 20.4450288878 20.6040732366 19.0674101574 20.3756099353 21.3681904891 25.034887579 27.249176509 34.9967157902 45.8673747994 58.1666078066 74.0486006838 100.890985971 112.081844449 128.608511006 146.456385958 170.082356665 176.909750313 183.188253623 215.129755716 202.415636812 175.260056268 169.525798603 167.845803397 177.784536319 196.746963155 179.849111375 177.206102812 177.095821945 151.826068092 132.742457952 119.601197534 108.71228834 93.6228619183 76.2180380159 64.7271145649 56.3098301646 48.2601851765 43.1412976664 38.0634659324 29.381330672 23.4700274913 20.8566490661 21.4480825966 18.9461703455 16.6621146517 16.0694568742 16.1486901275 17.2406597443 16.4805459633 16.7485959183 17.8346415296 19.493002882 21.9087090496 24.3554857167 24.7950578482 25.5465454595 26.9454214997 28.3477843032 29.5560163122 30.609752494 32.0558452235 33.0765473674 34.3189901799 34.5094138374 35.218262073 37.796764801 40.5442781327 41.2972593064 39.6674292013 37.7331205603 37.9152225421 40.923049291 42.9942675133 48.2670631818 52.0081901677 56.4025681991 60.5239861996 61.83212407 62.8115905926 62.8115276208 64.5133849949 67.3714414132 70.615918139 75.0289758422 80.2353205181 78.2322643345 72.6352620431 72.3723140949 71.6948257726 61.2440241381 52.2333276521 47.0986519169 38.6734702791 34.6996738681 32.1522634864 28.8069732075 27.4178361591 23.5172245456 21.554975079 19.8834764097 19.2378387566 19.0160579193 19.3176763594 19.897280004 20.6628504082 21.2353069862 21.5388044215 21.7302779581 23.1341405974 24.5073409617 26.8522617188 29.5731426657 30.2320349693 32.6372995344 34.0727312368 36.7044017499 44.3951826672 48.9482936109 54.558747504 56.329845355 58.7036378425 59.9631457505 60.7107769413 58.9443800524 56.1158164665 50.3124260082 45.3778871601 40.6545299658 34.9030523919 31.3310068948 30.2615444294 32.426298697 36.8247716305 43.4848489462 48.6131741931 58.4039144201 75.4324073529 94.3517928688 119.840401596 124.338404004 133.65078385 158.131782969 164.317335885 160.990935029 167.664683179 183.8790361 195.218984531 205.924651712 218.760885726 235.762237511 260.386922751 272.077993173 275.228240476 271.700541217 266.544549604 262.753103283 260.560220649
165.117445606 167.877149886 171.121174827 175.431397113 178.509783627 179.375099756 180.172566763 184.855215492 190.409400183 194.933738378 196.628616842 199.393743728 207.111605992 214.134474139 212.968115733 209.166110711 208.25904261 211.696078368 214.931966464 230.092694509 260.126558505 260.402189162 202.468025848 162.996098849 134.134590925 108.468843974 97.7772056153 86.7295834038 74.3847843113 60.248203775 49.5456298989 46.2047345931 39.1259972899 34.5551432454 34.1058898555 34.3987984054 36.3270417585 38.7099949865 37.3971966493 38.3759356469 37.4957252246 37.2515792628 37.4798724149 39.9030693217 41.1633886632 42.9520463649 41.2791857799 40.9774882846 44.9849804861 50.4935342654 51.4990396573 54.6223786942 53.416840259 50.8682408361 47.981765913 46.6385939394 48.0266371434 48.3376162764 44.301930695 39.4561728131 34.7676438182 31.2392749763 25.0213492608 20.1300394452 19.3428370455 16.7288354234 17.2174710557 17.3931189096 20.4190060513 27.2511281868 38.796409617 45.0476554266 51.7089066977 56.5308323743 72.7657137305 91.9897592812 112.723381256 140.615663602 195.524162112 196.541659425 170.484412946 182.129765703 171.521594012 155.207201804 151.212873289 151.944611097 155.857813737 163.255783084 162.909976905 169.47553045 169.332567969 136.598943512 118.269010712 97.3082676306 87.0007935066 83.3562938099 73.9204812748 67.6315572702 55.1803358829 42.8598002701 35.1785169672 28.7000504776 25.0169703879 20.331869595 16.5711925851 15.6163647235 14.9809173104 13.9600162955 13.4224920847 13.620479535 14.6647962366 14.7421937834 15.0574674423 16.7839181108 20.0158790202 23.2926083671 26.4961037784 25.9779419392 25.8404990671 27.348938704 29.1690536533 29.6960152491 29.7876983744 30.3301585637 30.8855068201 31.1825722101 32.2529731339 32.8714932435 33.8467890084 36.6368930859 36.8914886732 35.2068480691 33.3402367825 33.0802496349 34.5491673654 37.8033801835 40.0042432722 43.7783221226 48.0242409914 49.6682471 50.4670826962 54.0261888628 56.1460034873 58.3343390316 62.9492423395 67.2612505148 75.2709826498 85.6142780268 83.0296621053 73.6647726713 76.325913433 80.404718873 65.9420006114 52.8034456649 43.80259161 36.5116121549 34.3174295947 32.0615963072 28.4553210524 26.9431144614 21.7282489266 19.049040948 18.3822209723 18.656380606 18.7614422192 18.8747862856 19.3244698389 20.035916697 21.2313959244 21.8718911742 22.1677054191 23.2849902691 25.1997868745 27.3591571678 29.8442613833 30.360729815 32.3064032104 33.4283684698 35.4913160311 42.1867961389 49.8335084792 55.367784844 64.8242413104 64.2443069271 62.1696171136 64.4394728625 65.0632985748 55.1524602321 50.9993197653 44.5484162692 40.1397653088 33.7368722423 30.7761892028 29.5205844177 29.9880033839 34.3039871833 41.9415134308 45.8170465495 61.4728073454 74.4316007366 81.1628510444 95.9735195862 112.90746843 128.43093373 148.46291953 157.530972224 157.45187702 159.756946212 172.893450243 187.523927713 198.9964386 212.095791461 227.305181378 246.897701262 260.570615385 264.458925233 263.524557848 260.604820564 257.822377646 255.81467829
168.162945065 170.78246583 175.090824575 180.152722711 183.26401607 183.310839199 182.774590611 184.572799463 188.304901043 191.919657405 195.143663211 199.874956624 207.229303727 213.013916937 211.997213622 208.036203383 205.793688747 204.546454766 206.954827596 216.764601407 226.893400498 218.644265551 179.885042759 137.919689126 104.160920837 95.0306617427 94.6094678476 94.2921513508 70.1023644472 55.8581765131 44.2444935897 33.8870411422 31.3898997297 29.9755288721 29.6186972775 28.7544296615 28.7024641754 30.8865998018 31.9471969368 33.5644111608 35.0166574801 34.7131536638 34.1134754797 33.9828299303 31.8695451316 32.1930241057 36.6185657538 35.9860057426 37.967544742 38.3180854137 36.8780239615 38.0681057126 39.8469564881 41.6678080357 40.2296258288 41.1629909645 39.4006049339 46.6178770848 40.215031991 37.8269985368 33.0846573881 34.6244708331 26.568414032 20.1490308248 16.6071530414 15.6377203349 15.8496272416 17.7881613579 19.8285113946 24.8276303489 33.2867668889 42.0555518244 48.9524747431 57.4058022083 69.9258554421 82.0823174158 92.1692174675 111.232956298 137.510071981 145.183432318 131.681333661 130.69365204 139.872162329 163.39651911 140.978243461 148.954980626 152.504184975 132.320188265 128.531839847 123.356882431 111.170551421 105.380781892 97.1676505358 91.3806184228 86.5240463126 78.7705074273 75.0888677683 66.615378145 49.3645757842 37.7142654063 23.9266002274 19.6524545923 18.8877906394 15.5220807705 13.01750443 9.79791738476 10.7213482622 10.599547552 10.6560318085 10.3051200193 10.3437786762 12.0532009552 13.8423271753 16.1366207395 19.016538118 21.8693208913 25.0340480122 25.2057850057 25.6416093405 27.1840239367 29.1929923679 29.7064731913 29.4951017723 29.1635645447 29.1603906657 29.1651434144 28.8287505541 29.7324296311 29.5219496229 30.2967720478 29.504989497 29.4161707491 28.3867053957 28.8681052816 29.6413222651 31.1853899384 35.2464031731 38.3523616577 39.2036480102 40.2498819949 41.3746936355 43.9609240073 49.2694832535 52.5430890758 56.2476681377 60.9481166743 67.5120396042 75.510002689 74.4218273529 68.7662264782 69.6996422356 69.8901239306 59.5338461753 49.5002607812 42.3977783472 36.7485370167 33.5226722254 29.1883132224 24.6169777616 20.4992972101 18.0880595268 16.0623990035 16.1302320132 17.1443744922 17.8813348631 18.9879576893 19.5457658322 20.7603136151 21.3240195784 22.0033752241 22.5910060364 23.4910390992 25.2742573258 26.8692231249 28.0525257533 29.7956273043 31.7631937629 34.6417917549 36.6711442126 39.7937200064 46.7623200339 51.8175001947 64.3376346139 63.8520944583 69.1221110288 61.6099699016 56.9377211452 60.1295113675 56.4069498446 44.8605677258 37.6531632481 32.7099540317 29.7450164833 28.6270994981 28.4763372422 30.8574642993 36.8410529341 46.5288695623 63.3012350776 74.9446741331 76.0120510023 86.0087548565 103.876241741 118.276200909 132.301864865 144.69015173 150.96535336 154.561359198 167.651644127 177.201204155 188.184665704 204.842811259 217.716970757 230.074336573 241.675777499 250.728737961 254.413255415 253.542880189 252.121858525 250.803281622
170.0457735 173.072620857 177.325455582 181.872695315 184.536811886 184.155054973 183.334054683 184.376508023 187.032786029 190.280480817 193.904193979 198.454101437 203.769201898 207.297872306 206.785555602 203.710342044 201.693284291 196.410536337 197.046859279 199.219877603 195.061818528 181.468859115 156.724558998 125.912144134 103.370258326 94.7928134058 85.4053218735 70.5844206824 63.5109640768 54.3856674275 44.9299202164 32.5094472325 28.1718497348 24.9056577496 25.5303388141 26.589421869 25.6668734626 28.4470771358 29.1067109873 30.2700723912 30.7373881254 31.4498736104 29.7200681057 27.3778770541 25.8757684306 25.9576330972 27.973159742 29.04794955 31.5837832087 28.7216626153 28.5244922943 29.2511763997 32.2755067346 37.9746819273 33.8223460983 41.6251711682 33.6427055376 30.5824906668 31.1104499435 36.1253785681 29.1209058237 25.1995984682 21.0651975055 17.6371164577 14.2000846901 13.5854631956 14.75647476 17.3860331065 20.442183319 22.2660945719 24.0186866028 31.5649532656 42.7226672731 57.4909597859 72.5173595645 77.1945427547 79.9512755555 82.2071501128 80.7847838575 89.329941469 83.8968376454 86.0438765566 94.1207714758 113.249147959 108.90444854 108.24727325 103.275515072 88.7066841042 88.9017231675 92.9461423849 93.9587370848 94.0006273783 91.9367064186 91.1104232805 79.6656716328 67.2988446893 56.8870950667 45.6164068857 40.5391035153 30.7048161263 20.9083075384 16.5879760472 15.5795970947 12.629471987 12.1136791739 9.89183374768 9.69465830201 8.73127463602 9.2749245219 9.00325035781 8.91577032749 11.267543779 13.2006168244 15.4770269435 17.3782780624 19.6668883142 21.369487648 23.0473556866 24.9219894623 26.710277469 28.2167806269 28.7256596141 29.1779401096 28.2760039337 27.9691222242 27.3533352888 26.2748157204 25.6556630171 24.5634279093 25.3721760986 24.5148407255 22.2479180439 22.9653919572 24.2402497275 26.1902011444 27.5646130093 29.3314323235 31.1730891562 34.8220497922 35.0307716311 35.6035114253 39.4245999091 43.4460629655 48.2555146394 50.7112547041 53.8429793312 55.4234514889 58.778853037 61.3457062175 59.0372408684 57.3812941979 55.4067995054 50.2419879934 46.1972686198 39.6768181423 37.0847444412 34.3527841335 26.8286241718 20.4820971549 16.0891514271 14.4715000549 14.4411892071 13.9340480924 14.9908556132 17.084543763 19.3008685115 20.1954642046 20.7609596227 21.4987554517 22.4195068525 22.7217727837 23.3555183584 24.6389670865 26.1760006854 26.8989038203 29.6272930014 31.5115937433 33.8638419025 34.9920747711 37.8789017025 42.7754070366 45.7948407975 47.1665238648 50.5240008443 45.1887214866 40.9081299727 36.2458575558 33.8344898935 39.6033494088 41.2664345344 37.7836089065 32.859788116 31.7527229844 27.8528825693 30.0207712854 31.0806420217 36.1106582157 42.4957443103 57.6019172294 68.4687165672 72.9073324875 79.4159542088 95.1626563948 106.750302581 119.292493173 133.879023287 139.037722939 148.719167166 163.289966441 172.044652173 181.979316685 192.826721137 204.050821561 218.672066985 229.26449125 234.384569644 242.177414145 242.740220852 244.778688437 245.659314074
171.31117356 174.151958765 177.619465243 181.625599566 183.285911653 183.380423946 183.233966532 184.210657282 186.31416134 189.155263947 192.46644502 196.197257082 199.94416391 201.956169395 200.313325191 198.760806732 196.969708526 189.352602507 187.270639463 184.74539014 171.67719232 159.738521256 142.278160168 119.076386549 100.654436469 89.2470447871 76.4908199441 65.5952815649 61.8180895711 58.1859425252 48.0679786774 31.9581842758 26.5749805396 27.1898087525 25.4968317431 27.4506284985 27.6787845341 27.9730420924 28.8331408852 28.4901645277 29.6627269845 25.7989452179 23.4976209576 22.4836610769 22.7835865518 22.4532287957 21.4567804122 21.4999530859 22.8949424324 25.6876440588 24.9272361225 23.9552102283 24.8747789629 22.5931052251 22.4377828542 25.1751109197 21.7185327129 20.6369527787 22.5911068816 22.6427779702 21.3378961795 18.9133729524 16.7490026708 13.7775187097 11.9607484512 9.96491871997 12.4366385026 14.5351298397 16.7764983981 20.9648740457 25.0205672663 32.4175012139 40.0050468292 52.8029543875 73.8898059835 67.4007567794 79.1254976327 68.4984917606 68.0979746313 56.5524388189 50.8588283493 48.4709418827 37.6286498246 44.0858918072 61.1096157589 64.4212247659 56.7705446188 52.2191212383 60.2000840586 61.0525221308 72.2843024759 75.6408147782 80.3675229554 79.9840280957 66.1153051887 56.8160275203 41.9237978385 33.6073508969 33.685667327 26.7473288823 23.4232361567 18.3938122378 13.9978321584 11.995227453 11.0867874688 9.44819302707 8.88404804061 8.31555749367 8.4916353083 9.46639367837 10.2036322093 11.0606417503 12.328070292 14.9364527213 16.4405242711 17.1247159185 18.9110957818 22.3767696795 24.7523337944 26.406347982 27.5485659204 27.9148295147 27.8332497759 27.5523144581 27.0180568609 26.0198238294 24.6462748044 23.6573555165 22.248699904 21.5127888731 20.0157869515 19.3141031311 19.6333359094 21.7737512919 22.7244055551 22.9126668435 24.1268524624 26.7833451313 31.3882082251 34.0163685534 34.7796325577 37.7837581514 41.3197140314 43.3396576525 46.7775453574 49.3678491412 50.4855592496 50.1982242449 49.9665716408 49.2675176186 49.0937928634 48.1838738262 46.4217088423 45.1312220819 39.2638656692 38.1480068431 33.4761803244 24.3792318292 17.6745702763 14.9908243876 13.9823491373 13.2547402789 13.4590003065 13.7444208641 16.0483674366 18.0595165189 19.9800319307 20.965681928 21.6982735075 21.5642123689 21.9931691833 23.6480695816 23.9609999456 26.1549413288 27.3580524679 30.3508674435 32.1423024421 32.7425267011 34.5160610604 37.5728997183 39.3688048153 43.9854123157 46.3003094479 40.4504289247 39.858184904 29.4147177713 24.2493357892 25.4518090734 31.1882405495 39.9087206583 43.7019786958 41.61621949 38.5695062485 35.0658706644 32.6482810275 32.6159703775 36.0987936067 40.5861756589 51.0299138217 63.8963363476 69.5010950437 75.4793209894 90.1823371462 99.2053954707 107.514215572 123.636886527 132.165046773 137.743948786 149.822351148 167.48417297 176.384671845 185.80709103 195.274314724 204.054684963 218.933744298 223.980885679 227.056550186 233.909820828 235.907976328 238.83657572
171.979045939 174.369789169 178.37565389 180.451215514 181.789676228 182.384848837 182.929785894 183.977250846 185.798744409 188.213948535 191.000737421 193.956060781 196.748396406 195.001664506 194.998355471 193.812205428 189.581241655 182.476428335 178.784252707 171.477495434 157.340213884 146.549005047 133.103393785 113.387995023 95.3639988732 85.4591672462 68.6570246754 60.8447696005 57.7188376596 50.8393898668 32.0228446683 21.0856029609 22.693644854 35.3867997048 38.5114539022 31.2305400189 27.0459569983 25.9045994839 26.1958939834 25.6383606706 24.4021573431 20.9132766104 20.407378005 16.9530473781 16.8888444015 16.5616300414 13.6648117331 16.6834039943 15.7408605381 17.917782653 18.5102702504 18.4428814086 15.9705956552 14.5281137425 13.2251137271 9.95179087223 11.9580393656 14.1845265283 15.4934544079 19.1979546106 19.5159203448 18.8874776741 15.686868749 11.8795678364 11.6601786281 11.3033840888 10.9663455554 12.9285165012 13.002527574 17.7016793593 23.8780906832 34.3808774685 38.7891503554 42.4736701585 48.5600527226 55.8294331409 61.7922319433 49.665548092 39.8443641306 19.3152100506 20.8059567214 21.8025628464 24.021809687 29.3184319853 35.9194086659 37.5585532024 40.5824173732 41.7070813913 46.3057839557 47.366437137 51.4625899533 59.3820640685 56.2008481555 53.9604181791 52.5324526809 46.6206378744 42.1480765735 36.5030160127 29.1063710061 26.0940495708 22.6495544023 16.4226108268 12.6273596861 10.1088875619 9.4118474522 8.45133471273 7.63250677527 7.31899220845 7.69387436741 9.32864749396 10.4339621572 10.5706316039 12.6536502062 13.3494257881 16.177127675 16.3893721853 19.1237715339 23.4495254471 25.3113291106 26.6477380432 27.3319540833 28.1080599661 27.8864902695 27.2140603866 26.8322540733 24.318427039 22.9893267601 21.6843310058 20.6277582912 19.5548033953 18.8144449354 19.0541935064 18.9743560968 18.6820302183 20.5305266959 20.9305327817 20.745594159 22.6670614781 27.9880069123 31.2574462357 34.5629289155 35.9157778989 39.5031405936 41.8999790358 41.6190340163 45.0708812009 49.1012566385 47.6749285659 44.6768339444 42.8834047217 42.4514333466 42.4690886341 43.0717859025 41.9854476098 37.2904970599 33.118849882 27.1271871745 20.5722257081 15.7606461974 11.6697563284 11.7145734856 11.4213756688 12.1603735718 12.9241922658 14.7084437982 15.6469853445 19.6384201849 20.8056414273 21.0561284116 20.4920542051 20.3542449799 22.0799145358 22.876167591 25.5916807399 29.9528929386 32.2924282531 31.7601886532 32.021135157 33.2138726634 34.9086850713 37.7607924721 41.4322251741 49.2272292966 66.1708477604 52.6294534421 37.6708193172 28.2129709098 23.4538803191 28.1776645784 35.7257905969 43.5268448813 43.4934853384 41.4895134579 38.4905584919 35.6286903952 34.8509572941 37.6565355854 39.4875115484 48.1258037472 59.0398189498 66.4708420071 72.1527585487 77.8699692323 93.7035360621 100.467006923 117.397093456 123.881528554 132.615391807 138.621025093 160.62982883 171.382280085 179.6201639 187.740034547 195.25401567 201.654479818 215.27613136 218.699328215 226.847014968 228.239252509 229.02400838
174.455652233 176.189147596 177.969718677 179.563926539 180.78511195 181.701967265 182.558854817 183.701963578 185.32835081 187.36435673 189.652691891 192.004464374 193.121594582 192.472211474 190.45218267 187.547297863 184.252338446 176.210074 169.158936459 162.977630764 147.563696295 137.984301135 126.966381183 100.52933378 91.6477100087 80.9365453587 65.5363473306 56.9311167255 52.4457977521 44.6609254087 33.9119776956 29.2659262126 35.3658538579 40.4402432832 34.2962175892 25.6607678494 23.7345163526 23.9119385494 24.2239240584 25.0549893797 22.9863007075 21.4782534942 19.3546162021 18.2477202476 15.9189836862 13.6838366764 15.21230825 14.8362446459 15.3535684447 12.7959312478 11.6508104232 11.3783864093 9.30861061328 9.81951093757 8.53364498568 9.75686830358 8.86258635797 9.75248830101 11.4260000666 13.2771219713 14.7390914799 14.9411299784 13.5478394535 11.9184446558 11.3338780739 11.6252711149 12.6368060561 13.6665367265 15.79975994 16.9726066192 18.0903195298 21.9430040583 29.3325558746 32.5077577064 32.9246891133 33.4502403975 23.4450263524 24.2457165193 20.8830520965 20.5443683033 21.4685114571 19.0293300122 28.0347023468 26.1935190249 20.3762743277 19.8154153908 21.5107232209 29.1752801173 31.0777225697 35.5174124107 35.7161931283 40.4309976916 43.9290271468 48.9530971159 47.0200050243 45.0342818679 42.4611941731 32.0510593487 26.523799242 19.3137246911 17.1029930714 14.8553064364 10.6622006676 7.0646463256 7.37334686081 7.14360232647 6.81283437149 5.80227118214 6.84327369946 8.2744759884 9.7745465552 11.9557478411 14.0908101395 14.2500093326 17.7389479829 20.2743775366 24.0782250055 26.6279748128 26.8170045578 27.4337081131 27.8483771773 28.2282079336 28.6704351853 27.5947077631 24.5360796816 22.8376963889 21.849289466 20.0274686564 19.0818926694 18.1479709003 18.0083276716 18.49427357 18.8297824113 17.6969138164 19.2705035419 19.3535416242 19.9561103282 20.6144435172 24.4319646023 27.7604349467 30.3792198899 34.0801309089 38.2638938291 43.0064584531 40.9429278849 39.4801618949 41.1136268366 41.2517696237 39.0894688434 39.8227874981 39.2490269138 39.7675399383 39.1643026682 36.3675097979 31.034689663 28.2105677455 21.8882732485 16.1602710541 16.2444005389 12.0855777484 10.428428396 9.4113174969 8.74646482879 11.5379967308 14.86559912 18.3511597426 21.0605158849 21.1113351289 20.7379230774 19.1831898401 18.2957393249 17.1114514293 19.2472690564 23.6083125989 27.4026000441 30.5903598716 31.5674163371 31.618117872 31.6667375897 30.6119237699 27.7151494499 34.8563214814 40.1561859302 58.2111119313 57.7905776648 51.1547624594 29.6448024835 24.6795779835 27.4198327109 34.4104408587 40.8326662874 43.9609690087 42.9485485799 41.5717809143 38.7930255052 35.7291386569 38.0781907578 39.6369789008 40.7446740914 49.7182502366 62.0056821263 69.1038534468 73.9711187257 89.6384313182 95.3145867177 112.794503292 119.082948908 125.095536149 131.088795876 156.487083634 163.951152258 174.240095119 181.328205297 187.896190909 193.620231014 198.266345195 209.083721065 214.082133231 222.435046232 223.6984722
174.807140478 176.249724114 177.700769012 179.047886397 180.230706235 181.316677498 182.220723354 183.388191524 184.85084123 186.574751861 188.455355978 190.352863947 188.770554769 189.069626477 184.651150628 182.281182079 179.470682172 173.278496221 162.873251427 147.946450534 140.602293027 132.123537827 113.772894925 93.5134898968 86.1227372619 78.9466814772 63.0567621005 53.6170225097 48.491097274 41.3077408948 36.922861917 33.2017461612 33.5956269065 33.3286863415 30.0372141968 26.7820133715 23.9626716798 24.1619923819 24.7907157988 25.1885371298 23.0541802619 22.1349914634 20.2074790477 18.7216606784 16.4727382241 15.421414095 15.7280769636 14.9956472008 14.4697446707 13.0440333509 12.268618179 10.0211699194 10.2175559333 9.20171323487 9.39942156778 8.31165109908 9.64130693807 10.4044313471 11.7909028546 11.9628008433 13.2298747889 14.4571838763 13.6071485863 10.8212455091 8.34048772752 10.5168563391 14.4690157983 15.2737657303 15.4704602068 15.1563167847 14.7619332062 16.0165934187 19.4836259366 17.2698686356 24.1481827631 23.2167295039 19.5140593193 18.5554076351 12.0824116045 19.2089525808 29.2149739151 39.8568977498 40.376199195 38.6517471756 27.7348004358 21.1469351434 17.5084082473 17.6662437321 19.538566066 24.1926308347 27.4373271258 31.4420883685 34.7767219598 36.5812096729 37.2758163326 36.3099952639 31.4669046022 26.235019847 21.9140993378 15.7526388882 14.1350723712 12.5386266733 10.8590754654 8.52758071501 7.37981292224 5.94748286853 6.1560413947 6.81147859499 7.77192982299 7.10417761545 9.54646397333 13.9260088167 17.0603778691 20.0906656288 21.1021246581 23.3459569001 27.1738306505 28.6271452862 28.0623975161 28.7457621282 28.907943787 28.2318132347 28.5747760891 27.0783296856 23.5346449529 21.62043416 21.0942429779 20.2643340528 19.077620559 18.6639516448 18.1153284124 17.4438399896 17.7958938899 17.2718800403 17.5444113151 18.3156377035 19.2744070412 19.583544891 22.7826392595 26.4676059933 28.073996816 32.12122654 33.3878515784 37.1189902924 36.1175240929 35.4702251361 33.2323146394 33.9777118584 37.9479984825 39.0057191576 33.6257618461 37.9024678633 36.1680581755 31.116597313 28.6345445576 27.5147308832 23.5555266509 21.0528122308 19.0733937219 14.5887229897 7.76861923569 7.45858955887 6.18789351761 10.0381246209 14.7415759632 20.7894920021 21.859726638 22.8013958656 19.045578914 16.8392085952 17.7404786892 15.8891483989 17.4475094699 20.6972823052 22.4539720953 29.9042846386 32.3585574871 29.6510803082 31.2214034102 30.956034834 29.6969259491 33.2531528119 35.0553649483 45.7850689343 47.0324661494 40.8768210768 30.8302682119 25.8432657459 27.6633379533 32.1402012062 39.4739805182 43.7476952573 43.4415914889 42.9380645965 40.3102236931 38.7002453781 38.329218082 39.3316773901 40.5774175821 48.214618484 60.1174591951 64.4047450791 71.5505596509 74.8842144591 91.1941458371 108.620877342 115.265706965 121.020077231 126.71910158 144.42961377 159.632313955 166.384020474 172.893815482 181.711663039 186.889370539 191.248355047 202.504644501 205.376010818 207.513354415 218.807937658
175.082947773 176.328783734 177.584080461 178.798763875 179.959799841 180.921379977 181.913016904 183.046037668 184.35933242 185.831266702 187.392091978 185.81925849 186.181284783 186.14490061 180.856200559 178.203138814 172.726366634 168.495957144 155.281971335 142.230093078 135.488420634 123.489277786 105.81599039 89.9775599141 83.7289278672 75.5604482509 60.2824615478 50.1402293437 47.0272585018 40.8394074101 35.4172829618 34.2140781421 32.5756013133 32.1190773777 28.9228762415 27.3103736614 25.862868527 25.5026453769 24.73029446 24.3182699349 22.9107803958 21.6597165453 20.0766261503 18.6467074586 16.9934914786 15.8531986417 15.2677099035 15.069064694 14.6533913475 13.6130972179 12.7595004067 11.7925191186 10.6684000028 9.97316685245 9.99814119242 9.73626987282 10.2440783055 10.6138862354 11.5435290465 12.3786731224 13.2723966654 13.5893644295 12.9488346075 10.6658908732 9.75386653635 10.5571200387 12.8912263853 16.6596373004 16.3413158069 13.1036864424 13.4898408524 15.3503091521 16.251508527 19.9454320594 21.3847303133 21.5327445024 18.3872990935 16.0069413157 14.7989321461 19.0606746718 34.3465697797 42.0654395285 44.2306632647 47.4687644588 37.8065823643 25.1525419182 5.35929078179 11.2023330562 12.5453471009 12.846996569 21.7795342333 27.4656138915 31.0130743305 28.9240169326 27.1708229578 25.4653604839 21.3520448846 22.2377299551 21.1594845475 19.7293906675 17.0592458986 12.8532136251 11.2780516776 10.3184128368 8.9175002355 6.76552725553 6.8176207548 8.74757162481 10.3546190602 12.0071339942 14.6613334764 16.5359408211 19.1371499971 23.2201807908 23.0116004546 25.1971461999 26.1173719361 27.5473854291 28.7956715149 30.6829514634 29.6044730119 28.2346253226 27.0309266214 25.0144814851 22.1344029222 21.3991121817 20.9485512014 20.1758680662 18.7864277882 18.6239505825 17.9359808038 17.2327886016 17.6128457582 16.6519273061 17.2796954298 16.6158032528 16.2014185248 17.1760414735 21.1539301292 24.7592588787 26.2669464323 29.0718336417 30.3892876521 28.6605458585 30.8272320514 32.5600582488 28.3610560525 25.5980391746 26.8933701426 28.0934061791 26.5878855158 27.2674537899 25.7871312686 24.9602875796 26.4070720405 27.5683070219 26.1358934388 24.8728406708 21.4698936675 18.1237985936 14.5575499167 13.0140366988 10.7957527907 8.67832440836 12.6947274956 16.2865906386 19.7830187814 18.3877987172 16.0577061924 16.879798536 18.1570793254 17.926904741 17.1224160969 18.9254451317 28.7230018552 36.0720048468 40.0474979209 34.1153668654 31.5323156108 31.7499215091 33.8106251396 36.0036731322 38.733374979 41.2217003762 41.9107660317 37.8398335319 33.9050496595 29.530397689 27.8464043274 31.9611954477 36.1259634869 43.0296927151 43.706644104 43.0116412597 42.9530598389 39.207853247 37.6200740915 39.1723824707 40.0396262766 40.9093834027 58.0371696231 62.3961516133 69.1499354119 72.5122014989 88.6575403491 106.344398255 111.448230239 116.904028352 122.937209092 140.684564257 147.014123423 161.974307992 167.842435605 173.307018297 178.218673246 185.28517181 196.817870112 199.777253501 202.11121266 203.899318077
175.331209216 176.444793195 177.578336376 178.711449322 179.727619717 180.647431019 181.619995527 182.685713351 183.860959356 185.127844521 184.504611001 183.843447712 183.902268434 178.908617182 177.55658199 174.691833315 168.66918106 159.761424124 150.69899607 137.758792736 126.935076757 119.936294687 92.4886371506 87.317499643 81.9741338745 74.3776562645 50.9313175394 48.769633873 46.298773525 40.6478634174 35.5377506858 34.4830204309 32.1149989754 31.3114958184 28.2829519476 27.2905447867 26.5427108498 26.2367417877 25.5779718688 23.8017091301 22.6763017585 21.5493513406 20.0577541407 18.9373607233 17.3825779046 16.1709171287 15.3783911851 15.1758360232 13.7462183164 13.8276245246 12.930443134 12.3626538567 11.0021841435 10.3505070369 9.52504433657 9.98344155094 9.70187475529 10.9600889417 11.6762497335 12.3804301797 13.1515047402 13.1266098863 12.7627730863 11.8384374356 11.1340325648 11.7793563489 13.2419283386 14.7139999618 14.6798895496 14.3425194606 15.2224095234 16.4361791279 17.2402270991 18.606481346 18.4390081828 16.9455242101 7.47969312773 10.9648810362 13.4191794231 23.776051155 41.0820291926 43.425779699 44.872559974 62.9748018818 40.638350151 31.6679808426 23.2555111771 12.4353303603 12.1671982662 10.3440734272 17.8210050665 22.1591738931 26.468499836 24.8671148828 22.4813020636 20.2527404929 21.1102873687 21.6837986209 21.1181681114 23.1781598084 21.6933968937 17.6717538389 15.1432571479 12.8658676485 10.9400677042 8.68756125099 8.57219913672 10.5843478653 12.7730419906 14.4358702652 16.3616828178 17.8129610834 18.7871770997 21.5975122404 23.6026007858 25.7075323829 26.074682915 27.5562727088 29.2450256231 30.3176684858 29.4494984031 27.5316269 25.9051914059 23.8996473205 21.6131759495 21.4574303705 21.0026542969 20.3460127103 20.3261829863 19.1426329038 16.3687783108 15.7094974062 17.3768962013 15.688535177 16.2714349079 16.0798584987 12.1394282222 12.2775027284 18.2650095765 22.6799514567 24.8789423501 27.9220958761 28.7125931475 22.2929379807 25.2795603679 29.9760504356 25.8495616038 20.9052478524 13.858237024 16.9347139799 18.5061078448 18.5614951296 21.2929514694 23.4821252734 27.3801311566 27.9339308168 27.7895804539 24.3275175299 21.3291787046 20.993277611 18.4112036708 16.7910904592 17.1819037047 10.8562274189 7.26931042482 15.9987892674 26.0951041046 19.5424366978 14.6608270775 16.6572096016 18.0650265177 18.4437907321 19.8957583916 23.2220022104 29.9142122533 34.1813563945 36.5060500914 34.8137513072 32.3334192916 32.9550822183 35.3405650722 37.5266281564 39.8871065822 39.5729960058 39.0721488551 36.3935542009 34.1832489853 30.158238587 28.9903067928 31.9374103965 35.0728029377 41.1618772279 43.7599745854 43.0475258505 42.9993739271 41.495216156 39.10733926 40.4186663652 40.953934628 40.3640267108 58.0572683562 60.1790507203 63.9775238282 70.1806423494 86.154487084 104.121366879 109.311148178 114.41577731 118.947534149 137.423838414 143.23949508 148.94014874 163.495762868 168.482034448 173.011971578 177.002377943 180.40508868 194.858209093 197.29543845 199.250166514
175.568191389 176.589447553 177.640111003 178.713131543 179.530597527 180.409647687 181.332100893 182.315840225 183.364626814 182.541212218 183.208599557 182.052282263 181.88461512 179.0627722 174.69432734 168.620631942 160.381217271 155.897673239 144.629887262 129.349316617 123.516586819 116.035156543 89.7784448072 85.3278995462 78.3742163903 64.7874932533 49.7038727572 47.8963892882 45.9166186703 36.5225554136 35.4821637161 34.5653021492 31.8860643466 31.0525332092 27.7645217645 27.2348288785 26.8123526162 26.3475211246 25.4963016394 23.7055213766 22.5136528698 21.4570007459 20.087432433 18.7923248672 17.6128406012 16.3470667675 15.359654279 14.470003759 13.7271561522 13.9783762965 13.1019959443 12.6641894671 11.2238516433 10.607205048 9.10048963115 9.20967416262 9.91114069339 11.2029185573 11.7491677095 12.2543653615 12.521232453 12.8606131524 12.7157180221 12.2984748379 11.8668000054 12.3824289297 13.1040322115 13.9875331138 14.1233720155 14.5734830396 16.5289174894 16.3396845474 17.0313091533 17.117330464 16.281562948 14.7560824203 12.8098006982 12.4583257666 15.6182479109 30.1055376806 38.9639873834 41.1394476281 42.4136510033 45.1376773205 31.2134103308 34.1965381082 41.9885872187 29.871936662 22.2910097445 15.9035572947 17.8375916475 21.4502366619 22.7904247253 21.6836983732 20.2922197178 17.9445889948 20.1888774312 22.6442866154 26.6070183029 27.6254711658 26.7645391968 20.2554085752 15.7692931356 14.2727182233 11.778139656 9.0144145318 9.77705669077 11.4614710848 12.9650931452 12.4576152918 16.9542595229 19.1824241559 20.6449815303 22.1174329278 24.0177503589 26.5683983759 28.2982852339 28.3562636938 29.7594311546 30.1248610769 28.7392401562 27.0534747865 25.4041201743 24.3563337157 20.2796195246 20.4921318974 19.8306772544 21.8706975942 21.0183382999 18.6483736687 15.8966464047 16.4502318328 15.8710982451 17.2150301883 14.9030839241 14.8944045602 11.2395565856 9.8332730593 17.7024180222 19.281658394 23.1900142272 25.4635441204 25.7286275078 28.0854925333 30.5764780663 30.7315648353 21.1981201822 20.7136014949 14.8835975722 13.9158114115 12.2806074766 11.4588399045 12.513542698 19.8144617181 23.0797599302 24.1096006747 25.9303746774 24.8871783505 22.7675203389 22.757239255 22.5447108589 18.5181831414 18.8030501291 14.6476431189 13.368333336 16.2449852083 20.0875137973 19.2069014502 17.5022805803 17.1541553068 18.2756318884 19.7497197457 21.3822809339 24.6521725826 28.3437129073 31.5117433144 32.7737503369 33.3812273237 32.3997330861 33.8690881242 36.1044221775 38.0524428479 39.04133336 38.0510290076 38.4060976309 35.6352407428 34.3004760934 30.464070612 28.5234926568 31.1495070975 33.5652651417 39.0289721597 43.559375308 43.6388441365 43.0272881281 42.998247393 40.3969030468 41.6795689772 40.7794037748 41.2482854933 49.2348902505 60.04254356 62.6047843647 65.6995882725 70.6570888597 102.365791761 107.145620653 111.864577177 116.510229392 121.068005755 139.957282941 145.180489004 150.198145139 164.328310267 168.526040919 172.279050018 175.548209215 190.533043559 193.009884817 195.062920901
175.79627464 176.748845151 177.736752218 178.560964834 179.36159816 180.186750067 181.045299127 181.943210915 182.87753994 181.521250781 180.533342504 180.427474184 177.802922482 176.698205908 169.203414708 160.702322987 156.977452913 152.699646083 138.955670894 125.002732047 119.536878821 113.742848863 96.16944733 81.4272997846 77.3180977331 50.184939862 48.8419008446 47.3280022099 41.559326994 36.2244154881 35.3910639378 34.2807175616 31.5802969009 30.9697927689 27.4955671015 27.1553576848 26.5829864019 26.5636769558 25.6880063428 23.6659526597 23.1940726925 21.4227303794 20.0988017466 18.2166988213 17.7586851414 15.5403631975 15.1290069861 14.5081946434 13.7308862669 13.1172231861 12.5239632317 11.9964273065 10.4704938208 10.7967162198 9.21074970537 9.33447209864 9.69480907188 11.3769789698 11.7970599246 12.1765387157 12.3696146013 12.8011044801 12.4894011253 12.6178261045 12.2026468966 12.6391148336 13.1824998476 13.7136948349 14.0792856095 14.7931243693 15.2934086462 16.6983814725 16.6207296379 16.5265877417 15.4966773075 15.5736887477 15.6531025602 17.1016561286 21.729260518 29.7677923406 35.8247107391 40.4191590127 41.7514621066 41.3619134327 37.377235523 37.3426370334 45.3915711455 31.2177252513 23.6616349525 19.2352408626 17.9292520108 20.7721620189 20.0944803432 20.0312117031 20.6326807832 18.3326080327 18.6097651829 23.001730279 26.5019157589 30.2849880061 28.5345442564 27.7342988195 23.7591490923 15.4106221118 15.0853539171 17.0113592704 15.915870031 10.7939452089 15.7200792999 16.5821366205 20.5230134355 21.4291439219 24.1148439106 23.836984981 23.7939786739 27.2926056042 30.2842902574 28.4557650405 31.7330841732 31.4109480543 28.6519630836 28.2916099339 27.2366376862 24.8718943905 20.016112116 15.7349632054 17.8974012332 21.2172841978 21.9619591611 20.061988335 9.02529726978 13.4073568335 17.5803681268 16.7219840733 13.8950369024 11.546763174 16.7137641107 18.4928160964 22.4523225439 13.704893694 21.0380295363 23.4083342956 22.1626534231 41.5142353222 44.3429762347 38.8365933412 25.3399633048 28.0546070965 23.9373787546 15.514219566 9.23201805745 12.9921310151 13.266691285 15.8798873552 19.7225582009 21.8893743139 24.1647534284 24.6288126684 24.3284461755 22.6215243226 20.5855317335 18.472791844 17.1073053836 15.5714232324 15.5607161773 16.3469295645 18.1979372441 18.3517744657 17.9658031516 17.5853052584 18.79903649 20.4816322605 22.1425929645 24.6980390061 27.4575700494 29.669435232 31.008040446 31.7851345827 32.1149411109 33.5417146711 36.8469185898 38.5659989544 38.9779932367 37.8097640631 37.4457512709 35.5168622198 34.9788469367 30.6178262007 28.5730214808 30.0354786351 32.202621289 37.3220015395 42.1409455644 43.5305430662 43.0180601597 43.0193699084 41.5253634691 40.3344110191 42.0122344935 41.0335856199 41.3884169521 59.1100656862 61.4874515898 63.6032861676 66.2245415685 85.5358537908 105.365441602 109.713131126 113.993834869 118.183935842 137.112274331 141.915743793 146.528824904 150.885060865 164.641910228 168.173105972 171.299962619 174.008439026 189.197770766 191.299481708
176.013065175 176.910771383 173.590447692 178.458374975 179.20253617 179.968579894 180.758852188 181.573019041 180.12373347 180.552443289 179.196101658 176.700946632 175.825890434 174.625373147 160.798541617 157.683009366 154.103530426 150.060135684 136.071437674 122.134797139 117.189443211 111.988411126 94.8352515794 81.2706451153 66.6058123759 49.3917934327 48.229340743 46.9519284393 41.2420769771 35.9957394374 35.3087025227 34.257291196 31.4869128374 30.9608070242 27.3153151297 26.920661978 26.5949643979 26.7041853116 25.8364114986 23.6491600793 23.2401686172 21.3958259696 20.1042663234 18.2326025846 17.8561930954 15.6697844273 15.2032383803 13.4915058143 13.9375433581 12.0728563503 12.5761851754 12.085759097 10.5424065548 10.1507037955 9.28896373008 9.42217165175 9.78290937024 10.7892235077 10.3267297732 12.2181684486 12.2786800777 12.6001699686 12.5738616376 12.8205496773 12.3766095606 12.8911864351 13.1684443003 13.590998865 13.9786388935 14.6761493256 14.7490583107 16.8968619649 16.5087245255 14.659905823 15.4596002388 16.4949329002 17.7362071678 19.9478733622 24.3946538212 30.1642842166 34.5418579362 39.006331331 41.0869408369 40.8998381734 37.9865356423 35.449779801 33.9502706202 28.8719714175 23.7364831043 21.293640752 19.9017656516 19.2136749801 17.0315150475 19.4787775927 26.1904690534 21.2127236652 16.6387723834 20.7567897001 26.0403427393 39.0877492646 47.5605745973 37.6559597299 34.5580142336 26.0372579071 25.1810391015 30.9754868144 26.3281794506 22.5369060641 22.7931036729 22.9084354747 24.3647297181 23.288134469 22.0010905293 21.4171082344 24.3035011263 23.8838708255 25.2014434655 26.761251177 29.3347748402 28.9261885164 30.9944432346 30.6078841266 29.1660040459 25.0092186065 23.3000786712 13.1100072446 16.4995391523 22.1345234275 18.0417755739 22.6954371818 20.8119443535 21.4806473959 11.2304432446 13.5801246078 14.8685763771 11.6282166465 22.8864549329 27.7976522777 31.9873724333 30.0668121411 35.3540713541 43.4264968485 52.0318638956 61.7564670541 60.1547071605 54.8655594299 37.5839125097 34.5539182764 28.0015026791 22.1457196094 23.6414204171 20.2407400762 14.1791077452 13.8680085606 13.940092993 20.9064583307 23.3143853888 23.5967674037 23.7613379535 22.4531442952 20.8923267916 18.2681767165 17.1937497857 16.0639730614 16.3236945082 16.7458001426 17.6620348953 17.9082802984 17.9470042027 17.7198716872 19.2134113251 21.0163311614 22.332203144 24.6402975324 26.8582079367 28.7027764743 29.9848577862 30.2653638883 33.4069161849 33.6518870713 37.3364085124 38.9132261528 39.6939913706 38.4355772655 36.0266364783 35.4569773103 34.9869581484 31.6479022673 32.5406241081 30.0369363114 32.1734725633 36.2230975318 39.4315985027 43.7593737319 43.6382420452 43.0338074414 43.0166009804 40.4190602889 43.0826327226 42.0275307224 41.1741303766 58.4023099173 60.4769552162 62.4867314349 65.860616994 81.356972633 103.898090929 107.897316552 111.836668019 115.688907135 134.650817028 139.080849036 143.338321849 147.370908162 151.128248609 164.589018971 167.571106701 170.197443812 172.466924883 187.920181533
171.794271969 172.555688331 177.686000578 178.356095033 179.044698624 179.750975474 180.473659018 178.938988334 179.324647993 179.105437108 175.73356905 175.025454586 174.064059898 168.580294644 158.106201287 155.09042898 151.680990878 147.884202224 133.700209264 119.801641356 115.325683657 97.9355730228 83.415399826 80.3321707402 66.0688192376 48.7977053673 47.7889758837 46.7013954374 41.01839081 35.8214687418 34.8909085846 31.8731548422 31.4336100457 28.5762478526 27.1892236761 26.8363241226 26.5877113224 26.6050036428 25.9503420225 23.6429986941 23.2896331358 20.5074629679 20.1080428792 18.0395978858 16.1483563121 15.7212629497 14.2976466101 13.482071136 13.2986370863 12.0518515386 11.8458146514 12.157956917 9.91238932809 10.253063519 9.3451979344 9.48549523486 9.84487289317 10.841808665 10.3016426901 11.297770409 12.2266526018 12.6369094515 12.6428096782 12.400861722 12.4716409404 12.9952030473 13.1654468284 13.53026188 14.5275394261 14.7026440412 14.7465265663 15.1255930004 16.4430787811 14.4521718056 15.6133468827 17.2223040607 19.0990886287 23.640325459 25.8485281213 30.6143218116 33.8882496802 38.1066896462 40.2688077388 40.448086592 37.5601883292 34.1319284999 30.8181855125 25.8945907298 23.535481146 21.9512352432 21.1559771437 19.464896454 19.2177492893 20.2457793061 22.937283916 22.1564927871 21.1464328511 26.3889404116 46.2382686928 50.2515753318 46.7826432872 35.5697240451 35.6223674085 36.2960517624 34.437498348 33.2475060274 32.9533762367 27.8478500483 35.3968887967 29.5389847944 31.0977693524 23.467278852 19.1136534959 20.038175884 16.1910681672 19.5994923912 22.4866628584 28.3367053089 28.8028017273 28.2979000055 29.9727609386 31.0442128912 31.2488011636 28.8376624787 25.0028622185 26.0059416754 27.6501479766 29.3597091154 13.4426831563 28.3045917755 37.9265597101 37.0388434753 29.5578368896 27.6722788282 29.2647914057 30.1133546012 31.4348598928 34.1716384591 41.0086800103 49.0607641666 49.9295247643 57.5268589354 75.4703490803 79.5912836644 78.1785628613 78.5305236095 49.2689969478 38.0754438445 22.8333914361 19.2670035148 24.4969157062 28.1542736564 27.8241358506 18.09221127 18.0287173226 20.2150782207 22.5076115216 22.7449329588 23.3141562642 22.3365306705 20.3428624947 18.2126687311 17.3903702848 16.3998617876 16.6547459142 17.3770459148 17.3049586202 17.6924477624 17.4476047502 17.7397143727 19.5006251111 21.3914841959 22.5199621387 24.5334614738 26.4378249407 27.9095645199 29.3409762012 29.6493888665 33.373405625 33.6846371043 36.3776899724 39.1589234606 38.7727927866 38.1916591733 35.6745193259 35.3795571395 34.9850461563 31.7010198629 32.6788273075 30.0430098379 32.1599039904 33.6071545083 37.8083390324 43.2976842177 43.527887504 43.2624392362 43.0284974026 43.0161150133 43.0385924176 43.2718320233 42.1577528596 51.8870195589 60.7474815652 61.4591492377 63.141334474 66.1891016015 99.6735445618 106.363291511 109.987651569 113.531492416 116.964588295 136.618177326 140.559061504 144.303341767 147.810695312 161.449330897 164.287826946 166.821413025 169.046464486 184.8865538
171.654816468 172.357883502 177.629630269 178.24925603 178.884458243 179.532863045 177.916274626 178.268282017 178.059231213 178.094360528 174.292229338 173.510256701 172.497782849 166.648471721 155.758896647 152.866055133 149.639834716 146.090843544 131.749813719 117.90038633 113.845048341 96.7916107212 82.3683596813 67.8758210733 65.5449395411 48.348725994 47.4694885173 45.9688293934 36.1641131478 35.689220788 34.8042198816 31.7853941957 31.4047130372 28.4920314673 27.0978750229 26.7689589261 26.260895892 26.6593107693 26.0384669262 23.6423555658 23.3369883022 20.4600929091 19.332908418 18.044903407 16.122302297 15.7580545673 14.3146197836 13.2870144152 13.3251098025 12.0399281878 11.8703606924 11.1610924742 9.95071700062 9.40136311074 9.38635825917 9.53229774125 9.88932505817 9.93699786623 10.2816414441 11.2606323969 11.7417661112 12.4512692032 12.6965830153 12.4666127565 12.5264073401 13.0443946024 13.167114846 13.4973812233 14.549727081 14.7150065865 15.5246464455 15.0828195549 14.6746437759 15.8622941049 15.7879294985 19.4048056135 19.9923590134 24.9883629379 27.4651692054 30.9408409652 35.8038410751 37.5617063331 39.7328857576 40.0551943635 35.2371440385 30.9750683951 29.5666093205 24.7396950974 23.8945235888 22.0787780465 21.8636543685 20.1921511405 19.7624703733 20.1009269265 22.1415377127 23.7635934503 25.4831432018 31.099881912 41.5361725568 45.3718884795 41.6896165771 40.0730820393 54.3252298426 75.3412935565 70.781082923 51.2567370739 40.3148284104 58.8353956985 62.6474969891 49.150499238 54.2097316722 36.2337275246 7.66061703169 22.7716907073 7.24441461512 19.5144339249 23.7176965654 30.5296670743 31.1036402481 28.7917293314 31.41431149 32.0416912494 26.6490172838 30.566545429 22.6300179968 32.9010820226 41.6096687138 43.4593370313 49.8169897524 54.9907242554 58.6953595323 58.7132998734 53.7485683275 51.5846050309 43.7277900491 36.4250333774 33.8130272451 38.7942400555 42.2177774665 50.1600711904 54.3108089725 61.512255323 65.4839224587 72.8897024057 85.4267682983 76.6912367246 74.3104664852 58.0554547935 30.6762633536 16.6514927011 22.0104140364 26.0934150797 24.599555359 19.7271066868 18.925067041 20.771772883 21.5664286876 22.9158069525 22.987508382 22.9654045365 20.4283912159 19.2303856627 18.5623974167 17.0078473174 17.7766135013 17.483820599 17.2309960726 17.5857717106 17.3143315061 17.7260774989 18.7911335218 21.3700214589 22.6299406877 24.0958219112 25.4016617689 27.4542884496 28.9120020157 29.2064186983 32.1331960804 33.6907700282 36.4786561117 37.6780811651 38.7544403502 38.0331993607 36.8088871226 35.2041833857 34.9790083678 32.4159352801 32.6207804106 30.0507943939 31.3024863438 32.2517064809 37.7870314477 41.6972683694 43.7592577822 43.5864063111 43.0108647362 43.0259233216 40.427660417 43.2023730477 43.3464308461 42.2328343631 60.1367103697 61.6925890495 62.1396145757 63.5419075276 97.9100127131 102.063287133 108.402006071 111.665437634 114.828123553 134.477234866 138.133691835 141.618499154 144.898508823 147.944863113 161.388684182 163.82387369 165.991000753 167.89186946
171.510986749 177.006358534 177.563682066 178.13613217 178.720867335 177.023428341 177.347508613 177.1424723 177.200596769 173.616800678 172.973435205 172.144845714 166.715076144 156.183957909 153.713897873 150.957765586 147.919491411 144.612346122 119.851740378 116.34923184 112.669506482 95.9010794268 81.5587153867 67.2341784968 48.7187508976 48.0066514098 46.6929646418 45.7803056926 35.9963600963 35.215326591 34.7408600173 31.7209675865 31.3909726763 28.4335367971 27.0297352966 26.7153816223 26.2219406109 26.6989362693 25.9756418175 23.6447576457 23.3801344109 20.4246991376 18.9894631161 18.0456874227 16.0966335511 15.7849122042 14.3282530604 13.3044591338 12.1643761567 12.0342982502 11.8929817576 11.1863846427 9.98049350227 9.42835269899 9.41706677055 9.60871891916 9.92183922165 9.96285234066 10.3009599599 11.2358818326 11.7269240597 12.4721323107 12.9480423595 12.509972241 12.6132595244 13.0775032142 13.1703147261 14.1389085151 14.5720514916 14.6987853818 15.0566850567 15.047224627 14.6122486494 15.9865228427 15.941263903 19.9999016217 20.5841717978 25.0167332907 28.0640451128 31.1637648149 35.8130472201 37.2219872116 37.9552886375 37.4617153907 34.6601911146 30.102317369 29.9093028658 24.0121950013 23.6866100349 22.2497113181 22.3346545138 20.4166965355 19.8554587984 21.8420744194 22.3938693208 24.9853457571 27.2897139822 31.5910209509 41.401618334 44.0529082487 47.8919021248 53.559082987 74.6977522936 88.8300830212 82.8308666414 78.2326379472 75.8532629801 114.80815748 125.337815801 55.3826669725 75.208886322 20.6567051921 56.6335922575 47.9975976587 27.079327919 15.6424055496 24.9450707485 28.8844709835 28.9180316336 39.2502524409 41.0236334224 38.0813556116 31.397935976 40.487774363 43.3505656924 46.3427050612 49.6621570342 51.8694611949 62.3977735212 67.5110003819 76.3007316282 77.9980805422 65.1089496488 57.2357925396 48.5697340028 44.4283803209 40.593172641 42.1053920852 43.3360623285 48.5884484253 53.5661890123 58.0389778018 60.3587322895 61.2336337834 47.5690449329 59.3843672296 86.2680528986 88.6700812553 67.7838573421 38.9752739176 28.9086205842 27.1651674269 25.7656721225 22.2725774838 19.4902046131 20.6522739614 22.4785560476 22.7779985384 22.2114750734 21.9183954275 20.4975751726 20.0862817159 18.7284582791 18.3951785668 17.9641652418 17.5620463181 17.6018496864 17.5320759841 17.2407539174 18.5428145153 18.8521521592 21.5276144963 22.874446578 24.0194315844 25.1306438257 26.1863576533 28.6133874376 28.880432637 29.0502725142 35.5397596982 36.5434781281 37.7235587067 37.5989022819 37.7677113778 36.9418822283 35.6532567543 34.9713812929 32.4335484288 32.6882221699 30.0589945039 31.2985413707 32.234045701 35.5680847366 39.6307530483 43.5640862205 43.5269717342 43.2629950103 43.0335051468 43.024824449 43.1518177261 43.3182856208 43.4287813882 52.3861161003 61.0416365704 62.3761149036 62.5921288242 82.2287560892 100.219912614 104.04709037 110.050031453 112.96888419 132.614119449 136.013391472 139.262951559 142.334947463 145.205042759 147.853692203 161.156611235 163.257154265 165.123488579
176.470512921 176.971850409 177.488170115 178.016692073 176.239012772 176.538176108 176.332084508 176.405626507 176.396727918 172.45690377 171.772015614 170.9179143 165.18526013 154.299707424 151.932727041 149.320000975 146.468442455 143.392751101 118.283691934 115.082728427 111.737840844 96.0624158276 68.5652703902 66.7363005393 48.3794247086 47.2163627171 46.4519353622 41.2387843463 35.8658017707 35.1082037501 34.8415594485 31.6738969941 31.3553318576 28.3921173408 26.7878504517 26.6725804753 26.1885118229 26.7290048885 25.0481882379 24.6897435076 23.4185577788 20.3976758346 18.9698087331 18.0440618774 16.0730365474 15.8048791952 15.5464728273 13.3201911049 11.6715328358 12.0329360465 11.9138038505 11.208559372 10.0040785164 9.44912358365 9.44041278228 9.64100879865 9.94606482426 9.96091077151 10.2875741306 10.3525217668 11.7196713974 12.4914429655 12.3522823264 12.5393728709 12.634773362 13.1009421025 13.1737251014 14.1662793486 14.5920185152 14.6832710323 14.3675804855 15.021368214 14.5740299576 16.2706055876 18.0566770502 20.4421189906 20.9821940502 25.598290359 28.4596963988 32.9624202813 35.8533032435 35.9877591069 37.566326667 37.6831333788 35.0008307796 29.5107047466 30.1680814209 23.5294905709 24.8434743538 22.3431655928 23.206103551 20.5253461193 19.8464412748 22.2202013818 24.1206346139 25.9519690243 28.3343644904 35.9861007582 42.1522363717 47.9077512076 51.3139446166 59.3966449203 73.1319277752 77.6955572241 81.9949618132 90.2203058354 128.385080826 198.583164293 196.738518186 184.036046585 147.9476257 118.654500271 120.048827688 84.5579988928 53.1753113829 36.5040186286 26.4781522911 35.2646579741 37.7702558066 53.1589564427 54.6146561189 54.0378252765 58.905505241 58.8543601438 60.5060633737 56.3831942512 49.0790968692 52.034773381 56.9333832908 71.5413531966 92.6510523796 96.1313624758 86.5469399857 64.0865747416 48.6140416118 44.1468831448 43.1619849751 48.0454100365 52.4502790119 50.8007276014 50.7410883933 51.9264165348 55.0889750686 64.3022307149 55.8963363958 48.2463444287 56.3663945755 68.7370587049 63.0525937501 46.9221037117 37.8928062884 30.8142540002 27.4755708513 23.1250285943 18.8301098907 20.7885137466 21.7995577245 22.8750585931 22.08211997 22.1527600032 20.3439399197 19.7698134156 18.8345583418 19.2254099422 18.0908411944 18.1771707084 17.2657075381 17.7412112151 17.1910392818 18.5822640517 18.889094918 20.5103823261 22.4501174325 23.9601331438 24.5488684737 25.9006374678 27.2970694158 28.635352562 28.8036086665 35.6397033796 36.5899743254 37.7562054495 37.5675825175 37.6924098893 36.8376627727 35.5593334137 35.7273220764 32.4440782018 32.7369738994 32.7653598435 30.1344093942 32.2227951618 33.8611031245 37.9444093261 43.1509397715 43.5287024594 43.5868174727 43.0129156158 43.0313525635 44.6218047204 43.2568867898 43.3441462241 53.3997307907 60.5156839145 61.7170739011 62.8576278699 81.3432479636 99.0458742584 102.147077467 105.662443542 111.348496867 113.944016511 134.156513442 137.191668209 140.072512116 142.778162987 145.291564214 147.600124105 160.807063935 162.62922267
176.4594651 176.925598865 177.40395582 177.891755213 175.823148462 175.611704931 175.694838778 175.711326305 171.962039843 171.391252802 170.681250289 169.817799753 161.904094847 152.637806847 150.381156552 147.913395458 145.243298968 142.38610785 116.977876826 114.04828021 97.3376787285 95.4756006631 67.9962049745 66.3509464358 48.1101518428 46.9519895668 46.2689769824 41.1219976906 35.3761522125 35.0251980847 34.7939888516 31.6396510593 31.3374927129 31.0355568016 26.7345701432 26.6381089869 26.160292313 26.7525930731 25.0557028076 24.7391113216 22.4167511349 20.3766427154 18.9531352428 18.0411754477 16.0520435253 15.8199634821 15.5950131909 13.3340368306 11.6570759418 12.0344153493 10.7584574686 10.3807848462 10.0230845002 9.46536324716 9.45847983635 9.88079150877 9.96442829605 10.1539070879 10.2771448972 10.3307081653 11.566350985 12.5085431956 12.372840743 12.4126049221 12.9339648154 13.1704427177 13.6640016713 14.190605447 14.6090856604 14.6700306958 14.3351955761 14.5333073068 16.2683833798 16.3778052649 20.0077371658 20.4724947764 21.2540461847 27.8366664857 28.7295822195 33.1908674577 35.899582779 34.0914536916 37.2779791717 38.1842089783 34.6407398471 29.6876457008 29.890440392 24.0591950472 24.7784786237 24.0194581349 22.6286227583 20.5796953632 21.765786769 21.854381464 24.6892825005 26.5090152467 33.7243463636 36.7946512495 43.2535450873 49.4533428687 52.7823259239 67.7320619127 72.4978099577 82.0139290453 97.2789326122 111.135822441 148.367605515 179.69353882 225.891905653 372.402805729 215.184297778 168.311626389 153.933883049 161.123062651 61.9585245053 42.50659222 37.7812275272 62.9913655644 96.4538676987 75.2326536374 59.9349123263 61.8231271016 78.0030148233 70.5230345917 75.3497123904 80.1840333728 70.4840254265 61.1065868453 55.1993871593 61.5357319673 70.5612197613 84.6319715984 84.4157694308 68.6897268794 45.1142045598 35.8309628451 36.1905475251 45.4576169504 52.8605616548 52.8190623314 45.9014289044 29.0781192173 50.0021496795 60.7381041423 60.8093124904 57.156827349 57.5477234715 60.7766563051 58.3460088257 53.2376353077 42.5839528921 33.2893192093 30.1452944353 27.4283241126 24.0554341104 19.9333602261 20.4956618909 22.9404544501 22.01944058 22.0778953488 20.2185328261 19.7213245181 19.7942311712 19.3628832277 18.1765535916 18.0573382927 17.2912359442 17.7609472087 17.1573585936 18.6289383045 18.9124701578 20.5292290282 22.4595068721 23.9140480718 24.3967749171 25.6845969062 26.9142762243 28.4474592828 28.6067466361 35.7265190404 36.2393541405 36.5136514707 37.5448037236 37.6394899301 36.7624015444 35.488756157 35.7106457231 32.4503076905 32.3235834975 32.8185159658 30.1314784186 32.2157527178 33.846615635 37.7948583733 39.7780157616 43.7591838206 43.5266718028 43.2635597006 43.0365902437 45.6595366721 43.2094693014 43.3321651012 53.1396633992 52.6769504619 61.1744774441 62.2119288751 63.1864123315 82.9711920487 100.917057525 103.729353019 106.950220838 112.342413517 132.527474123 135.36648059 138.071129673 140.623250226 143.007787313 145.213269978 147.232053247 160.379165462
176.435532639 176.869063393 177.312301812 175.189265044 174.96907763 175.057212595 175.091161385 175.060595485 171.010601821 170.415719703 169.693496572 162.123236998 160.59080757 151.172413064 149.029016259 146.704182825 144.207723774 130.381233083 115.889137307 113.203482875 97.4940601038 82.2033821207 67.5399323648 66.053998948 47.3226528398 46.7431878014 46.1304192905 41.0347761954 35.2711595423 35.1054621805 34.7598696094 31.6148827121 31.327401927 31.0610265375 26.6919431791 26.2632387211 26.1366109892 25.6517426952 25.0613772764 24.7807703708 22.4229677451 19.1417005215 18.9388641153 18.0376661763 16.0336595313 15.8315221064 15.6346846093 13.3460852817 11.6462722057 12.0377486703 10.7608721654 10.3915500211 10.0386378302 9.4782482583 9.47269308758 9.90583545057 9.97857004443 10.1549393509 10.2689690718 10.3139204791 11.5802144003 11.659100818 12.388270064 12.5416973255 12.9514908665 13.1821251234 13.8969783962 14.0967905201 13.8493894247 14.2557735557 14.3095462637 14.6299133341 16.3592549693 16.4670363496 20.2749651619 20.6996841638 24.5855308909 28.1777289616 31.734554584 33.3643333293 34.6894791837 33.8784140172 37.0617617759 35.2588325597 34.3786667573 30.4969701524 29.7052138682 25.2320837835 24.7353558479 24.769767129 22.7126687372 20.6103381686 22.0274544201 22.5742704026 25.8926625739 26.8388768417 34.6336087738 41.2235311916 47.3334206729 50.3854323213 55.7319420505 69.4046828633 73.1745958283 98.3927697993 107.402517262 129.196394366 151.237477712 181.758819322 230.402450188 274.375000973 214.024678179 184.107277861 156.054492978 141.650186276 66.8564554075 24.976861671 57.4052959006 106.189043302 85.5784714837 52.793114631 54.3683028421 51.4372061397 63.5005865363 71.753823275 88.9759114383 79.2373793375 71.9639843597 62.5314166636 57.2646953735 62.8112012415 69.6760399198 82.0827701976 108.454541917 73.2278612309 59.8163205929 45.3293576739 41.7343232516 51.1009150986 58.0462531154 57.2347846014 50.4773583674 41.2076159491 49.7425543499 56.9208409338 60.3861364101 60.2479192648 57.5975837302 58.4463575368 56.3860873656 53.5693403398 46.6224139278 38.8475355251 32.6152518994 28.8411465333 24.794693632 24.2009605158 20.4444555337 21.6415086907 21.9918885822 22.0349079474 20.5482104424 19.6737655514 19.2102101386 19.4594005472 18.2624108095 18.1248543081 17.3130623502 17.3147534299 17.1343106742 18.1398198652 20.1632671633 20.5374639623 22.4627391781 23.8777620783 24.2797651995 24.562543785 26.7330478788 28.3008323159 28.4482822183 35.8034659969 36.2625209633 36.4717311861 37.4033426522 37.6015306508 36.706747089 36.3550295766 35.6970431742 32.4538472934 32.3460920023 32.859969348 30.1302969383 31.4716059895 32.4575871012 36.0579233333 39.6307054474 43.3128800704 43.5280030756 43.5872322243 43.0142833286 43.0348196885 44.678869161 43.2800846936 43.3848024739 53.7051964581 60.7255981234 61.6718785841 62.5671976283 82.1655840929 99.8563827233 102.466492331 105.006349022 107.953145678 131.095829269 133.754893091 136.296780389 138.705502382 140.967647636 143.072729883 145.013380356 146.785369161
176.400477016 176.803801314 174.625725167 174.394365214 174.483989509 174.529388578 174.522153129 174.453260881 170.133739558 169.525123633 168.800691198 160.907227737 159.422389319 149.88020039 147.849894802 145.663535247 143.331377556 129.50701675 114.980483996 112.514057396 83.9295526251 81.7516208947 67.1738676995 48.0194773177 47.1037311309 46.5779688445 46.0260602539 35.4514322966 35.3426176942 35.0436414678 34.7739771015 31.55814322 31.322840545 31.0865295695 26.6573680328 26.2266373888 26.1167502602 25.6353672276 25.0658608546 24.8161367565 22.428966692 19.1047481992 18.9265404278 18.0338942066 16.0176707517 15.8404914335 14.8045315674 13.3565250372 11.6381621524 11.5290673198 10.7633892867 10.4007198373 10.2143238068 9.48861095869 9.48404341963 9.7626098463 9.98961845783 10.1555657858 10.2625097562 10.3007915652 11.5921471044 11.8657466012 12.3999929217 12.9327550267 12.9648316429 13.1912610249 13.9234612232 14.1147780816 13.8360349139 14.3007736762 14.2896843191 14.0400265907 16.4369681352 16.5401804566 20.4870829739 20.8692595663 25.7968368078 28.4313564449 31.1009493621 33.4968479644 33.1703640218 33.7126377507 34.6386876674 34.9666147118 34.1857995272 30.2476142163 29.5789972665 25.1007910199 24.7062352167 23.9823501536 22.7691087574 22.525571079 22.2307661319 22.7492965095 26.2201931224 33.3982620498 35.3055538058 45.3673318955 48.3027485619 53.5967536296 67.5781079887 70.6460853215 81.7716460923 104.952305815 114.592726119 136.626767671 159.012638518 177.109267908 203.543716487 214.254839617 196.56683266 172.993189904 147.143365739 115.454536438 76.0164046223 60.4783620015 68.6300850145 80.7203760999 69.4889376525 55.2792021555 54.5540864823 52.4516979143 54.0905695761 57.4676838225 57.7809113482 67.5108251464 69.7550067147 63.0016822997 54.8058095258 64.1382044703 71.7072047743 74.5990451871 79.3762515867 61.9178252114 43.1989909408 37.3617874055 45.8461015968 70.9419432322 73.842204929 63.4141078448 55.9267388611 50.7831718998 52.1119066825 55.7949660121 59.5545944706 59.2125513202 56.9427326683 57.1934501117 55.4938962058 53.6231010422 47.3449727154 41.7423698026 33.6915181899 31.8787063443 29.6970756219 24.7593455529 24.7904342054 21.6051977405 21.260466864 22.0112379637 20.4976047795 20.0682116632 19.5023002676 19.5274483319 18.3249445423 18.173699416 17.4181750078 17.3281994146 17.1183779571 18.1498899307 20.0954418767 20.539827949 20.8829487523 23.8487021438 24.1880547024 24.5164937947 25.5360155779 26.834059233 28.3195200019 32.3751735302 36.2839220306 36.4376614528 37.3710493163 37.5738497162 37.6184755069 36.3302702937 35.3556292839 35.7219648245 32.3629840148 32.8926928744 30.1302486601 31.3430737116 32.2499239599 34.9318721083 37.9451345324 42.2058517519 43.5290433318 43.5266178345 43.2270724662 43.0121239408 45.7219756906 44.749844575 43.3314523137 53.4619516711 54.1549554414 61.218112522 62.0421468791 81.4751884372 98.9408224977 101.366686374 103.731710991 106.018067682 110.906395085 132.329140928 134.720437255 136.995196006 139.141381948 141.149379579 143.012146524 144.725244542
176.355986837 174.123326095 174.322066829 173.967806364 174.020143292 174.029337497 173.987987 169.844320306 169.327797256 168.713703677 161.10303039 159.815255168 158.38318586 148.740305019 146.820790629 144.766913289 142.588963843 114.746497694 114.221575946 97.3191068214 83.3837361223 81.3877901974 66.3259624767 47.3772804245 46.9254975681 46.4471650473 45.9482019661 35.3563766047 35.2635817797 34.9951773352 34.7563232358 31.5325333125 31.3222285292 31.1114693545 26.6289779157 26.1962494669 26.1000574099 25.6212189084 25.0695529157 24.8463580361 22.4346453933 19.0734112336 18.9158081722 18.0300643888 16.0037918498 15.8475296775 14.8189105407 13.3655682974 11.6320596381 11.535528309 10.4773111324 10.4086088144 10.2279991756 9.49704909429 9.49323160392 10.1602693365 9.85383503376 10.1559712374 10.2573636803 10.2903738851 11.6022785622 11.8710347304 12.4090088042 12.9473413465 12.9752126474 13.1985680118 13.9456184577 13.7879618026 13.8252925294 14.2862549199 14.2745207184 16.4210928876 16.5027047887 18.5563920021 20.6557958474 20.9968527825 26.0196687333 29.2459516437 31.2859868904 32.0817190397 33.1275480021 33.5811628247 34.4401880426 34.7404387306 34.7990998918 30.0610384105 29.4917431826 25.0058641708 24.6859408714 23.1827887738 22.8096429859 22.7184087432 22.3853193791 25.8452968203 26.447453013 34.0625480296 39.9048357773 46.2995436028 48.4316280412 65.789109104 68.9099478759 71.5108726306 103.413204989 110.038144474 129.371631556 140.544647963 159.482272758 177.19201787 187.812406613 190.122345098 179.570501713 162.490747377 139.683643558 114.662439833 95.7267440532 73.3839677035 65.3686045992 68.2913112649 63.1350242293 58.0441506729 56.8870369356 53.0300529585 51.9423420531 48.174938168 58.6227470088 60.7104630462 87.1129978068 86.1742271842 65.8753654279 62.4994807591 68.1664979277 71.9591850274 66.1180491456 45.4642128806 28.1547684448 34.607391528 45.0414492623 62.9663306036 66.34634409 59.4436972531 56.8256940774 53.5855027992 52.3609785029 56.908037512 59.9723427798 61.5480955656 57.3800656014 56.3820666177 56.1013561279 53.6292545641 47.6753831776 44.7165040093 36.670629233 32.7437282806 32.6032663731 25.2101769923 24.7692842224 25.9653264983 21.2076288522 21.9986544365 20.4601495608 20.0895703562 19.4920753805 19.0715590122 18.3705694896 18.2348221732 17.4550438965 17.3402063327 17.1689371688 18.1585728601 20.1345486469 20.5390033277 20.8367139944 23.8250182139 24.1149213658 24.3968601902 25.3980354382 26.6943245851 28.2138885264 32.3416737695 36.3044341274 36.4106355627 37.3458133853 37.5534055492 37.5901657051 36.3115331382 35.3370722023 35.5306573494 32.3758379383 32.9188169703 30.1309366076 31.3410540686 32.2440016582 33.8604309651 37.7997130715 39.7761500056 43.5639842337 43.527666543 43.2071030059 43.0152553879 45.683582335 44.7112514555 43.2876453995 53.2912365771 53.8909987422 62.0838723003 61.5950766292 80.8825012561 82.7645861602 100.407606485 102.612936248 104.749759992 106.80320344 127.143859638 133.317229939 135.466827581 137.503361095 139.417991344 141.204025946 142.856953347
