DSAA
220 79
-53.7467606931 1725.25421543
-634.934377137 -0.975714143942
3.41616876337 79087.5765468
26.8616871144 26.8250297535 26.024956382 25.2354106072 24.4452674472 22.6115198337 21.8492899977 21.0178092429 20.0918085828 19.0572730965 17.9236596095 16.7361612394 14.9012220831 14.0595487261 13.4720543871 13.2438015127 13.4309710556 14.0209279522 15.0087306152 16.1685351122 17.4084907143 18.6077904499 19.676651928 20.5617847806 21.2434992749 21.7283585253 22.0401885287 22.2109656351 21.9220743283 21.8900265151 21.783853361 21.597126777 26.0451765763 25.5328417042 24.7514674937 23.6516446398 22.2227831755 20.5202997432 18.6844884647 16.9375999669 15.548242804 13.5167094871 13.5310350749 16.6375345807 15.0103547616 16.3723376072 23.5405530752 26.2547899818 28.761326122 30.913353395 32.6360912927 37.7347534179 28.7904380099 29.3677267468 29.7288500736 29.9158745359 29.7895296187 29.6598296797 29.3989969919 28.9801991795 28.3598422459 29.2391295973 28.0603370925 26.5325024403 24.6767003304 22.5785489306 20.3978158484 18.3608395438 16.7200700786 15.1980175456 15.0260471083 15.6059165062 16.8080743199 18.3959141108 20.0914894752 21.6439424793 22.8760962192 23.7008515468 24.1130513104 24.0153203962 23.7649439805 23.3454130398 19.8541533709 18.058021655 17.7417113495 17.3717545716 16.8984891564 16.2568025292 15.3807988777 14.2213102564 12.6559456445 10.967900012 8.02803364861 6.7978968564 5.8051987568 5.25432449091 5.19820813975 5.5309185771 6.06007469305 6.54873090023 5.64063658914 7.28620412881 7.38068249786 7.33875934871 6.47899666466 6.38437931759 6.28704303347 5.28798030203 5.21193482232 5.12012532489 4.99846386839 4.83888557644 4.63466293705 4.43366783119 4.25409374532 4.13702512592 4.1109654056 4.14394524256 4.23581396978 4.32238946782 4.37523996223 4.39043342464 4.37825474418 4.34888985255 4.3036312479 4.26468794737 4.15599436014 4.00175879027 3.81864355488 3.65271399477 3.56266018741 3.58277294943 3.68119008722 3.82201379247 3.95411275943 3.98767327723 4.0351574872 4.05601414482 4.18953125454 4.2010004392 4.21605480944 4.23104030298 4.23536119533 4.21528282202 4.1583061481 3.97060486641 3.85108910084 3.71467830301 3.58917937677 3.5051019874 3.48317395943 3.61590106275 3.78248948945 4.00639956479 4.2524087892 4.49250206696 4.55519875588 4.71958218441 4.85266920891 4.95630314522 5.03473985289 5.09311592682 6.25852350198 6.33465753143 6.39550736452 6.43965430467 6.46242336211 6.45683946546 6.42742690133 6.33635307901 6.17639861781 6.0142857244 6.63589882373 6.33343473724 6.03819218554 5.83927354926 5.66930221572 5.62171822791 5.6826835541 5.85751449263 5.56645475234 5.81905630277 6.08640617399 6.34401714624 6.88490212626 7.10093145017 7.27217736006 6.71370069689 6.81372830689 6.88804388602 7.14128720746 7.17036062406 7.41157998463 7.39024531416 7.33206336756 7.2298348084 7.07681349983 6.86842670034 6.60434441658 6.29085934286 5.94330060219 6.28291030556 5.79373342385 5.40957723724 5.08611287912 5.07390076243 5.24460779478 5.56954634853 5.99693458854 6.46948398859 6.93974646134 7.37768523816 7.77062871236 8.11885383535 8.4300613246 8.71468945311 8.53648998245 8.7857721441 9.03295955021 11.2699005313
26.3829509515 26.2806645246 25.4586703607 24.6619055796 23.8799767472 23.092184205 21.3678407001 20.5566128189 19.6311066696 18.5607775966 17.3418081893 16.0161175675 14.6846744268 13.1352139303 12.4158986653 12.1218016462 12.3295251234 13.0229358501 14.1499432726 15.4925323318 16.9065616773 18.2466553925 19.4099884444 20.3405911779 21.0239064589 21.4769083495 21.7369867673 21.850936091 21.5420784285 21.4848125219 21.3788759056 21.2168527088 20.9672072203 25.0357957204 24.2889050452 23.160564427 21.6120028227 19.6875334568 17.5446814974 15.4563951737 13.7669995657 12.8026384795 12.1593984078 14.3652603574 16.5153608886 19.3067056691 22.4177531612 25.4876265432 28.2598612435 30.5747854319 32.3615913039 37.326221517 28.5405325294 29.0385825145 29.3135570844 31.6376833713 31.6662285717 31.5993503093 28.8923478852 28.5180862434 27.9423619229 28.7679411861 27.5484198341 25.8871365363 23.7855352579 21.3294289819 18.7069988305 16.2049894911 14.1655589422 12.5936782514 12.3925226745 13.1616756456 14.7271300971 16.7659945266 18.904294156 20.8149956045 22.2794104821 23.203446566 24.9299789064 24.9170548455 24.5776681461 22.5208790129 19.1633893953 17.4838644216 17.2257041177 16.9647939944 16.6346261423 16.1466513601 15.4105246454 14.3563411477 12.8511893589 11.1636886643 8.15206998552 6.85768202011 5.7985856275 5.20616437869 5.19249822478 5.52979995701 6.09247145907 6.66976565382 7.05845928749 7.2843972801 7.31284219889 7.19461772181 6.33689251462 6.20458180525 6.0940310231 6.01540621721 5.14843020492 5.08044311672 4.97606225221 4.81978948716 4.60339312831 4.37493457882 4.16329483652 4.023554678 3.99697810591 4.08412105549 4.1847475385 4.28880882687 4.34240213572 4.34801492748 4.32781293844 4.3011645342 4.27184799892 4.25677159455 4.17600349879 4.04388395749 3.87348567894 3.71205131483 3.62502058299 3.64582793486 3.73149703905 3.86581121428 3.98417701159 3.99515310945 4.01829206391 4.12415698273 4.11619266706 4.11984990983 4.14121960951 4.17267539509 4.19734244964 4.19516002199 4.14851712067 3.96443295079 3.83368810285 3.67858606709 3.53310137107 3.43533406519 3.41970987878 3.50805712179 3.69994396405 3.95311886752 4.2253091691 4.48438584912 4.55982059187 4.72670351712 4.85622616043 4.95215716015 5.02097763815 5.97848883466 6.18250442584 6.25184799731 6.31198121035 6.36041502509 6.39009064363 6.39068775883 6.36179431408 6.26466194181 6.11109523189 6.74313051573 6.40709334716 6.03262762803 5.66085793498 5.38099608224 5.16056551332 5.08952436793 5.16660050593 5.38893809856 5.72083263682 5.57086372636 5.89363645036 6.46622716318 6.76063489993 6.99931018248 7.18166135973 6.65046745292 6.75124049832 7.01532058526 7.070690258 7.32920350784 7.3484843237 7.33897347573 7.29216494644 7.19806880089 7.04690866813 6.831145094 6.54790201169 6.20188004106 5.80860960397 5.99134804322 5.41624995391 4.95726829136 4.64050087633 4.6228634964 4.82873213011 5.21857954373 5.7218648638 6.26316217615 6.78376407419 7.25066015011 7.65436161984 8.00129276288 8.30563217414 8.5830627291 8.42128625651 8.67151855323 10.74918734 11.0972842029
25.8711566861 25.6923607845 24.8424373066 24.0381900033 23.2728378766 22.5260542082 21.7611311738 20.1478812358 19.2750207003 18.2261546657 16.9777503205 15.5620482692 14.088862317 12.4877074912 11.6480419421 11.2932498363 11.5211035247 12.310741393 13.5322264435 15.0693527927 16.6254563882 18.0692822462 19.2870886056 20.2216357723 20.8644110809 21.2438208632 21.4125730047 21.4351036679 21.3749726262 20.9861552854 20.8834456776 20.7663747731 20.5940756219 24.5610921305 23.9369380834 22.8759551679 21.3031567156 19.2440666109 16.8672468852 14.4929195355 12.5408826741 11.4154076972 11.5001443619 12.8056176803 15.2455432239 18.3923972628 21.8414800856 25.1841703917 28.1341944791 30.5224693976 32.2840600922 37.042041322 37.8794665466 28.6697034297 28.8079800976 30.8743089525 30.8286265319 30.7504481864 30.6324065709 30.4167084126 30.0006122987 28.3728463745 27.1963646526 25.4781912589 23.1915086266 20.4156308857 17.3641737764 14.3841091544 11.9251149238 10.4191222207 10.0116722162 10.9776644123 12.9238600614 15.4270883673 18.0045675256 20.2465920633 21.8928322414 22.8459387454 24.408784778 24.1987079691 23.6260745866 22.9000171117 18.2614929818 16.7035402119 16.5153573896 16.4024867647 16.275976791 16.0169601192 15.5060969616 14.6525163746 13.3129215016 11.7489915757 8.66424034453 7.41316425442 6.38074503468 5.79781430244 5.80350701063 6.07257425755 6.38395716006 6.89839218228 7.25931425204 7.33396304955 7.25256731562 6.34528412162 6.14661112522 5.95774573114 5.82674203766 5.77064013141 5.0612643723 5.03537886705 4.96807415479 4.83480424941 4.62497376756 4.38843454881 4.16216582851 4.01040226905 3.98235040034 4.07726585965 4.23045781288 4.28514524984 4.31699882703 4.29376376504 4.25275900896 4.22533923101 4.24255823748 4.24021905387 4.20760541577 4.12270649086 3.99354656198 3.8624419412 3.79675467444 3.81555741364 3.90861984415 3.95835665659 4.03988467675 4.07174819625 4.090532726 4.04663540689 4.00938413825 4.0051828374 4.03977920977 4.09842460571 4.15496347657 4.18175865041 4.15654263182 3.98461076965 3.85480183342 3.69388532805 3.53968640693 3.4580938333 3.41616876337 3.51046893705 3.71401986428 3.97984407662 4.26148522729 4.5241532071 4.74712089277 4.75376519313 4.87025265871 4.95016674138 5.18979187937 5.90442003575 6.08325258747 6.14442300012 6.20605029186 6.26401774795 6.30799555359 7.28262436057 7.2602910001 6.20793282269 6.91331102737 6.60683118626 6.21284528416 5.76313399314 5.30841436412 4.94077346955 4.66343879548 4.56685878104 4.66241704496 4.9389611038 5.34794986594 5.34847730143 5.72911919676 6.33519795945 6.6612295951 6.91454384036 7.09860725808 6.58623681873 6.68146022499 6.92943819353 6.98604612064 7.24193133313 7.27508284449 7.28366079872 7.25637559841 7.17995299329 7.04123481089 6.82950796929 6.53919072841 6.17310465096 6.50214142853 5.82589481199 5.1784675191 4.65344472682 4.33028478874 4.30767874811 4.54613787596 4.99460611087 5.56248088981 6.15575271521 6.70563475348 7.17854521147 7.57088748608 7.89748482138 8.18038574102 8.44096963287 8.29224896366 10.1941731304 10.5445231914 10.9089746723
25.3186066599 25.0457491314 24.1543863274 23.3344291848 22.5868009122 21.8960085052 21.2243372466 19.7591807464 19.0049259797 18.057535091 16.8675613547 15.4501719799 13.9167895223 12.4793742478 11.3433724783 10.9492419603 11.193859958 12.0518214857 13.3715736523 14.9991183541 16.6326927929 18.1166593059 19.3290565515 20.2115123316 20.7604396969 21.0147524145 21.0429534919 20.9296781704 20.7608779647 27.4258775261 20.2453718238 20.1952008811 20.1438847318 24.0614664902 23.6717913443 22.8071606718 21.3513414751 19.3056469176 16.8416602832 14.3145633477 12.2038046733 10.9765277515 10.9567307946 12.3681867088 14.9949583831 18.3575347144 21.9957391641 25.4640993426 28.4542715203 30.7895789565 32.4092931305 36.8626117105 37.3887689473 28.2199742087 28.1566789561 29.8971849019 29.7462789295 29.6564618644 29.624470997 29.5776761492 29.380230398 28.0376269409 27.0240005186 25.3706778377 23.0161462993 20.0277708677 16.6395305322 13.2576471211 10.4236236549 8.67186884032 8.33746992295 9.4770300389 11.7578843403 14.6580307267 17.5899478145 20.0667601558 21.7909932555 23.8343311343 23.9566467082 23.4244569242 22.4957170004 21.4484321793 20.533004191 15.6389812292 15.530331531 15.6097657494 15.7563756596 15.8094065484 15.6130046739 15.0546338317 14.9027335271 12.6602048775 9.51960511403 8.41429542167 7.49538158701 6.96646934729 6.94220043654 6.90585063142 6.8992649388 7.2751306647 8.27302190181 7.42024521442 7.19127225975 6.20471669622 5.90007079239 5.62965442507 5.46560838144 5.43848992534 5.5174143993 4.97600603433 4.96847696722 4.88161970706 4.70308338924 4.48642679991 4.2729726377 4.12741379217 4.09973822333 4.17945080949 4.30291180348 4.38167022711 4.29056771642 4.21628012306 4.13930155064 4.10651096085 4.14711473308 4.19940958195 4.23167968907 4.21167194693 4.14170367174 4.07943887929 4.03510136328 4.04090789134 4.09782028353 4.16731306145 4.10564717919 4.08144552797 4.03741715919 3.93727446011 3.86355766067 3.85344510319 3.91107475162 4.00970888418 4.10999495971 4.17602536755 4.18262366758 4.11819606979 3.91824137928 3.76863947574 3.62162858486 3.59499934383 3.55469926619 3.64510391787 3.84117735534 4.09709161625 4.36634142243 4.61330820015 4.81637574585 4.79790586382 5.07047210053 5.12417315241 5.14841840931 5.93585311068 5.94774786982 6.00006961669 6.06708738273 6.14225839223 6.21079080435 7.17100211134 7.18017895345 7.09346934297 6.85385154295 6.52283285199 6.07989926656 5.56082028021 5.02590868705 4.57284058245 4.23780768193 4.11592917319 4.23046837869 4.56247545717 5.0488988646 5.60602742577 5.82091519536 6.25048927984 6.5960808654 6.85005537097 7.02144583881 7.43469965485 7.5068451991 6.82266463128 6.87797177104 7.13084793023 7.18279784875 7.21735130957 7.21968268805 7.1726644403 7.05953326854 6.86654893934 6.58581262927 7.18997805086 6.54230010824 5.83597823535 5.14877156758 4.58414704366 4.24424971736 4.21891604877 4.47872281631 4.96290413412 5.56406441459 6.17336957434 6.71559461017 7.15978329167 7.51079765854 7.79362417715 8.03897503018 8.27369864232 9.60982241309 9.9474648158 10.3119236849 10.6996937295
24.7210087533 23.7169464618 23.3726148867 22.5169867558 21.7757633883 21.1446415784 20.5913061172 20.0487179003 18.7667529879 18.0174493879 17.0012174041 15.7085827913 14.2426256531 12.8262275904 11.7535506421 11.2449105232 11.4987781584 12.3756030457 13.7149232964 15.2855711136 16.9664795655 18.406779519 19.5401557166 20.3054153439 20.700372805 20.7712414004 20.6012360158 20.2974243216 19.9738236372 25.7916866934 25.676363199 19.4399761251 19.5578739913 23.4641169619 23.4361653864 22.9191479446 21.7546641065 19.9186556117 17.577885701 15.1023234582 12.9994136356 11.7664677784 11.9172739643 13.3493828314 16.0007833296 19.3726907739 22.9902802849 26.3885756986 29.2458913201 31.3773475637 32.7208374545 36.7508164932 36.8301853302 36.390324391 35.6454360304 28.6186864133 28.317840333 28.2093291806 28.2996750883 28.500486724 28.6361326538 27.7175003381 27.0203793269 25.5975201229 23.3509449329 20.3347177224 16.7978797775 13.1922265828 10.1297291941 8.22203118873 7.88986986047 9.1374243655 11.6209236167 14.7457161709 17.8483282579 20.3855599148 22.0312601521 23.8268424366 23.579759504 22.5849737844 21.1591871121 19.6586875176 18.4220976451 16.8815386707 14.1998359571 14.5221702432 15.0204887403 15.4734209822 15.6766861883 16.3704424455 15.743305051 14.6960232648 10.5989177657 9.70214869224 8.94366942995 8.48623960029 8.41245810391 8.67585434212 8.28197658635 8.54946329642 8.64446288436 8.46235768435 7.13855343349 6.05279830276 5.61582957306 5.23633747968 5.02198838125 5.02653481756 5.21011564775 5.45439265889 4.97182681478 4.93768146378 4.82502678732 4.65186450265 4.47298691262 4.3460231487 4.31830043088 4.36048562522 4.42182991557 4.42561183411 4.33306958509 4.13923283845 4.00734252771 3.95760207724 4.01766109144 4.13522876027 4.24164386916 4.29271297383 4.31629414221 4.28203788597 4.26928591119 4.26960137374 4.29140289291 4.30661942683 4.17293559737 4.12082180662 3.97495659219 3.81099740368 3.69614873112 3.68312705735 3.7731400267 3.92174186978 4.07287217423 4.18305617571 4.22703040709 4.19617257552 4.01841817053 3.89507501794 3.98245006868 3.85186631435 3.81870210851 3.89781277791 4.06986636909 4.29535256199 4.5316846472 4.74436176601 4.91122917725 5.02919309909 5.08472707256 5.09704333866 5.78870600319 5.77556345946 5.76046422709 5.8042750207 5.88273541181 5.98567560763 6.91931136105 7.05083035685 7.11156503134 7.06346288817 6.84538002921 6.50956731282 6.03731202767 5.46778289255 4.86970844014 4.34840849018 3.96492917316 3.82224414609 3.95299973831 4.3319905355 4.88232124475 5.50273375453 5.77625154767 6.2272544112 6.57191179861 6.80582557876 7.22378235237 7.30173308318 7.33938701066 6.68270526337 6.73376208563 6.98319084485 7.06040582105 7.13080102919 7.17488630131 7.17091346539 7.09834769992 6.94088480154 6.6892316475 7.36214509307 6.74023547225 6.05045406602 5.37178814341 4.80989815478 4.44873615589 4.42481026332 4.68581671005 5.165740535 5.7490749582 6.32068822457 6.8048386129 7.17662327977 7.45135364386 7.66531890504 7.85810210669 9.00766983505 9.30740896214 9.65364843081 10.042863593 10.4652228319
24.0813379185 22.9691051452 22.4815247989 21.5556067548 20.7920506747 20.2058778251 19.7792394442 19.4480012281 19.0993727537 18.016934376 17.3014867635 16.2804594465 15.0367059406 13.7856448128 12.8209255579 12.4120151165 12.4671373998 13.3048735055 14.5734526075 16.050481432 17.6171234634 18.9259667931 19.9056099275 20.4891467913 20.6705450894 20.4981430621 20.0671411805 19.5087892785 18.9722121575 23.7294676261 23.5757767501 23.9007597045 24.5835564847 22.6870475485 23.1505660182 23.1346416652 22.441100301 21.0235933705 19.0381006584 16.8464189293 14.9453389844 13.8219047528 14.4172182515 15.7793992336 18.2796554976 21.4389249406 24.8116883346 27.9338819016 30.4794411899 32.2534812783 33.1847013609 36.6627755997 36.1517199329 55.6738533295 33.7841537119 44.1469054889 26.436505374 26.2911334118 26.5394324386 27.0757834035 27.6749123926 28.0338448159 27.1377857277 26.1410029538 24.2202167935 21.4200395911 28.4902446171 21.2454892429 11.3763723552 9.45846866105 9.1278452843 10.30401446 12.7851649845 15.8770726905 18.8907421609 21.2600584128 23.7228651075 24.0543459296 23.3009238127 21.7108432396 19.6490606132 17.5552099071 15.8793959191 14.3894470822 12.5071124262 13.1281293712 14.0622147959 15.0003007784 15.67411501 16.8081071581 16.6138517988 15.9745250101 11.7664295412 11.0931942094 10.4983811997 10.1049314555 9.96820651133 10.0473410058 9.17057327392 9.19675206802 9.06134546831 8.66332620451 7.98549773396 5.94042657994 5.36128341703 4.85648477074 4.57811147441 4.61167042326 4.9066203485 5.30073105705 5.62018770884 5.02398589342 4.97272317691 4.85263730207 4.71485168036 4.6243497294 4.57536393115 4.56962994227 4.55861499884 4.48241097224 4.31106519019 4.07747578079 3.86750719521 3.8090682902 3.90253012902 4.08253857193 4.25733671402 4.37174256921 4.45795595798 4.46746302452 4.48321195509 4.48059899556 4.47457329595 4.44486562934 4.36240340215 4.14443303782 3.93914546646 3.71724852636 3.56413152998 3.55014601057 3.67323858695 3.86913632678 4.06557432786 4.21437500507 4.29290494331 4.29691085223 4.14475760176 4.4011645725 4.27404817889 4.18063325109 4.15981226684 4.22583001788 4.36581685705 4.54880457278 4.73850452262 4.90312720573 5.02056363802 5.08640509023 5.08803736239 5.04681488573 5.62330103168 5.55303052081 5.50599492059 5.54286546147 5.64133274611 5.78574101055 6.70816286979 6.9183435893 7.0534245663 7.06715407374 6.92503527218 6.58092664598 6.10945130034 5.5222816951 4.89422513457 4.33915355925 3.93215333086 3.77535267141 3.91560779605 4.32095325091 4.90463450817 5.55269027104 5.83229089102 6.27465775635 6.58970807768 6.77666130694 7.12026742003 7.13563600878 7.12115220962 6.49386954002 7.21216332171 6.78363209415 6.89477648243 7.01336682961 7.11351593966 7.16772983059 7.15148185045 7.04654956282 8.07722304757 7.64078470463 7.0859317423 6.4607270333 5.84153568893 5.3279278385 4.94535203091 4.92616933033 5.16310615426 5.59034903659 6.09562762281 6.56843588187 6.9393536567 7.19279249888 7.35623156557 7.47841473235 8.41180417165 8.63317116888 8.92949244816 9.30006571999 9.73134296833 10.2044567424
23.4146562627 22.1593308142 21.4814753479 20.4357510602 19.6013321807 19.0220397197 18.7060581999 18.6027438069 18.5914455719 17.9280655648 17.6292661475 17.0179383234 16.1443206402 15.1977901455 14.4486035393 14.1480878104 14.4356027449 14.728201833 15.8546543423 17.1551539519 19.0629942225 19.6328959099 20.398106075 20.7475238992 20.6657935979 20.1970667685 19.4441209551 18.5630420054 17.7460113521 21.2155670947 20.9823069526 21.5064819615 22.6465699465 24.0699400602 22.7500731809 23.3660448128 23.2934288054 22.4693212866 21.0357521418 19.3275377141 17.7987057315 16.8926398677 18.1498709737 19.3843297924 21.6026118871 24.3754495981 27.3213660124 29.9966480585 32.0799012004 33.3655216961 33.7657290412 36.5707056989 55.6741026554 52.5014361411 48.9196535887 39.5867668638 24.0224100708 23.8072981509 24.2452469237 25.2103577707 26.412216181 27.4616697394 27.3053471261 26.934063771 25.5638847115 38.9171536087 32.8024527067 26.2760387081 20.6036560683 12.4113770818 12.097335685 13.0044269759 15.2620212799 18.0481963387 20.7043357868 23.7042261097 24.7406324016 24.5446946988 23.1878854097 20.9144262789 18.1179768241 15.3174121204 13.0941139839 11.5984801106 11.7780241544 11.535619558 12.9779881572 14.4635488617 16.4353200813 17.2319370013 17.4691343096 17.2248172193 16.6457654974 12.4551471325 12.0008643752 11.6533486198 11.4504110133 11.3606477492 11.3504853065 9.86004206096 9.53012380731 8.95863803106 8.11933982624 7.04971044798 5.25550732612 4.64292955622 4.30586284642 4.35888286156 4.73987605684 5.24843640388 5.68227100973 5.13441213191 5.13810094287 5.06651512265 4.96450475357 4.89665561283 4.8327360505 4.78241356538 4.7100781225 4.5732435267 4.35205974966 4.07915841844 3.85255554863 3.77882509624 3.88789679273 4.10295441633 4.31831308085 4.50904263699 4.60399639467 4.64362115663 4.68125872303 4.67724099523 4.65258163255 4.59289031197 4.4759496911 4.21862885786 3.98118916596 3.72805355139 3.55311162257 3.53746779046 3.67748233661 3.89700431246 4.1157289985 4.28529504409 4.38661860548 4.41878954447 4.7174456887 4.66012461742 4.58695902989 4.5327244048 4.52707589582 4.58218578121 4.6900816316 4.82764779494 4.96521916105 5.07445297708 5.13380211201 5.13758908288 5.07424447369 5.56430790198 5.39923300673 5.25899792478 5.1750784296 5.20786503566 5.33735644684 6.13216007045 6.46168240799 6.77392718627 7.00617692837 7.1050226125 7.03253767074 6.74218625746 6.30787494929 5.74511762726 5.13165739598 4.60546031707 4.19141445256 4.0331310759 4.17303305527 4.574509606 5.14763199203 5.77393868053 5.99519770065 6.39135703078 7.16298963687 7.2639205932 6.99192568343 6.91890103284 6.8322865431 6.83992463233 6.85919299792 6.51648117361 6.6731866789 6.85534630601 7.0280853871 7.15656187686 7.21193286617 8.53828314276 8.34006045929 8.00036546759 7.54441690851 7.01980306341 6.49704043346 6.06322138265 5.65807193535 5.64155985987 5.82969658875 6.16106050619 6.53557894113 6.85620150753 7.06543145256 7.15996874683 7.18189058856 7.87037833596 7.95312841684 8.14596212702 8.45997806798 8.8800723351 9.37778278117 9.9223028873
22.7530813914 21.319112112 20.4010261227 19.1758446057 18.2055839387 17.5728529529 17.3253478781 17.4388072885 17.7917195531 18.1793734135 17.8311856803 17.7320641172 17.3385653168 16.8007423992 16.3511160643 16.2119955254 16.5146059115 16.4468047037 17.4003785702 19.1268867208 20.2392418348 20.4757078472 20.9916712957 21.0770661975 20.7031105675 19.9034559775 18.78242757 17.5192775473 19.6869622827 18.3627628131 18.0015549479 18.7360799589 20.3960532103 22.553417082 22.2419165158 23.5725043555 24.2109904831 24.0849113309 23.3221411711 22.2202758656 21.1734463664 20.5637430613 22.6113638398 23.8611357107 25.7555566484 27.8929899708 30.3089154239 32.4331299046 33.9573440744 34.6669194579 34.4529671967 36.494839974 53.7149303501 48.9279759109 43.7399660874 34.2129665404 31.6857360385 20.7523032761 21.4049821909 22.8904286289 24.830104644 26.7244307933 28.0835404236 27.8938728 27.2632234065 43.4388697375 38.6521935807 33.3035320515 28.5556741454 16.7252988069 16.4425704386 27.2513907107 18.7987625093 21.0725456176 23.1691690523 25.6988988151 26.1464651487 25.3589850845 23.3773865733 20.4206254589 16.8864571789 13.354616625 10.5389830412 8.96867551007 9.2726301505 10.0428670907 12.0132901296 14.044648844 16.4739855168 17.7080669369 18.3234786554 18.4180149315 18.1400909351 17.6507118911 13.3814744995 13.0614932555 12.7969204244 12.5679507758 12.3733766141 12.002113753 10.0708546047 9.39405101568 8.47755810569 7.3457278622 5.42625959019 4.76633410074 4.40116746403 4.45444095139 4.85678646124 5.39742589235 5.87278214899 6.16068393535 5.32654831214 5.28948424772 6.00580378845 5.16249415695 5.08545721606 5.00266161798 4.89102921741 4.72447211056 4.49424426227 4.23138109854 4.02486819217 3.95683994263 4.07814889377 4.31880111447 4.48931122227 4.66434655083 4.77231546383 4.85120195443 4.8752840207 4.86999607559 4.83573894817 4.76297933062 4.63611604027 4.47861449344 4.13656035286 3.89305700671 3.72302198373 3.70300931627 3.83074534289 4.03524639491 4.24205719974 4.40726462808 4.51427108398 4.5627558047 5.04818705502 4.92454506234 4.89751123996 4.87799870492 4.88725096237 4.93446942503 5.01437058093 5.10956635665 5.19588981092 5.24824210749 5.24576949782 5.18149781353 5.04491428134 5.39235672671 5.12367011406 4.90082181978 4.77539840584 4.80800350679 5.3685740502 5.74670920181 6.19350543256 6.62790255694 6.9758171339 7.17868878992 7.19805497557 6.9890752127 6.6270730184 6.13053282091 5.64874878824 5.11878074272 4.74121885295 4.61044571753 4.74326316786 5.0845150754 5.60063182874 6.15340764011 6.74060214391 7.08340967023 7.23573058467 7.20782954474 6.82574505544 6.63751689779 6.45739137426 6.39690737002 6.40482324961 6.17094251013 6.38826552075 6.65244798372 6.91600841508 7.13472817953 7.27514864138 8.72209186681 8.63622506427 8.40905211369 8.06858863125 7.66097305095 7.24862558283 6.9030221749 6.46970817788 6.4465468981 6.56603662528 6.77307028103 6.98328372799 7.11665041586 7.13018057757 7.03527114833 7.47171931965 7.34066198741 7.34602364492 7.53286461824 7.89685547659 8.40043153595 8.99434752508 9.63319516811
22.1493331895 20.5086175844 19.3090559739 17.8463478858 16.6708648159 15.9130963817 15.6741139843 15.9697857837 16.6844994522 17.5782860787 18.3692204586 18.2823958204 18.4262653613 18.3536083189 18.2549728012 18.3209417017 18.6728109548 19.5320648162 19.0530215168 20.6770418414 21.5252361762 22.1260074831 21.6758058297 21.4966993836 20.8318735882 19.6997102689 18.1992170229 16.5275860087 17.3025163111 15.5091795873 14.9824189186 15.9268622355 18.1332819551 21.0537702066 24.0227531017 23.8127738671 25.1733146752 25.7643479904 25.7011599325 25.2416651611 24.716771827 27.183007181 27.513596505 28.5095219113 30.0765788782 49.0409941615 33.568855027 35.1116024376 36.0435647807 36.144910816 38.511918453 57.0923977187 51.8685438584 45.3296993363 38.3338518437 32.0453366744 24.9219529383 23.8737191047 18.1936107749 20.274278609 23.0571398308 25.9056623087 46.8471353335 49.771115938 50.2238018154 48.6214497753 45.421894977 41.4986305012 37.8717646707 35.4743918691 34.2449723471 36.9408702224 40.151568166 25.7955929046 27.2770376297 28.1314380774 27.9590125178 26.6007283833 24.0681998495 20.5465730287 16.4170899136 12.2882340604 8.97191521814 7.27277406983 7.66845034048 9.80932336609 11.9481399837 14.5778721494 16.7946951989 18.3414454326 19.2287212883 19.57160129 19.5156063233 19.2023149883 14.6309779738 14.3221843429 14.0025320848 13.6647184995 13.3316897102 12.8276758227 12.1682198587 9.98431250347 9.08621494152 8.01201515165 6.86646216219 5.30633456001 4.94975061701 4.97522765333 5.31809520565 5.79427351286 6.22754087578 6.50521086897 6.63815324104 6.48798141081 6.40640645337 5.42842226039 5.34265868211 5.24163633054 5.11314018505 4.94495487361 4.7382076631 4.54107423114 4.37086349048 4.32213590717 4.41983013464 4.61267260798 4.7256710647 4.87601175719 4.97163890667 5.05092520187 5.07345758605 5.06595521564 5.02955489272 4.95892078291 4.88904978098 4.72022705538 4.50559073432 4.20256317508 4.05999432198 4.03263653483 4.12219071866 4.27778722636 4.44266232352 4.58091101777 4.67718055336 5.22557797263 5.28931612856 5.18916486748 5.19723755701 5.2050491186 5.22677380746 5.26835977481 5.32541889305 5.38408100081 5.4240635223 6.01289771917 5.92124118049 5.73132478003 5.42088947681 5.21202058615 4.83030568415 4.51607409543 4.44951715937 4.38284439519 4.87462021585 5.3625422139 5.9397650954 6.50644778163 6.97847963903 7.2949244246 7.41969293005 7.31151843065 7.04801579957 6.64938563159 6.28124465084 5.83596836216 5.51759330532 5.41740276976 5.52929073618 5.84246450151 6.27847121064 6.73206270458 7.11775387976 7.31833903644 7.32085898643 7.13635790048 6.62033110366 6.29236837206 5.99793332524 5.85566621173 5.85227055118 5.75092865219 6.04650299781 6.4127116289 6.7849846038 7.10765597865 8.72838970116 8.91838821603 8.95049713128 8.83948984698 8.61583887141 8.32322909248 8.01502008601 7.74704681549 7.27753255225 7.23478812529 7.27324681425 7.3441479682 7.37762805099 7.30922167586 7.10958098581 7.34463374482 6.94446929124 6.65855206643 6.59998488363 6.81208094706 7.26579644906 7.89085146554 8.61094435536 9.36441262601
21.6766089128 19.8189862884 18.0019189789 16.5833166873 15.1502170858 14.2064407739 13.9173078868 14.3499094885 15.3990709676 16.785836775 18.1609491842 18.6490119869 19.3324565227 19.7330294868 20.0018332674 20.2996207117 20.736867418 21.5939179137 22.348658854 22.2560324404 22.8685704652 23.2237345243 22.46157549 22.0492998968 21.1323816422 19.7127001714 17.8784136549 15.8360389626 15.494511037 13.2556807113 12.5626809583 13.6960000325 16.4018852754 20.0069852393 23.7280278214 26.9445493791 26.262079858 27.5064897569 28.0920639695 28.2379934526 28.2158606439 31.6723755924 32.1889073443 33.1252435034 34.4221812987 55.7206523804 58.566572035 60.7880616615 38.316299192 37.8361824099 62.0849767477 57.3584821766 50.6320104852 42.3908356958 33.5742516799 25.575883621 18.5142143283 17.0838153942 15.0762979151 17.7802791215 21.4371846331 25.2575483828 47.0851317606 51.8419344148 54.0717408898 54.1776887291 52.6101090727 50.1509142488 47.6680392788 45.927390657 44.5323749647 47.1668633241 49.4599065688 29.9830437239 55.3941486417 30.9674257992 30.226792319 28.3948668798 25.4688734981 21.6081490137 17.1694495988 12.7535319868 9.19863552292 7.3655763002 7.79343989114 10.101007427 12.4059948294 15.2101619619 17.5587366819 19.2203702458 20.2308102217 20.7107143119 20.791335079 20.5886998821 20.1965147184 15.4529311977 15.0810459021 14.7221784795 14.2167324874 13.6302189378 12.9381002683 10.6908752864 9.89042036224 8.96837928709 8.00197645351 7.1626807095 5.86685952172 5.83768253002 6.06292041371 6.40779801074 6.73826099765 6.95480974871 7.06578747019 6.90166922715 6.82306110779 5.70365848145 5.61322114122 5.50536423626 5.37605989007 5.22313007177 5.05424050978 4.92113407546 4.80683526134 4.78123491767 4.85332102424 4.9872669212 5.12892641533 5.13217438681 5.19721361615 5.26332800935 5.27644948988 5.26532784457 5.23157531768 5.17335246801 5.13288491304 5.0121322915 4.86386961118 4.5986202483 4.4917136953 4.45479215929 4.49535491481 4.58749197122 4.69618726837 4.79513921962 4.87003464873 5.46229277499 5.54021675052 5.5905101153 5.48580696273 5.51343388866 5.54458763382 5.58213649864 5.62150432968 5.65069742918 6.30291595166 6.23205800948 6.07048973542 5.80076906652 5.40133682561 5.07630152112 4.58595981509 4.25209912814 4.00884538962 4.07408348131 4.46232981134 5.05932124311 5.76196352897 6.45331761052 7.04228398187 7.46845766091 7.70006701019 7.70015914997 7.5478425267 7.26327637701 7.02690235118 6.68081290911 6.43068202103 6.36309379271 6.4464448533 6.6811194779 6.99979845155 7.31173547804 7.54269821634 7.58159774504 7.41838103741 7.06309054342 6.39863847877 5.91452404741 5.48999044592 5.25563711253 5.24181351103 5.28943459864 5.67974137156 6.16478818217 6.65850988404 8.33655286796 8.81878864279 9.13193561303 9.27763193433 9.27581028401 9.15879612031 8.96718185641 8.74554912003 8.14130707332 8.0243847325 7.95166008292 7.90597915464 7.84397942149 7.70691934224 7.44177224748 7.60045523838 6.96349919226 6.33322132277 5.89204113582 5.78592059941 6.05524515906 6.63560553078 7.41319514384 8.27967079371 9.15749954506
23.1447977655 20.7365730603 17.3132813697 15.585191836 13.8851483939 12.732726557 12.3598214821 12.8873886154 14.2208540409 16.0416135002 17.9360555937 19.5746810766 20.1116588874 20.9472619149 21.5640500817 22.096061479 22.6422889516 23.5334185748 24.182901341 24.7819088729 24.2499752374 24.4078642242 24.1866875471 28.9444718751 21.6982354152 20.0871610097 18.0336342007 15.7437460365 14.8890381149 12.3540530566 11.5518016191 12.8205033507 15.8713470163 19.9405349651 24.1722496653 27.9236433933 30.8608804659 29.3930341428 30.5174142319 31.1808508755 31.6007841482 35.9315693464 36.6395649292 37.5606158812 59.8206797107 62.2002884724 64.3052403366 65.6973666884 65.9212826874 64.4602482683 64.3672165049 58.5818693618 50.6569204292 41.0364000667 30.7001766337 21.2252935749 14.5648386105 12.1751586052 14.7738327472 16.0935014695 20.5245257583 39.8736759457 48.2316372685 54.5695239292 58.3780774927 60.0366060968 59.9696657935 58.8577017542 57.4233915536 56.2860393371 79.4695352141 57.3965778602 58.9135390267 61.8223238493 62.714606233 62.3462234003 33.008614694 30.8446405624 27.7222437577 23.7924550105 19.3906664372 15.0790473191 11.6368342988 9.7090887062 10.0874506646 12.2305004259 14.0442997748 16.639456122 18.805903752 20.3502365248 21.322975854 21.8312254368 21.9744944903 21.8314134108 21.463362722 16.4745131424 16.0461452667 15.5971462542 15.0034927687 14.3552720997 13.6589982637 12.9137960728 10.7621969552 10.0394166501 9.29339394679 8.23561671614 6.97263557596 6.87546928453 6.96599677582 7.15956111004 7.36350187839 7.49197125944 7.55468187321 7.57715376098 7.26443385023 5.99437951032 5.90140705277 5.79307670483 5.67042227628 5.53712331535 5.43925264503 5.32324426033 5.25161098432 5.24231527754 5.29195152557 5.37337739812 5.45353221244 5.56152189167 5.43251165399 5.47829447432 5.4779281879 5.46215796781 5.43277772857 5.39066730505 5.38186220014 5.311649407 5.22892031024 5.13950760843 4.93570403298 4.88845380003 4.88376860196 4.91723618467 5.12578722333 5.19767278851 5.25868808806 5.71301407702 5.79718719656 6.35812331925 5.76536627331 5.80678632265 5.84491999936 5.88003669548 5.90693528919 6.63281008424 6.58816996602 6.47117678106 6.25732260952 6.58011678986 6.02275908987 5.05506378817 4.64746556432 4.06917184067 3.76897958292 3.83011826603 4.25903528837 4.93977195389 5.73702744318 6.52282466988 7.20339074413 7.72090691012 8.04809588448 8.15146753776 8.1093063293 8.08172793443 7.83444015881 7.58641080166 7.40190968718 7.36277629722 7.41283900101 7.56419583195 7.76066572993 7.92634387194 7.99874396437 7.87567820845 7.54970737047 7.02878498894 6.21656016056 5.57706332643 5.01998208003 4.69240996862 4.66946882461 5.08149475196 5.35496198236 5.96355899598 7.57211621072 8.3463012382 8.95483770047 9.3775172891 9.62252334635 9.71448167194 9.68677339076 9.5766340581 9.4209497828 8.80493693279 8.69617288968 8.58992968227 8.46719212336 8.28905194334 8.00468766535 8.23748583998 7.50309483683 6.62988167352 5.78403516459 5.19815577405 5.05906248936 5.40456941748 6.12748133728 7.06411115449 8.07343957728 9.06520936442
23.1862963866 20.611371474 18.0032751518 15.0823216708 13.1686008473 11.8441325677 11.3954313689 11.9862391041 13.5282512734 15.6713237929 17.9561839719 20.0138967144 21.6685750314 22.0882262667 22.9994447492 23.7411765039 24.3999990839 25.3486871131 25.9376917146 26.4206908512 26.713440508 25.6938886062 25.3475866008 30.2934711035 28.5240254237 20.9400802645 18.8377530123 16.4975613855 15.9819882555 13.4147912196 12.6137592286 13.9335148339 17.0790109068 21.2744899553 25.6703106974 29.6472363332 32.8929480521 35.3407129476 33.0490242312 34.1134638223 39.0659836126 39.959792978 40.8469014776 41.7852574749 59.6223078026 68.4266779314 69.9797619126 70.7461571442 70.3260454128 68.2238151989 67.6185079858 61.1896265752 52.5847321321 42.201189473 31.0127080181 20.6836487191 13.3661805731 10.9715885263 13.8358823627 20.8998565647 31.0600411463 41.507537717 50.9225785846 58.3779788439 63.3948531709 66.3056467063 67.4868263173 67.5094357264 66.9617823055 66.338870134 94.2407460129 94.8430167846 69.8875935831 70.5290058434 70.4717906839 69.2481359416 66.4913339132 33.993702176 30.853821915 27.0817263885 22.9940565493 19.0907938618 16.0255111037 14.021106959 14.2427785808 15.8965152564 18.8488341021 21.3188882599 20.3790191017 21.603935692 22.4120291749 22.8757883238 23.0422025405 22.9366573742 22.5782383415 21.9895332767 17.065617625 16.3531433035 15.6558374794 14.927710253 14.2094462903 13.5309252893 11.5321897768 11.0138053633 10.4886582055 9.55014550389 9.23563091343 7.93445544704 7.90746603209 7.96652397501 8.17699368596 8.08775583088 8.09137431377 8.08710915295 7.98885897266 6.30295200208 6.20761183812 6.10043045565 5.98450455571 5.86566223582 5.79349948704 5.7024671397 5.64909919306 5.63992660972 5.66599081878 5.70550324861 5.77514092328 5.80465693562 5.8224281562 5.68017181493 5.6677164753 5.6476405415 5.62164211893 5.63906068688 5.60674096292 5.57571762188 5.54298245987 5.50181807351 5.45191115078 5.40094231856 5.37560504873 5.38080947095 5.41039834092 5.45154548752 5.49180369029 5.96830054604 6.57432399478 6.67718672953 6.76139610646 6.08904711441 6.1328673661 6.16764234007 6.97202129667 6.9567716189 6.88783608921 6.74355761305 6.50126932919 6.83026377755 6.24094343925 5.53460768591 4.79296017318 4.18154124075 3.86292410314 3.92616955945 4.38137765856 5.09600158801 5.93337617219 6.76413945048 7.49635593275 8.07538391861 8.47683906354 9.30262694479 8.72484816868 8.8158216382 8.67212067325 8.51106175771 8.38280534985 8.36516697752 8.3802327254 8.45160116526 8.53325615555 8.56308093512 8.48962633416 8.22201823797 7.75570694235 7.09676211051 6.15772503638 5.3903134868 4.7220644241 4.3174436102 4.28750648103 4.71668332093 5.17191987154 5.88591363315 7.57703417531 8.46553044297 9.16981950128 9.67545198391 9.99635946947 10.1604055487 10.2008471556 10.1513853117 10.0425166828 9.41056633126 9.30368931844 9.16809248051 8.98471752741 8.71896940313 9.12951174961 8.45152296631 7.55801563027 6.51521299763 5.50873019344 4.81218634741 4.65101950267 5.06291950645 5.90209229894 6.96116466523 8.07349976435 9.14158946408
23.6678227944 21.0238141753 18.3252190255 15.7287535454 13.4853518569 11.8654831326 11.3887132109 12.0186069857 13.667564704 15.9740992734 18.4674632666 20.7688615416 22.6872034995 23.2685184977 24.3938719325 25.2979360426 26.053524986 27.0683572036 27.6304852482 28.0463348924 29.030366657 33.6372361693 26.6987329046 29.9023005101 30.3169923815 27.9291837561 20.3536835717 18.184668575 18.891358563 16.5897923413 15.9193619048 17.2014948831 20.1713517489 24.1336318628 28.3305739624 32.2118078253 35.4964276797 38.1131057535 40.1184378194 41.5033590664 42.6580825322 43.8082501201 44.852150654 53.0265548774 65.357545287 74.4268751791 75.6203354516 75.981214375 75.1689401143 76.9396182158 72.5261178097 65.4591226438 56.8276470709 46.4936767652 35.3823545681 25.117071526 17.8392521715 14.9479407168 17.9993013354 24.8843078728 35.5664650919 46.3074117884 56.1331580343 64.1635161812 95.200930968 101.536625442 75.2755978266 76.1742853079 76.3223384315 108.050195938 108.4329383 108.745945759 108.645176566 79.4125012292 78.6673672884 76.8488098314 73.7091495611 69.1430871789 63.2382349278 31.2802143373 27.6231205359 24.2229561242 21.5768516229 19.4204671763 19.3319322512 20.8773166181 22.3435533072 23.7795236673 35.2901561044 22.7095283268 23.3082436358 23.7276313566 23.9385680021 23.8946970646 23.5615182923 22.9304133006 17.8250077602 16.9898366756 16.1444720955 15.2768284153 14.4677413466 13.7900848891 13.2780651531 11.6983500881 10.9002953962 10.6330406074 10.4026175995 10.2549243586 8.80353187053 8.7647599642 8.89607243582 8.89222094384 8.85693354547 8.62327711972 8.49767759433 8.33260901203 6.53052336829 6.42320432697 7.59669519472 7.33474404852 6.12811676185 6.03521436737 5.96990392465 5.93582229981 5.92691467618 5.92982747107 5.96424322821 5.97431422153 5.98443075282 5.85323785556 5.83657479129 5.93976008101 5.90348996138 5.80793836105 5.78429901191 5.77005605076 5.76206531399 5.74860898058 5.71879886372 5.6816659368 5.65494137785 5.64980937799 5.66516944448 5.69235847479 5.72139691378 6.22052899388 6.87663525669 6.98858572325 7.08315344254 7.16076349318 6.41231993361 7.292155553 7.30879838757 7.28561115755 7.20748242439 7.05611977469 7.36673491964 7.20142537846 6.63850450957 5.96726357312 5.26155925241 4.67766917303 4.37014826703 4.53978333887 4.8806753162 5.56966555209 6.38430040405 7.20423244016 7.94320551059 8.54934689046 9.64389927369 9.94564097346 9.39509813103 9.58496911418 9.52756949988 9.43798977863 9.35428830693 9.35116822616 9.33238281266 9.3324958543 9.3145191257 9.25259859162 9.03383067928 8.65244257974 8.08404974531 7.10871514636 6.30999577221 5.4711083174 5.1293668647 4.29813848817 4.265197078 4.72917317883 5.56313585271 6.72003329997 7.79668801089 8.74095036831 9.49339992785 10.0442908833 10.410701133 10.6211559132 10.7071055979 10.6983611593 10.620139397 9.97128337231 9.86522418061 9.71011933301 9.4887758563 10.1124750392 9.57033155659 8.82910494575 7.87605481563 6.77473673945 5.71087891981 4.97033137877 4.79654873 5.23018003939 6.10880918938 7.20562539888 8.34406412508 9.42557437284
24.6269272791 22.0318656038 19.3851428231 16.8433901046 14.6561967589 13.1535556485 12.5360496156 13.1819595156 14.8226759463 17.1135486181 19.6126861675 21.9631706089 23.9759259761 25.6088632659 25.8182530305 26.8237871935 27.6470369566 28.7247632357 29.2823728681 29.6708921939 30.6834223031 35.6010068491 35.0707036185 31.8468718153 32.5952365004 30.5521943835 28.0370183914 20.6951348231 23.2887467724 21.4812572528 21.0448083549 22.2305083464 24.8281143898 28.2878452037 32.005463722 35.5338536259 38.6336924836 41.2276860116 43.3370724042 44.9063597039 46.188834585 47.53253011 56.5546518188 57.5802139366 70.8810263194 71.7754686311 81.2633021792 102.262645977 100.603295056 97.1502873844 78.0802840117 71.4084260468 63.398392305 53.9265933975 43.8349758892 34.5798932141 28.0713253568 26.0498600829 27.1936809384 34.1370770114 43.5438043442 53.640574155 63.0658382089 95.0895536566 104.492216809 111.570042762 116.595466438 119.985207192 122.190998192 121.613559887 122.199822915 124.088465231 123.456267032 88.5134344861 87.3059937462 85.1071376663 81.767812879 77.2572323045 71.7040807355 65.4261814302 32.8364013274 29.8225336036 27.4150129019 24.922528689 24.3036211154 25.0425427058 25.2954866858 25.5710392642 36.2745683765 37.394951252 38.8535360099 24.2244440377 24.5865483687 24.6898196573 24.4369174682 23.7861034414 22.7836708246 17.5304428019 16.4738915769 15.3758612709 14.3648102468 13.577548267 13.1074117482 12.9425630276 11.4816914918 11.3920202961 11.2912124995 11.2042860043 11.1492067351 11.0407626589 9.59554373162 9.53427465396 9.45164244444 9.17467846682 9.02023661534 8.8329788299 8.57185473992 8.31559587986 8.04175764443 7.75514663434 6.44148757503 6.32113184895 6.21308666645 6.12360554711 6.05789193762 6.03624777687 6.02843966258 6.04909817802 6.08323749741 6.11247689535 6.10450355538 6.08482683533 6.04505942648 5.9418389898 5.9059282388 5.87998244538 5.86716276218 5.86198566415 5.85517796856 5.84790388234 5.84801518701 5.86115004738 5.88577969568 5.91556980747 6.40572530792 7.03455177484 7.17038961405 7.29005696175 7.39288500107 7.4780378358 8.42792123128 8.47818215093 7.64142521657 7.61960009772 8.24946996286 8.05705707304 7.7745416479 8.24119665402 7.6686289163 6.61927667829 6.01482553043 5.51263606735 5.24368474184 5.5297102398 5.94590876193 6.33392131431 7.07581687209 7.83940273984 9.16462912082 9.81948628973 10.3228554577 10.6708183089 11.0556709818 10.3914262798 10.4015112051 10.3673593426 10.3170018615 13.7441004782 13.7338373233 10.2142511245 10.1157545985 13.5060084141 9.65364847619 9.19616696454 8.57212625422 7.54209517068 6.7326916412 5.89599000348 5.84269690834 4.89385339578 4.71394486062 5.22692132762 6.0534251709 7.21475509088 8.27001039257 9.19671812103 9.94040207115 10.4932876357 10.8717677353 11.1017987005 11.2110515603 11.2248855761 11.163987861 10.4993075365 10.3957733401 10.2330477424 11.0579534717 10.6586002193 10.1157706118 9.39734964892 8.49513319164 7.46554052076 6.4730508243 5.776102854 5.60156368741 5.99390997698 6.80746683599 7.83222760699 8.90228373938 9.92378792925
26.0444304471 23.6130938222 21.156218124 18.8242355839 16.8483607456 15.5237668105 15.1337206518 15.4207055397 16.9477042498 19.0629124118 21.3865738056 23.6094336385 25.5595292354 27.1861257824 28.5101858465 28.3501144716 29.207467962 30.3385093047 30.905626312 31.297492981 32.3812311147 37.6695265908 37.2452303554 36.3817073883 41.8782551054 33.6442548013 31.723656248 29.6827723587 28.5547951081 27.3405401628 27.185934668 28.257972038 30.4047212026 33.2405115219 36.33720054 39.3681802719 42.1452971094 44.5897473226 54.6693684423 56.766516116 49.7364617246 55.9708565594 60.9058495835 61.9831633695 76.244326659 77.0918078983 109.472350556 109.22284052 107.617905688 104.412759263 105.149166585 98.0522705087 89.0906325331 63.8767120537 55.4956224066 47.9355573628 42.7232791363 41.2277064953 40.4289427102 46.4540892006 54.5898496943 63.4565741346 71.9472405232 105.863390927 115.090974549 122.444671153 128.039766737 132.12066182 134.97654309 134.958747361 137.369577433 137.430105627 136.427031724 134.531275119 96.3773319116 93.9533027577 90.5229990072 86.1044317175 80.8391283677 75.0054134883 69.0055837367 35.4076975732 56.804736637 52.8558689865 29.2765084794 28.0526024078 26.9391214835 35.4935294586 35.0121066867 35.5829486226 37.2342445343 39.5508149427 24.9171359109 25.3194502698 25.2431863633 24.6800023253 23.4805403053 21.8165584275 16.7117370418 15.2917381799 13.958747483 12.9368175201 12.4193563229 12.4392451967 11.698306498 11.8312387911 11.9154122691 11.9473116185 13.9355802205 12.0607479214 10.2580557141 10.1607380158 10.0428312229 9.73079921395 9.54882232294 9.33905751541 9.05808191775 8.78339765092 8.48816843963 8.17098682713 6.74931324582 6.58385382736 6.41022152489 6.24018286755 6.09608178841 6.0143883302 5.99839720721 6.05310251962 6.13688719082 6.2087478577 6.22921856234 6.2189644018 6.17318270291 6.05163209918 5.98640795199 5.92549268601 5.88435408299 5.87392502835 5.89311105216 5.93175329966 5.98008683512 6.03190629835 6.08219138124 6.12604755108 6.65300714827 7.3098930391 7.45236583147 7.57888294317 7.68908678913 8.68774757325 8.77949449101 8.83381597821 8.84477909777 8.7317982704 8.62364274913 8.45416666293 9.16315884111 8.81090764435 8.36902684621 7.85679486085 6.94287160058 6.55794960595 6.34932793044 6.77937960298 7.12890287622 7.30940008014 7.95599127499 9.27437159659 9.98684975979 10.607487916 11.1083153305 60.7260680964 62.6176239589 12.0504322307 11.301094364 11.3079021211 15.1376803806 15.1380137159 15.1024736183 15.0121756351 14.9840526709 14.6402021315 10.6721124319 10.1655728844 9.23422731736 8.19191985275 7.43361474953 8.2946267432 7.2169008313 6.02562486807 6.00493587877 6.19612372617 7.08384936106 8.03444555997 8.98329198058 9.82248144126 10.5034714267 11.0175644467 11.3768154002 11.6016716159 11.7142679266 11.7349484492 11.6803100858 11.0017352012 11.9374934501 11.8952969536 11.6125198837 11.2349550304 10.7421498343 10.115118394 9.35228215484 8.49981316574 7.68495917342 7.10742827838 6.94760167959 7.25138568943 7.91590450931 8.77848106385 9.70188927899 10.6023292875
27.8449158844 25.6653657886 23.5004692217 21.4878164075 19.8262702107 18.7555356577 18.4914411072 19.1278106477 19.7925482075 21.6223820927 23.6436807566 25.6098372859 27.3773999764 28.8951842652 30.1679495336 31.2225465566 30.7376215176 31.9121406955 32.4985843759 32.9169567945 34.1030583867 39.7965277392 39.5283197926 38.9019366754 45.3193137241 43.8105217164 35.6462964849 34.3012798199 34.0176221847 33.3676203716 33.4797550424 34.4444527693 36.1585412277 38.3831128449 40.8548249176 43.3661415148 45.7842778618 56.0803217864 58.524095109 60.6684511959 62.5055058627 63.6687868523 65.1173885191 66.2659173979 81.4755120384 115.455685228 116.396511171 116.286648007 114.943844722 112.208922939 130.133978195 108.198258915 100.984848705 92.8445131982 68.9046907693 63.3122362442 59.603380901 58.7350857466 55.8392809832 60.8341981972 67.484777627 74.8898277343 101.158127679 109.30775739 126.660794011 133.995819213 139.879815416 144.403506784 147.715688681 149.968184694 150.652612083 150.639403368 149.391241056 147.155118627 105.857235146 103.307750929 99.8338636621 95.475913395 90.3613549611 84.7037569934 78.7766870691 72.854091065 65.4816263429 60.0277664847 54.5543949544 29.6221095484 26.9225448118 32.7282713285 30.9165641636 31.2824954291 33.7241456447 37.374085494 41.1149241767 44.018530893 45.3358594176 44.966931497 24.2806410863 35.2065940981 18.5839029643 15.2218933367 13.5031433965 12.1689922915 11.5383731751 11.713132354 11.6781232232 12.0635550444 12.3649096638 14.3900986731 14.7322107324 14.929123303 13.4161306786 13.4127433604 10.6204805463 10.2823641658 10.0754389351 9.84451260625 9.54583063637 9.25592773166 8.94400095279 8.60245595803 8.22049984766 6.86667516214 6.62184984159 6.36565134411 6.15393653597 6.00333428949 5.98031184033 6.06799375642 6.19911052922 6.31158493485 6.35849704545 6.35716846818 6.30491140427 6.16123053797 6.06394646708 5.96435423984 5.89063124051 5.87852633643 5.98738071192 5.99840198312 6.09838662654 6.193622117 6.27393666091 6.85842242209 6.9623043272 7.57123940109 7.71841402726 8.70882012329 8.87321429157 9.00897316554 9.1094075862 9.1681931575 9.18049806736 9.07561062953 8.97661956461 9.80738747961 9.60195557836 9.34999808303 9.05181145333 8.71679911998 8.37803362435 7.65513899628 7.52591590252 8.11411712633 8.41790335003 9.02555665003 9.63631114051 10.292233319 10.931188224 11.5072632193 63.4399359333 66.3981817491 68.488605009 13.0059987406 69.5393966936 69.2062526115 68.3861942512 16.5253341132 16.4737767627 16.3447237588 16.2586125794 15.8603361863 15.2986327313 10.9860922299 10.3599789754 9.63722218011 8.80412033006 9.95449266956 9.06518631269 8.54012651741 7.55578959782 8.02262239557 8.308734607 9.08805363312 9.87178193164 10.5740600431 11.1531620967 11.5978294834 11.9135722829 12.1135478408 12.2133352102 12.22798877 12.760386111 12.6219204145 12.4245905831 12.4074119252 12.1424600862 11.8043314784 11.3867066149 10.8845434629 10.3028819158 9.67537073649 9.08596962078 8.66574914367 8.53836651301 8.74706023632 9.23695220202 9.90288809131 10.6450662499 13.6940379782
29.9118920889 28.0305705209 26.2055298878 24.5557206238 23.2399114887 22.435269908 22.2874322487 22.8448937603 24.0186164042 24.4872746915 26.1443942253 27.784852642 29.300402207 30.6469038582 31.818908136 32.8260292454 32.2166611512 33.4300452861 34.0457068609 35.5377833227 35.8175816293 35.8997977169 41.835603428 41.4576870695 48.7343227523 47.7678509804 46.62805208 45.4995644937 44.2902048629 38.9118055182 39.2168795817 40.0729541453 41.4163076453 43.1243247877 45.0686359542 47.1432437637 57.2165274633 59.7700184572 62.1916415168 64.406017905 66.359206636 73.4151791084 69.1967975801 70.4388160915 96.3802156122 122.003867097 123.155466634 123.314422201 122.358643501 145.024773264 140.571940813 134.74086636 113.063867817 107.027069103 101.119658231 96.1821241005 76.4123552986 76.1603079915 78.2140976821 93.1009673492 80.8244762562 106.601618414 114.191718661 121.308288195 138.709299806 145.934671768 151.978374768 156.806527834 160.455570849 209.676538454 166.089138679 163.793769407 162.386847223 159.91947692 156.351739313 113.09894223 109.590328869 105.232214765 100.120882284 94.3948906958 88.2018442444 81.6423732919 73.0535102221 83.2071524521 58.3799348059 30.0603661775 25.5103123886 27.5257359043 24.3038440059 24.7937501686 28.6649267824 34.3337386292 40.0147535117 44.4270317645 46.7485607417 46.8793921707 44.7837366324 36.8176342022 19.1707761417 16.6713623752 14.1307095844 12.0675797319 11.0652064633 11.3302418936 12.3063341642 13.4468653089 14.3234655879 15.0237241948 15.4565298183 15.6900609321 14.1239990237 14.1144860336 14.0293910053 13.6287138233 13.3682225316 13.0105644403 12.596907619 9.73094689335 9.41413948503 9.0660638237 8.66879550679 7.22033456316 6.91848634024 6.5937154693 6.32852511007 6.13729947928 6.09896900602 6.18978661414 6.33311508994 6.45892727931 6.51537102877 6.51656524987 6.45910171385 6.29774708692 6.18165062842 6.06131199269 6.08694794747 6.03874122904 6.15696145261 6.3945549223 6.25266267862 6.37922548165 6.48128141287 7.10319956773 7.20522926578 7.81138351847 8.76924390616 8.97136142216 9.15344496064 9.30519620533 9.41614830357 9.47795610179 9.4862781662 9.43489441906 10.2442155363 10.0943417836 9.92905337521 9.76224964586 9.59865144214 9.43838518403 9.28995420852 8.66319808721 8.63629939171 9.39048979674 9.69154930158 10.3204762271 10.858508315 11.4410319362 11.9631271272 65.7364892655 69.4350889827 72.4138097254 74.6194176607 76.0636566585 75.967527631 75.7740570898 74.9207345132 17.924456631 17.8653179969 17.8866523907 17.5888548146 17.1644277508 16.597207902 15.8808404554 11.3359029208 10.6979729698 12.7039344884 11.8265460638 11.1238693391 10.7111330028 11.7515793916 12.1310927666 9.65895369682 10.2443201329 10.8407170434 11.3857624248 11.8450143966 12.2044280991 12.4625211236 12.6248614826 12.7004738267 12.6993739641 13.2119664437 13.0662411557 12.8648222888 12.8687342945 12.6181938632 12.3153028913 11.9673367239 11.5829116775 11.1733846021 10.7603345244 10.3883410344 10.128340654 10.0536997445 10.2003964491 10.5490771675 12.16365868 13.8636984384 14.7282294945
32.1117599639 30.5309569152 29.0385002577 27.731192336 26.7269548916 26.14528447 26.0722831167 26.5219950892 27.4188919418 28.6203878948 29.9689020877 29.9131626039 31.1576778895 32.3142310805 33.3720950048 34.3264604091 35.1703846285 34.8624807417 35.5210623752 37.1268169289 37.4880072881 37.6779117585 44.0851966373 43.9394402701 43.5817648112 51.3996192365 50.7238082406 50.0537198484 49.2349146063 48.9884903092 43.9029547339 44.6137797885 45.6429174729 46.9594582354 55.7043081187 57.9496195609 60.4230316691 62.9921349513 65.5215581703 67.8930340202 75.107488648 77.2837911576 103.984888583 100.107580263 101.576253116 128.197938547 129.637155864 130.138013264 129.617489168 154.202270905 150.611917481 145.911068496 124.262747584 119.828415388 115.680207467 112.428647771 110.670039827 110.724859617 112.799873329 109.058105506 113.928994574 120.170792577 126.761434255 133.176032975 150.702631559 157.924633332 164.147837808 169.250290449 222.09198717 225.213806961 226.797741738 226.633721242 175.420015207 172.790611738 169.033063891 164.151280351 119.721525032 115.304434095 110.082150765 104.125313425 97.4775303962 90.1034424034 100.910994212 89.2347950793 75.6241004449 48.4487715857 30.1064988879 21.7122297489 17.0174359969 17.8339633973 23.518420428 31.553712091 39.3767296958 46.9747785764 50.683825358 51.5955095792 47.5955317255 39.4251449189 20.3053936622 17.6643657768 14.9853847988 12.8141101524 11.7596948974 12.1162673047 12.8352686423 14.0209795379 14.9988187375 15.7205451668 16.1437347679 16.3578758421 14.7515515927 14.7392138046 14.6496265213 14.3145211281 13.9693756991 13.5844087615 13.1415707526 12.0474553265 9.89288011483 9.56310390901 9.18550804047 7.81126525344 7.46942748992 6.98672409844 6.70027328107 6.47887949529 6.40749116991 6.46103423225 7.44991806854 7.76356273603 7.9678075119 6.71164947089 6.65045622134 6.91958171884 6.78931524532 6.58244429333 6.4285347283 6.39440379576 6.50489073161 6.72161460874 6.97273748522 7.20034364042 7.22350097172 7.34507693083 8.07941872863 8.23676404138 8.96289582754 9.18985710805 9.40007028329 9.57557495285 9.70011575739 9.76185362665 9.75576233084 9.6777890658 10.4179510852 10.235715772 10.0691229827 9.95212025589 9.89972778837 9.90531836199 9.95304602844 10.0365429171 10.2561131216 10.5205809804 10.8740992093 11.5195353868 12.0289991616 12.5701110616 67.9132633608 72.0661457974 75.7036186583 78.6957641547 80.9732655168 82.5187018842 83.3739906567 87.212514503 86.4758985518 85.1172974387 82.9296288022 80.1902288122 18.9749360264 18.541043176 17.9821298672 17.3030444114 12.3907184623 15.9491454238 14.4235962579 13.7033929839 13.1367950259 12.7920077385 14.0577178691 14.2668558188 14.0021380558 11.3710878836 11.791223298 12.1867863085 12.5298077912 12.8037453247 13.0008818362 13.1201727072 13.1651424655 13.7216450746 13.6212398607 13.462364337 13.2501801386 13.26356357 13.0107324664 12.7180241256 12.4053154558 12.0960894563 11.8114976813 11.5670601375 11.3781750772 11.2697804924 11.2744845219 11.4151190531 12.8388744156 13.3152474796 14.9733943063 15.6934460775
34.3179939285 33.0038625961 31.7941606332 30.7627560947 29.9911636221 29.5527802211 29.4906589088 29.7980337391 30.4153033781 31.2502421155 32.2111075147 33.231642498 32.763290998 33.7518663081 34.7191620326 35.6462595889 36.508351101 36.172339716 36.8939982209 38.6239756632 39.0776128616 39.3776599945 46.2075221498 46.261431318 46.1305967026 54.5624254755 54.1486382242 53.6709756157 53.2366735168 53.8959954928 53.8088060304 47.7170041553 48.4523414126 55.9817639543 57.7656946352 60.0661572227 62.7349558491 65.581333601 68.4152444062 71.0777801422 78.5272363293 105.402734615 108.439523767 110.831901209 106.487331171 133.937398842 135.707633066 136.583382231 136.492513812 162.730632175 159.7505554 155.728358635 151.007010715 130.166551068 126.882216517 124.429431603 123.283379496 123.667771592 125.727614529 121.270716971 136.447322927 131.68531892 138.01472709 144.297155441 162.178639713 169.663751851 225.260812619 231.970275561 237.027057008 240.420869169 295.328472674 241.93535336 243.714593285 240.691562701 181.807591812 176.746104434 130.188291714 125.671990205 120.274677181 114.021574705 106.892199678 98.7705661612 137.839708133 120.815648247 81.051986452 61.9962738745 29.1499442043 18.5210374943 12.583543106 13.7124953951 20.9365172797 30.8846270651 55.9822941694 49.1473325123 53.6719242496 55.106201155 53.6681879792 45.4180139225 40.1005322198 19.53173159 16.9862780206 14.9492345827 13.9326283529 14.1535971603 15.2861901123 15.0591448631 15.9227155682 16.4684511123 16.748302389 16.8724941599 17.1254898137 17.1043779783 17.3358813234 18.9107272851 16.4561408548 16.0742724416 15.5730994971 12.495651964 12.1209572298 11.7368526278 11.3278974981 8.40853286567 8.06883339339 7.6091578928 7.25373261949 6.99670346816 7.86140481593 7.92950803252 8.12091191116 8.3239489619 8.45310733564 8.46304811929 7.51948772803 7.24920292526 7.16222579983 7.00332662289 6.89211614743 6.87500663535 6.96611642777 7.13472381807 7.32444217649 7.48852372446 7.60401411488 7.68325220479 8.19648336189 8.82257576432 9.08191852343 9.35470501959 9.61127258742 9.82299579757 9.96609915077 10.0237911036 10.9111854615 10.7132650834 10.4652038426 10.1907712075 9.96069849326 9.84242361131 9.87268356012 10.0416404852 10.3051689297 10.6166130188 11.2335470366 11.4749235212 12.1418989325 12.645829303 13.1750271831 69.8143258417 74.3338830099 78.4930350177 82.143938193 85.1736479 87.51035805 89.1210565003 89.9888977005 94.0473539102 93.2112329643 91.68054054 89.2639877586 86.2565942398 20.6454219827 20.2134870797 19.4232747884 18.768955748 18.0366822275 17.5429015722 16.7548803967 15.4139831669 14.9011773253 16.0710942978 15.9066325181 15.9556453001 15.4337762851 12.3587681047 12.6381542461 12.9142694851 13.1628404621 13.36461833 13.5068819213 13.5838865934 14.1650895123 14.1031463669 13.9818430545 13.8052227115 13.803725141 13.5829637202 13.3025601511 12.9790654013 12.6438611021 12.34039854 12.1112044853 11.9799374529 11.9446580934 11.9916142297 13.1689619277 13.447505391 13.809009432 15.303620657 15.8975307327 16.5294959409
36.428723281 35.3248521373 34.3238597128 33.4778665544 32.8385732988 32.4460325265 32.3162777418 32.4344136192 32.7600436459 33.2452619654 33.8548666124 34.5745552185 35.4019992228 35.9092720264 36.9549031302 38.0361961799 39.1013047937 40.0984986116 40.9848538473 40.0007981404 40.5543486802 40.9607135482 48.1491870114 48.3654716487 48.398532242 57.206355267 56.8688239071 56.331342542 55.6567068219 55.8064091931 55.1100710866 54.7714428377 55.0223999468 56.0904129533 58.0678433494 60.8121478481 64.0547006169 67.4939529054 70.8646806733 73.9698341502 105.158947115 109.201291046 112.486633843 115.058382272 138.657814202 149.839867147 141.214591479 142.484669834 171.698573693 170.365293182 167.688047128 163.79647214 158.997333638 137.391375013 133.877295699 131.133211439 146.776710345 146.600996764 132.419436571 136.800795786 144.281233527 140.375847468 147.378258492 154.266503855 201.636259569 210.325652 238.866709427 246.113709047 251.57911867 255.261654599 312.55606508 256.877920905 258.7566824 255.634384745 235.657096488 230.672840047 224.195503087 177.055437448 170.417551706 124.19268854 116.67131444 164.276400882 149.157247198 131.304070628 89.1306410268 69.0188883609 45.3794733266 21.4678964889 16.6393457071 18.4272563248 30.3828900816 45.8243244978 61.1758127621 53.2594400525 58.0456974255 59.7404832311 58.6274505088 50.4668790376 45.7075361222 39.9722704867 34.2011080889 18.0888832361 17.1197369803 17.0879741182 17.6918140149 18.4499453438 16.9391419794 17.1108588319 17.1153635344 17.2638665949 17.2836362765 17.3308425044 19.2953857328 19.3515195008 19.2053128609 16.5147486769 15.9325987614 15.2499343551 12.4482233791 12.0880631543 11.7643330011 10.5468902492 10.2391549354 8.30643232763 9.34920659061 9.02079910768 8.84224683423 8.81566997877 8.88682715502 8.97979531881 9.02928806957 8.99597675385 9.59213694746 9.20455137089 7.59733646352 7.48325002756 7.40655758112 7.39514594377 7.45265555696 7.55256351303 7.65247079214 7.7217211102 7.75467842273 7.78174012227 8.6909102276 8.95932409856 9.30593077232 9.67629012653 10.0173061076 10.2857187418 10.4490272595 10.2757821719 11.0824928375 10.8221511018 10.3920582725 9.9537385763 9.58465717858 9.40595294035 9.49340169363 9.83691467316 10.3533171539 10.9421213994 11.8100657977 12.2782820038 13.1009992203 13.7107237589 70.8209509561 75.9074210538 80.6469806012 84.9407604204 88.6855025743 91.7917709364 94.1941385966 95.8539480178 96.6988088688 102.001469508 100.962668673 98.2341379775 95.578231566 92.2941331884 88.424769189 21.692300212 21.1406617231 20.487957073 19.8336855168 19.0165135526 18.219032095 18.4973836602 17.9036219633 17.4141639094 17.1161437857 17.0162549038 16.3628185573 16.603481924 13.317023643 13.5204558159 13.7102974324 13.863368268 17.9067487439 17.9289227204 14.5211718412 14.4304670473 14.2861965334 14.0905282162 14.0823730361 13.8301235743 13.4969615063 13.0946723504 12.6633961851 12.2759810575 12.0199113642 11.9531340518 12.0666505979 13.1999956963 13.609767568 14.0424377629 15.4749995974 16.0392215791 16.6175567941 17.2105184013
38.3749974107 37.4166427777 36.5438060088 35.7887273934 35.1792470399 34.7320937995 34.44805774 34.3136530527 34.3121727421 34.4404304019 34.7194718683 35.187297258 35.8742324605 36.3546327728 37.4628072564 38.6667171103 39.8802274735 41.0252883851 42.0444523669 42.9047185281 41.8933776658 42.3968491664 49.8701140084 50.2161146939 50.3639153969 59.3599826852 58.9662346015 58.1736186138 56.9921166194 56.2711471024 54.6226716194 53.3983603902 53.1201733955 54.1975235282 56.6948177117 60.2942352621 64.5060860224 68.8559200224 72.9824237183 98.3931580164 108.261271903 112.631805374 116.095084311 118.779165707 142.747993391 153.993696126 175.547002336 177.929407672 178.005752131 177.016356674 174.374284128 170.077045427 164.337942495 157.637978694 136.369695691 148.746870889 144.563612882 143.787786639 146.963271305 139.215994266 147.242040813 156.583602415 154.659993212 200.506628268 211.806878769 221.602379029 251.86915603 259.778595509 265.698793998 326.405914909 329.008908545 329.377630824 273.362799807 270.1577396 249.121648897 244.046326718 237.420965168 229.232564136 182.414875672 174.153683386 191.616226747 176.596635654 161.586339192 144.369760446 124.301137393 82.6903487813 60.2189561962 52.3598619184 33.385506492 34.3580136889 44.3832987307 57.4571227962 71.123115005 59.6121168193 63.9897369966 65.5821807292 64.6423153447 56.5196168583 52.3550005421 47.40205478 42.450656961 38.3371329743 20.6681317494 20.2652233724 20.1868429294 20.1084886061 19.7682095026 17.3824839058 17.1325683081 16.9432502448 17.0216201514 18.9552766245 19.3486432221 19.6680806923 19.6208523912 19.1550555576 16.1842586914 15.3208777696 14.445151242 12.3493105408 12.0753152627 11.9112194443 10.9261193886 10.6757456351 10.2373722036 9.96853681054 9.78660115923 9.70247789435 9.68747225291 9.69347176598 10.4307793254 10.3973369823 10.2812972252 9.99597820057 9.76403101791 7.98811243036 7.92724731653 7.9015794103 7.90573067791 7.91478349259 7.89787708038 7.8441293178 8.08686655037 8.2381825639 8.39757363452 8.75250248882 9.2244891192 9.72133507609 10.1675522195 10.5089269243 10.707047184 21.5499613824 11.2600762844 19.7599588297 17.3705702064 9.58777481082 9.01027395473 8.7177822735 8.84517297607 9.3836514668 10.1954534617 11.1092377773 12.8647355275 13.8743065358 14.0106935561 70.0789504445 76.1808873378 81.7721731617 86.8521857016 91.3782084298 95.2862656574 98.509967599 100.99350614 102.698185074 109.050128889 108.685295396 107.513783134 105.568739409 102.241146807 98.6599085185 94.458109014 23.2047303313 22.6305476995 21.9426972925 21.3404168485 20.3343191793 19.4244655405 19.5782750234 21.7931907364 20.9012746424 17.5794908211 17.3325713013 19.2753989329 17.0514199019 13.7851635394 13.9761161544 17.9003944226 18.1858549021 18.3183088752 18.2944111482 18.1347739171 14.6912030365 14.5230336487 14.312142605 14.4616024567 14.0214880429 13.6241660787 13.1037556911 12.5011632339 11.9289474555 11.5564291376 12.0048939309 12.3999426733 13.0466161296 13.740346324 15.236005377 15.9272242317 16.5534327448 17.1474902999 17.7332315895
40.1205850361 39.2465254883 38.4287538599 37.6811214782 37.0112333216 36.4178177789 35.8921006361 35.4267896394 35.0333780571 34.7605382534 34.6972933504 34.946478593 35.5752361551 36.5739716263 37.4709629106 38.9207508661 40.381762153 41.7419986024 42.9299482837 43.9147249803 44.6974268355 43.6603701403 51.3335394383 51.7874130636 52.0270392118 52.0278434923 60.6105977947 59.4752603681 59.2706748772 55.8066507755 52.9370153788 50.595742698 49.6978953236 50.8962406977 54.1942991269 58.9980806259 64.4987969756 69.9938358691 94.2176814691 101.011059119 111.174051257 115.71275042 119.185949064 121.845349406 145.831620169 148.525935144 179.132032383 182.209981409 183.965288572 182.746621389 180.020618941 174.921518103 167.49261833 158.173285284 151.708793631 141.608867344 134.564681651 132.631136899 136.831762199 147.626057237 145.691762703 192.686822199 232.049061737 207.697323796 221.094499287 232.309816169 264.352389403 272.965852491 279.334418206 341.740280462 344.546553427 345.005552317 343.182188057 284.132245826 279.059595609 256.919472686 250.148208224 241.725347878 223.76333255 214.615522468 203.14320052 190.204136045 174.089823341 159.634736679 142.399255168 123.481513341 103.622447247 83.5142770352 73.3150893243 73.3249976996 65.6392202873 74.547545463 85.0286241302 68.0066672518 71.4265215229 72.5726459231 71.5938935518 68.821693962 59.6587148308 55.274382043 50.825349932 46.8692660837 43.7301577098 41.2454051114 22.3886122652 22.9108234694 21.4078689047 18.2887743136 16.2674773717 15.953362484 17.4345390886 18.324489611 19.233636836 19.9087758206 20.030935994 19.5323247628 18.4650247566 15.2517544699 14.0758073791 12.9882369863 11.8691585479 11.8376111689 11.2917624443 11.2179920945 10.9535872371 10.7839396657 10.6429665368 10.5477018395 10.487933577 11.2219703628 11.206838331 11.1425219249 11.0187138948 10.7376103672 10.521356036 10.2909698098 10.0623595201 8.38229117992 8.31476825013 8.21348425337 8.4770626643 8.14275096951 7.8455322212 7.8123333118 8.0100121431 8.49543934868 9.13072418684 9.77988137436 10.3466459924 10.7697645819 11.008137228 22.2316502269 21.9453717018 19.7367368121 16.6927712451 13.3062442451 10.3919464405 8.00986877611 8.16792591921 8.91035703373 10.0354330211 11.8981201872 13.3284976906 14.6164013838 66.9182810358 74.5539423985 81.3801378701 87.5069536764 92.9818972192 97.7995786211 101.922032906 105.298665718 107.881182196 115.122490208 115.821117326 115.360010247 114.036606043 111.884948249 108.302266286 104.385390546 99.8069446432 94.6211491963 24.3059569348 23.5421095689 22.6445291462 21.509661492 21.4377702766 23.4603258607 21.9393384583 20.576239656 19.5504730291 19.0484960054 18.5002496564 19.1334100649 17.5645007662 18.1692531575 18.1664699021 18.5175361324 18.6470262239 18.5682548182 18.3271881059 14.8668301856 14.6718389789 14.824595187 14.6212365242 14.1798224916 13.7394225081 13.097159706 12.2794556059 11.4416567101 11.1011061131 11.061053604 11.7289036299 12.7461198519 13.7511601706 15.4200433434 16.2256109078 16.898085938 17.5074222694 18.1001609768
41.6558290441 40.8166438026 39.9979586574 39.1960213964 38.3991656383 37.5885017825 36.7448000662 35.865520776 34.992130874 34.2364651581 33.7796309568 33.817993467 34.4696111589 35.7044124945 41.2629921852 38.8296989823 40.6463941362 42.2856797318 43.6652323297 44.7661190267 45.6141903423 54.4604557849 55.1765450388 53.0412009883 53.3848317783 53.4558306605 62.0120622801 62.62662186 59.7088065391 55.7762760368 51.1042421756 47.6012735035 46.0806029635 47.4701575533 51.7001174561 57.8485794984 76.8218266113 87.2940177336 96.4348606267 103.854832193 114.012418094 118.397141101 121.583476036 123.993275443 147.508593106 150.436392287 181.037859403 185.121955396 187.887215335 187.735641079 185.07017245 179.06299718 169.504286513 160.627404175 145.006018906 129.892149245 118.767862253 115.131324908 120.749177984 152.411418814 179.221271312 190.362810638 234.204546369 259.139519157 280.238409916 242.784931121 276.458756252 285.67005576 350.452337521 355.981537929 358.970698872 359.511312957 357.663120117 297.38514741 292.173681765 269.139640062 262.244959684 253.594025031 235.248144393 225.615007903 213.684603894 200.38928409 185.787460342 171.347414981 157.322382021 143.747962597 130.509047305 115.793219698 108.606453718 107.693287241 112.890910205 94.2079484394 101.217992218 107.028280154 80.0378733624 80.5089908099 79.2910259114 76.6064932812 67.3332196095 63.2235343534 58.9197417215 54.7542596453 52.728174968 48.7293173002 44.2817860972 38.7592021212 20.9544640375 17.1522445727 15.4183815946 14.98437541 15.8182002376 17.4165738631 19.0318094263 20.1864712526 20.541803695 20.0308007349 18.7273379549 16.83358145 14.732695356 12.912930341 11.7225337331 11.8663846446 12.6016602327 12.7062025653 13.0336716236 13.2712815852 11.4113178972 11.344674408 12.0624258991 12.048110574 12.0036824898 11.917242296 11.7836372766 11.4979834499 11.2802613271 11.0364090694 10.766468108 10.4549186895 9.33834504926 9.03450480869 8.60213773094 8.26901967721 7.7073327975 7.4898580231 7.7388873534 8.35517079393 9.14449329101 9.93286678254 10.6084722241 11.1064899737 23.3340933481 23.2710218458 22.8423592719 20.3382584911 16.8509255305 12.9257628642 9.50824750552 7.72451487297 8.29345978446 11.0307450285 15.0228924646 19.2792438307 14.0173504225 73.5289544603 84.7972189283 79.1739184814 86.5830412135 93.191372436 99.0623477843 104.200066927 108.572046174 160.657704884 120.154057385 170.785333789 122.579600644 122.010203007 120.517222818 118.13781333 114.287880718 110.009888605 105.026612647 99.3846966615 93.1184201321 24.973443235 23.9303927429 26.4318750462 26.4496680051 23.6953064264 21.5627905374 19.5513269845 17.9727662906 17.1772222407 16.9192036503 17.9187495235 19.5971937774 18.0932081634 18.3357305187 18.7904292162 18.9153394641 18.7509085815 18.3815064238 17.9132477834 14.6950837865 14.8505566412 14.6936433033 14.3151156191 13.9032456835 13.2047912291 12.8328215119 11.4149991806 10.408964786 10.3653369793 11.2880823408 12.6272655377 14.4992944626 15.6169565392 16.4394446599 17.096289715 17.6974327808 18.3038896002
54.0901362432 42.1506831089 41.2978419046 40.4088686572 39.452097506 38.3878020635 37.1798871531 35.8223363003 34.3822194342 33.0442972545 32.1134552916 31.9236979545 32.6700605392 34.2857085366 36.474076872 43.1339028299 40.7759982588 42.7329766997 44.2949684189 45.4688884415 46.322794535 55.0403959962 55.7823648946 56.386047478 66.3442339466 66.6577307162 66.1393261219 63.9896304764 60.7288359469 56.0887097133 50.768707451 46.3206832628 44.1818932823 45.7745259032 50.804655534 65.7497412689 78.1338124094 89.7759817208 99.5889819623 107.156456924 116.790327411 120.507974236 122.956392315 124.788560205 147.168147644 150.375945103 180.702473515 186.323847174 199.663811712 201.002499309 190.115601436 183.53355799 176.2463102 158.947904382 138.254557826 117.459588219 101.584343041 95.9207997048 110.359243855 135.502863248 168.993522262 204.165558862 256.185447002 266.490515059 289.955161547 308.371595291 288.268718701 329.058992646 363.091942006 368.834577723 372.006016664 372.634348781 370.737347864 366.387007182 304.319126141 280.487612134 273.527272363 321.274066789 298.536983851 284.169130193 222.880293406 245.289728545 192.513227988 177.832168821 165.421345085 155.876710998 148.758168726 143.603481393 140.655921085 137.374515347 140.650346239 146.12698887 152.016321559 124.084836019 126.133549 126.094871136 87.487209481 84.6989034709 75.1834368389 85.9237882698 81.0090113053 77.9215658526 72.155695009 65.716984509 57.9505626862 39.7073866252 20.6680075055 16.5588681533 13.5950512022 13.0221632015 14.6556853234 17.496035871 20.2864949756 20.6959030929 21.2966481253 20.8010694842 19.3151631534 17.0796805715 14.5373632143 12.3600591245 11.2146537909 11.5513216027 12.4266927884 13.6378065589 14.5231974702 14.0123879892 14.9119408121 15.0868795286 12.8860398901 12.8658767191 12.8052548516 12.7027197128 12.5582700449 19.4722061861 12.037246825 18.8682833044 18.2534810594 17.4132224085 15.4506260665 14.0685182729 12.2124542904 10.3254847127 7.81491762388 7.5731387848 7.84626106166 8.53070636741 9.40203469547 10.2685795975 11.009985705 11.55854058 31.0659449556 30.7217164633 24.3783319974 21.8387680845 18.2832517463 14.2728238857 10.7752966178 8.94899823827 9.54839219305 12.4004363124 16.5610999309 20.9909459182 25.8335761702 78.3324882543 89.8188826729 99.3069462448 91.8360721551 115.590445407 151.606217443 158.754029962 164.628473097 169.178352827 177.729485488 179.23834286 179.353292735 128.610143103 126.9301332 124.301022473 298.377640965 115.511884903 110.110412092 104.011258537 97.2299698543 30.6609786807 29.3661608728 29.4936451058 27.1106040557 24.3770426319 21.0155778012 18.2328301779 15.9806833923 14.8273289897 14.9622886974 16.4996241419 18.7748330079 20.9535746093 22.5667201358 19.0702623497 19.1611789813 18.8516619403 18.2729025027 17.5935758204 16.5519088986 14.6724342378 14.6117045814 14.5322543353 14.1393908432 14.4667931309 13.2122318243 11.7315061662 10.6458089273 10.5972951622 11.5962672699 13.5265606097 14.8796641567 15.875701699 16.5531855238 17.1073072387 17.677886881 20.2531612206
55.4945217476 53.9369708737 47.9738053257 46.5809774145 40.2992277673 38.9945716 37.4315740787 35.5878636695 33.5442075039 31.5590252306 30.087020921 29.6458574346 30.5389951151 32.6480968745 35.5005437845 42.4528642508 46.2455758118 49.3536141835 44.8751668808 46.0253386057 46.7762875719 55.1069158151 55.7944774708 56.5034560838 66.3921257099 67.2830407496 67.382667852 66.143145903 62.8414334532 58.1980305875 53.1068195602 48.109000792 45.915555158 47.8091818231 57.5777888738 69.4241317822 82.3451294206 94.2807138882 103.987994087 130.226859492 135.770694066 121.691254352 122.777981657 141.614561685 143.955547927 147.567672235 177.387951391 194.271736306 200.943761782 204.686031488 203.791484396 193.769108136 180.612424069 160.61883906 135.752850154 110.085741432 92.7837982494 83.1065317136 94.6429096004 125.045736852 165.395742467 206.746746195 262.9365291 317.815517205 348.088552983 319.273641842 333.071972064 339.785974596 373.887001826 379.842924727 383.288263307 384.067068786 382.087894449 377.43748456 315.131911308 352.906584174 342.775281018 330.556336356 307.989332148 292.957414765 273.969554612 249.396116772 225.421534917 201.409881613 182.766414273 155.301229694 153.457106897 155.372907905 158.693708311 169.571534859 175.184368037 169.476377813 173.506636771 176.222971561 138.632569397 137.518900748 134.682014577 111.747181562 117.894658005 113.010817571 106.891065999 86.0514367474 79.5058901773 71.9119504581 62.646281532 51.1391063757 27.3922290532 18.769247902 12.9060363449 12.2400461727 14.2503135524 17.6470806021 20.935505391 23.1866404238 24.0477533322 21.9938758434 20.4396408325 18.0899948649 15.3666997844 13.0661082671 11.8437145744 12.1680071828 13.6351412095 15.448934217 16.9719415946 21.5159942582 22.8062413138 16.0142551792 16.0813856002 22.8756745153 22.9617793858 22.8495702211 30.1694315342 29.7406845073 20.6682090369 20.2089579216 19.5745214015 19.4734814178 18.2463450103 16.6002799273 13.9720431342 11.9224948109 10.2331956481 9.59944240949 10.2791448979 12.0239215535 9.98712005274 16.2349851039 17.8773137046 32.2843260081 33.543696517 33.2962726027 26.636124253 24.3397253302 21.1193539987 17.5152697455 14.407123479 12.8156349047 20.2338782992 32.616040004 19.8840363301 24.6676502669 72.4054714715 84.322232315 95.2973120677 144.57432779 113.437509527 121.247087434 158.883910677 166.449068903 172.664729461 177.448329244 185.89470503 187.384534325 187.379232865 135.12060589 133.235301383 318.447939056 310.153266777 341.962519346 115.022220786 108.493221855 101.270371466 32.3806321511 32.8004049057 30.7925841689 28.0470168241 24.7915834452 20.8156235306 17.2840930303 14.4063420683 12.8636360486 13.2839566774 15.2725750212 18.1655099449 20.9197461145 22.880058328 23.7890405022 23.6744085634 22.7273905754 19.1977197069 17.3417278463 16.6874058427 16.256658907 15.0271539081 15.3286389097 15.447576688 17.1133252072 14.1520307894 12.9527488853 12.3532726094 12.3042566841 13.2484857507 14.5446863124 15.5737192999 17.4912333185 17.686766105 18.1780204045 18.9024640987 19.8641065561
56.6524411429 55.0583457011 53.3682966223 47.483820098 45.7880659328 43.7428117841 37.7593923178 35.5210200922 32.9526255651 30.3730587941 28.3863790492 27.7089589764 28.7665867573 31.3838726702 34.8942862851 42.2401475889 46.5482574996 49.8742055371 52.1131198746 46.4142429248 46.8875035321 54.4500938315 54.951350128 55.7617443128 56.8625528307 67.280344108 68.481939321 68.3633343467 66.1574569009 62.3873866432 58.2184490713 53.8979512277 52.1408743076 58.7361001232 66.092227435 77.4488696637 89.7696118626 100.955529495 109.629043243 134.329510233 137.298225214 137.34005642 136.043832103 135.331688253 136.847618513 141.108668839 178.44073781 189.994876797 200.764167024 208.231652505 210.213539515 201.82999219 189.130694453 192.226022566 158.689628692 123.187611368 95.0253936841 84.4771926931 97.1902342525 137.739307756 188.428799271 218.486360469 276.345342419 331.050590456 359.334847664 380.0669181 395.816509399 405.476680851 381.948002203 388.343921289 392.377194362 393.497584749 391.390783123 386.172466983 421.783664262 359.184102487 349.344908244 365.704906083 351.071391723 331.991508876 306.828512271 253.024088081 220.957203588 188.971320305 163.758290891 152.184213269 144.821990674 155.043086172 172.421444884 184.070564145 193.06558588 199.668963296 190.027509975 191.062613338 169.254566004 168.118933309 165.275260617 171.036494641 164.870779307 122.30263833 115.932718698 93.5965417041 86.6317700259 78.5936188697 68.9375279943 57.1756923023 43.5526301931 22.4739740322 15.1839561587 16.0136784753 19.3157596436 25.0677689723 22.774132384 24.9699749582 25.8124049066 25.2904513687 22.3886800765 20.0866099146 17.5080575002 15.2760150856 14.1005500933 14.2791265765 15.4482292759 16.9648469928 18.2525908662 25.3560630002 25.1073690353 25.95917096 26.5105710413 24.2703038825 24.3576259189 24.2322443813 31.9955412932 31.515640117 30.7296077065 21.422791079 21.5805382355 20.7501989391 19.7032172761 18.3622464209 16.0255167171 14.4382102484 13.1400780169 12.6540492543 13.14949814 14.5590775603 16.374294895 29.6923455453 33.2186025347 35.4572761837 36.6913743852 36.5798610936 29.5938518402 27.7438239955 25.1382777606 22.2658662501 34.0691932179 31.4062595326 32.4640923839 47.2615626935 76.1375454339 91.5862244639 80.137864748 124.202160301 137.774647451 184.0157599 162.331872773 173.643897941 165.590430985 173.687897311 180.323703738 203.142807542 193.663544924 195.13272817 194.997220716 193.30475871 336.213739814 329.932008308 320.941499833 352.502882308 343.335345263 116.93091711 105.189573759 101.265581796 93.6849431893 32.4882888003 29.5329032137 138.503510989 101.211435044 62.8600519028 14.1659849454 12.3841878406 12.8769062943 15.4038845972 18.4897093132 21.5600793125 23.6537961421 24.4844879691 24.0844679479 22.6590998042 18.6791135828 16.3701624012 15.2006775966 14.5934681403 15.506259339 16.6967991044 17.7318313117 17.980838942 17.3797105506 15.3200358367 14.6757598829 14.6161459262 15.1262104887 15.7555075541 17.2912025374 17.1783016892 16.8353544152 17.116617579 17.9525536146 19.1952468025
57.5575597532 55.9354374881 54.2355585942 52.3815602339 46.5832461108 44.5100617219 41.9034977369 38.6677113176 33.1141898519 30.1836554094 27.8823629129 27.0712196852 28.2642773718 31.242719895 35.1978073406 42.9330755725 47.4583683541 50.7111943294 52.5711197925 53.2197715596 53.0839354645 52.7927048984 52.9077846153 53.8014090966 65.1796303498 68.3370526732 71.1540118842 72.6723928703 72.2549484448 68.4312544903 65.8612811099 62.9240971736 69.6906112504 72.8485868343 80.3878756539 89.1019113926 99.9238495008 109.463614629 116.246235358 138.447197453 137.714101322 133.628211374 128.347580911 124.61550753 124.996015433 130.305142265 165.921175617 182.784010881 199.199046092 211.84412801 218.137922404 220.675766722 233.688399636 210.477690152 186.271488439 150.693501737 122.710255278 110.754018093 126.293507633 166.804509481 215.555523622 264.303408217 296.725717158 347.479161401 370.375551221 386.041908613 397.943810184 406.374903103 415.213803919 423.255261527 398.816898804 400.7084903 438.710366279 432.671904764 423.665193195 410.823180404 397.797390128 366.784763259 354.792670748 337.985478674 344.003656535 287.945084176 218.012584932 176.028403289 141.474011972 126.340769734 132.071842878 149.202281863 175.598441016 194.654413075 207.64799676 215.38678636 204.171411778 203.719877756 180.22489758 194.732513658 191.676934351 186.999195237 174.337883054 130.633475319 123.936721558 119.071350345 93.3865707041 85.5888727404 76.6234069632 66.0789203715 54.1502119493 31.1566622361 25.9686003845 24.5204179859 26.8281350377 31.2444019278 35.7439449254 38.9268901915 28.2617344904 39.2098301492 37.0144815862 22.7587096135 20.51416739 18.5810067487 17.4878013012 17.4218245312 23.2971642819 19.0116257096 25.9641777744 27.2543915538 26.5294773015 27.1694216949 27.6461783784 27.968526421 33.6580481355 33.7284394721 43.9637900729 43.1724259737 41.8062361865 40.0378021674 22.4976041352 21.7692358944 20.9907920079 20.1056008473 19.0628931686 17.2856952001 16.4962974505 16.2347286807 24.9079695074 27.4680148715 30.7541590572 34.1929228507 37.2411480769 39.509067045 40.4693541941 41.6862789225 40.5656474103 38.4149954715 35.59925635 50.8922943346 47.0687033498 45.1891090784 77.5002877498 83.8409180628 118.727500033 103.77271116 145.769649438 159.33401387 141.699238472 187.552974313 166.267170392 178.312902231 189.422046566 198.421749623 205.373764988 210.379275403 200.918286609 202.352569987 202.076302823 350.189455078 398.355352349 340.273318848 330.479983961 361.260445397 351.530361314 339.107275967 112.929673678 309.232544627 97.0679925982 208.133652899 31.7473141863 152.177587674 116.375990137 79.1681413053 16.1152429734 31.4600889355 14.7987014242 17.2595453826 20.839956861 24.0875598958 26.2406151651 26.9434584749 26.176614855 24.1056152262 21.0409115114 16.1189415641 13.6265417265 12.8546040126 13.6692454734 15.7528130912 17.7638501409 18.8562583847 18.9898514702 17.2338852432 16.9103234306 16.7871782769 16.8249674338 18.0304757689 17.3134093844 16.0069267677 15.2117347262 15.3944649919 16.5904698458 18.3454547996
58.174132599 56.52010633 54.8449656171 53.0866848424 51.1266524679 45.4860606579 43.0918758292 40.0537043137 36.4423246665 32.7233274463 29.2424070455 28.4842219839 29.7425258846 32.7908245075 36.7986752912 44.7954443613 49.1104768043 51.9184774241 53.035556331 52.6474803527 52.3532702422 50.8114400869 50.1759804182 51.1144073002 60.7345597684 65.7730406715 70.8758476218 74.8011330155 76.8048534623 76.8051488339 81.9236375184 79.8077338031 86.0162566103 89.5299271033 96.2406534526 105.058854303 111.910398957 119.26782111 142.612538384 142.506570628 137.147919911 127.797217159 117.304332442 111.866427558 121.188237474 130.963881972 149.998823411 173.496711726 196.995582869 216.06106468 235.413647789 238.032877766 267.094879739 248.088224053 221.360391031 192.793035296 170.821173116 164.081874377 188.979416671 222.984096683 285.082862652 332.19355149 361.001699851 385.10081262 398.445530339 386.182316441 392.720352785 399.742589459 409.717325177 451.916561774 463.111044556 441.506257502 439.898478755 432.586749863 418.197509892 402.710550999 389.187321123 362.04102316 391.203784186 377.456365493 352.833954679 324.510100918 248.230528312 188.608371498 132.340319212 113.809762027 126.541617863 152.944407953 182.301769202 206.547645917 221.828274281 229.398170173 234.056199823 232.41689334 228.939994222 201.957598524 198.694051712 194.010523171 184.162582857 175.719217894 132.739913987 124.712965875 116.337734685 107.796820803 98.8675381034 89.068951617 66.2904982923 57.6045217584 50.8005087188 35.778297792 36.7848407685 39.4333814696 54.9185318662 58.4731076964 59.9804682869 59.1583675578 50.3362573949 47.0501112883 31.1939649541 29.0944678083 27.8475843687 27.4908778977 28.0728750784 28.9857088941 29.6527135704 28.7182350525 27.4270589769 27.8112860765 37.2439625898 36.1886685816 44.9074484258 47.9461680147 45.5312652309 44.5367403105 42.7338506858 40.4213493605 31.2460348872 22.1996436577 21.6789155219 21.3126745325 26.4026392891 19.8485286304 19.649994935 19.7141165687 31.1109671052 33.4237951555 36.2222956822 39.1310200209 41.7581971191 61.2497977292 80.5330688701 63.7880797757 62.368018462 59.7615766189 72.1570030917 75.7512856757 71.8260438055 97.2062089783 97.9299733853 128.735159129 133.939429314 140.332783695 148.789837877 158.892469962 171.930070321 187.501082474 203.246734609 181.335556551 233.663814171 245.269926794 211.588288604 386.8939057 207.4854764 208.845274573 208.422110827 359.430437562 407.564106012 349.230911985 338.483176834 367.737048658 356.991329057 343.723778183 332.397278374 313.530818808 100.172425363 218.366103702 198.380871464 172.344654135 142.048086943 110.251548151 83.4357796102 69.1407001591 19.4074303215 21.0139145994 24.0606357603 26.7136621064 28.3519532087 28.6119138194 27.4263898332 24.901446545 21.2880397334 15.8278328556 13.1610578676 11.6774105207 12.7433474 15.4996875555 18.2017969441 19.8738742675 20.5125351027 18.9210542641 18.7779631414 20.2276821167 19.7280886778 18.745061718 16.9993508995 14.6378784408 13.1181565017 13.3669112045 15.1870610634 17.6301339163
58.4385215106 56.7136784655 55.0599198433 53.4534508025 51.8035531024 49.9386768657 48.2650107992 42.2219554344 39.2865740243 36.2317974304 33.8822237336 33.1955258502 33.2236217448 36.0438570534 39.7038458792 47.7859021676 51.4804730544 53.5035154814 53.5548239766 52.6999783921 49.5382822813 46.4021442918 44.7956511719 45.7986117964 55.4072929873 62.93095457 70.8920622676 77.6520817213 89.3920932114 92.176187169 93.2920846247 108.73624449 110.883970949 115.211779836 121.777917342 129.642866121 134.524688673 139.726542949 151.307247413 147.108316059 136.750835478 121.526664091 106.686917301 93.8094602777 95.8893753566 108.08800671 133.239469737 164.950822071 202.187846588 240.817917059 260.143696054 268.92968017 294.02063848 283.109235532 265.344335813 245.943319815 231.637346627 236.628110081 264.419444655 291.821531895 340.63483102 373.727430204 396.409883546 397.477860868 396.905669869 392.347144543 386.75131252 382.792523514 419.179232087 439.164497264 456.618595462 465.64387222 462.604248549 427.404354099 406.975144091 404.735572807 388.215920175 381.367842542 379.739151751 378.352868718 378.01342385 346.372617178 272.649702888 213.476667758 160.856341512 137.008009217 145.488044657 184.281932416 226.348504928 223.85925025 237.570858637 244.096408963 242.053251381 237.061683488 207.98129795 205.37827609 202.620159036 198.636835223 189.143919287 180.135969994 137.030541721 128.009340942 119.133201031 111.185791696 104.303096903 97.9117155942 90.6748945095 83.9945415937 78.1897192001 59.057143495 59.8796434708 62.2512321822 65.0026751213 67.0397065288 67.6504839254 66.5609203512 70.9535126055 54.6794644585 51.5881958468 48.6673922639 33.6661979546 44.793503972 32.3040363088 31.7684996574 31.0343777614 29.6800243805 34.5013823884 35.130533759 36.50536825 45.2646259759 47.5297512305 48.9039078048 48.9531917541 45.5335036502 43.6877889981 40.2956967092 36.8529149449 28.444904782 27.6807553639 27.9371679466 28.7898287722 28.8992435583 29.7243518572 48.827012748 51.8844368881 70.1692788172 75.2034577018 80.1407035982 84.4401061511 87.1011605357 88.4842660606 70.2576638979 69.2238027488 67.1950389242 82.683047172 88.5745995727 85.0191879208 146.45203912 143.548124569 141.069006683 138.921241477 138.150543441 141.27781146 149.139606863 162.799268706 180.894505433 200.549933827 219.769779704 236.307987533 249.280177944 258.720913379 393.792371672 404.491730993 214.289315306 213.732918264 419.343726377 414.662263802 589.806770652 580.478878145 371.465785872 539.861781454 347.167918847 329.829614015 311.940266891 296.748844492 279.509160916 260.387832178 236.315625488 208.081556297 149.794165688 129.408396161 118.070762482 118.875102067 26.8639886149 28.3164830599 30.1463158697 31.1200504328 30.8963751545 29.3796780426 26.6406543946 23.2529795785 18.8745552477 14.4955426516 13.2999244719 14.0368321739 16.7912099074 19.4880330933 21.23323351 22.0303231882 20.4226205124 22.3089500332 21.8538057268 21.0025864105 19.5074435273 17.0866549393 13.9271080031 11.8237053408 12.1990221457 14.5981163303 17.5869904378
70.0190329837 56.3802807572 54.6738197765 53.1981922337 51.9232941778 51.3353841987 49.8992490705 48.0441466763 45.7242640135 43.2798877856 41.4537904625 41.9639622487 43.6695379098 43.4105762466 46.9706226404 53.7939227265 59.7905883267 60.730865522 58.9973360314 54.6626821339 46.6497564483 41.6258671853 38.8413695501 42.0694336168 48.8920899022 59.0841173192 69.9994881229 83.3284467187 94.6687194989 100.381455146 104.17686075 125.401817434 128.800571137 133.828475041 139.927104657 146.391562458 151.893417448 175.688701976 177.995410965 161.94638256 145.321414415 121.693068616 102.861032693 81.7371741289 76.6631014957 91.893353528 124.969550518 165.661780823 214.751888173 250.084849927 275.441863484 290.236942712 328.071443428 322.147671045 313.601189767 303.3517697 296.397815091 307.690900023 338.699144241 358.027936305 379.273734253 414.178402863 419.753869066 403.589060391 385.374689754 365.698025867 352.346561795 359.051581297 398.971423311 420.902124272 448.657100906 504.286910016 460.793812575 438.278621227 406.033624259 371.943610821 348.348154997 343.954139817 382.635326287 405.257071146 392.245843317 377.969323622 338.840675823 266.630610986 222.112840311 205.788552347 217.377189736 229.281858919 263.018298625 287.622481825 298.090454362 253.571413465 244.665376212 234.462835777 205.329350516 203.147698602 202.378093278 200.543057875 192.309445952 182.750386172 169.47439816 128.270153657 117.660423084 109.37870481 104.231135 101.47412159 109.872775611 96.2539332529 93.4068254682 92.4445950887 86.3939741646 73.9483574094 75.3065800286 76.1477326582 75.9686373598 82.1438160857 79.9194286598 62.4153277919 59.6775196608 56.8150042969 54.0576637922 51.1289716965 48.1032164552 33.3386061801 30.9220163896 28.2524697396 31.4360173247 32.0223699041 34.2095567284 43.5973155437 47.3152781179 49.6743339096 50.0434915891 48.2063674299 43.3235774649 38.3243855775 33.1452713495 29.298689651 24.2471311453 25.4658033221 27.9490945091 41.9613209801 46.2059098545 62.6896150578 67.2967994987 79.1330608469 84.2296152311 88.8816810529 92.7960489338 95.3629135397 96.6089492112 96.4900153817 76.118812231 74.4363026726 103.199890748 99.9041561274 132.861282513 126.568696784 153.54938486 143.545811325 132.49075996 123.517114755 121.431821817 128.681942897 145.620976469 169.100587515 194.920170846 218.39142469 388.237895446 417.829508786 439.880756604 455.687131351 413.184840638 419.933315385 423.954138809 423.372039208 419.270623354 593.36128996 582.78432648 562.166167514 532.773541775 683.706885176 467.05806439 301.990680022 287.509293434 277.240951478 268.632135425 257.51688722 242.606028061 189.682959801 176.84331839 168.907025044 168.140814037 32.7034121299 33.1549584021 34.162224948 34.4820574433 33.8268688473 32.1085139934 29.876416934 26.3056979754 22.4916667573 19.4365826964 18.0200767106 18.5681612195 20.9480283616 23.3024919173 24.9187406115 24.6297182747 26.9569801937 23.7868103358 23.223947729 22.2338416887 20.6732073718 18.30413714 15.1781925631 13.0513487623 13.3809069034 15.7458550219 18.6959907144
68.8629471585 65.4947188941 62.5752438268 57.5617646775 56.3455327 55.6811892623 50.7427968184 50.3156064662 49.5725042516 48.6494645616 48.0283936634 49.5958741689 51.2831785199 54.1084275141 57.4288336064 60.3449824577 68.1194186926 63.6249781811 60.6346189349 54.7256076477 46.7776360847 39.2130754236 34.6530650301 36.3796544491 44.7630402687 57.3304549215 73.8828433224 86.6845698597 100.751646863 114.572828555 120.664189553 140.58692098 145.69797135 151.536139272 157.541131672 163.163835413 167.313158931 190.647613197 191.088255854 178.867487981 158.299344032 130.694423836 105.439600409 80.2611570413 73.4861500758 91.0187267527 127.629908224 172.817085407 226.418198988 265.879095394 295.517235181 315.176721011 361.797726336 367.082046945 363.024388265 368.182344548 373.20012507 375.76997871 383.312182636 420.803156436 430.593789358 451.777722462 441.970728146 413.079009033 365.268906556 326.719771148 307.652393613 315.530897642 358.115570868 436.755677274 452.835235108 503.053470201 499.356848497 449.658958302 383.222712948 331.452182298 295.330739978 304.03448161 338.361937956 388.624691273 426.988394423 436.940209577 431.615142971 346.903775207 314.210030311 297.066960848 302.223270686 319.900556984 342.108291748 331.485429102 317.048261147 258.597190617 238.947957572 220.926829258 192.894011423 192.763940447 196.738745366 199.626359175 194.241352024 184.399616944 168.112570115 148.069041863 111.1246926 100.901775615 96.9229037754 105.956747435 111.144582225 115.793249005 104.110197626 97.7405186876 99.4058346077 101.036651121 85.3120929074 85.3457614736 84.5514077353 91.1397988111 88.8821454004 70.0747422103 67.3560557222 64.2043863983 68.860366884 64.3753995325 58.712695191 40.6636075133 34.1716498731 29.2366200827 25.8885418471 26.7349386359 34.5878855091 41.0013618063 46.8527331119 50.6155534574 51.4925376263 49.2284116015 43.0757633647 36.0139677486 28.4458192296 22.7447411843 21.1655265368 21.5694060135 34.1923117609 42.7490353836 59.6937842907 67.324883624 80.5533092015 86.868630257 92.3386813707 97.0158439858 100.794174166 103.512500495 144.939131484 146.575949029 126.123024643 124.79008532 121.866767317 117.552205183 144.544037553 135.462293541 157.658760883 138.70803912 117.050983857 98.4767801259 91.0287153871 99.30423781 122.389138388 154.2311644 187.867126607 344.834604961 387.058933923 417.710314339 438.112209953 451.088578491 447.930004707 454.01890581 420.552504271 423.1678101 641.785750618 851.27147028 833.362135276 755.034973643 704.502323565 645.96709256 584.463160281 395.348887283 263.451209381 260.103270463 392.115347396 398.755596676 268.515765489 227.954712491 223.753833574 216.051742173 214.811329993 216.191639744 43.2820684023 43.8748227444 38.3797746139 37.3852989513 36.9460543079 33.4580144071 30.348276245 27.2297516652 24.9619991829 22.9911284374 23.3617646757 24.462376558 25.6173927577 26.5328988195 28.0761071299 28.2273251539 27.792215738 26.8038858808 24.7627145817 23.3245592417 21.5143224795 19.3199492476 17.6459839904 17.8536427924 19.8841754381 22.6688906896
67.0893090984 62.9522799565 59.3784183256 54.3135979105 53.2782537391 53.4392640236 54.0600494847 55.4586208729 52.3450915128 53.0902841188 53.7985765524 56.5240023736 58.4302188696 60.9097818824 63.5342772086 65.6310722356 73.1122234939 71.8662028115 67.5200839541 57.3053625853 48.9471582574 40.0173478591 34.9191875309 36.8424387482 46.1395044053 60.0211062306 78.2412659943 92.5327663834 114.322941698 124.500624681 132.336768966 155.255263429 162.63083547 168.579540313 174.824178687 180.187748888 192.027327091 207.67941771 207.94313995 195.535748031 175.257356219 148.279160222 128.862162194 102.198306081 96.4016453105 114.747582085 150.173777697 202.844063487 249.590434635 289.747584454 321.245998555 344.060037131 398.03205071 409.56408766 420.8656689 423.843742054 434.780027739 439.15644738 444.808783873 449.516091892 479.985712993 469.128644545 463.311637506 425.398565605 358.068345533 292.80034533 255.77852727 267.959030401 323.763229891 414.623974394 484.7706113 523.091798899 507.946567221 465.48507294 381.828085135 296.791825229 249.08374982 243.957925519 297.082227047 376.302655708 443.398510405 493.358513969 499.817113716 464.1135515 405.624566527 392.874138774 391.680230796 427.509158123 433.583174943 402.561394286 345.19927736 311.18676426 232.903747838 202.213319974 167.243633041 171.919948365 185.03150342 222.127713319 196.161208656 186.6994898 166.763731831 129.953890686 107.218902441 90.99897819 90.3206905777 99.835462832 107.415373499 118.743874555 104.523413926 107.766480934 110.418694704 112.173563558 113.12987047 113.189381828 101.490945066 100.003242713 97.60068425 94.3651579348 89.9308056426 109.738225256 103.247708013 69.2475718232 61.1602813825 50.6898428821 32.1824268986 23.6973048675 19.1015671719 21.9282634277 29.1327005864 38.5337659301 46.9089326325 52.2956392293 53.8223001698 51.2585490642 43.9255130838 34.8771116349 24.8994736926 17.2274981206 15.8801637753 22.37342849 34.5414164754 50.6141369639 62.1535020856 71.6176303813 86.5879201289 93.7100834783 99.6080519889 104.45847793 108.251872082 150.696980693 154.084592169 155.885603071 157.163537446 155.10104203 151.259578033 170.585803779 154.80827062 143.03966548 160.114875592 132.121794759 99.3544535513 70.5466068406 57.7293426738 68.1587796991 99.2962757847 141.254472693 281.784486542 343.254728923 388.63208307 417.562526494 433.102536934 440.296699541 433.59143337 438.076823448 596.067358813 813.171626102 832.948581507 838.703338996 822.343371724 779.565527681 678.520484 595.990904682 512.544258789 445.896071954 221.243357429 328.576567323 354.690891463 389.20129515 418.718981688 255.267942646 260.71463506 262.527744452 257.542308719 256.236446328 251.836813383 49.3439005123 48.7989018048 47.5675776684 45.3145616363 38.4795958983 35.6594225638 32.3154518239 30.0782330571 27.556157779 26.9551645099 26.6890834328 26.7617567981 28.0697045085 28.789571633 29.1103546572 28.6280237236 26.5109799436 25.1026061856 23.8211689057 22.9939674198 22.4189247922 22.056976005 22.4463273335 23.8048941555 25.7566591164
64.8583445747 59.5656891836 54.8468564215 49.3637491528 48.1334902904 48.9740318742 51.5658357228 54.6598500369 58.1439468397 61.1471772631 63.6973081652 62.3890509835 64.7822995028 67.2666062377 69.5841687872 71.2634111361 78.9406309983 77.5419060596 73.3648638214 66.2601884272 57.6436941917 47.3865257475 44.7776174797 47.0833808754 57.2901112391 72.3216543418 87.3045048502 111.226240607 124.849994633 135.825936779 144.681025538 169.832142247 178.378383119 185.291622592 192.055717417 197.711635709 210.124808779 210.582442614 228.884051163 218.593503724 201.703224406 197.622355573 170.20429757 147.903231724 144.633493294 161.610605692 194.86521032 241.67433744 284.023375689 321.625157692 352.614315048 376.808958729 436.459439173 452.61905959 468.897076773 476.829867301 492.572792514 498.598303346 503.306181547 555.514887062 548.034610731 526.637605249 507.16776767 440.829122293 355.943753954 272.812538363 225.16847937 239.091538378 309.035105917 415.467208123 498.801570472 544.42903409 543.601485089 485.529797549 402.469696238 305.003589082 232.231045986 226.010555907 291.856147272 390.590665995 490.278990303 547.692383308 572.618666912 550.373014337 541.53869648 484.428329538 511.951686545 505.857031158 493.37395785 439.907244471 395.529785128 302.467366588 232.865890036 157.897248932 139.225495969 152.66271051 187.186096347 217.253587481 200.135523623 191.971943478 168.762477302 126.678880872 96.3641927991 75.7097274118 71.2261136195 86.9423460425 110.712664926 121.090405002 125.783086835 116.431018647 120.040504938 122.092964291 122.932095123 122.668142877 130.042361666 127.936362598 124.514051247 145.073399579 97.5850782759 119.300669058 111.893258942 74.4801814879 64.6724406491 51.735238351 36.1385774531 21.0697028036 14.558625674 16.8266974256 26.2066431628 38.1963174943 48.6960999857 55.4577929629 57.6186974413 67.0194982629 47.0379086509 36.8878045646 30.3392762424 18.0804139898 14.7933420199 22.2462649819 36.0732138782 62.4411677513 79.2223235464 76.3946530606 92.2943014919 99.8066750899 106.030166685 111.111716817 153.552339156 158.564105717 161.962243134 165.009705518 164.811450524 163.138112039 159.751116218 180.547908999 222.603371284 206.16927263 179.07255946 140.545183713 94.851370733 54.5073354375 35.9506358553 48.604390201 87.0498139185 201.817856395 284.001820561 396.653663818 394.807155186 417.163715999 422.818103361 419.790917039 419.945878286 569.188485466 726.804279665 767.95317359 806.535282519 824.888744321 814.231006319 766.108136531 649.865290244 540.581552738 425.427450035 331.734472181 286.552083788 243.23275054 294.403735498 361.512287375 422.730978348 425.729292197 292.379527211 300.229924287 302.389510441 300.551423619 292.267811965 279.976747829 57.5405427311 55.9387328547 50.3842829016 43.0347419616 40.2961017864 36.8581559595 34.1970496647 30.6118403835 28.4992584589 26.5577080113 25.6658201362 26.9951416898 28.6342143674 29.661154524 29.2490604723 26.6569448164 24.341592587 22.4632110958 22.2508568417 23.3802837506 24.6528575378 25.8094233806 27.1143728758 28.6377966483
62.5662351958 55.767105929 49.3915666441 43.0170222178 41.1297619032 42.4757457298 46.7551825849 52.2555380992 58.2231982972 63.4500121938 67.7721832042 71.4058753192 70.4100265233 73.1970060048 75.5702642522 86.9482573819 87.7027635344 86.5850078686 87.4271188917 80.9505845642 69.8075881139 63.0604123676 62.4744325335 65.2637224456 74.4649684823 87.7330027295 110.110747126 125.213276304 137.810172488 148.674007587 157.870264499 184.551029787 198.980125303 207.471742834 209.401670962 225.031592982 229.38086281 258.215831688 263.994112631 255.466223705 243.187400689 227.004345293 224.951951264 212.660665831 209.136546923 223.789610867 256.513989694 298.294097632 331.513243469 365.161744667 394.578393529 462.820744914 487.16100017 508.386018049 536.145893434 547.447090593 557.266092223 565.184183825 612.533873395 612.326023281 602.534494112 578.043920208 555.504146916 485.009046018 395.355194707 307.554586063 257.146400701 274.664191962 349.321776822 454.187223195 538.154159297 584.9693294 586.836990177 543.607310936 480.769165357 378.810693721 302.090873167 296.854296615 370.75104811 452.296567123 557.259692355 620.233878267 662.897962361 673.612522442 634.79910685 665.88031648 598.141385807 580.868657671 553.720876822 506.508042638 418.94924757 303.284069493 207.054839681 124.817075372 92.9339857358 126.449085261 173.271614525 218.819280519 240.23657286 236.205597783 189.666958403 149.575118906 101.592032211 73.0051268476 68.0252259088 86.7827224634 114.409545996 139.089340529 133.45473784 141.543973832 146.145459156 130.979296539 131.755530342 141.379371318 182.310019759 181.122748272 178.153682675 173.328829044 194.616480226 128.484500005 120.797084329 80.8547404767 70.6157414775 81.7475356784 56.4013887035 23.9749431984 16.9650881203 23.0997013298 40.2409646899 42.219142504 53.500403062 60.8588936784 63.4279976107 74.3896486951 66.45296695 54.2897199941 39.7449261417 28.316010924 25.2535136361 36.3240191933 52.257292996 71.4823257506 86.5072029421 98.8518934597 107.985897707 115.659210664 122.230535927 127.586999933 170.381783964 164.92805593 225.500305735 170.499194863 170.333643243 169.128759185 166.65700498 189.611610628 234.680536482 219.937456604 193.180903869 153.377209334 105.239183467 62.1037236065 42.4190061275 57.1292172945 133.786184493 221.206115239 344.869835918 417.241806906 458.024433257 415.381458043 538.146772829 387.596377318 372.551521874 496.7130415 643.098858895 705.529914696 769.431321266 811.692372524 816.814277143 766.296730529 662.061381494 494.813272405 342.223085735 214.406474902 153.399656748 180.361543489 227.983064854 329.822667664 423.49172314 450.99420044 490.637550643 336.835308139 341.161452169 336.150899501 324.945714818 309.042644559 289.099589367 61.6176802762 59.2313349 56.2753269527 48.233019048 41.1622813643 37.6825219514 32.6661262514 28.4416214923 24.1234246131 22.290159835 24.1395389721 27.8267561558 30.2157944834 30.0552079385 26.7998744675 22.9701888957 19.590856472 19.6411011732 22.7595728352 25.8662274356 27.9726251628 31.430972717 33.1197361876
60.8820240035 52.4379591582 44.094501817 37.2925300291 33.4598294089 35.1594772817 41.2386116173 49.6740291219 57.8217450671 65.2072468833 78.337726778 83.7483058243 88.1229859876 84.0968301299 89.8462272744 93.5490087496 94.8953815788 94.8216821087 98.0485822295 94.1629839255 89.3552839913 81.6010323615 84.8315146136 88.3717339092 96.3872978246 107.330406126 128.582586303 141.336054711 157.65593955 168.563764492 196.582965982 207.441902671 217.573257683 236.583381708 254.823437032 256.069330303 261.502161794 265.0214183 290.610386155 287.148334109 281.904632832 274.326229463 266.432885282 279.964744041 289.85449206 297.30236356 325.497727424 352.16265029 381.053369583 405.450392967 431.781268648 507.095798003 531.124949267 547.444083706 578.879833519 594.670094055 607.457425257 618.214228589 669.534695615 671.407002945 663.993108139 642.747892244 625.880264903 562.972647939 483.466370226 423.35892827 361.750933311 381.1213852 442.242323784 533.224150376 604.606509864 646.181293087 651.06606807 619.400227078 615.140532561 532.685264421 451.145264388 451.718579545 512.438823648 602.807208643 706.306059405 769.186028648 756.537498097 768.103146018 769.025079889 758.236295431 740.866024912 655.223848479 612.635562235 562.062778633 462.555842841 358.123624797 220.631338769 126.671081039 87.7212736215 125.652265078 203.328085385 245.543026268 274.537664029 271.00856825 241.926846154 195.7284722 137.940172962 104.621541003 91.4236268231 107.319420366 130.909431406 150.3461964 163.160045983 149.07242512 153.307441565 155.581434756 179.657313671 189.716068888 190.317874787 189.166370481 186.222860547 209.460056326 203.835816289 180.324420196 169.886687367 129.466280879 115.777575083 97.5403578836 78.4718062308 56.6628943157 40.4695737739 43.1410745292 57.7764598727 76.5422582736 92.9479001064 335.061837092 371.826245706 361.614640948 327.238768819 68.3541142173 56.5998679958 47.571092196 51.6271447709 57.7384571035 77.645952714 90.0415796763 100.99194708 103.121851826 110.694401546 118.205214394 125.39309297 166.953628374 174.28319867 178.902924323 228.71362622 228.722929031 172.670868896 171.922791324 170.96440616 196.929383673 246.940636391 237.914827491 216.942321009 182.985866441 159.192719323 114.201949152 94.2862119748 110.355781125 197.175561654 306.870190816 420.755578048 483.038001616 600.636221247 586.247405542 536.768058819 437.543338753 393.742507777 394.054684939 529.647022294 647.070811609 750.178284992 826.744303798 827.023722106 783.989647579 670.734900974 501.283941131 297.352357927 138.087588728 61.0992443703 97.170733867 225.979113416 390.774827991 440.680003298 610.279590971 534.875521774 558.899737608 377.071879284 371.904924079 357.073880904 337.75384833 314.359117605 67.6606075188 65.158836887 62.0761906281 58.3967524589 54.2602470294 44.3008756224 35.1701533959 28.8507693465 22.5446738259 18.4237970862 21.6847344242 27.7299238431 31.4994233845 31.6616894834 28.008757059 23.1878121051 18.6727137109 18.7917272195 23.2040220302 28.4931994841 31.16805896 33.0345052687 34.7824715392
62.2363156645 50.8652065041 40.7688604316 32.1437414276 27.629192227 29.5882985243 38.8839981043 51.1227468326 63.3329407585 73.7184412076 81.9688307457 88.4314859125 93.5545969101 97.6626317589 100.908946483 98.5225235221 102.358644084 109.670732645 109.454850048 108.338703622 106.900896981 104.390617765 111.123570424 112.879869662 120.018022309 128.778052901 149.595594481 163.379743658 173.143388027 182.892802678 191.790627881 221.668861674 236.065921388 258.466874575 269.83486645 282.967300638 290.479727216 296.835132196 317.534157978 319.357462732 321.090098231 321.654630951 321.841642099 351.358801173 356.105051854 365.880283676 383.794195202 403.414467508 426.082130977 445.580568042 479.835130795 543.276576166 563.161636623 584.812914085 604.904849682 637.753318807 654.989277024 669.666404331 677.634532437 732.914776469 732.183982096 719.898586018 715.39021257 668.563596492 608.386584133 576.108967555 538.973548278 532.187177443 571.453161441 640.455716033 692.672202208 725.555490602 733.178670721 761.741796253 743.740955723 703.49662076 675.0084687 647.195220984 693.054494981 776.214302009 838.044957937 881.527947804 905.018534604 914.129742495 922.191468597 845.868202897 823.970700717 730.961641307 684.817116112 632.903542525 571.586174866 467.825396008 341.938808583 227.143435473 181.88659305 220.747663368 280.534785447 315.986948241 308.08827233 302.721373594 276.149214785 245.781159986 202.41694912 157.040124294 149.433190884 158.340895363 152.766359112 162.548035621 169.326653309 154.62756204 158.4518893 160.863205788 185.701875365 195.46453883 196.125600456 195.104189671 192.348785597 216.415082932 210.850740224 197.71120419 177.992172638 138.371609749 160.219423427 143.255561376 104.240751983 89.5100774046 80.8606330655 228.459349372 265.76508006 326.154710489 384.050740205 426.266628434 424.477275547 420.840036005 392.98581552 351.4805903 306.191446935 280.653390859 263.173144602 90.4068674043 96.4430164699 101.831216579 239.69448344 102.775724882 108.995514007 117.322161206 126.291401975 168.258340996 176.641853854 227.88975857 228.195650932 225.326133325 208.104419037 209.793416046 170.781839344 211.910900102 257.170259935 257.910296329 247.723495033 259.194023638 223.135806355 190.839651722 204.037759567 191.692963563 306.051248789 421.363084751 491.041548909 530.547651542 622.192202578 569.596563183 474.558828452 367.797459441 273.925037973 264.762242151 407.052699493 550.119703888 704.024444073 875.273854435 908.523911568 878.795286738 763.22651373 545.789545602 328.102775955 154.971964169 70.5987814976 110.087636382 250.716011209 429.381340321 483.11424031 666.601240384 739.454479835 608.095887625 588.770393524 406.011332219 393.46299182 368.485445741 341.68523103 80.1681146045 77.4925251701 74.1136813514 65.8856705534 60.0572596824 54.7197191609 47.1535683923 35.1431313282 25.9640169741 21.2713356865 24.3923895425 30.6265083316 34.3948242368 34.5874456431 31.146368317 26.9805282274 23.2936971763 24.0768353594 27.6532985418 30.4141598935 31.8875897215 33.5350716257 35.6275069714
68.1454934654 56.2360023784 43.7343785674 32.8188662234 27.1237780111 29.7863352821 39.3552631486 52.8229219784 66.0888815039 77.2988141995 86.2090718797 93.2197805993 98.811403215 103.350171626 107.061170648 110.058983824 118.357655734 118.950081685 120.683546284 122.142153163 123.769015291 124.093374679 127.916521877 145.194088492 152.523447203 161.373479353 168.970909386 180.335171349 188.208722443 196.870196165 205.353214051 241.674037059 262.54291603 273.015876276 285.34285642 299.867915496 309.154034337 318.13312685 351.910210291 360.008084802 357.881438135 365.4498855 372.217859832 405.01247642 411.001298513 419.253179994 424.099097472 447.93833514 472.347354242 492.86408767 514.450043335 530.693650849 597.32000805 619.998477849 641.909645602 677.847784679 698.269236166 718.184362501 732.447011717 795.309126825 804.642947186 805.580487595 826.64060078 791.679703056 750.620487456 739.345855811 709.853958356 705.659296755 734.132477876 770.340766082 792.863225507 817.213139545 878.774857841 872.615957104 882.409623082 873.189428657 869.750029637 888.820024225 928.244218264 941.378311922 977.224106975 998.94948222 1007.00482829 1018.40842262 1006.59675548 987.260594474 947.11862638 914.198576337 819.931746123 727.629119431 665.576788721 586.016922311 489.275578397 400.379825454 354.698713842 364.527538302 390.566871584 425.34530568 354.339083322 343.440783505 317.84125384 294.506410965 258.81370244 246.435521446 231.290912713 203.380423215 201.330566965 199.410246869 168.015339336 155.683229435 160.51804241 184.427305441 195.980908725 198.54400367 199.078492194 198.307205767 196.102208652 220.871735345 215.206762818 201.436294098 190.748436155 178.363162522 168.233059296 159.520207173 156.089070948 121.262355784 117.575091444 335.926448759 375.193366619 411.872787527 458.518603831 493.660012679 487.04290186 524.897310897 465.173492936 432.722533009 409.516074538 374.961233376 348.641444234 327.921346932 109.08087008 232.445852658 217.391194782 210.009621982 226.010755658 111.846670039 288.523065929 168.130634514 178.078156186 227.537954165 223.387127912 214.704111438 193.627442221 194.337926082 202.327226238 208.588034465 221.021915724 321.502102916 324.487420136 314.817615207 344.048359936 324.053497118 317.996762994 333.235861149 472.493466852 529.318103703 574.752503643 589.462173144 577.611270678 564.205638424 421.682778002 264.610217742 145.793364042 156.899360271 271.927026062 495.832238262 717.274633787 892.262540764 962.847824706 960.346461797 866.289058915 747.982448343 532.220195885 293.15277857 241.056670091 248.522551319 376.567661629 539.312625783 641.379910955 747.229242485 810.319159087 839.240308881 635.662752462 629.937100333 425.759844187 399.91717714 363.66255978 86.9004517439 84.1345249736 80.6814831521 76.7809567788 71.7090282702 66.1599184734 59.2110644462 48.5294020181 40.5552126974 34.5148586213 36.1628766169 38.8730640519 41.3031300873 39.9596330326 38.0673910307 34.9552387227 32.3207244524 31.6204813594 31.7075497582 31.336960631 30.9640066255 33.5070155912 37.3450272463
73.2269553132 62.0488454014 50.4005221926 40.3475336983 35.2834799175 38.0559204809 46.6175982526 59.3441499236 71.8732785829 82.5753240187 91.2488103284 98.239866567 103.962820497 108.749246328 112.834225618 116.384724391 125.441798701 129.15006898 130.983939104 134.647280264 138.89646066 141.818439904 148.095202208 160.504520438 173.723596243 180.951860686 189.845971251 195.423666692 202.274414379 215.320794648 223.645222008 253.893244314 275.440166536 286.594234482 299.727603208 315.383744876 326.158267836 337.404711897 373.861995052 386.123266505 398.946258028 411.699773451 423.170126747 430.580542544 452.39746864 458.692829067 470.436978893 488.236157096 505.148227001 525.043579511 546.472310545 562.719029572 629.120030958 652.648097436 676.042473396 714.631338298 737.983130891 762.12717214 787.418878575 855.820174429 877.439008892 897.708657656 923.046571465 912.491459102 886.973324985 888.321862351 861.707402002 850.353701134 865.033344456 884.702627972 908.62252483 926.760890363 978.850893981 1010.74010178 1011.66110776 1015.37598678 1035.26633629 1060.37959886 1093.34951146 1093.17162793 1108.62587622 1110.55125802 1142.40289275 1101.8443234 1083.7476066 1060.7313585 1018.04858674 984.049784078 942.282010359 849.841350878 765.282051812 714.793422098 652.818412714 588.886298251 540.634904845 520.187668097 504.41768114 507.644769569 453.92333187 431.904087432 374.95406445 342.507629543 329.53024469 300.195902021 273.703756144 246.9962897 199.786172149 181.217510385 178.383875184 199.769703679 186.446474684 197.411904384 196.572183412 198.152614856 197.910980004 197.628500334 196.864486291 222.720235237 218.901336884 201.061812658 186.334366986 172.415718282 163.244569837 166.7610241 170.347291188 174.447459461 390.257873474 424.828551566 465.898481961 512.432547242 554.905302581 587.519955927 602.011124533 599.815583297 748.617959837 715.882251042 492.267675755 453.827453224 413.629036162 367.815844906 253.91199795 208.372723424 167.013154277 153.077676068 174.174316629 254.774309704 273.877577354 168.080847806 225.192724371 226.192134223 214.265801091 195.205214136 178.44876774 164.922258914 177.661374806 202.118841632 319.150830587 354.001939753 376.10654892 384.79423897 427.617696274 425.774269614 430.192434467 445.894586228 604.174464863 642.975323046 668.018937903 662.229373715 630.48622863 591.406447033 413.517506669 216.962177269 76.7136338599 66.0038283856 227.00625221 470.190518358 736.468153038 972.889318192 1101.41126095 1079.4467262 1017.93065338 948.782029649 777.609313571 608.804872496 535.127021134 565.736038536 682.313527016 709.14257844 910.78797108 846.485923441 887.085944268 899.47500775 891.771016667 667.071492888 452.101457067 422.494900617 388.972125029 352.986510547 91.1600996437 87.6587713301 83.6279952116 78.6413924976 73.6156373876 68.6685799737 64.1007280728 58.7018299723 54.9132581075 51.1193513216 47.5027172894 47.525015383 45.3235709838 43.8688471859 45.2248135589 42.5081388819 38.6498435566 34.5693281693 28.4122239292 26.6316843239 31.4685494509 37.4777444052
104.197931837 71.4372570288 62.0320603169 54.3202696912 50.8266878478 53.4382651874 59.2058392754 69.5345575219 79.8762340607 89.0241791215 96.7728858903 103.309559267 108.892055879 113.752268799 118.086268643 122.070117882 131.605878764 136.309049835 144.925674959 150.36638565 151.699802233 157.017053116 165.707453191 179.373925757 195.252926672 199.958685354 203.701343555 212.576047949 218.383162584 225.916325729 234.809363173 254.406915867 287.420079248 299.205430574 313.889207677 329.178109942 340.928989191 353.839408143 391.879359479 407.366886396 424.006588684 440.579951968 455.019605838 463.716618828 482.817795209 491.093889078 503.471253713 518.149596992 531.926407346 553.436288607 576.111517974 593.066303718 658.517566982 682.62872661 707.104779948 732.485263977 773.451294923 801.179297589 832.311978387 907.728644888 947.570289219 980.828271405 1022.08217487 1027.46241665 1010.52090909 1012.07597655 984.583864176 967.017602966 965.498619515 1023.424326 1040.31723908 1057.35859687 1116.0164528 1115.05142405 1124.82446612 1138.10326204 1165.37310058 1192.31716752 1221.52995505 1219.42669171 1221.03557449 1238.34188086 1220.14296208 1174.04327446 1151.6067128 1126.78082825 1083.33280214 1048.27351674 1006.00547819 933.346157825 852.141209374 825.626058719 791.738661257 745.466090783 693.83228997 651.895589751 606.910417004 585.958755146 563.289204187 534.113055675 465.991700455 387.207511083 377.821580476 342.502439029 301.773266469 251.990480748 181.969083636 145.247148011 141.103180987 173.511657185 212.021693689 235.98245108 194.719043015 192.63155032 190.135000517 190.986129934 235.334793024 238.870028705 232.386765063 210.092789794 183.706861258 151.776207344 143.725689209 150.886185045 168.965352407 187.974686901 438.377586476 492.752902081 543.121718676 591.803148388 632.524455889 662.951837766 1034.11143545 1037.98455858 1203.86801469 814.463363409 771.874743255 520.751621808 465.51460282 568.882440915 251.828740726 174.556637649 103.634104838 112.313652455 128.449558293 215.973297168 303.20810869 220.639340172 409.582659411 226.088827214 202.598860637 167.461656039 154.154354143 143.444636675 161.942388352 210.063780853 306.891156977 365.143890879 408.353168571 436.494667259 504.365961003 518.954621221 533.758511539 712.810038286 746.130485745 758.284405603 770.733011174 753.455475009 714.598497828 597.762432739 521.292256775 299.120114071 139.385416385 137.661362424 306.151635868 586.274035542 857.218642791 1088.94099749 1236.29036105 1236.68567925 1209.82922411 1198.23646792 1079.67136848 997.724605349 939.882971066 905.824150922 975.211515172 1063.70243113 1075.13957961 949.46451791 957.266717569 946.971018973 925.352527382 695.750227168 665.913106519 441.946939983 404.92491 365.375068114 98.6369952176 95.1426283457 90.8223215053 85.6097165921 80.0622701119 75.7838508941 72.6311829035 70.9817780959 67.9542895726 62.0491818411 60.0169097996 61.0846025863 55.7143539341 53.9548558219 51.6803647072 49.0453393123 44.2645904038 38.4006576621 29.8515865256 27.3307801332 33.1337613184 39.8077647106
116.807375411 105.283961964 75.8305063128 70.7119562806 68.7555157903 70.8461441894 76.3761785708 80.5622326971 88.2413485823 95.4933663173 102.094068993 108.027162316 113.355187868 118.186892385 122.661759742 126.942158896 136.642959455 142.037609209 151.659179017 158.360098486 166.329329361 175.673108669 180.397530851 194.979799932 204.505508027 214.312519514 216.171927653 220.396028181 226.353831365 234.783838902 245.008247372 265.786552467 298.735183627 311.0079226 325.756310518 341.041519597 353.076201645 366.87023598 405.435411464 423.188473683 442.414849786 461.29420139 478.154176803 486.239064704 496.971666809 502.084248875 513.48581196 535.334445583 554.326173851 579.723921772 604.499160095 622.791553248 644.219191469 710.024917375 735.073569431 761.613540895 804.223775421 834.110178457 869.292100972 955.470576317 1002.07582961 1055.60393114 1113.0236501 1131.65813252 1115.96139526 1087.62660772 1077.07247913 1058.52349763 1088.71080397 1098.04420303 1125.63604851 1141.81977829 1202.86032177 1246.44749863 1259.13572267 1272.62857039 1273.39750495 1284.22242044 1308.38274296 1310.79620727 1322.67633905 1303.6444094 1279.53579052 1232.25814622 1208.51217361 1184.57747998 1142.95687444 1106.83562552 1060.46960995 985.417131764 944.084377202 919.936809242 899.264795776 851.859795852 799.80984226 745.723691699 715.201708104 681.484707315 650.253072051 563.612858705 509.064487859 490.32467962 422.107866911 381.447042627 329.299408019 261.089761803 171.044874575 118.312369171 114.600483592 158.713705385 209.876229061 235.272887795 227.752262304 203.743312189 196.729864842 204.356298971 221.668306453 235.023931636 232.301285087 205.437055977 166.030200779 125.706737299 153.880468872 123.031999252 158.4098023 407.838303937 507.405310005 547.230803788 609.759578963 1131.72916522 1216.51429382 1259.52677196 1131.78546854 1376.17154015 1366.50705813 1286.95044762 1226.1494097 814.570585002 730.556111224 615.616855255 466.224660129 271.176815004 95.5835611169 36.996920369 132.144019981 218.366815348 311.741694163 410.606542489 424.547614648 394.545640839 222.519584271 174.200816043 106.581945785 84.1019790715 125.896465442 210.171534459 298.14633765 379.175412894 441.36582336 527.938792062 575.279164153 603.962620842 628.663077493 831.654005919 865.477239297 874.760133935 883.706483044 865.965623811 876.60171418 873.719676415 700.020198581 509.29471042 372.398396308 412.198537218 562.153917732 811.212560798 1076.97391341 1270.22990197 1418.94524616 1504.50778208 1433.87936883 1475.70665089 1475.26474537 1398.4928252 1320.33965754 1313.35850448 1270.57834746 1291.58883738 1230.71933338 1035.80660902 1002.08232027 965.010371955 974.011391635 751.44403306 681.961829735 505.422059594 417.023668236 373.498899051 330.235198961 146.824660121 137.137011033 94.0525707103 86.7365445335 79.4253218084 76.0496087365 75.5483628358 74.2539495172 72.7537633193 68.0984946161 66.2995925717 64.5216640978 59.2340050592 57.064558837 54.6464465416 50.7863533297 46.9814306478 40.905663107 37.9669172226 40.7197536092 46.1317349394
135.088581675 125.531595364 117.072273189 86.6891127706 84.2741376014 85.4297985067 88.5844645882 89.5100637276 94.9601355598 100.701373333 106.444532224 111.946707229 117.084042503 121.873577948 126.42305456 130.879649515 135.431819354 150.006023739 156.33162831 163.803584834 172.907895605 183.80917726 195.77458875 210.778043563 217.001963673 220.007635872 221.39123453 225.050921646 232.094306592 242.337721344 254.688100541 277.105649049 289.546736336 322.291266429 336.437020492 347.097173126 362.406998623 378.920483219 395.502315799 433.450647693 454.021184878 475.548862338 489.230647762 497.86033145 499.227833163 509.108007311 528.82917896 549.581148004 574.863478813 604.666585498 632.393826037 651.777052776 672.590178884 735.048174254 760.105687699 787.379864757 835.278216624 863.174169588 897.36168238 944.259980243 1038.13791439 1109.56350386 1183.23775252 1215.94136741 1200.27038102 1156.20167844 1152.10863628 1153.60200837 1159.46402307 1172.80512605 1202.31825138 1219.16722006 1281.32594837 1324.8007732 1336.26326337 1344.92921003 1351.79468238 1361.3573126 1354.85163906 1362.59681339 1365.82718617 1342.88575111 1320.31828861 1275.82092033 1253.30625822 1232.77048571 1196.90748576 1161.52042582 1105.10575646 1049.23137016 986.502921619 947.228139881 931.426001161 916.973084613 877.055724444 815.351913304 769.383322892 729.675520901 693.360758926 603.86966601 595.40323338 530.663605751 495.427919908 451.303672042 401.669032371 295.659585508 211.173681161 145.814709779 136.89028152 180.458179513 269.338539178 264.420839424 236.550360681 193.380674121 169.268430524 197.257280782 246.775467934 232.696428375 244.982972489 209.664623079 275.060448789 142.835583979 83.7660884251 104.160441273 275.749432375 639.501058612 542.322814266 635.582536889 1175.24284748 1602.73201027 1317.09034993 1361.19660606 1773.87711802 1475.85298261 1467.46891501 1405.16608412 1341.9129745 884.618259317 797.121318544 960.638379968 535.12705851 476.99657186 228.610451476 146.100199668 273.581284778 265.974468742 378.928416093 449.105531798 464.565810245 450.252841204 349.42537547 160.958568117 69.6550119165 38.4268255029 100.014442016 220.585797418 351.255339349 459.488744636 541.926754797 582.640311551 643.653388617 683.652727232 785.957962762 939.460410451 978.003813681 1090.10427052 1085.46896319 1073.96613606 1030.51709082 1076.65767293 955.217725536 822.704336846 729.124183196 825.687120334 941.878782521 1135.24390506 1349.15111769 1539.84684632 1645.89489284 1740.23550703 1769.39084408 1855.68201036 1810.82589191 1787.37294536 1678.07947803 1643.12361866 1534.8903324 1483.73164858 1404.27300373 1243.36271993 998.215489003 966.43788361 928.403804145 737.761730475 727.028008923 514.500246049 475.864852905 424.053527175 372.270636201 325.869263831 145.556410924 133.44235434 92.6965395381 83.3761748349 76.7270425868 75.980377433 77.0667711986 76.6303094391 71.9630088981 69.8975430302 68.0294452319 65.8662320892 63.5546735028 60.4849336454 57.5028362276 55.7532972661 53.3684720231 51.1953534626 52.4025234333 54.7868347877
146.504044462 138.383336902 131.08915865 125.138258948 99.8736153073 99.5442360769 100.657475613 103.315611649 98.5429198321 103.67903655 109.272048048 114.763599384 119.886930875 124.67231335 129.271242657 133.823147869 138.467255626 152.478808479 158.875697397 166.589086366 176.270233559 188.190601923 210.384618863 217.941435805 221.73240993 222.760271732 224.53218722 230.395987952 236.634933193 249.412507857 273.278355128 288.942350064 302.972310928 333.359776914 346.066228332 355.170426024 371.638750192 384.244367188 400.703614706 442.86155049 462.259827762 479.784361276 492.43145988 497.419217566 499.424469213 511.167919806 536.649521773 567.707794582 605.533498895 641.570829118 662.672755401 686.545531483 700.968850171 774.273997154 798.272444711 825.245321123 853.477787241 880.24127566 910.986107401 989.08795541 1054.2641378 1143.46170873 1227.42559772 1259.57388253 1235.40600282 1188.15577656 1177.55561761 1203.3512228 1220.63500749 1240.91927296 1259.74116235 1290.88623335 1352.90949409 1395.54236574 1405.68877688 1408.33693917 1402.61373726 1394.1277121 1377.54989437 1369.40263992 1375.49827617 1394.40820981 1378.38133302 1330.65905255 1311.09551048 1290.05698722 1272.50391873 1270.1665936 1184.39159039 1086.41475341 1017.35828283 951.369469228 935.477397884 937.849636858 905.522753281 846.38296134 800.966169341 760.326227535 723.127712589 696.486640326 628.421560763 566.968801537 535.418466834 508.30584839 457.51941211 388.8857804 306.925038284 233.210459512 247.966790285 321.567689231 366.959082147 333.28161322 261.890054707 149.308662123 108.848285164 145.026699179 225.020207947 292.879941674 322.205141518 292.548758127 356.220142165 203.763228167 150.437957303 251.571387651 479.958860857 713.553684885 898.502368236 685.54439505 1583.41974912 1696.55244059 1402.86692933 1841.29464853 1873.12935896 1560.37604228 1552.11446029 1486.55414676 1416.22904975 1321.25333493 1201.10880713 1061.28324718 903.280092349 700.594938348 537.063128839 463.689966642 546.055657507 601.182753065 534.806241255 597.966055845 516.526010227 500.454150284 292.957236589 200.795240919 117.433382631 82.5174415919 146.698925577 269.548435681 433.486342231 508.020635931 624.564329541 693.112241089 764.905149592 885.983817805 1057.49266568 1107.73028101 1151.75323367 1253.34265433 1277.85151834 1218.80769377 1203.08547539 1304.21355565 1241.87329154 1172.58430889 1267.99673472 1274.0556628 1359.22414318 1498.87054176 1660.59538959 1859.76048409 1988.71355142 2078.07724853 2237.58247868 2250.41456229 2174.89206962 2132.3602656 2107.42044848 1944.37442072 1853.13857593 1643.79026099 1471.09679564 1331.25480731 1049.83606309 934.088358516 906.754736281 945.180274798 713.425158506 702.15234027 651.15501447 415.348092779 353.88515723 305.244100044 154.866127999 145.868207671 131.482809679 92.7935774913 84.3156463594 80.8436967226 81.2229085653 80.1162681814 74.4436020609 71.4652017533 69.2700396444 68.2001361318 66.6122539547 62.7644204516 57.8205986126 56.8896401514 59.0799522449 59.514346968 59.4335614856 60.5979617399
164.484059761 148.081673596 140.585954061 133.385398874 126.582988831 102.413424837 100.857496517 101.767188576 105.808271245 103.990546924 110.454137348 116.446998898 121.693009499 126.480425168 131.138977987 135.775974655 145.903022422 153.304176909 159.267092028 166.646115442 180.707151149 200.447174956 210.695110616 218.638533478 222.244777805 222.832237753 225.400594536 232.743316034 247.824061729 265.290821263 284.95625304 301.593047273 317.346086064 347.568046551 360.633419189 367.59316704 376.22483051 388.274273052 406.762410886 446.795039809 464.768781653 478.506216611 490.311591854 495.953802173 500.453840555 521.588199642 552.113094534 588.927872645 633.112786297 673.813320998 697.097088553 717.963354681 775.154172428 793.652769307 812.811535749 841.632947135 871.766965344 896.628058175 918.736559606 978.53439575 1041.85506936 1123.56890248 1204.51785613 1242.75507552 1224.10799158 1213.33587868 1201.86364849 1249.07303628 1281.67404154 1309.36011949 1328.71511918 1344.93522178 1413.93128377 1437.5610372 1474.40007913 1474.15348827 1458.52053423 1456.94151903 1421.96462549 1394.84953332 1399.41694253 1418.54771095 1424.15259979 1375.79641392 1336.31780211 1301.01147906 1289.35611533 1287.7445896 1258.15553286 1162.68899279 1066.57548975 995.215297319 969.577902965 954.551474755 918.895583439 879.317202176 812.688843404 773.474554755 739.094166736 716.225338309 653.074785972 594.362024319 567.474357979 550.369448979 515.751640161 468.134624945 407.573714549 399.228588876 398.06973494 435.911118224 443.112820834 374.469932223 320.038340978 167.189236013 103.927598263 144.66168803 239.853802292 320.617724612 360.828003052 577.228237578 488.741204003 378.663226877 541.229780134 663.175962707 921.336043725 1181.77735809 1388.88600816 1537.39882817 1636.89376767 1756.52487982 1866.59176014 1913.10645294 1948.02964621 1943.54898977 2113.64902688 2028.99944386 1461.63156923 1348.99762213 1225.46546309 1116.29054229 1029.53879353 929.446470362 868.802951955 827.978194334 727.856905937 812.531202685 650.863440434 688.742358111 720.713438136 620.092437475 531.653167467 414.980507224 250.070277454 229.343190292 281.377480026 378.097975707 521.235493129 623.066712019 688.621572326 756.510633509 905.663598047 959.895532703 1005.43279002 1195.55059781 1247.48899205 1361.03666313 1399.84817683 1427.81906125 1378.53060364 1528.11356504 1518.54388317 1502.85139965 1658.08780593 1677.90725188 1745.53862291 1850.22949177 1975.96571856 2152.33769038 2266.79277464 2544.35337582 2532.69875058 2555.09712877 2548.64765146 2464.3910109 2431.49554849 2334.55948675 2087.89499554 1791.97203189 1511.68772704 1238.99326227 941.422119368 681.305433341 673.972846989 795.694692504 790.001898234 826.971642969 647.246692518 541.723458383 504.82633535 321.54892083 159.20690322 156.425332183 148.961101982 135.96399772 96.4361924422 92.1847844069 90.4961764512 85.2682195988 81.2103071186 70.6890925676 66.6824525258 68.0033074933 69.4475703097 67.7931894505 61.9017797761 59.8307142122 62.927682989 64.5329644168 65.1488189865 66.5858210841
171.891872856 163.263701415 146.617075603 137.241143011 126.613971895 105.475003515 94.6981494572 93.8733306373 99.2680475408 108.619325838 117.868877524 117.272758764 134.365951069 139.713538869 136.158087864 141.274433485 145.875820721 149.936911345 160.908985017 167.904084342 176.89674008 196.710974766 207.856360925 216.457213216 220.847330433 222.499905508 229.346936275 242.359089989 258.780121327 275.550224125 294.926794777 320.859217363 337.254974954 348.446490691 365.181616041 369.559108989 376.292614487 391.383353968 404.96450056 442.954446765 461.032539725 473.824340712 486.278338726 494.845303538 506.995309573 522.820824028 554.651158913 616.421144067 667.692794248 715.056633219 741.520011878 756.742489169 764.507725249 804.946201831 826.146026762 861.403258935 891.973513542 918.614443246 929.728129293 940.222499343 1006.92956839 1071.00731292 1133.78474988 1169.83500488 1201.49334548 1207.89398948 1241.3717963 1319.08541761 1352.57236376 1385.94427912 1399.37095443 1409.96084584 1466.21140358 1504.10592161 1547.32242717 1566.45478831 1543.45793181 1520.04049014 1488.46045668 1459.82533231 1455.5410776 1461.9625045 1453.88972388 1424.97744076 1358.70651699 1285.78640484 1272.14520574 1297.77613271 1293.93776538 1236.95017038 1141.3683223 1076.3462696 1038.19063438 1017.06216695 952.586114728 887.751272728 802.760844979 766.273857611 746.464707925 725.422508095 706.630236994 608.778212001 583.039936524 574.254352044 558.799584793 601.256514084 587.316289652 562.575296754 516.818628264 545.549484944 531.377149159 503.580327916 413.617801806 268.110055556 215.917839444 284.289534804 341.502029137 419.691455375 694.036096898 705.691664776 664.329704719 604.947953232 981.672455068 1062.50813611 1202.58740707 1324.6623984 1418.83059149 1526.72539446 1656.0076427 1767.45532784 2238.98214395 1953.83558029 1989.43016251 1984.44615051 2150.90394992 2057.61082077 1473.66972039 1314.74737752 1151.02037645 1056.65106488 1035.25961012 1052.27493291 1101.73221552 1112.66382622 964.398373322 1011.62035096 771.626146778 789.113122554 816.208036071 816.676215241 739.344854334 574.4723116 412.349634923 409.020585625 444.971050525 506.708953273 619.116513639 698.857249195 756.282663048 903.769027091 972.528634038 1030.12573932 1097.74004848 1273.78822956 1388.07761402 1456.88779504 1510.07645296 1558.67694926 1602.06560258 1772.14054057 1757.85580483 1780.46580364 1960.99834065 1997.30766529 2064.25642186 2158.45624704 2320.67970266 2439.69855861 2549.36720871 2827.45457205 2899.481993 2860.10107817 2933.38197714 2901.24072684 2831.23033942 2774.24456251 2438.72969627 2138.47039969 1703.07592215 1228.82605443 719.090784225 387.437486151 396.535719103 631.881932404 873.865358708 840.911309343 788.09637998 626.584229163 424.422907893 229.372286629 181.57372575 158.549951076 160.901332211 155.798696983 146.620989882 104.908668426 101.70643084 97.2417502561 87.186134249 74.3071385713 63.9466247086 68.5278391342 74.4220360101 74.0497337118 70.4167370173 68.7467706671 67.6418376478 64.5174878503 63.6452934018 66.8895242723
243.767378638 207.710671087 163.386609168 150.387939936 133.513444685 112.999649978 94.1388750721 83.748589006 93.9310941594 111.460854946 125.530389652 132.864631674 131.275282359 136.38903934 143.007176894 140.729935164 145.206678195 148.045995955 163.488097105 172.026676729 180.993697791 190.267023853 202.770568279 212.686105521 218.98648354 223.236896489 234.884484131 249.977703952 266.694211462 283.454260454 305.539915435 332.109141976 348.157828898 365.596783936 370.283978774 371.46798089 377.833677256 388.418459509 400.883744178 416.525879205 456.635480394 468.145760634 481.90248552 494.517110543 508.013176257 529.095510055 575.827977069 626.164450265 705.228447924 763.94500897 798.580137168 803.598997802 795.066879318 810.985683318 827.05319679 861.682641829 912.960261812 950.124839472 952.019353903 939.755687551 944.921108695 1007.15665545 1054.73518927 1091.26235591 1161.00896667 1205.74845272 1267.82711222 1375.72169393 1450.3101281 1487.37088841 1486.05920907 1503.97347307 1514.98538381 1577.42671693 1633.97001457 1642.42672708 1617.45210718 1585.64672275 1591.21482046 1536.7212771 1524.32371881 1518.40115345 1534.70238083 1490.01068412 1413.08232876 1321.49743472 1306.60945979 1352.9922105 1343.96701619 1303.07291205 1249.05749267 1160.6653476 1108.96070184 1059.92221771 983.483640984 883.757611034 787.516043188 753.499238294 732.429873148 738.863641887 709.897072485 638.539937892 593.853047874 578.661907594 589.348637549 639.141169843 658.582208975 654.96427799 694.185291816 643.926249802 624.747282214 606.997517115 548.561980004 486.958530588 449.59334674 470.664850837 531.803662079 545.070640179 827.145244223 856.15781889 849.515644976 1061.56819506 1359.49901168 1444.50107689 1383.91308118 1335.28718208 1287.23726197 1342.75107132 1750.76538057 2010.04173249 2218.56384541 1957.11723695 1978.43618558 1969.51607417 2141.2942396 2060.87897889 1865.17855313 1520.62700726 1152.96223095 842.10813332 871.725134102 1070.74287021 1216.25590156 1297.67947122 1144.43735111 1176.72779691 934.252422619 938.719626803 958.519276453 917.020664833 858.259017284 793.816950136 698.253786572 549.756192335 571.297772207 644.021073245 697.572857105 821.380554996 953.817792608 1037.09801262 1036.42665606 1096.43938139 1167.79867215 1217.26467585 1460.92041863 1537.3432001 1602.96287282 1669.59241604 1737.23206313 1924.02260643 1990.40481838 2027.69442892 2193.62984474 2218.01530756 2302.93941912 2412.49893844 2622.89073495 2718.53172369 3003.06947328 3108.75069141 3190.58615868 3279.96020225 3251.50974368 3226.84021864 3159.75528799 3098.00866202 2876.90016159 2524.32575089 1957.52632877 1275.68670791 615.491655065 206.688989054 249.898744701 576.362338358 901.105761197 902.549511147 841.632516735 651.320332054 405.703271925 201.183435412 153.257048826 193.412557955 171.275136463 172.980080367 166.710090937 158.510616926 110.699639001 105.310371499 98.428090899 87.3853256401 77.6090751434 79.5363379317 84.4879262136 84.6572528769 82.8742735788 79.2378749733 73.1385287165 62.374435468 60.5868558991 66.9686353493
245.635151267 209.6163588 195.58513539 152.793719706 133.727213282 107.809283425 81.3462544083 71.7583364206 85.7355802207 109.368950644 124.672345052 128.200183894 126.627341832 132.193439309 142.241159536 151.378738003 155.306518186 152.994934717 155.184560504 159.232494872 170.345526696 182.493191081 197.198946963 209.075487033 220.597641753 227.472671398 241.02721855 258.081132311 270.772747899 290.316592987 312.01602516 338.091940484 355.147228453 368.906925349 369.283742104 371.198680527 377.308218174 385.51053783 397.663627601 411.566951809 426.652583507 463.11882783 477.144897352 491.976479508 505.653292395 536.069986722 575.92744449 646.668950162 712.705143828 808.438904477 859.475082069 862.059916358 824.360302998 788.622583268 789.757404004 855.73353516 919.018344793 968.055634035 967.222262549 933.501783604 913.716517665 953.819085459 986.66071091 1024.15769764 1083.97061416 1197.61223372 1289.76239381 1431.00652029 1538.36042014 1579.73310906 1548.40076394 1544.16098778 1570.47141438 1646.85834183 1700.48214267 1717.33319026 1709.5143867 1679.35695293 1689.04409432 1688.21990892 1641.52594568 1615.71723796 1595.09990319 1562.46081112 1514.47448012 1463.92617441 1432.38356564 1451.55348121 1444.45771299 1420.85227366 1362.87192009 1236.55218187 1174.96063859 1101.82033223 989.741720719 842.816911407 720.405610733 678.462603767 727.813294573 768.110060233 746.800425078 650.791351103 564.748001472 547.669427563 604.424758385 671.922171319 710.902040837 769.593048027 777.433556565 771.945774513 710.117270188 713.134824891 672.574508429 642.768491944 629.864768478 642.787786959 676.85388444 987.629280244 1053.86997928 1017.44725685 1031.40245344 1451.66346226 1729.14291115 1661.08813477 1440.93702208 1179.44418917 944.634110817 965.947235396 1443.86757028 1912.46258587 2189.58635334 2246.15937228 2056.84249895 2039.81017766 2081.71524753 2060.88803934 1850.13420588 2452.68133116 819.167959772 455.959757077 630.843261088 1046.85645346 1359.72549555 1522.01596127 1587.23961 1348.33944514 1346.90032711 1024.02638247 1038.96590014 999.596827142 947.13481997 885.770608012 702.055945408 681.471110029 658.215453568 679.279077963 733.86156653 858.311711407 998.872529233 1087.94621031 1097.16129828 1158.56282786 1231.91068407 1454.27147371 1518.58186267 1600.18132668 1674.01257692 1755.29151446 1842.70521455 2074.56334878 2125.87582952 2141.50325417 2277.07129514 2336.99252684 2465.61867736 2688.81256914 2851.91377704 2967.90644744 3095.27298218 3388.46721597 3481.39471036 3582.32313522 3572.62609671 3562.34880805 3512.87143714 3471.1836528 3269.40054864 2929.74439421 2384.22784337 1680.17913292 919.601769701 459.436259556 475.941277918 809.072695402 1130.30610371 1038.62253744 957.074911765 758.268141029 513.964851712 316.525449911 232.747282518 230.890656153 188.426555522 192.854439914 185.423795107 175.906701988 165.72683496 116.26180407 110.012379919 104.754236971 101.354806109 98.4115952841 95.9918792685 93.8577507884 90.9699805136 87.33497763 81.6281069266 72.3462565575 68.8837494138 73.919503222
242.957140595 226.6301209 196.119166292 182.394419062 141.077156304 116.957771253 91.1195830182 81.8962349255 100.130234724 115.838017303 126.453439855 122.220841909 116.535567361 123.471825512 138.47484296 150.711328572 153.419850896 149.226951772 141.907742019 145.357974359 159.624215284 176.075894081 193.388799822 210.699290898 221.255067423 230.326684266 238.271223199 257.417813342 276.650517017 295.11381675 321.2814513 343.466270235 357.443694729 366.042626779 368.649663418 371.613682386 378.516385195 385.352930115 395.969497948 407.791768549 425.42908862 456.333476304 470.211277258 486.045999668 505.716671031 532.182185399 572.250503837 635.577388024 717.507028612 822.199693357 891.025148829 891.463496926 834.645403824 779.54194277 767.429321894 825.820036514 884.381679297 932.312725473 933.614734532 897.564765126 896.388752743 902.547038126 924.902874209 982.936991374 1035.17893706 1169.88786238 1280.91610317 1446.79233291 1587.68142308 1637.24263416 1590.52187723 1565.9225695 1589.97508029 1664.74877955 1728.76720642 1747.7054922 1729.14454682 1737.52641427 1733.33803789 1745.65545154 1741.28431557 1715.55377409 1663.19801405 1648.81343868 1636.23857585 1626.73534259 1599.0190581 1583.88711766 1538.35739102 1494.09595945 1444.39273867 1352.47339606 1284.69156052 1197.26626855 1026.01701106 862.313622758 681.253714145 637.118073893 725.39457936 804.125270973 784.174301732 701.044524031 593.074454852 569.197987131 649.130748856 737.040095769 826.513491115 858.042171297 959.829658979 956.66037287 811.8274171 786.767133616 745.221550036 712.740524918 728.131079938 760.388741927 798.302314996 1182.16337559 1266.34200256 1274.35344305 1679.14242034 1998.95921551 1968.80964372 1831.91748731 1469.33700316 985.124500709 532.544653767 532.884801242 1158.07954578 2887.22229802 2324.63260947 2243.4045562 1955.53620451 1839.70015559 3152.46022716 3606.52434673 3465.75737704 2558.72753559 1120.03027454 310.490774404 552.363642381 1080.73411874 1453.81341406 1619.12973457 1671.21918622 1429.99742694 1418.92698198 1125.47131047 1096.63799793 1057.19303169 1006.24348823 936.950833768 734.810793953 658.280354259 647.376706657 654.186695558 729.725038071 928.726507486 1039.81244314 1137.26611726 1216.18783446 1284.22432385 1289.32523696 1496.13159826 1559.39662085 1714.58376048 1719.31776757 1869.92393368 1960.69612722 2128.06339591 2164.95753384 2171.09911401 2262.57144323 2400.37822823 2620.73539734 2856.03468071 3039.11103495 3218.43628154 3364.95829249 3670.31586294 3808.22469021 3884.52991447 3885.20845456 3907.37528521 3890.31117757 3895.37213017 3758.90060082 3497.23143524 3031.87016352 2409.89095476 1744.13949873 1226.10371598 1157.76449318 1293.58822268 1464.82537934 1415.75781092 1142.6510203 945.89186239 728.997840958 561.381266855 495.586684468 304.669666351 322.979762118 221.677315426 213.055923184 201.455266022 179.388249389 162.885485343 120.508702041 115.436477125 114.161541089 110.241272266 105.005314617 100.515834522 97.3960685044 94.4044363536 92.3768258048 88.3023604136 83.5835478009 83.4470765443
233.525185731 215.801488265 190.430249434 185.096411206 175.685451251 138.815917942 122.653792892 117.430746499 130.875622938 146.271263188 145.549191904 121.080104508 112.462474657 121.271070365 139.9975645 157.757516635 158.217131113 146.046385818 132.301016003 136.159484576 156.890207505 177.70555079 197.366532597 218.202526046 230.260904464 236.740513356 241.94037936 265.493594931 285.589989311 302.290590892 326.903888139 341.897904938 354.156533524 361.99333071 366.745186442 375.153427582 384.851818195 391.80741096 396.264392386 405.758118274 416.341766474 422.543700856 461.109286364 473.857400846 491.924716432 511.003214184 552.061296063 608.949793699 682.75262407 768.793296294 842.303593584 848.827166809 791.771389453 744.296906298 726.223339854 746.28859514 804.718775 837.747584845 848.990001972 825.634302369 805.998745706 839.975769229 858.112981681 894.89785837 952.272195129 1057.25308897 1213.81220623 1364.49297462 1526.25957774 1582.04805958 1554.40660903 1544.06055573 1572.6835949 1670.90982558 1710.0839579 1727.80574405 1730.12931124 1763.09026489 1773.01913238 1795.49120355 1798.59761522 1796.25071645 1769.4845434 1766.92982499 1742.45478152 1768.25052085 1761.63170929 1715.25715731 1626.70994158 1560.2861814 1503.70184722 1447.49727894 1348.61671161 1255.59365197 1148.16019267 967.554362851 794.980118291 744.753916806 817.825909483 861.611442701 859.693526048 785.547523488 743.375017017 711.539978796 752.960431914 797.70101236 859.154742137 959.333818937 992.851770659 1003.20732708 975.027743823 789.732976861 704.089008102 678.10199639 740.92588089 826.553421826 896.113812024 1314.70484531 1403.48043078 1433.66366814 1899.65904866 2237.8807146 2215.48886969 2065.99193793 1701.31822903 1065.46029791 522.76709397 641.33948015 1834.80689603 3231.34330062 3656.23504674 3009.90063078 1323.85059809 1052.0309653 2420.28324272 4493.1288322 3912.61759415 3277.80265953 2083.32497823 1288.22193405 1693.45698091 1374.97943188 1616.74257365 1677.37440248 1681.03598909 1460.44130593 1449.12704237 1158.739504 1120.64079507 1081.95231292 1040.49731765 973.503268356 755.186299971 667.402419917 567.275030796 595.816602777 758.750293263 955.22252622 1136.05630303 1239.50612594 1313.01540354 1375.97118864 1382.59916059 1486.6813242 1650.19876703 1710.8711569 1788.01628102 1885.30182927 2120.25853393 2180.51413232 2167.76315512 2148.64074837 2208.10978624 2430.93808059 2713.7413238 3035.22538575 3280.66072927 3491.2240172 3650.58064478 3768.6768964 3984.60518331 4132.69918513 4191.91490623 4240.6682308 4279.83618394 4352.94575965 4326.03228607 4194.24107972 3880.05210619 3394.24724517 2819.81741094 2253.03646857 2029.2653345 1920.84402931 1957.79775845 1810.09234371 1389.61994112 1187.59536684 970.115113681 806.09149821 556.74110216 389.350198466 372.74931488 252.341392491 244.497618535 231.121083121 199.760227179 182.122667746 137.328427286 122.99725021 115.636611485 114.745994682 111.770342322 105.283565855 103.018339477 99.209607365 96.7025645902 95.340680285 92.5125801102 91.2399795205
223.820381418 198.520020311 171.590454841 177.629351661 185.556691371 185.435486737 157.02465067 155.801253934 163.824629864 169.072576411 163.413227883 146.41389651 128.985985952 136.940700169 154.536450554 166.893540454 166.520942975 155.183130534 142.349535273 146.245807902 166.410926825 188.513267602 216.424582027 222.312121899 233.752092628 239.488075496 256.277644644 268.271202405 281.808680327 309.258162291 321.877348276 340.019614889 351.088903254 358.689748516 366.821975771 380.631713928 390.822512769 394.603490927 395.430806756 402.026979538 409.179790407 412.120322047 420.107171502 460.063411334 472.852934363 485.767102333 518.718243231 545.740034727 605.472879649 669.165029548 720.232644992 721.060536615 705.424835496 668.74519732 667.65362613 664.676909846 715.420240402 732.580992599 749.40200767 737.964951089 729.933121393 730.06259783 747.421497769 824.686485526 872.443805326 963.211044383 1094.44734153 1214.2472949 1341.49629466 1426.83047426 1500.44833816 1497.23721527 1593.12140054 1644.49479631 1679.73872728 1709.50518247 1741.67148448 1802.05940479 1819.03862906 1825.89023803 1847.15220031 1849.42412104 1827.38113857 1826.6132241 1838.68665634 1871.34705163 1895.19938418 1813.98915808 1687.01392472 1605.86824381 1550.73232659 1497.9088985 1433.33748624 1342.18049073 1279.39437729 1176.36704423 1033.54368083 963.912314706 969.108525084 991.537018834 949.792043838 894.562300417 990.170874702 967.068252379 862.336275753 836.449384333 829.790305766 903.249361748 985.169203572 1042.05330327 1015.94480337 853.794452852 647.943462892 606.563534647 730.013899505 884.682562501 1288.02914987 1426.043111 1537.74603047 1646.16389956 2055.69905805 2400.59112213 2415.2498702 2337.7609556 2087.56113676 1593.16091119 1174.5570519 1929.61669712 2906.75398344 5280.60790975 5542.9311925 2933.283512 1464.43586576 439.030730335 2199.82452006 4812.44516081 5853.26789865 4483.46610753 3789.06701856 3287.73706928 3102.28967551 3254.17317834 3082.48754115 1591.17058661 1547.65856793 1420.72606055 1437.65087363 1155.25105775 1091.71948927 1053.38444675 1043.69607835 1013.26745978 928.772060743 726.752562531 614.83298829 645.222992573 811.860824065 1041.94773418 1200.68335838 1281.83648322 1335.99320251 1391.48492868 1462.35672605 1624.24634956 1632.38744641 1677.74632133 1754.63229063 1871.37013674 2115.24520376 2196.48567129 2191.62775712 2156.74744601 2238.78709667 2517.29065546 2920.31046038 3287.54436735 3585.20713482 3809.48730441 3962.54353194 4071.86975794 4346.03186831 4425.0621176 4494.90887465 4561.21256774 4642.13633771 4795.20396949 4899.72986775 4955.43728175 4835.67592684 4464.96186153 3913.07243575 3377.96960702 2928.0111703 2619.63640245 2422.02773013 2229.93367834 1731.2063848 1432.56135366 1213.08497999 1015.70221208 666.551271721 553.525829741 371.402736398 256.847049542 253.715685847 242.196268078 220.206465563 190.722066069 177.428736926 138.95275559 126.462800495 119.783699307 112.390637402 103.856363164 104.404248674 102.181961083 98.4318405921 98.5808225168 99.0819447465 97.905808706
211.100249759 158.82637213 145.65128614 156.066132787 185.878700821 205.084732772 209.756322942 186.678178133 221.574496648 220.880025344 218.943782613 186.143303812 180.077306705 185.44988392 174.262170887 182.427698682 185.009760013 177.74945928 171.519241717 175.298659422 188.638092885 209.863920789 218.318106226 229.071605781 238.378747292 245.138157764 254.369314817 269.983971949 282.929761827 302.005504882 324.982583062 338.448432289 351.483788031 360.252718982 370.791927808 375.414644707 395.692328722 398.060649993 398.889070683 402.160010723 397.927903159 402.136218539 407.18614264 414.314596426 418.248363097 456.412251648 472.660942971 489.744582391 521.541344576 555.15421239 584.812617345 587.543477455 575.451728059 555.573872557 584.701370669 588.587537174 599.568055871 641.270770272 645.048122821 659.460103791 658.499305444 664.147525808 685.820742502 738.181418207 795.131196299 827.620004389 942.979478285 1028.72051883 1141.17195352 1291.53389451 1381.30257448 1482.62320602 1561.50888794 1665.01236207 1693.84235772 1717.15687913 1805.8760471 1859.85028906 1876.3579039 1874.13947451 1889.23993306 1899.11082411 1886.64510492 1877.8594595 1869.80755279 1894.40710022 1922.236441 1840.66640492 1696.66718632 1626.43550825 1587.75279337 1539.63898388 1478.5744704 1436.57125861 1410.71229134 1364.93657116 1239.82095977 1155.70639142 1116.51480782 1103.36886556 1192.06059818 1233.56115779 1165.31121012 1128.80505483 1052.79835363 896.18532046 733.362968717 752.586855172 946.488634347 1179.94579663 1108.34453241 953.611166071 747.570458724 706.22744206 838.042614898 1023.81606454 1447.38737782 1588.03885051 1672.44513246 1760.31578475 2193.39605003 2480.25255552 2533.77417235 2585.78866182 2570.39789773 3687.59417502 3704.55599085 3887.7576651 4531.58381818 6844.96812345 6783.64442249 5200.29076724 2786.77178161 1815.00649577 3623.12421736 6094.31227994 7308.52295303 5920.66734658 5541.28909915 5110.15538616 4667.96302405 3766.52900895 2786.10616901 1246.2515891 1215.05487149 1312.47782245 1430.6912648 1310.17107937 980.477491562 933.789114667 1013.68029933 1071.46969565 1077.5240696 879.175004242 817.355892977 829.743866029 960.880494218 1154.8138158 1258.51178332 1306.70513069 1337.76394172 1383.64889954 1472.10029988 1603.69253901 1609.78582713 1624.47403761 1693.08891534 1826.62401339 1979.75620992 2217.81745933 2265.02584457 2286.45344996 2392.88966609 2772.14017906 3226.21233858 3615.10658914 3958.82707582 4171.50937991 4286.60924087 4374.77484873 4634.22868704 4721.57457205 4799.24151908 4867.12886202 5070.90378894 5177.84182935 5437.25960316 5723.08908956 5795.84066069 5503.90077679 4885.67656623 4173.02708904 3660.9061672 3239.56525527 2859.07847581 2585.68711589 2129.26640873 1758.03317916 1420.01987643 1168.36541819 744.628145101 537.926379796 307.768402366 270.642044775 253.018359006 252.847751049 223.699311162 193.384313113 186.983494807 165.109942538 140.094909343 129.738216448 118.936778787 109.503349027 107.539215843 106.852934211 104.002448321 102.430862467 100.823920337 100.691928404
193.709821467 128.439823923 103.107141919 142.625052848 205.15938252 249.44763212 270.432273086 246.133609557 248.81638946 247.825117874 251.333959652 221.838298411 222.075906279 222.450573667 230.282677583 205.225160802 206.692597048 205.487417274 206.061384783 210.332566014 217.472052834 230.331302578 230.926894285 236.986470797 243.303558923 247.883060595 255.830918515 270.676116693 280.878281778 302.094851219 317.188641636 336.552700001 352.070540968 374.008596576 382.32619167 385.740176297 388.524434204 399.179739726 398.411865276 398.712042148 391.341685646 392.951262774 395.103739788 398.853158144 400.718261539 399.247887961 425.922604605 426.927059586 446.883597096 459.143228146 476.180350738 480.764325997 469.80626829 464.127935383 476.882751435 516.347524487 525.845883029 531.422176695 581.862362669 606.897512997 610.492449575 616.835168767 638.38883493 672.803031963 731.546390688 735.996819074 760.455801476 852.075059664 1015.55286014 1190.4095287 1292.16052778 1396.57814824 1550.32912895 1647.49794432 1735.89130358 1766.56639016 1868.79176534 1946.62095971 1957.65071975 1912.42081445 1921.14043521 1949.56440739 1972.95273757 1953.05874642 1903.1054075 1866.5170293 1856.10788866 1798.55547532 1690.94852562 1640.03062872 1626.06875216 1580.83264009 1494.03152429 1478.0921275 1500.58011365 1470.4150679 1384.34306032 1273.99501109 1225.50354894 1326.69226031 1390.85939127 1399.00041031 1480.36360699 1430.98569733 1292.89203391 1001.91581995 671.400310929 701.284058852 1044.12478298 1297.34847351 1351.73482697 1183.95781994 1059.82749568 1041.70270647 1164.65689816 1433.60300424 1555.32339907 1656.86055064 1745.48835785 1856.06932414 2243.75308081 2224.24602039 2439.76578794 2638.59858521 2933.49953375 4810.96158969 5361.79976856 5766.06923558 6276.4340878 8773.50801818 8757.52187631 7770.46728574 6432.10827569 5978.07676433 7017.20934823 8549.10617196 9218.00802994 9346.01868096 7174.52343027 6609.36375104 5755.29911772 4323.66576582 2555.04866851 811.361647214 826.260415402 1320.87996545 1531.34897037 1222.97125114 806.037504751 733.157351538 918.281177024 1133.91043897 1198.90069111 1053.60980374 1041.90339461 1033.17876298 1148.18133027 1234.90810183 1299.47943797 1295.91486996 1324.24420484 1409.80626417 1506.5786227 1604.86313382 1553.48806888 1529.05637179 1619.30103909 1788.63263533 1968.64088793 2252.41063347 2370.23384879 2484.36342647 2666.36360388 3011.27980725 3615.93315188 4082.68212418 4443.13416897 4591.13719698 4614.83758403 4652.08798484 4881.34290605 5008.16536395 5104.12803899 5148.2145683 5310.35833352 5530.61106867 5862.03354067 6339.14306273 6586.19220762 6259.06224664 5524.40145516 4718.26061724 4139.58613619 3722.60207493 3325.0587123 2936.25798046 2422.3482871 2124.13595575 1716.00781054 1331.5549721 858.310668774 569.531854548 266.983821711 213.81996914 314.901360417 272.688003397 238.295929753 197.533009407 189.533652596 173.379363189 149.627255602 139.653271254 131.734381421 124.805306542 121.551945886 120.775539521 116.05129507 104.837598264 100.6499376 102.119364667
211.249757414 144.102331245 116.215974808 167.525191433 242.225115837 267.068615957 289.483120692 299.807210193 266.446456779 262.772573705 266.668438748 243.847063296 250.029927891 252.133626992 258.702644047 265.170921884 264.836383618 231.495395771 236.456025693 241.769152535 243.963709638 251.379978111 251.293007258 244.270687067 245.172078943 249.707175716 253.266643021 266.486269349 279.120022761 293.767267045 318.364906201 341.504653249 368.221657496 384.580481821 399.629748123 404.462084095 397.72728397 382.596947478 398.510232277 395.880256872 385.802394027 385.08667479 384.650111407 385.475919396 383.987754837 374.195442123 375.497938024 387.624269757 384.958147702 393.187567395 395.905448071 397.901591497 399.691681573 397.476090592 396.999499836 417.964805999 422.274904988 472.383980196 506.249375627 556.55926254 598.210915973 595.021099572 597.833754763 639.834108693 664.495241766 678.811947174 660.677475635 722.112991424 906.063841026 1103.20133245 1279.1566382 1383.72779384 1515.6481591 1651.73526007 1716.52135338 1788.16175503 1898.46945064 1977.41431212 1983.60088388 1953.3801129 1964.5324433 1979.65185123 2030.40016786 2001.57527141 1919.44238733 1857.62013204 1798.82014587 1734.3677254 1661.31365799 1642.57620555 1638.63558554 1591.04323125 1522.45817654 1486.59804058 1507.61842105 1482.28771382 1421.8376885 1341.0795918 1289.1496841 1420.6142094 1503.07008493 1652.9510343 1648.37396613 1623.2906667 1525.6909174 1340.53164057 1074.2327342 1085.4250895 1340.72501326 1564.03634517 1639.95143545 1511.77888303 1447.45205946 1425.39160219 1639.37358074 1639.52686505 1572.72735094 1639.52728538 1783.85807946 1911.02958391 2213.24646195 2040.78163725 2028.18442796 2389.04359673 4369.97054985 5565.82252312 6687.54412571 9537.5253336 10380.8053956 10838.968064 11020.081462 10623.2788667 10152.2318863 10057.2104483 10454.819115 12446.4321471 12866.3680644 11163.97976 12427.2554386 9653.43604338 7051.87395111 5243.69225057 3306.12589355 1579.19842813 1150.78708983 1690.98536734 1742.77270955 1390.44801726 800.954729772 678.698618554 995.987749822 1216.84647677 1328.63605397 1210.82150019 1160.62245723 1194.84037016 1276.43645438 1357.88733219 1338.8816909 1300.51330672 1330.15099666 1429.44502787 1528.46559232 1558.85957951 1545.79715543 1511.44972686 1617.28701696 1805.37638121 1994.62542157 2306.78462174 2467.90704634 2626.66402082 2913.75322525 3335.19908714 4027.81397878 4607.27176788 5020.69479115 5071.42296563 4976.58723855 4914.01991812 5117.05453802 5330.90084604 5460.5813845 5444.46872049 5429.5598064 5631.83834891 5989.48990517 6558.40541409 6877.46986628 6532.89654662 5767.96314682 4976.56626364 4433.00406359 4038.24747953 3732.16295085 3141.26799024 2819.92730191 2385.57529184 1954.59109476 1621.78899184 1120.23543248 810.595098847 512.026717381 353.051560373 409.217565771 418.257656646 276.938071072 234.439736439 213.855309106 174.222238468 166.019336411 146.410988129 136.870050975 132.6360056 131.059691303 126.244922401 119.248276868 111.258720413 103.083468426 103.621985047
321.312886313 224.457592241 207.494347899 239.160093329 277.519332124 299.964872027 298.065350497 311.144365848 306.062860464 259.947565876 253.712782961 246.159486336 263.975509226 274.23281007 286.219162928 289.169146275 287.922443808 284.637028425 284.61303983 275.554685453 265.684469595 258.93516802 260.53507888 262.191999474 247.344126357 246.616637954 251.345047238 253.38186718 275.671952539 290.809636111 318.061904272 346.066149262 379.208509541 404.768186754 419.659152734 420.520539648 411.722761484 386.226503284 376.541449076 367.143374114 385.696064034 382.674736015 376.558027445 375.087664407 363.457624675 359.777400409 358.653774186 351.909878405 360.348285407 358.894003052 361.929639592 356.319293731 350.070119696 343.949896261 342.917181582 363.004899929 366.997102688 387.278942535 444.04355664 517.389996192 580.627188275 574.1719118 574.631751395 614.099397309 642.862541524 663.119150053 651.207043071 702.393129308 855.545294583 1086.46489073 1238.54132388 1455.29929841 1479.33262969 1617.62850161 1675.44511513 1762.45051938 1832.03098956 1920.66738693 1958.02245791 1979.13741647 2004.95342946 2004.56299265 2021.04520024 2001.89239591 1949.16085751 1838.36762252 1770.08668814 1700.81306817 1655.14239474 1621.73957949 1604.5313408 1567.15595666 1510.11630361 1461.04305683 1466.36530151 1433.26815405 1382.96264267 1363.01025584 1328.47519935 1465.04778045 1564.83623138 1757.61581551 1805.99125022 1825.1376579 1819.08556347 1805.56485525 1723.72236917 1771.06780766 1887.81714292 2035.09211451 2104.68671738 1919.52784464 1881.11665661 1718.65418684 1659.70341507 1607.70272682 1453.28616118 1554.43572873 1798.58978384 2310.84817232 2217.25092341 1889.13626232 1523.03209514 2070.74758572 4474.91331039 6312.50294953 7873.62754966 11185.0201295 12176.6538628 12742.4347879 13072.3286269 12807.8689718 12398.5853769 12152.317041 13384.4693032 14247.3340802 14685.9787703 14711.9568935 14006.4154204 11089.7096527 9501.81046388 7988.57617853 6259.24829382 3884.61490356 3473.06451862 3644.82871388 2107.39988214 1750.60539405 1214.87258505 1122.35323967 1311.7824537 1416.72529358 1341.36101675 1369.1600071 1402.62222473 1453.58995823 1439.99465944 1443.25600522 1418.05753401 1389.90952677 1412.66023704 1508.38362937 1578.39168537 1608.09497453 1594.31136179 1639.86234828 1729.26551155 1887.49166852 2036.0210171 2349.71281629 2538.54567806 2715.9825783 3048.75559926 3523.26126186 4282.6274669 5025.01505669 5526.91953379 5490.50648983 5176.59671252 5142.50019538 5356.71788637 5751.95907835 5960.3664236 5820.947469 5587.36566047 5569.32737835 5785.34983097 6266.58994059 6508.48742112 6215.27641792 5572.23769597 5007.7271786 4607.27086827 4296.38435444 4017.68916041 3512.04253912 3108.0548322 2760.45272206 2296.41997827 1852.62935795 1409.62467263 1171.7007613 952.81835964 715.129257689 608.392987019 524.99015763 329.211420332 276.238048598 234.757946841 188.75487044 156.920617622 160.036579773 147.886431555 134.388306776 134.061362688 127.693446085 121.121820513 118.735748615 114.544141175 113.902035002
420.299472712 371.465544632 306.906628218 301.011517002 284.518320052 274.810358759 302.968725491 318.789118888 312.889015014 263.331562433 220.562311501 235.341964043 293.77745512 293.257927041 307.229435035 309.926181795 328.86576362 317.82162418 301.792947009 281.832612781 279.384439424 268.813133929 255.894073892 254.729508405 243.304129859 244.137014396 238.271386533 245.587910089 270.020395672 284.807357736 314.411425179 342.38892533 382.365227323 420.943723571 446.400646454 444.414032853 418.691322254 392.686778115 375.089137973 365.652981777 375.885177674 366.472780753 358.01537445 345.852574117 344.751123549 343.665164359 341.592276531 339.465195502 348.090936339 355.041384174 349.980652388 329.419856428 311.214092749 299.146673992 297.270554126 304.057230888 316.887653678 324.309940866 349.399400002 408.51755807 472.408694702 508.566936275 512.828881391 557.322045338 642.52863416 682.140549287 716.248181703 762.352446339 919.973356752 1119.7551261 1310.33073909 1420.66516089 1507.11832579 1631.57435773 1616.59064822 1632.90271054 1744.36599224 1866.77602868 1945.59462877 1982.7782302 2018.16989493 2029.12463755 1981.9938561 1952.99471439 1953.9985022 1870.65063147 1824.57468847 1715.63947888 1619.37058854 1595.54743921 1558.41076734 1523.03308735 1460.02200034 1426.37545148 1391.30877659 1348.16066093 1346.27010015 1357.21669792 1351.98938661 1516.18301167 1635.10551019 1849.03650576 1922.29140724 2078.39663598 2044.07869874 2140.23512972 2155.27929352 2190.50048945 2292.82282465 2389.59190083 2432.05705917 2487.13324775 2354.07510841 2167.32415491 1949.4376934 1698.27864018 1489.65448905 1614.25297082 1885.06154707 2453.41694333 2469.0842938 2148.18299533 1825.1135375 2529.91546915 5349.47664907 7332.38518191 9102.57201099 12602.8017291 13749.7098324 14443.0957054 14807.628672 14238.1307233 12949.6526595 11765.133488 12870.5676048 15045.4532552 16074.746409 17342.3483893 15222.1353176 13757.9520631 10354.9005077 9010.58387948 8063.15792587 7133.71086729 6475.75225227 2906.49685103 2564.38875148 2230.95974494 1763.24267587 1693.39945812 1718.71090392 1648.29702693 1495.71785536 1489.03189149 1486.9981949 1476.20836983 1497.50314095 1543.14615757 1531.90077584 1519.4340352 1531.59918944 1569.86099612 1653.03531749 1690.911656 1714.86978783 1833.54561598 1918.14615956 2002.13792451 2108.53845741 2219.98970027 2514.78199129 2675.88747294 3042.55454404 3468.61995444 4137.98632907 5024.4125509 5564.16608216 5516.73688428 5162.22650308 5151.95012834 5519.55827544 6164.66891347 6497.52427462 6198.65176924 5655.82991245 5391.25831487 5432.146247 5693.77225833 5824.89078274 5670.06033048 5376.37819502 5037.81570329 4855.92949509 4575.02944558 4207.17541016 3883.28811588 3493.96412505 3049.50471704 2610.07323846 2111.56473868 1665.5641328 1491.89319361 1333.270364 1047.27528532 811.244978726 661.258559482 537.885860463 338.619234549 259.566405469 197.513770415 157.996651987 169.257185316 165.072103602 145.25823471 138.103926707 125.640228486 117.549758224 122.407663242 122.562817744 116.155040299
514.808466168 471.267421508 378.104781577 330.77828149 255.532298389 213.398350503 271.424974713 345.699278342 335.670610418 281.390891807 233.859639411 262.496330189 321.943716625 345.771478205 341.795429946 346.764278843 344.890627972 352.202444242 308.853560883 283.11732982 282.479366576 277.404023031 253.257290816 246.068499959 241.392438903 223.248156107 227.035959225 233.730519737 255.681738819 278.649522713 301.816954633 331.918387352 376.649289952 420.906690445 453.393405298 449.671344432 416.595982007 386.302329251 376.87960514 372.427818031 369.574404509 352.054511645 358.200555972 346.918766286 348.995498241 349.499768949 334.464719292 329.80661402 331.115696134 332.484634526 312.226452647 283.544649646 276.728278165 262.278475318 261.527679076 270.061783241 278.411008682 270.692405565 262.850006952 307.703332021 360.669401526 395.405563473 455.416407645 551.78294579 594.699443068 733.692612053 769.412136163 815.532158981 997.622897499 1040.52384334 1267.10682986 1375.86038984 1451.35817428 1565.1716513 1611.61306731 1546.12564419 1503.31027938 1791.67599446 2041.12843157 2157.34798952 2164.31876225 2048.66847333 1988.23890922 1894.73987072 1904.32918901 1862.53591508 1807.69328904 1740.75315632 1598.72612003 1539.70372716 1533.28602866 1485.9198561 1447.7532132 1369.375973 1349.63962495 1293.98530149 1290.58338466 1345.40914329 1520.65379372 1546.87944453 1683.50452659 1901.63268619 2085.95255607 2160.74781295 2289.57181067 2174.04570052 2213.3138737 2408.79987948 2638.46072787 2796.47507727 2818.03606343 2777.60655261 2698.92946918 2482.51170298 2276.74027439 2106.75137784 1894.32924394 2000.39436766 2144.26063788 2707.6799739 2892.06098506 3020.25624362 3186.6203674 5280.2268659 7207.81312052 8857.87886864 10138.7384991 13795.6574496 15031.4482531 15883.0667418 16182.4028162 15663.8150643 14172.9946025 11260.3101174 12639.3141421 16121.597842 17206.1813192 17780.6119539 15937.1959096 14446.6477769 10402.7581975 9067.45201927 8933.65536628 9414.8207397 7543.11036532 4975.3472354 2993.81169827 2586.76170165 2118.07213195 2032.96979667 1997.81082993 1712.31332313 1626.68399205 1582.10997644 1581.33245982 1550.87966039 1582.08207879 1628.97755989 1627.12981863 1641.4454466 1616.34591252 1642.06842845 1711.31836628 1787.57480735 1847.28692589 2005.75166092 2095.43746029 2138.55727574 2189.82026012 2252.9722032 2498.38446366 2616.70608322 2903.21964505 3251.80150724 3790.99275638 4456.33423464 4991.64806828 5023.01135534 4856.16405671 4895.6819751 5433.8724222 6171.57013172 6565.71402293 6195.49659811 5528.97947849 5145.53062929 5032.01916184 5079.96659686 5191.6476593 5117.95302807 5133.06966838 5133.12599824 5169.48455304 4930.92349261 4557.16464728 4165.15508521 3779.32636979 3502.0699478 3009.58738269 2275.9874006 1768.47066588 1571.40482989 1528.40438898 1298.47557813 1018.26498918 800.068774488 608.351879268 389.90293624 305.96458781 259.960523403 211.794968494 201.966360495 188.558269825 158.335971892 146.018291799 133.067349528 126.735827437 128.779267737 129.323714046 128.244086736
656.15638153 562.277312815 509.103523507 424.868759524 279.022693405 225.528582361 295.295946607 386.741666112 391.130764576 362.642343218 338.883290541 357.724487417 379.163575077 372.305861057 337.409489361 351.917803631 384.132319878 374.237499807 324.127141431 286.345936384 281.45710979 271.549618512 256.415219027 237.104579922 221.067407589 219.8861229 221.973762133 228.744952778 243.18345882 260.983053002 283.698643023 311.930641373 409.220441479 393.714285006 422.095637263 423.317062561 400.75111305 376.926923639 373.022339512 385.059898818 386.910562123 364.771236672 343.130561386 340.331176866 352.208109806 368.670996662 347.387479433 316.131291983 301.047186452 289.7220162 271.646992509 242.556901208 240.629185664 240.571749193 239.566771943 231.012286989 245.198691303 242.483906793 239.371499331 251.377395978 278.401747318 305.922402951 394.494174625 467.970270447 561.946858536 697.382028775 825.422454059 832.971408925 924.450905928 981.279614921 1220.82381737 1374.87715403 1379.01617874 1416.22846753 1658.29299362 1593.23106144 1511.19817412 1881.81057711 2216.20516227 2239.79775825 2346.77430402 2238.97811384 2019.74808428 1844.56913357 1856.03059394 1851.67855631 1775.12295505 1740.13611796 1635.73031256 1551.72479202 1524.14402943 1428.91698785 1358.14912364 1342.28293867 1314.04461852 1284.77806564 1286.05029237 1427.58273797 1500.41297208 1673.63897857 1925.08574356 2028.71899012 2048.89966865 2217.58874285 2399.77984192 2357.68997882 2441.23602175 2766.19125783 3010.09037444 3117.11595739 3096.25173117 3023.31522985 2950.32245735 2832.6994625 2695.40772858 2318.56404645 2408.40083851 2363.14380919 2506.90917997 2996.88309233 3368.11916664 3738.68471335 6183.46314312 7629.70614334 9317.90317574 10508.4257093 11304.5852786 14310.1273014 16064.6199791 17006.2162246 17489.9815993 18854.5248121 17435.2874096 15539.7635624 16662.5736898 18896.7923504 17936.037646 16083.5882665 15959.7360185 15936.931633 11426.8442104 7719.29038091 8205.24753858 9831.20169778 9522.03319532 7179.36007729 4745.01395757 2830.70863367 2264.19096336 2123.27397316 2098.83029773 1935.52355151 1703.50832498 1641.29784989 1624.35377571 1595.97684 1636.40376436 1667.79257834 1681.41435247 1706.4614741 1695.54434334 1720.84587536 1814.62717397 1870.422687 1968.95296939 2043.52745106 2243.46045184 2289.45721822 2273.68483651 2235.78822084 2295.973096 2499.13359962 2660.59586556 2943.16444391 3299.00171862 3747.38391705 4063.07032168 4298.68604507 4380.31720497 4522.97206304 4994.60714028 5540.73420896 5821.37738119 5545.78310664 5033.41981538 4614.03511594 4601.44617118 4604.26218191 4738.06086554 4736.24150201 5011.15381694 5266.4566784 5535.80653219 5478.15556462 4940.55844078 4426.90984839 4110.06859492 3909.95751423 3526.14463237 2683.30025293 1946.198448 1590.2001831 1569.57222274 1367.09782942 1119.04311512 910.609587453 700.354236438 443.44876606 374.938946759 337.049198649 301.029400908 249.917835723 212.867757935 187.109521357 154.159741161 145.062677359 142.453799383 138.518081714 134.102717525 122.614596756
820.837176496 699.727224465 575.268164601 523.697445052 450.25936342 425.881616391 414.665586073 479.191386606 508.641305521 501.605622424 489.762119417 474.799565996 425.276676808 341.310446397 316.642320124 368.301621422 403.003119848 399.351055049 376.150474764 327.929464343 283.561150727 262.190762689 242.281516038 221.877211017 218.038556461 216.776740539 218.932297877 248.340204173 235.578002882 240.795837524 263.383695645 354.488697854 392.68403253 415.624142815 374.679913436 441.881877735 374.241582961 362.39359323 373.197567547 399.879259829 418.583984408 392.035334092 349.352490604 335.766692877 360.713512132 387.235692507 345.852877807 284.411066857 244.507212326 229.805331418 212.347408568 194.18943109 210.353841028 230.565758087 227.85971103 204.204282708 200.952910419 215.725381093 225.734013433 228.886261464 234.41950019 253.302331478 350.004238298 428.646925462 496.80248713 645.980030002 798.807188267 928.491344647 853.662854737 883.132458711 1173.71639288 1364.07244077 1202.20389931 1181.81382555 1689.93186892 1972.34745236 1931.83796782 2177.30178162 2342.39443281 2412.68241648 2467.52243213 2426.16901397 2227.63843001 2027.73477499 1981.5588574 1872.42165334 1743.51979011 1728.09657431 1693.49751202 1572.53467201 1469.00719004 1357.9695948 1321.81842814 1324.1438184 1307.6145355 1299.25762987 1364.79254074 1443.36825829 1501.80035357 1613.05631428 1872.85369093 1957.01973329 1827.40010622 2079.33869757 2534.28902263 2970.37566024 3191.46112261 3225.77219639 3365.42746867 3358.87730542 3303.57432183 3199.31261953 3131.79068833 3145.17565941 3068.80554995 2763.90649041 2785.81529851 2579.9459227 2534.62924961 2766.80514677 3664.83855075 4333.15287793 7210.5173895 9018.20855122 10990.9027304 11821.286073 12045.0300745 14742.2248366 16762.1019952 17380.3521375 17591.6182396 20035.1234562 21738.3847483 22218.3223265 23077.5894235 24094.5852484 18773.4381319 12535.5083412 13809.9687037 17564.9977003 15085.824378 11081.226688 10255.4688855 10568.8177407 9260.85736821 5187.42110765 4792.9781211 4288.89170597 2388.02014939 2149.23864874 2111.91649321 1937.19403872 1701.20137227 1664.5636507 1645.79725487 1612.60174421 1647.7232903 1673.3814739 1704.96361834 1767.7475055 1785.89082142 1803.92763243 1832.37162243 1930.38301018 1992.32762621 2184.46658007 2380.23792114 2440.43402262 2318.20542901 2244.77096794 2249.99117108 2438.16834993 2532.28758823 2673.20177866 2860.2720658 3072.99099368 3319.6882711 3430.2862923 3721.34501826 3913.35924386 4135.3701366 4566.78333743 4727.98949371 4575.47109308 4240.66547104 4046.65035331 4119.55950007 4246.72447081 4178.83534155 4522.76543286 4820.1660699 5324.75725092 5810.42047345 5754.30964432 5100.25672533 4586.14204793 4306.50376385 4365.20251484 4112.61249596 3313.05563269 2318.23403573 1834.35955924 1669.38073014 1346.87848015 1097.18447265 884.21055682 717.030445249 502.805788659 406.286926304 356.777842789 348.114407175 281.675133385 229.127039867 196.133831775 164.855594852 150.718821166 148.231694374 142.29785646 133.189123155 126.795173547
935.954386322 798.145127819 677.90919396 645.645331432 680.290318243 707.375366046 757.681295709 767.91324175 763.32619111 757.610169992 637.506331723 595.434347104 517.810630546 396.886576893 368.989483769 433.304965146 436.818198173 430.676537687 406.59437416 347.969327141 283.439045856 255.732339338 230.982088604 219.419886859 217.538906541 214.539001674 240.16672659 242.965631015 240.600157554 235.210922385 243.128090555 325.256312465 406.137264055 401.918071235 417.286342893 426.764543514 342.519514913 347.511993612 365.976958793 402.662554216 431.858497819 400.05032857 341.165617308 316.517154023 321.1668401 335.197644442 297.249574993 244.543064531 206.568688463 189.974111489 167.23035201 161.274818887 163.186577944 171.595070961 176.454778025 171.855637871 170.327334905 174.614887896 168.730335127 165.194454033 180.608496043 203.720181537 314.365267222 377.030299559 453.735564479 602.701451315 759.924586018 927.911118467 949.597305778 1047.91639178 1316.62497346 1551.56201767 1379.27927259 1303.81377269 1901.20344724 2338.02597689 2591.75422021 2467.7953254 2310.28790824 2385.78911731 2508.77648072 2382.451256 2415.16134118 2398.54692584 2179.90174846 2047.07874651 1805.13548485 1743.56700556 1693.61320588 1590.65993541 1449.83003255 1367.7816885 1321.5390098 1307.80788218 1285.92280157 1283.42698195 1407.28449231 1463.7088274 1481.17628205 1542.17027477 1879.70838105 2010.83479752 1868.62343584 2215.07284788 3079.91541935 3541.70423659 3760.05290816 3811.87183609 3593.46989228 3402.04118351 3405.75793722 3311.91546564 3210.16217453 3270.30436965 3208.29228295 2828.9118419 2689.13755404 2621.2353714 2544.00936697 2746.20290166 3647.83532196 4370.51531881 7472.5353468 9509.54376078 11732.2560779 12454.2997137 12957.4927202 15006.5278866 17236.7251614 17213.5401023 16487.9528358 20786.6663961 25869.1914836 28721.4151502 30252.9730621 31250.1139969 26243.0046377 18102.3193755 18404.969569 21713.6135901 20212.6865936 17070.8882257 13865.4944243 11543.1285262 7938.49390837 4286.90981193 4449.12528929 4553.46143493 3770.35815932 2269.69798949 2118.65768126 1870.24855266 1724.19255277 1684.91153946 1651.12245706 1607.278308 1648.59082542 1694.31739325 1783.30110583 1869.44224454 1890.06953542 1871.42340231 1884.49149975 1928.07504746 2012.14338717 2167.65677898 2410.7275377 2467.56341999 2314.59622941 2189.18618721 2232.16262722 2442.54814944 2536.04665785 2546.63912738 2539.98307293 2631.11895445 2702.25885523 2815.6000667 2960.87625577 3229.29043309 3390.30281836 3532.24106033 3721.98222643 3687.15596717 3526.739612 3498.5173464 3538.70750745 3681.93432956 3812.85807013 4112.74446381 4493.55328202 5013.16663258 5471.26508503 5404.91131784 4989.04852789 4498.91607419 4403.85963128 4739.2163721 4589.76488591 3777.64465135 2900.44811501 2357.16117523 1770.1153889 1425.12524526 1033.10604479 800.351678693 688.86424331 598.646785241 450.552800691 372.784491097 336.738008152 282.204294393 232.672842696 205.82357349 184.598723248 153.885339867 146.364665605 137.829443573 126.726482536 121.450145899
952.912394686 723.878734691 531.862836436 594.647503595 758.757581319 886.333475623 960.777507355 947.455604047 976.054708659 942.548463506 895.914815846 797.93776237 636.341179483 606.455169779 526.809730503 525.919677689 479.379229766 454.647734711 422.77283893 385.930219537 280.428426369 257.998162506 233.322774064 218.287291779 219.212163933 209.730924283 237.585069346 240.298457629 237.760817816 238.737208086 270.433850699 348.268573891 405.977693989 398.07479894 413.744117483 422.972618921 419.159310495 327.290675549 337.610760816 364.095690303 380.927654305 353.068735767 308.642475883 271.856300502 256.504994787 244.137638147 216.400487758 180.003991938 162.976068261 141.710898342 135.451675462 127.320920366 113.744994555 107.476005628 112.873866935 120.089526325 128.622890014 130.480686549 123.686219364 105.657896878 115.024594016 146.938589359 265.731994148 333.14887165 395.196378063 521.577380924 630.845801193 863.994980548 1064.56705236 1299.25323649 1667.54679463 1877.64950892 2016.33154495 2253.30167115 2553.88823103 2761.6591085 2982.17049807 2871.84361717 2499.67732783 2600.69317484 2715.63008482 2413.90195807 2525.63473617 2655.71683428 2407.14838612 2202.28573938 1844.2719203 1688.47262792 1659.8448016 1562.85459429 1442.15567181 1391.76782839 1334.94296077 1257.68359691 1223.6212755 1260.51572018 1380.82600667 1512.85487544 1549.33782106 1699.3041391 2050.37843377 2526.31186376 2774.15157095 3247.52347629 3797.07703679 4137.92593755 4320.50683996 4361.22676607 4084.97387187 3802.31704796 3818.26309647 3663.19784173 3401.21883939 3135.37130867 2968.30628154 2637.84975875 2704.28276811 2664.19349863 2388.45520447 2555.7151538 3227.74772602 3894.90340607 5019.61571596 8493.55943413 10672.4747793 11805.9359043 12068.6090494 15274.5267495 17963.2114012 18960.6870215 20323.6936568 26284.2055514 32594.982237 35759.8208713 38405.1574617 42815.2287262 42667.456288 36647.9634099 31934.1400491 29673.2621418 26884.2166023 20982.4703274 17869.6415501 13293.0481234 7568.80163563 3768.27188872 4309.7008972 4667.83999532 4296.9289127 2363.86545454 2099.25867849 1806.53550908 1698.38204815 1632.27455118 1598.62089903 1572.37311717 1619.57967914 1718.70503701 1864.57316204 2071.33836067 2028.53130499 1929.15305539 1911.97423239 1982.57831604 2012.86910437 2056.32656953 2178.60396031 2213.02517572 2171.37990202 2084.7972187 2167.23507411 2397.78433864 2595.31450572 2484.82743828 2332.48924987 2219.35785362 2167.50964578 2218.13450715 2203.6428392 2407.20526715 2518.9204496 2853.70163732 2922.341968 3044.40744827 3040.39114097 3090.48151671 3130.03478812 3376.81112679 3514.47510023 3755.43925141 4037.32409075 4460.37124782 4659.39590192 4674.68254098 4557.85703291 4365.74102192 4310.41731531 4527.43807323 4408.86623293 3720.41289367 3101.53669546 2557.88945119 2028.88040758 1546.12201325 1121.76872521 763.89356583 666.613110089 630.281899562 528.128187345 399.69068393 318.361714151 265.61184223 215.168630117 211.874122261 188.792898164 155.29211983 140.384381763 123.220098378 109.888496143 111.771033746
1042.96589555 776.163650431 528.793695696 635.204907465 942.2323246 1058.75243392 1264.42335713 1229.98753461 1145.54210673 1105.04390282 1048.14808398 1038.1176044 803.949794662 691.45405696 668.733247957 596.293939613 511.466557472 464.356755457 423.356183355 383.249951924 277.178885823 257.697337838 237.661395042 225.374074301 214.311189285 222.114121987 234.753339084 238.353351041 278.567931425 276.388851689 311.909616613 363.726365912 477.77756861 514.264189163 501.459351255 417.496392338 408.514794716 306.063508333 308.023195477 310.205978052 311.630748402 291.589349965 257.077654609 230.449940335 202.419073882 177.761048255 142.482115234 122.764261592 124.647487371 114.516939607 104.222978832 96.1256794598 82.8247323314 66.5002053039 80.9174378834 88.2632064671 89.7983548145 91.9212090653 103.154498492 85.8180933812 92.3355976782 133.318661607 220.531594633 262.146527726 336.267224926 423.928461093 365.958321712 649.851623403 1053.90604487 1532.97950933 1952.1461079 2189.10399371 2575.1607091 2876.75756101 2957.38610338 3151.53759471 3238.34621906 3210.69310879 3211.63632986 3255.18067277 3200.62013829 3067.79229941 3039.26174486 3055.99253453 2848.40470999 2427.97996789 1938.73308516 1615.39885795 1644.1853546 1545.72063486 1437.99513608 1419.84211637 1298.53899995 1148.19120242 1125.16725811 1122.01822554 1336.24701975 1412.35761745 1539.51996937 1870.30398734 2472.66783313 2987.64135348 3607.09033653 4219.54336595 4635.23339915 4658.0781185 4847.99404374 5073.98936549 4923.28322327 4460.6754052 4171.58601125 3790.11866097 3452.867136 2894.79878694 2495.67253188 2235.79805311 2092.93084341 2112.99582124 2039.39398736 2146.79624829 2362.21384744 3090.13669943 3527.41435713 6147.7741305 8089.04926928 9929.83182803 11215.7465444 15333.2396418 18478.1823115 22070.8356739 27931.8674133 38568.2480183 44169.6122517 43304.3847733 45550.8813565 56574.0016775 65244.8049562 57766.4361851 45509.2483757 38546.2953678 33380.185908 26291.9496661 21327.0459438 16031.0285704 10895.5579209 6457.17796041 5412.70336087 5223.93188033 4691.15671803 2302.95070561 1850.87498465 1730.4484388 1596.78464821 1446.77239956 1451.99320515 1479.74993138 1559.21214868 1640.73668066 1877.88694203 2140.14633772 2061.82237817 1908.74841567 1957.67639486 2108.33005518 2061.11511433 1955.88787913 1909.43814737 1869.09529329 1904.62780191 1870.40044554 1951.84313934 2129.4621624 2283.45011275 2109.75902496 1936.87714849 1795.53695606 1741.41067178 1675.22464355 1717.54814333 1892.68992081 1997.33884917 2165.27329038 2372.5882288 2789.57772158 2871.50364051 2810.40709212 2908.58193339 3070.79797207 3349.74876072 3518.09919141 3536.06325319 3784.56865407 4111.22323854 4042.48629191 4067.58248277 4052.42701534 4060.83864074 4071.65257922 3838.86112213 3516.28610293 3194.00300533 2802.89324063 2304.78607367 1950.21612736 1296.92318998 957.999560798 769.316669354 712.057548064 555.627387219 425.845082764 312.930696976 258.699391663 222.09697512 198.858423029 168.740466596 143.852763827 129.632939923 116.042916039 105.746702422 105.973069985
1272.22611286 1086.54474878 938.852173908 1036.80880274 1257.47234105 1356.2480173 1442.85236238 1418.15719031 1444.15201963 1364.22970305 1320.56052977 1189.66948473 946.305279586 666.518911685 657.662829641 687.142107201 507.167201353 443.723835284 408.477411275 366.540677615 286.532512169 246.851827599 231.724013207 211.181883772 204.256876735 216.339598886 225.432086777 287.413677624 359.051737773 315.85977861 389.145278688 431.425088015 492.328539105 525.98499231 514.203647827 494.255271931 405.775796987 373.677178754 281.472681543 272.072767409 259.011426811 240.020430804 220.355583697 192.75737347 163.521781294 134.872905389 102.106875462 86.4028939623 97.6148116611 95.4337395778 83.4805070572 76.2182495349 71.1601748556 68.1721459812 71.4284006989 74.2457382488 70.3955385657 75.0402909212 86.555860752 93.5122058723 105.655772864 168.147722328 161.757907225 198.016823488 352.742595519 364.236026452 209.857153029 508.453686177 1127.45777852 1543.10933781 2145.88937003 2489.27613111 3004.97652354 3079.33557534 2974.97500999 3296.32525847 3364.40231945 3148.4890814 3679.44916594 3917.22193337 3828.09412253 3663.97979898 3502.93519316 3433.68385086 3132.42017474 2830.18951808 2492.42236799 1910.98102408 1698.28925903 1500.82532192 1344.27242654 1257.66371913 1105.85460519 987.688182511 984.719409747 1020.78944101 1067.49848713 1181.69069703 1346.10724077 1696.16516783 2676.90739943 3241.46801202 4055.31592922 4709.98946926 5002.0747738 4942.70920827 5148.58861855 5400.40021317 5304.92999374 4875.78583342 4479.38806616 4033.39252146 3426.39514899 2624.15710471 2105.98324314 1877.39288819 1889.05642131 1844.45344859 1752.83304146 1790.81359904 1830.05564986 1926.35760806 2117.13570827 2337.76097507 5223.85526895 7496.43648177 9517.50765208 12092.2762268 17969.643519 23398.6894208 33677.3544447 52414.3747798 59903.1656131 49378.8017113 49605.223234 63978.2992911 79087.5765468 68359.1012553 53095.078769 44935.9058919 38636.4985056 33029.6549029 25240.3968665 18944.6309937 13699.2074665 9255.6280453 8357.7956764 5767.8985999 4851.57719269 3782.88233072 1678.46605425 1515.55556138 1387.14719521 1209.14370104 1263.07660098 1376.45629704 1493.56794085 1541.54752629 1682.72077753 2008.62076966 2071.22707807 2045.19333436 2090.19078767 2179.64851789 2138.59083304 1791.31076748 1650.19406746 1571.55565248 1521.90834792 1452.80217775 1567.78267965 1624.93224655 1612.47216678 1386.30146556 1182.04546019 1339.54720174 1246.08805729 1264.95242574 1289.6261567 1336.80481366 1523.39830197 1623.96547225 2037.53074988 2613.99751719 2860.924685 2687.01510242 2561.12870489 2930.14719368 3277.4985766 3490.44098592 3412.91610997 3338.11068257 3540.4462122 3698.82393829 3766.98959861 3793.87113823 3722.01635778 3602.85601549 3427.14428456 3176.05936779 3062.86774037 2783.34908448 2435.1399439 2043.88028804 1615.92231508 1113.79009523 906.521688605 780.28506785 693.879609454 442.398854239 311.426769596 251.147822064 203.588931605 155.021244131 137.783732494 133.569396075 123.522446719 111.634764736 108.240181601 104.204193093
1525.36059815 1470.88989367 1421.24954476 1443.83853591 1492.44380684 1588.00226409 1704.95822866 1789.11221995 1776.8015722 1640.09027014 1576.18950874 1474.96951506 1218.79261829 902.870498288 793.411772883 735.60886927 538.360186161 390.331104647 380.296788541 312.773530682 252.214808574 233.919059581 238.186382691 199.81177299 167.631598233 207.368611104 214.668761205 290.864096658 379.00865925 372.251928855 366.916086786 399.829957916 548.149651879 532.618816005 601.713987302 593.260163347 469.646025175 420.786239145 339.9196656 263.195833077 246.693335263 218.575510328 193.441441813 168.640872265 143.666809475 123.680842555 98.760636329 89.0441923853 86.2361209482 79.3414470622 69.1694159614 70.1186752296 66.5663715889 68.0320160879 68.0363524754 66.3853355559 60.1462983688 64.9753176972 83.7182544383 93.7447873357 114.618076213 174.974339496 142.267533496 170.882157933 311.599119022 465.298653787 471.335632354 839.661478526 1410.40636999 1763.32044521 2230.60845915 2708.4304244 3206.56541677 3456.63952987 3382.12701181 3686.34915513 3858.15227626 4098.41790197 4716.21621619 4672.9253667 4478.71307851 4220.86903028 3673.19913337 3548.04640672 3241.70712694 3111.12401501 2965.59190591 2303.89716082 1740.58251642 1475.63495032 1141.12244027 864.010867801 834.119714784 856.500904644 865.305842603 852.396201613 913.092878452 843.130721629 1090.23000792 1627.1773486 2733.93528073 3566.92164734 4223.84522032 4723.39755926 4933.98119643 5107.1748395 5278.42434028 5413.58900179 5397.68240858 5178.62592442 4688.59304454 3949.25126557 3399.50562466 2695.62309625 1989.62956629 1784.66603368 1741.93378575 1680.84987708 1374.14299085 1370.89186292 1532.29940297 1496.80817645 1302.39462943 1398.58515294 3427.39057181 5699.10422175 7705.30252097 9826.95826672 15177.1543661 20054.3693526 29348.3281936 49337.3847432 59121.7536996 46732.4793523 44359.0566206 55837.4242111 65475.4563159 61405.1354646 54756.8434089 48789.2505466 43176.4404184 36063.2153014 30015.1947456 21397.5085758 12694.8919426 8442.87068904 7484.02322465 5860.54949044 4580.06914186 3486.49612178 1468.415507 1278.16147841 1182.92511975 1171.68754813 1203.79500689 1702.42630319 1687.44399768 1480.51608419 1526.48879561 1890.05622241 2015.68928182 1987.70209014 1965.86229838 1966.71935493 1907.78255646 1794.85473855 1680.5202862 1270.63680313 1761.0859857 1703.51558286 1629.218737 1018.15539308 870.276682549 720.083180195 650.708064266 714.959152888 723.770853636 691.340346226 919.96528921 953.261433163 827.934095749 947.256398651 1262.71386847 1871.10827594 2183.85002018 2210.63232534 2297.67460887 2409.95548627 2988.11066303 3368.83785334 3236.98680166 3085.70841298 3190.81141975 3427.37849268 3514.15642845 3740.40896029 3647.53626676 3413.38727661 2994.43897613 2849.21195773 2946.94639888 2766.29236972 2447.04187648 2156.54093081 1549.31534147 1156.74013961 965.850641759 873.928790064 705.224866922 462.265306211 353.190086287 245.487651325 182.931178109 118.919339683 115.749895952 122.899717996 107.826388439 101.124261843 99.591297112 97.5699839408
1742.76653704 1696.72747746 1648.62015692 1542.66123781 1411.29555987 1585.84901908 1794.28825977 1926.29741563 1911.69753267 1825.28645539 1676.91302794 1599.27385888 1493.98209942 1277.03316209 989.385423707 798.735849962 481.898716545 301.683274735 394.690346973 374.080167138 261.028974999 220.681083511 228.941571801 182.423469677 213.741129872 194.12626384 205.687733954 288.120237488 378.919379175 342.590574168 256.086505371 323.457872012 503.57341931 656.496382735 678.791188782 583.37735538 531.044878616 473.832627591 385.428627302 258.497720963 238.113003908 196.587400785 168.115573148 156.783667047 131.555486246 118.623194432 108.556762575 93.1912444003 83.1665984506 68.0592482241 66.6552287899 64.4403335673 61.8270995441 60.2282297701 59.474470887 60.145110907 59.7654396454 61.4535518462 75.1066007503 91.2713751273 118.76946633 139.434238981 192.998621178 234.195749475 345.723715008 573.575800345 784.336071183 1319.8595949 1790.22873087 1945.83755525 2375.45927211 2724.24434555 3461.13696471 4024.95828368 3848.33126387 3978.30218771 4410.04820164 5010.59972667 5931.69337235 5230.95632034 5161.23641498 5173.21323221 4250.41317658 3610.61159158 3214.6004465 2951.80157247 2717.12496766 2177.76131582 1662.34621958 1310.65704847 1081.41769733 809.528091376 778.219879172 767.972275681 698.229599972 741.983596938 873.390640378 882.077673795 1156.46168414 2013.01654256 2762.36268588 3661.41468937 4371.40592091 4735.21437524 5074.9459509 5473.60715948 5685.96532613 5685.76148946 5808.88793735 5632.96220533 4851.99509911 3904.92184277 3298.61947239 2809.95155543 2084.34787942 1859.21413188 1703.96209181 1475.33920539 1150.16613406 1211.36886408 1530.7431943 2042.44789578 1644.35101417 1480.40228649 3081.23250736 4431.75691979 5819.54288173 7362.10484011 9225.40897493 13583.5198818 15474.4950869 21930.480335 31546.6462192 32613.9552678 34623.2010645 42938.5065124 50775.2027845 57525.5015804 59898.1307072 53101.3886642 45624.4863375 42708.841646 37031.0648777 24886.5719131 11639.7141268 6732.2479841 7523.4965119 5407.44372353 3774.98147431 1583.74720208 1219.8434217 951.686480351 987.2441059 1384.19299171 1609.99694319 1835.74870681 1950.08535847 1602.2017237 1675.45146672 2896.80304904 2474.79583754 2392.52810821 1736.95110516 1523.74759338 1400.12155275 1367.5278069 1390.05464049 1011.30831328 2161.66490604 2107.15365476 1442.32489268 718.537952263 843.705264833 398.539546246 291.593329531 354.748102091 420.645429234 364.847555383 363.633760034 390.260236637 352.263908838 368.723180544 527.84983763 891.079837782 1235.25760062 1361.82134715 1580.98559259 2007.27678334 2452.77975143 2723.75361079 2669.47389937 2635.47975184 2916.85314895 3232.50802249 3370.98700363 3643.11787424 3592.33678472 3351.88978328 2747.63216033 2738.21099403 3076.26212049 2795.07380879 2466.81260604 2162.57998452 1607.81536045 1035.45761114 925.943520133 894.909157562 695.153835226 443.854328612 292.860576312 240.087958547 183.77490543 131.847833701 123.340421196 113.408411292 102.053575874 99.704000616 91.3959107211 85.8553127748
1833.09651197 1783.94465401 1813.91921752 1723.29671534 1602.37545284 1788.14791727 2029.34059139 1887.70245023 1793.28805486 1964.43587133 1782.4249232 1633.11754939 1588.94635545 1489.46591935 1241.73403837 932.726897225 722.98459923 559.188127652 562.991157675 421.462257016 332.56357328 250.271131095 229.778732299 223.047726135 193.003724987 200.886331136 191.0227149 204.505199493 377.420747336 335.812649741 200.470734198 270.550180977 566.90735173 630.533075456 600.229543977 605.388896368 506.560343364 422.45479753 442.334820169 297.019161588 268.887688159 177.089949279 147.193613795 142.509124127 122.987170366 119.936558706 104.673633614 84.720773705 71.2237760101 64.0061379798 53.956130764 50.0036758118 51.2876784156 52.3717272182 53.0225415035 51.4750794972 47.9426457473 50.3168088614 71.7036293026 84.2192849789 113.36945544 119.994121936 140.633618784 256.911615357 375.215725269 508.710424497 838.43542673 1365.97591964 2164.04577517 1997.30895365 2472.37897845 2839.99726417 3125.57016707 3813.22899611 4055.28427526 4428.16161514 4727.20253252 5093.21628652 5297.97914052 5037.280882 5391.99887956 5600.57704213 4425.17217662 3611.35044086 2943.97037637 2504.24743787 2071.3288958 1727.77890619 1516.17300024 1179.59149252 1072.63892368 869.369973873 748.686331066 703.481066117 663.973338286 699.440011485 879.590011055 1092.99190418 1461.25901373 2242.14929579 2620.37205182 3428.07996142 4510.68261765 4754.4443994 5189.61261796 6173.32350945 6497.52364639 6127.44762645 6158.25303793 6020.43560843 4695.67567802 3591.54530883 3330.76880294 2921.57480768 2196.33443617 1752.49384623 1820.85944264 1431.09591985 1159.8027394 1176.34874564 2094.535259 2223.47407422 2207.0600182 2125.51281382 1810.09357312 3345.89847764 3824.87266191 4820.71246603 5681.26904202 6198.79447153 4762.98780429 2495.96207243 13380.8778219 19280.8309237 22669.4051037 30377.4418532 41330.8022013 59732.7602058 66356.7654025 54532.190786 49292.2467585 53402.6307641 48407.7951119 32124.1224585 17416.8071144 10394.5736857 7815.07571435 4831.60785272 2064.16730455 1266.58278154 1074.36869506 749.443148842 908.869817514 1473.33636862 1828.63477004 2494.09773156 2677.55279103 2421.59684949 2557.07671226 3032.54344301 3169.27768998 2388.54452835 1954.08210501 1024.88386794 821.463521969 1038.65054133 1544.1706324 1346.72118643 2037.20445837 2718.7372171 1283.85576903 1093.62444915 815.262118194 391.350263948 266.413622855 309.73454786 279.092755081 241.654960541 203.675751598 247.911487445 264.195099172 197.214192322 212.547464884 472.718280265 759.706096658 919.815711204 1087.93391968 1391.44670099 1763.6124147 1995.43372646 2266.13269554 2351.25968138 2701.12688196 2993.58467666 3155.78728716 3636.46066173 3652.16065399 3648.71987265 3446.61496552 3252.31064619 3262.80306411 2842.48545517 2075.45230083 2113.81592339 1812.97138092 1246.25467728 1082.39642569 895.037706753 634.490872148 396.237356399 297.6913638 224.344810543 207.674353322 169.075223482 130.162376435 111.120635643 98.2041380898 85.729652954 72.6018530584 71.0941658853
1783.87689759 1655.73517468 1839.43794851 2011.12984002 2099.97403717 2217.47974996 2315.49808572 2127.38469776 2002.10236552 2152.24593458 2092.64413155 1841.39617444 1675.00124079 1492.45069154 1324.24347272 1075.01534777 940.849301999 816.904066291 712.240869339 623.539198021 456.569782186 311.792507044 153.858956513 162.188149773 232.526810301 212.530776447 193.458753558 232.82773166 321.98274038 394.359072386 460.022532295 593.74639271 812.300757959 605.482987405 389.943239537 683.120705693 473.538309711 369.76573337 487.039553468 338.72865697 287.692607263 209.956626834 148.835976863 136.866034509 120.48911061 102.329533095 85.2571544413 76.9091659427 67.8283517174 56.2231272751 41.43961644 32.4273085977 43.3636773341 50.4491932548 49.5707321764 47.1192492205 33.226073435 39.03249297 66.6767488393 81.6411011614 106.51803063 103.267998384 88.9425981483 225.815898284 366.234208452 473.85336438 702.351009923 957.306900017 1362.80303573 1601.03987564 2111.78933781 2554.82794691 2632.29587674 3109.40302388 4286.00632707 5223.2310985 4788.67004825 5496.36698157 4537.3611563 4438.25580658 4381.62457712 4250.23307465 3831.66196157 3316.16993639 2752.88104978 2257.13556555 1584.25510119 1457.46155354 1333.81379324 1109.98257635 1067.69392955 899.497518434 656.217170054 609.837349726 591.445294977 619.336369669 796.796758193 1032.85130392 1565.71992292 2372.11558353 2519.18340668 3084.30708387 4382.46816784 4849.41792598 5806.57007998 7844.95919962 8350.84849561 6908.69499489 5974.11798115 5429.98376638 4212.2108582 3426.22849386 3316.46146311 2609.98892877 1899.53229308 1823.59985234 1747.42398561 1550.00450066 1397.41530043 1341.07429045 2235.61612819 2970.57178033 3360.14803385 3048.11866787 1596.92538241 753.385322621 2040.56912445 3226.62167198 2355.20851827 3013.59904386 3361.08104998 3588.79288291 7929.96470469 9687.31407907 12991.956441 17807.8282704 25458.8879799 42581.877263 51001.8935678 46239.2285247 49349.8663656 61707.4036472 55759.7114238 35794.5818383 21773.0804463 13997.6557367 7992.05813242 3933.49070969 1014.91688008 1084.21284637 1252.39560132 1195.75049488 1368.98437611 1876.76500042 2833.23177366 3428.77694774 3348.16334122 2098.31209339 1885.39590047 3085.71770022 3031.99359501 2358.05133994 2016.18786879 1031.96257189 684.036385221 1214.36494662 1848.71989905 1692.23875961 2573.41616746 2411.79272998 2012.70939443 932.242083706 1508.76534027 846.454920293 390.935526621 298.016879862 246.080629714 157.769304151 157.553154277 207.158109745 227.04820596 218.377296512 225.440584904 257.553059786 409.27556674 590.806487332 740.161739269 992.842539516 1204.34960061 1668.42908585 2098.19393526 2221.14342197 2516.91387506 3002.19465385 3160.6273683 3470.13827903 3644.23744453 3707.63716737 4145.26502585 4224.16276933 3661.14444246 3146.68560735 2052.18822164 2251.11010513 2233.84429415 1741.98619852 1252.05552607 839.238545284 495.363623057 340.399274984 289.792572403 233.07803846 215.800999683 177.051042689 129.35448125 101.60733534 78.3129855835 65.5104423019 51.5785297781 56.9803155047
1821.41947467 1579.24469672 1965.29972513 2383.8932423 2522.73502926 2686.39030293 2876.98620442 2872.37285252 2817.86096118 2673.05487186 2476.86237472 2156.27587423 1696.83260818 1256.99899065 1407.50661888 1162.21500665 978.301530237 902.146377441 789.709533033 665.900174945 565.664898386 293.60480027 36.8151527023 117.263679855 200.55341776 152.418000739 208.056531681 191.619503378 130.441873246 495.170027459 827.362298542 1131.97661432 1269.69380985 989.532063354 720.575393304 926.312718966 859.28392461 594.795832909 557.815162875 456.220973223 315.442068065 163.177026573 134.141757126 128.262166367 110.312941948 85.0857072205 54.9352822665 62.6154204065 61.0872855952 55.9695280358 44.6362961947 33.6557641007 45.6802894285 44.6212105007 43.5530862078 50.0736818457 38.7001601326 46.4866322702 67.5509425636 65.8989411477 96.2712335594 115.251934143 118.473562726 228.141909068 354.342816479 421.342860162 514.40746403 633.262662941 748.626274945 895.648374818 1256.15749511 1473.37781824 1715.77815721 2327.64406054 2804.4131741 3380.1172237 3667.28220388 3879.6022617 3599.73074382 3673.76877563 3602.78640524 3838.86571334 3491.96196205 2947.39629674 2650.30447185 2349.01052723 1807.0957065 1459.82841101 1268.09128614 1061.08541707 945.618125257 670.112399787 500.305569614 366.650259325 364.248487403 455.482470449 565.835763271 867.397720717 1249.86298189 2083.46261362 2471.14439573 2974.69613891 4019.68110486 5082.37173649 6812.25799951 10542.8369329 11732.7986944 7889.6947784 5681.10904562 4533.46119287 3485.23946648 2923.43676576 2540.54022824 1824.8197979 1542.27860495 1621.18274931 1716.37531605 1329.64471766 938.910366013 1080.59051118 2997.88188728 3547.69718684 3684.7201122 3733.3021612 1820.2658275 281.707548866 1356.53489419 1699.71093238 307.874872616 1580.2931412 3180.71536703 3136.58298614 2659.28290244 2203.41367777 6942.24912273 5937.68158332 7891.6631951 21300.4230602 30834.1647954 35288.173367 40725.9672424 48441.7569165 43559.0668864 31801.115575 22108.3765418 13086.9702173 8169.29595198 4697.82663159 2477.99311517 1080.65136371 1303.55647546 1658.11698757 1755.2365003 1443.71820576 2998.17700349 3400.75484472 3745.68973662 3362.46399838 3263.77708944 3550.0283185 1935.57781219 2198.18530048 2381.52850553 1841.98770265 1432.20092311 1769.37444877 1191.9874821 1422.09789514 2691.82916809 2370.14107309 1149.38191354 1230.99810199 1683.24947358 1189.54230617 1099.05853705 357.311107713 193.61828075 155.805387691 148.801764246 130.779698042 113.669303251 185.694739772 172.14117324 128.992213812 136.603129679 245.476008568 444.128128515 464.416790759 692.637993167 1071.81490665 1685.68195375 2154.82672853 2616.5614535 3043.0823299 3112.36613305 3604.7304796 4030.94332267 4336.94061934 4815.3063991 4878.67541618 4651.41451508 4012.61632614 3541.7570344 3128.25524977 2738.60277098 2176.8837185 1328.49092899 867.43306035 495.777966779 326.907783108 312.627157089 234.669490514 186.672828987 131.902202632 97.2684747295 79.1605260376 64.3472723473 57.7154258621 53.5515429456 54.2648980693
2155.14209583 2248.40179911 2692.64908723 2807.76785125 2882.74644612 3042.53038343 3324.88120789 3781.09229548 3727.52614164 3269.3714386 2927.22104365 2599.47022001 2279.45411605 1786.29095231 1659.35702852 1390.43994326 1079.93819574 687.950393155 660.582594859 812.653234039 524.387822968 456.949842331 401.85342519 233.00358498 162.395747283 33.5579926942 206.640589692 183.778735185 170.515608364 644.251187514 1038.79935338 1547.93577321 1893.3194144 2020.22667377 1874.23788816 1604.20741782 1265.37373361 762.411133056 467.782884005 435.081614017 314.698044556 218.113413201 107.975975087 130.689823974 102.464824887 85.5754834829 56.4261710984 66.0007838264 49.5921260437 47.7890586637 92.1659253254 97.9042736729 96.4948648585 51.2143755292 30.9756097967 84.3476984696 66.5475388075 79.1134918106 68.1939128884 47.4687251673 101.436945359 147.733089193 204.848553867 296.371051372 340.761364732 385.493720325 423.638759697 500.800359854 485.680515377 578.994149455 712.950336107 917.896628245 1134.88540718 1418.18219057 1791.42868476 1929.35413174 2481.67442718 2955.26629743 3040.68425244 3182.7540889 3167.85311616 3256.32397017 2935.39234158 2974.55715836 2555.88802734 2715.50637554 2114.55415637 1548.92683124 1158.20578098 849.774011649 526.657962875 376.905637087 352.958623609 229.094966009 191.481353191 332.57366797 395.645663283 621.27971756 770.995179031 1029.79511857 1921.79221764 2712.533407 3675.95362047 4692.33169412 6212.11596269 8893.90187558 9682.30562771 6657.3618232 4724.4720951 3533.24741813 2709.86071038 1975.01820421 1162.94949025 852.863126721 1149.46783344 1550.79326558 1545.24386429 1175.69708615 127.408368463 1350.29734759 2999.33654894 3661.19352469 4488.02517378 3825.17033247 3580.88672217 3180.4016397 2966.17377897 2694.57020344 1138.02986708 1851.54504449 2415.47032515 2029.04476384 1896.30847647 1869.51746932 3122.69605721 3209.79953392 4762.99924085 13104.7176315 19634.1502195 25043.9259395 27022.3537948 28810.1859657 27908.9635805 24672.9533817 19552.505717 12404.4529513 8052.57459445 4461.35661998 1220.48879023 1038.60053935 1073.24199047 1494.77020542 1626.88074339 950.806272852 3162.75479997 2138.16001423 3316.39443331 6123.35040737 6234.81239999 5144.59104521 2825.45652704 2993.9681646 3146.794026 3054.63382625 2015.61369278 2385.43031974 630.314668017 764.341255889 3389.88686146 3013.8356841 392.471718207 1254.46312108 2496.02956618 2093.44822479 1280.86124103 467.497066054 260.620713047 179.432364408 118.529507521 110.277370426 105.173784278 82.925146624 63.5590633129 25.9968982755 43.2854476078 89.8091806933 128.519280498 187.870024345 245.545621048 322.768382009 995.328226222 1817.25693429 2678.31613144 3352.21734169 3628.00951194 4299.64377061 4780.91620084 5335.51883309 5599.11575443 5424.82602748 5192.94749402 4639.29388882 4553.37051611 3922.23476337 2914.35967733 2315.03438021 1434.431802 899.815302204 555.208435256 382.201744987 305.137692657 202.435309969 157.475215775 90.9787467647 61.2205223837 66.3390364324 54.3417370955 49.8654895155 50.4531257009 49.6943314761
2384.05486431 2677.36728208 3286.88476962 3132.49007329 3104.95192371 3337.69282606 3539.01029084 4309.82628634 4240.24684798 3577.51176217 3347.45199991 3057.8054741 3311.45864047 2877.88435147 2077.41471685 1626.03969492 1253.60790316 431.14180926 764.232674078 812.68367225 239.749513976 984.875157391 841.771989875 722.945132162 270.724280609 174.046380356 273.39712345 382.603279482 688.917130393 1055.2861765 1321.21840134 1833.16331467 2321.68790144 2768.11838487 2632.11775017 2278.85586578 1681.19129544 1152.25971817 426.737509811 492.593231991 262.737373251 256.346993567 188.89314728 141.111062079 77.2208821368 89.4728579939 102.695082611 118.79337219 86.3463755484 106.40417842 206.836824857 236.51590119 213.551228257 158.276536988 118.615677194 134.046771239 162.334286904 124.276858768 104.361288262 112.344027256 131.640805107 172.261284702 191.371404696 221.452696785 249.39472064 257.702278161 235.753596702 241.601220717 358.709384635 386.90838892 523.441411585 648.878218384 813.138292315 1114.80758069 1271.27706308 1644.58123775 2041.34604748 2083.43049699 2319.62092102 2928.43843646 2354.96850703 2203.2933521 2113.86438846 2410.8482816 1992.28271831 2120.51423003 1654.79053074 1165.81303959 910.557315397 614.364226457 362.094603857 240.761869196 317.524554889 253.985181889 221.332139462 222.691902435 257.433016666 398.463780755 348.67079425 277.262889608 1362.17748775 2290.46737404 3057.11159924 3766.86763088 4446.81047604 4833.58555057 4355.2592721 4106.72228829 3052.70110046 2337.42365783 1671.12901543 1181.28491797 270.402082 205.311745075 991.702766566 799.946147282 1030.59239676 2810.62542513 2484.16284166 3629.67696153 2732.50316023 2564.43898435 5427.91351454 2086.36142484 3724.0676848 6461.35087941 5413.25192309 4425.01084669 2035.01072821 826.062177483 836.432317426 621.063722074 272.452253708 725.95627206 2694.99162659 3294.94167235 3973.89701527 7002.48680296 10955.2893644 15623.9664962 19490.657401 21586.0485923 21634.7674783 18800.6780255 15392.9424068 11323.6272874 7416.17026403 2361.43815047 197.464895229 881.910754788 968.557937673 1063.05993763 2227.32229204 3099.58851519 5166.12726484 5163.24284254 7429.16927987 10129.6367674 9615.84982964 8502.92066488 7971.51813497 6543.97167156 4026.8042221 3402.37539933 3448.92848684 3164.51860106 2908.78279243 3448.11107701 5811.20656536 5797.86750889 4083.45962939 3666.74850414 3588.60599601 2757.07323632 1478.49331086 518.380173773 388.446863503 168.563700758 80.0906623319 91.825310692 85.4710532787 67.1175064358 86.2615482741 85.2357576152 90.2040513382 96.7406429525 29.2654043088 140.60194089 148.992321853 200.890977121 701.599279478 1363.19256418 2398.23472759 3452.15200165 4141.23895194 4478.19088286 5209.65054126 5574.29694482 5768.32309407 5686.42013398 5593.85649361 5022.7998736 4527.03697735 3851.31530181 2893.70340266 2166.91379486 1408.51514257 823.765238575 379.768517362 311.630200455 263.987961457 181.600682163 141.171070158 84.2154397923 62.0550522845 58.6729120013 50.6823079175 47.2317521496 39.0803133514 36.2677890183
2469.14292985 2555.4565308 2858.52730094 2895.66956611 3144.66309457 3784.35742642 3461.65005329 3643.55766975 3633.20201976 3687.16403832 4074.38999534 3291.86919852 3291.11276756 2828.98332587 2146.89877289 1842.88785779 1752.91756853 1574.24359419 1603.76118788 1688.85762952 1383.54242353 1666.24149507 1742.01220005 1067.84201925 427.531653452 351.164202876 344.697480395 488.718079366 837.56886548 1354.46086986 1505.37671172 2133.00666557 2406.30190888 2823.22317841 2785.41005485 2587.14469937 2164.43117209 1799.31023946 1231.66003465 732.673923198 416.49123954 328.727957537 261.342934236 198.019328304 138.180302103 139.79830881 199.02052695 213.221186044 236.197177018 245.967005613 301.55735784 335.030889792 319.678222956 201.814467778 198.532724895 223.67103813 203.349723977 166.860174053 166.863022775 132.520910813 151.704636023 190.0685323 184.753909367 160.993990708 172.039936891 153.342995782 116.235596628 111.865602155 89.3602483737 172.914417599 186.46828567 285.398306018 417.273990651 482.894676601 552.675971568 744.44164762 710.445893998 1003.7015755 1148.73320984 1183.69745776 1101.91818305 1174.62884188 1040.88862806 1084.18184592 1239.07604552 947.890896187 718.268203836 806.382299188 713.75073425 498.052191954 410.723101962 308.399972103 314.883827611 290.709434882 215.605688699 126.696686136 187.459261726 445.743878725 379.164674315 371.132443751 992.575742191 1987.68914573 2786.63843885 3265.59711302 3492.74006489 3539.41007115 3317.84075618 2709.71305646 1468.59281645 1247.66466074 989.472967311 506.657354293 577.060746325 826.011262578 1670.57733274 674.794300576 871.012539236 4775.58087609 6065.27861805 7773.77694752 3154.84892232 3875.33835897 8632.18225561 3375.37361786 6412.39356607 10653.3534218 10333.6967428 6769.62158766 4008.58145041 953.143006362 1176.66043392 893.557614113 408.487199259 589.689492279 861.967130906 1154.15127153 1558.7108044 2710.23340218 7071.53365742 9394.84398554 14624.0668186 19344.9566751 19675.6250719 16711.9609493 14540.3272049 10523.3069382 5384.89062493 3517.81455331 1217.52275161 1427.15028967 1105.99120433 182.778373162 2367.24842338 4919.26758925 7863.48354941 11564.2951315 18460.1362651 15208.3041953 13558.9862349 10992.2089875 10970.9950191 7684.26571996 3541.51501932 2871.28544172 3390.40581034 3462.4539223 4352.20533709 7274.71813636 9501.34095664 9630.88841749 8009.86327718 4845.92616684 3721.73528199 3242.56640999 2166.18755145 903.436845777 463.439336998 269.632153122 137.855725389 139.651690719 53.1705170374 112.525650223 46.6330392625 246.691250949 204.921249738 178.688450841 109.16925196 141.640109866 193.840129045 350.762148672 750.873969051 1115.98016482 1942.99271619 2865.50883816 4098.17021995 4777.37180239 5260.52120335 5520.38600357 6273.79914395 6039.00005626 5686.56035368 5226.68289987 4189.24243891 2790.97091948 2501.41526431 1946.135536 1327.51434339 849.430742144 418.618002306 288.25939097 245.100733354 148.909989413 100.496805878 72.1042636836 62.0232675221 50.4642405821 44.7151419799 32.8905343663 21.3777462645 23.4631434089
2432.51941668 2429.1477676 2366.17818449 2469.75420868 2764.4896585 3220.21481781 2963.17006598 2860.09348251 2954.73444303 3300.91144381 3725.20658874 2932.43885823 2504.71095169 2189.33615495 2187.17776526 1939.73963016 1994.02631406 2213.03362969 2638.42322093 2709.92431135 1816.92246048 2064.43942374 1996.63666338 1131.54386468 635.435957033 313.154219896 350.478554666 387.223379769 640.440821777 1063.32287358 1549.89074864 2214.57560467 2416.67202644 2870.38251794 2927.53174515 2725.55541829 2404.49999954 1957.05608257 1404.22452324 858.341775236 525.604698503 284.900256449 288.760702455 237.879250037 169.846027408 187.292221664 268.544159517 335.085328641 277.045331714 136.121125134 361.777256215 339.240229024 357.118299352 242.526691327 224.651892779 311.91134773 308.168964208 269.82348913 209.435323802 164.453853734 184.73678058 186.421499323 177.260799778 198.012944129 163.270838801 137.025876838 103.729216878 77.9806611507 68.9666081849 53.4097693846 59.4025699244 89.3666237317 143.597925081 115.884672129 248.151329306 249.872809803 320.651875133 456.919889645 586.588465552 664.996308438 723.831534468 714.555470036 804.495863971 803.326016445 717.280722451 655.239450859 514.900182993 483.007215039 429.034829356 384.027117115 331.602138684 337.748271148 312.525999699 334.613304346 368.216233649 300.795039261 335.632283666 535.727016839 609.234502419 717.016077097 823.985500965 1495.01323567 2469.64668713 2938.14370628 3233.79767376 3099.23647511 2697.19566898 1596.65138802 112.683160779 605.119104668 222.248221802 213.006517344 855.983369549 1897.82449498 2642.08733348 4497.40356042 5159.24236381 7836.92769535 12240.682568 13778.929722 12933.0380045 14413.4389548 15649.5397666 16679.913802 19712.9952337 16966.1803237 14186.3044938 10270.6122855 5972.32925088 3094.72866081 2352.79437672 1525.01470528 333.506246081 360.906521885 543.859264755 687.145188419 1272.69195894 2349.84177165 3988.8787243 4316.39808653 8912.97649885 13534.4872455 15067.6847902 16055.4460922 16350.4909908 9469.71262318 5083.37999506 4354.70788437 2407.42508446 1477.3601245 1649.30517304 2303.42818331 3650.6564921 6218.59330694 8854.47996268 12732.7106982 18548.8550838 15058.1630519 17781.9624405 12093.7941358 7117.97320451 2490.9039311 1619.41611361 2107.23380076 2916.77410164 1500.2922237 3712.20626153 11014.4515114 13527.2932375 13691.2142428 11627.3275946 4914.85917488 1517.5399094 3118.99303403 1597.75623006 897.732543702 299.392960767 519.790625671 354.252648696 267.751054493 194.755521964 268.699258863 260.837527445 304.393576424 346.338617504 263.531506286 225.64547909 221.794266869 246.771852595 351.507971532 644.559917473 796.467678571 1455.28116542 1139.80907156 3625.76996251 5274.52264967 6341.07888962 7375.61711823 7404.65697542 6884.7568385 5867.89582955 5335.03948335 4340.03852593 3176.1349379 2412.50383013 1430.36819654 1284.3000805 861.205279213 643.410435442 346.232202851 163.629826687 102.922343695 99.8115045486 67.4940407874 56.0214716349 41.5779972533 30.4524334365 24.0154343921 20.7654509422 21.6730824492
1948.18301563 1879.0135706 1817.75471129 1907.93446255 2151.15574263 2232.79896185 2253.38460091 2229.33833327 2221.91073324 2321.98976986 2103.4727058 1960.57385447 1756.77365451 1616.60947378 1677.99731849 1744.66011333 2192.02001376 2735.17921771 3165.49015311 3314.42464125 3146.91192272 2484.36684511 1558.41509584 1048.20822788 950.242856442 469.575101964 315.457144883 342.399472427 389.35719464 676.14460063 1355.05417726 2403.54504084 3148.88995266 3191.49741949 3449.92243754 3310.33242048 2537.2573686 1660.31326227 900.355892615 823.512931859 674.020204064 456.909797635 254.996329123 257.138160653 243.397781018 275.388936354 264.420156672 341.285542329 378.983210857 527.702097449 607.41931785 237.400246781 570.469750917 600.036580318 435.018754497 211.305105881 290.017868338 267.132279314 183.161176303 247.862108696 268.562035451 276.479773258 273.980290617 369.378788836 301.375035365 172.630289428 173.210764499 58.1742834321 45.8832054353 125.661627157 98.1032933595 74.0293299406 62.9377175821 111.984408799 126.324355955 144.559016114 237.125386743 290.474670148 340.023003469 415.3881273 626.303980119 749.650002769 793.366269423 774.888521267 566.179394085 697.435584139 559.744763041 314.564793385 316.35788956 331.951671797 340.074209349 363.587467025 395.327063551 379.554983073 483.36531578 394.651864831 536.280439746 916.655629975 948.972612703 765.853947651 558.184162197 1528.41597162 2370.11154642 2682.74695826 3149.88759489 2523.76482531 1813.17780864 1125.11868985 684.513661308 586.142803922 475.679053859 583.210816252 1134.90636655 2465.44195181 3624.21468366 7034.09993347 6790.06865072 10623.6757466 13998.7434241 16096.5129707 13083.1229446 20490.5891665 24405.344936 24111.3547621 28459.6567778 23265.670076 18573.9771227 14750.4673146 11110.3632104 4047.71395946 3272.12725342 1391.48670909 1330.32590646 832.864174482 363.948345256 491.632016545 1316.72447243 2092.39450266 3543.36814597 4677.60642856 6079.72855278 8148.91897256 10174.4432975 13116.5200817 14249.6665514 8620.85187175 4647.83329846 3234.51502102 1831.54238242 1394.47955878 1721.86537333 2763.09254187 3517.37858425 8074.81907932 9575.91469202 13824.5875157 11089.0551509 9753.98594962 7674.19012464 5337.39998223 3340.65411924 2099.88890682 1898.40039988 757.962807869 3330.20926882 6424.4353688 11129.0077935 15752.6376986 17477.3036758 17536.4458125 16432.7334593 11719.83989 6854.1425073 4233.11947806 1224.98063772 1278.17759165 794.807842883 608.713736929 557.440519144 427.151300461 275.41581139 476.612195965 363.611667646 366.345537748 302.622656143 357.508630807 215.337108657 250.713640673 236.191798049 276.84574147 488.952348136 909.784045141 1739.07471391 2790.53800207 4480.69081647 5913.71114587 7276.4090189 8738.4248724 7979.20332033 8421.54706035 6417.07858662 4887.53967674 4496.61464402 3489.78432107 2318.87911886 1526.70921401 1288.27091295 826.669704155 488.746879823 312.649573891 178.674323 125.80894332 87.8803403924 57.9790114417 39.3840207219 24.5477828193 20.5770084963 15.4883065327 17.9296685798 19.4010093552
1482.67987684 1572.8291791 1599.78269042 1656.99813982 1713.93221461 1936.46820716 1822.48524114 1819.82269767 1788.40134981 1684.12981355 1612.61096448 1482.27880208 1217.16856885 933.573814092 887.879222088 1170.11246201 1809.98825273 2635.03200958 3811.52826603 5027.86523082 5626.40069191 5013.50178685 3452.83647033 1769.73628718 1053.67657255 494.636476483 224.785620463 221.382784089 280.13413011 376.838701249 996.661959895 1749.67652388 3195.5941939 4129.40977504 3815.29220712 4109.44791515 2436.5965156 1709.0099285 1288.80752467 997.008640816 795.021674762 637.152051849 450.076592095 383.603923402 366.574082645 343.532492415 346.494980356 496.835619739 684.745495065 931.699656146 1039.04740576 1184.28160982 1141.08871441 1068.45714405 859.656635394 535.592006487 383.497143414 348.916420456 322.286320401 333.558415 341.290989894 383.080594908 433.375889872 531.034265926 613.011216736 534.458810488 447.997127574 641.62048686 292.026882473 180.154997674 178.061344549 206.955604755 173.475029858 197.314186023 274.878119878 140.219401996 157.245058681 185.505535329 322.817063256 473.688346132 634.594753246 826.529710041 949.278474444 949.058096735 913.491404761 845.641425785 648.640660135 428.015770162 389.65335691 373.001009672 385.690753959 417.472347364 466.808341658 500.775396275 532.291517373 432.37911603 910.033539866 964.880215176 841.154816751 945.366651512 1247.61456765 1883.0713652 2434.56440659 2646.35381629 2645.47701069 1919.28526346 1663.00286425 965.639738524 878.209692931 728.196450761 836.94006237 991.570130241 1335.21259775 2799.9853364 3993.48585193 7258.1106711 7947.01671107 13332.9788277 11317.7513043 17756.4459506 22553.7534784 27362.7539339 28813.7002343 26374.096216 24805.9901521 23529.1576915 22919.8357587 16861.8405706 16784.0141267 8024.60760664 3761.72929407 2161.41733996 1875.07045413 1451.45816638 1084.31545782 1065.50904938 1396.74232593 2026.96021792 2579.26219629 3918.08825373 4965.76930076 6336.13640613 8221.15804968 9424.9424203 8354.927316 5420.0848597 3157.86225983 1065.05662043 455.78863204 654.887651348 903.984076344 986.438231981 3802.24478138 6729.00433631 7909.88388278 8518.01240359 6088.83445503 4977.09391324 3234.04596976 2236.1868858 1250.19909275 1787.80494059 2084.82572588 3505.1544432 6237.68495209 11007.0011982 14861.6481263 17099.5720013 19811.8073418 18966.9789874 18393.2400029 15553.1196294 10747.0169461 6893.7199374 3891.38271704 2635.40436615 1583.792936 537.450242568 616.822928059 461.69672165 687.824026663 379.597387672 920.110755012 1071.39009673 808.338619103 743.726276443 438.31704383 218.045421813 180.219264842 258.134997764 314.611219931 802.71233107 1723.20280121 3452.11012256 5059.48930811 6746.08942974 7850.91257165 7756.09084261 7227.77253607 6793.87125334 5613.99172924 4140.69991358 3311.25052712 2690.72986055 1969.80917564 1636.08913532 1094.77178612 655.767215952 274.377188415 247.987883538 182.64850459 121.471511055 75.0257806029 48.032187548 24.3744624119 13.9448992023 17.8356148285 12.6134586085 15.5378351995 17.8726675151
1100.38460153 1199.03167529 1287.55777893 1405.10101147 1384.27948499 1302.18239781 1416.06601539 1750.85327254 1757.3748137 1628.07641459 1415.6125637 1041.24224271 978.107882377 798.327877308 760.160175247 802.149409263 1288.01339126 2032.59526025 3911.3393571 7289.20230444 8274.2707206 7107.05695631 4453.3284152 1879.50966495 893.166654843 329.656640121 112.05180039 117.276220856 168.998863924 286.73517385 495.643515599 836.447592453 1390.07718212 2013.81253527 2244.65641635 2157.92916017 2028.69813685 1806.66844661 1480.16117348 1198.86152672 869.294779748 653.944043297 497.196479281 454.737813085 421.875305122 482.104000981 554.303188914 772.804518617 1334.61505852 1299.46933112 1387.74408577 1438.68767257 1398.59270048 1346.01390995 1230.33990115 957.403468485 686.779026988 539.8007905 429.923524781 376.25142104 372.727060408 379.161764663 444.361145861 590.694134023 837.515065725 1776.66691579 2675.70054559 1555.52823139 1227.45002643 1323.14969105 1071.95156073 386.819640414 504.176470441 254.580138661 375.528325926 383.709772368 291.90653762 154.615909358 203.645760621 402.265646146 656.580312505 877.137551501 1174.87000068 1216.90313312 1166.54124723 1032.91036183 709.698569541 433.833538456 490.376689322 449.106170559 367.155136602 438.122680235 520.016359377 551.94827012 1038.00291893 1341.06646148 470.970449606 1041.10021759 348.591453624 1000.99877525 1552.37416586 2194.55541957 2888.84163647 2973.12568209 2871.9529594 2306.65699738 1780.80645412 1162.35118937 767.335051618 681.35936217 855.50135818 1082.34985007 1803.49480915 2935.19165685 4361.56274726 4381.79585431 11373.1406672 20373.5352584 27690.5325276 32511.5488101 32797.7011332 33975.0565011 30829.6678153 25167.5005379 19808.6813494 18911.1328548 18085.14573 13925.7635941 9879.93759228 6982.10069952 4450.32602229 3005.59676482 2434.27023744 2040.18078108 1288.7984506 1096.95867149 1346.09380319 1576.7123165 2181.66344607 3666.12537363 3801.22011558 5202.49606255 7003.37316555 10181.3456755 5296.81160379 3183.43085093 1790.67201451 328.081825225 237.518065771 200.518794204 699.536425184 1917.78360219 3024.20009915 4302.41314222 4738.10837056 4397.28867551 3938.74966037 2843.1565251 2210.14856471 1248.99941062 981.430666064 995.126719326 1930.69882383 3936.33173601 9218.12646674 13581.3437593 18113.8969319 15655.1629829 17921.2908804 17069.9728145 15699.7857111 19283.4365462 11712.1969794 7675.15503117 4009.90697412 2802.71398472 1829.61363069 1635.9506532 1218.77719108 1313.87937508 1405.86067658 1749.13733879 1915.80880916 1825.27261154 1716.21592285 1019.11313646 594.670491338 443.434134818 327.671931064 320.051316196 418.102723247 609.635734998 1039.69215066 1239.58172281 3323.55145103 4804.9559181 5551.74040263 7159.26232898 6289.98415999 5771.47034828 4927.26497892 4106.44830971 2755.93775382 2109.7522702 1880.32718625 1444.32699656 857.88841679 555.890991145 396.390625807 217.055725441 133.485595998 60.3975531821 48.3948337424 36.381366768 23.655210433 21.4663648378 21.4646674743 19.2032998376 13.9218984078 14.5184069003
968.544146048 874.405085526 802.536704207 863.286128523 722.704234322 759.496542857 720.465980722 935.302275269 1093.04989377 1087.26364235 1071.75431833 938.644327341 652.907252884 522.802274839 429.194944145 505.706736621 937.33109885 2310.60248447 3271.59393789 4309.20939742 5313.14302692 4711.78705236 3064.45347312 2204.3072273 870.460321075 246.748046184 135.947475243 78.9763750593 88.7013143562 194.763167088 286.488811702 601.194407575 850.320157072 904.619261651 951.115323332 978.850971736 1342.18601961 1340.36681763 1093.68988033 1037.11036196 849.008626197 732.358195778 582.480774677 437.900127589 427.714545516 465.502073724 720.026693164 819.033464113 854.8451002 1322.95631036 1436.08240463 1200.15005077 1274.3416594 1319.48995319 1193.09580055 1089.29454161 946.843088163 608.702070398 473.746048256 376.051720541 300.16366584 304.025676917 390.893534826 601.494191111 1290.79754598 2762.02403752 3967.76441597 7179.51509865 6583.83454615 2837.41777433 1609.58503373 1450.94380762 1256.61910765 1555.60185599 1317.04298192 367.741401431 424.177370268 339.838574174 188.168090934 266.226955281 523.778396969 1082.75663373 1441.79891165 1719.79404651 1528.64766844 913.662663117 876.995700321 624.69564781 452.959542736 457.758074009 312.854363564 401.752693993 608.883835166 831.255524687 1364.80867853 2294.77804652 2546.57806958 2213.00744127 1775.07202793 1504.51665885 1576.81891488 2129.24791471 3226.65071819 3368.6636609 3457.36881631 3182.2995884 1767.14674407 1017.3742343 614.726214659 712.769831965 579.566757193 1193.73852118 1742.74018775 2798.20462919 4704.96325009 9462.1502503 15637.4676131 24054.077655 48181.0756627 47725.0522155 42825.8315204 47017.624346 39866.2421601 16183.0601986 15068.6900647 14406.7068609 12631.1963495 9749.55582661 7185.58511318 5859.50613357 5064.00733392 3118.92063934 2232.07569429 2134.8557295 2185.92070477 1898.01796652 892.896409079 1069.09588191 1184.33590079 1896.52064035 2704.6300317 3941.60253943 3430.9389439 3418.29155899 2416.03889482 1353.35254646 575.242816031 213.199007057 230.751868023 529.992797628 1011.82411256 2088.56393421 2806.52023788 3478.84261806 4064.69150987 3539.13853604 2179.8867874 1249.22474461 560.921479066 650.473021642 604.464140442 1060.97035017 1689.18481792 2979.86720228 7813.10724315 9956.96379776 13166.7024864 13868.5511372 16988.2817039 15451.9114016 15351.7620572 11745.2248089 11605.489213 8886.19197171 3756.25190087 1967.10560475 1483.10587053 1329.23191537 1394.10788524 1506.63229649 1737.57398847 1923.81164412 1839.61627553 1927.28911229 1390.06389866 1020.42925139 657.236829601 416.498383542 352.525745681 323.522596493 351.998022977 531.375842375 726.300455084 1305.91959324 1789.16331348 2168.11598519 4303.48244149 4479.01252951 5456.33377728 4152.2955226 2682.8811491 2174.35254739 1376.88679789 989.066944368 897.46035068 713.081045712 706.857847922 477.50114251 375.856504104 153.079626422 85.797267425 53.4417768169 29.1869827799 35.4032280313 19.0192225165 32.2376298157 29.461241593 25.8716797281 17.3023607855 17.4570077127
549.910845776 368.590476025 439.465598776 429.888394167 375.557359833 483.23520525 446.835415815 390.88396491 503.117043491 815.08137651 1026.68416588 1037.11768652 604.292899246 284.467287671 202.826252575 161.093028647 321.941015546 287.945046278 1266.17800832 2111.93736095 2152.8956938 1747.78405792 1183.43466918 865.670419974 554.24898931 39.5695780821 142.806208688 80.6238134417 127.053448184 120.900205368 304.604464762 444.60438189 332.943497866 391.229492338 351.308958742 248.332611826 398.048494831 585.392924806 709.704330469 807.583712895 920.714736828 756.191590722 620.877018937 526.318618724 439.906581999 393.506585613 367.195279083 413.455121356 526.194518156 541.687646008 660.283272299 870.793744767 1046.57858381 1233.94219782 1308.12597979 1075.47073615 877.569621717 700.059495729 574.041190022 383.722674544 324.597320248 240.337652639 268.381170344 439.468982931 1012.16135377 2149.9276786 4459.75387566 8492.92196977 6553.97457619 2678.88593003 1541.90888573 899.697258367 1312.60436216 1819.15196918 2509.12269152 2609.83490366 1041.15974476 391.995720748 164.21447969 243.566066692 667.626722815 1194.90883064 2045.98898022 2825.06474424 2325.45627315 1767.49350816 1283.34951332 894.914561705 540.449533166 466.130399064 613.982366746 485.461305859 515.814821925 976.338745852 1661.09470149 2565.88025214 3893.10492227 3631.25469705 2857.5235264 1628.31754724 1324.29143854 1447.04857846 2325.21304442 3351.38396843 3460.22308665 2294.69266289 1052.71376384 841.311799314 720.908317939 840.291181526 1284.4043333 1506.01267719 1523.95073638 1794.35306734 3096.1383799 9097.18635554 18451.6085855 25214.3104124 24459.0850168 27191.7539185 45798.7683497 19687.2216256 13432.8057775 10087.4991206 9949.24193884 9756.14789663 8654.47022344 7742.5617442 7630.42169941 3781.51416884 2482.3598332 1591.29840054 1682.83424725 2748.24981475 2916.71786047 4030.65063322 2877.26872975 1909.49652956 1218.05684308 1325.10421346 898.769428287 434.125552377 1053.19527825 1216.09194901 1609.89380331 1014.50750861 700.9591552 195.097077741 180.8372715 469.990614586 1218.65175249 1813.2305691 2738.29981925 2753.34780987 2479.37500793 1535.88026052 691.33982774 546.130036894 551.195063167 364.113609179 609.84856556 1017.6205153 1542.583916 1843.46677279 1910.31500964 2787.59439514 2487.78806558 4736.20913683 4492.19076727 3717.31983066 5632.70922845 4226.93795994 3118.11183669 2145.38288509 1137.5951147 700.12212269 732.568828087 801.450138493 900.323874695 1033.56652545 1157.61631886 1137.23135873 1173.87740462 1537.25419483 1385.39538263 826.951374491 560.253425408 365.69429576 351.915526259 237.779423048 348.133288758 340.500429857 369.528859136 513.527789566 600.683242121 1108.9554666 1542.5527124 1337.13403211 1470.61793379 1131.26584595 901.153475266 417.149258169 391.841990394 331.058256934 323.890711682 335.610353859 260.704301994 232.452526427 143.686165662 117.229374342 96.7533231274 86.4521140355 74.4394945284 71.6012643525 51.9714180068 37.0111465667 39.0218315836 33.5120838212 27.1449540779 32.5089421933
388.004679664 334.565641556 297.434317715 248.422226133 220.171491225 207.038854653 168.853342787 216.999562205 258.478903641 536.82117283 1006.58464794 1246.89209287 984.285896138 559.823808426 261.881381525 319.817473132 400.386779133 841.217565732 1079.58136634 991.786632321 825.339192735 684.27205843 612.4461187 447.371006251 615.926311761 1017.54857495 556.941759073 346.895402351 390.558179404 534.192338491 1890.7539224 2267.903239 1481.82364874 718.88346761 354.514788511 229.610561629 167.648868008 250.022417102 458.528928561 553.02220883 612.453126737 647.369373859 727.636804706 668.601866599 519.113649672 353.278118629 297.119269497 263.550325298 245.506607449 328.914618954 322.304384757 331.557924535 387.027587728 654.502251307 777.522201948 963.74656123 681.168840334 527.657032036 529.702840562 523.847524582 468.341584602 344.058774274 221.378800358 256.501494103 317.274589741 1107.88869636 2691.28846727 1010.11017128 1395.85863988 1121.33135234 170.890810047 188.055633615 359.270338354 533.260125235 1236.19059039 2704.38600159 2550.00237195 697.963035419 279.68206839 158.212654604 215.333444523 1303.21344388 2717.42166513 3059.12348414 2866.83987601 2130.54894911 1279.43936243 1072.20408903 1083.54523167 1195.29220387 1131.29060533 696.228606471 610.558116577 802.389911196 1213.0293949 1643.0973529 2681.03258351 3761.57910519 3484.79130707 2004.29242955 1354.82441732 1332.18802553 2056.49958591 3139.55000182 3484.94261723 2316.39056145 1500.99603289 699.352521645 536.669779022 847.148987934 1299.22607238 1472.10531685 1793.900042 1254.21777476 1007.75155501 996.368323442 5939.46332983 6049.40522276 4955.4490588 4513.6747805 1427.56308222 631.220612706 857.49284861 1836.65555287 3758.91658046 2928.56250729 3587.67323236 4102.30011066 2445.77225318 1503.31687991 837.609554104 714.291947587 767.189114752 1276.21971618 2934.5058978 3289.05261598 3358.45006215 2806.14877292 1351.78583241 564.177865852 279.919444945 451.033227496 309.141104567 444.037042693 795.816417069 1003.59321788 890.741760232 297.168459042 396.124549702 1088.50391442 2157.70124033 2361.1913657 1493.46487754 1330.45021121 693.46409852 703.598614792 712.83517681 631.121171835 619.558659807 528.011225895 658.777176523 1087.45429099 1296.02002412 1075.14142938 1073.0367305 788.129017877 368.246485812 347.984292616 345.431177705 426.655230298 628.299026465 852.130773672 1104.85062315 917.244785164 587.564529869 454.952433581 516.939597797 621.020690515 733.021109669 756.638115399 790.907233013 743.674908028 733.709904547 557.82736022 646.672645023 669.119396974 496.573224462 708.547706068 577.464437529 615.384534392 322.912902101 309.057058257 373.320421677 318.540202625 237.875089751 278.476395095 375.347139927 447.312549898 500.691218208 293.52065141 205.56568993 120.112589574 110.126301884 137.263989844 176.821657414 178.753415418 103.63725165 89.58648358 88.9355665538 164.429237321 145.553175157 189.862369948 159.130973312 73.1662729942 75.1098456232 81.4391133326 42.8789303376 35.5583230348 39.1805340653 33.6693287982
282.626776771 299.638589929 285.53299816 261.441587627 230.674759744 126.381551232 143.022627339 148.873173322 157.621975978 213.558537195 826.156217877 1482.04261989 1186.53627614 572.818394544 370.864975357 471.12408341 1057.99184646 1124.44171298 2227.28826114 1831.28889153 968.096928146 377.806815489 205.564744062 651.373817673 1775.42721583 1723.40947615 1468.08802106 667.389661493 1034.36606997 1489.35241215 3098.12127996 3819.01174925 5828.33695602 3393.43724789 1024.15258958 355.37527629 285.257165778 335.253838813 319.977709963 408.845230883 418.012637345 567.963507233 954.70829478 1113.63915577 894.971052894 573.312766321 620.80010646 381.396854123 705.430545536 665.553901014 194.215851562 235.78152917 176.787315028 181.438047548 311.342349742 451.254148722 429.971482121 327.445782762 439.70094461 569.79373724 546.697633405 298.323539212 236.565672239 177.131655609 240.377615882 192.879555115 29.0874127013 232.319808824 433.355843699 743.161653963 821.265373999 765.28685854 970.91066838 616.478757801 134.065318483 586.636850945 1016.48149685 732.676783731 294.283841628 187.092120239 697.798282284 975.758760642 1135.03915256 1521.93919567 1516.40872448 1007.72244845 639.416924708 705.76897844 1154.41358566 1401.92677353 1380.92299113 1113.57812262 586.741137183 763.900782202 913.002135812 889.251440481 1361.57049161 1775.43990708 2543.65628529 1942.49150145 688.795052646 466.224833798 1162.117917 1522.02377568 1306.77184354 1205.01748846 675.191842962 589.527816562 926.077541431 946.040314725 926.671856396 952.203553653 644.071016108 761.797856592 1210.81299631 1814.09872751 1574.76452656 599.134153609 2890.28206083 3022.15770839 2536.03374607 1833.92838746 476.055228193 2545.97542722 1382.48700614 4181.41931719 3230.73194712 1192.61599984 943.368194711 932.895118668 693.912524101 765.389044449 936.376641486 729.847208462 955.039881692 1456.14914173 1958.22618386 2500.09255983 2612.94638998 3045.07915536 1651.63243701 778.593132999 373.846435106 287.018888021 821.388013343 1387.30064499 1473.33997492 648.240828013 377.667903212 1739.93367357 2972.58549322 2597.77461417 1564.34487141 641.932346939 555.322324795 626.498176331 753.492260657 1078.05572259 1071.0982187 586.222489879 803.385489452 1366.75705139 2222.33913895 2079.50706883 869.106186549 1559.60223922 367.215091433 394.843281345 543.303687791 478.429643843 301.600802114 354.846781545 710.794890576 908.624076926 582.768224808 499.988850042 646.502955259 528.012555466 691.280665247 630.550241735 643.340637933 480.950873753 360.513660872 446.768460861 514.603260275 1239.74296387 1312.96429623 1628.98969626 1125.67058407 1116.37119692 1056.65116545 677.062428882 402.291628949 363.541524647 160.45730153 99.4882732219 143.146475905 237.252224203 174.301018669 125.647339055 79.3119435455 84.7030958034 115.567419973 176.776108292 183.137052678 163.437516694 100.106439328 73.4374332146 113.746690838 187.566615424 443.600627772 637.034108952 465.963818796 499.006276049 107.824527868 77.104273805 100.81308884 76.11707067 65.6136228303 53.6654600375
296.916337447 285.171457561 274.138896391 272.164212376 271.601802052 288.12522232 377.694437307 421.564917304 253.117724898 359.364609517 821.881585608 1560.207649 1702.55092185 446.10211425 364.959401188 1377.28759163 2053.58047006 2332.78001335 2397.41040849 2516.11979603 1492.17101283 579.506209474 558.079464909 510.034253575 1484.17777974 3762.84947665 1906.9484207 1311.80474125 1207.42321381 2290.1185301 5561.99303317 9142.18483461 11030.285377 4525.16978032 1688.28913986 800.684189295 580.866913479 602.116371777 580.627397487 343.17457561 334.92993903 562.5165895 915.248233526 1464.02843577 1015.54787358 877.028616531 1269.92979895 1840.26600066 2310.33939126 1947.06626692 1454.1883547 430.030337443 200.941246328 126.109724008 302.715680599 377.229616635 424.955110139 402.191770687 208.695808795 294.229202629 471.249100895 298.086689034 186.695052537 252.84601313 381.944412367 324.130761598 935.566347217 977.678353158 1191.61838186 1109.90390032 1959.70397023 2028.77017292 1237.59114477 827.335195057 418.159754323 397.784727974 757.133083438 609.403267683 475.423384525 462.268286951 886.473507307 759.461418076 818.5927238 637.609127447 698.07634313 824.513037883 671.41218714 756.662237622 825.937673195 684.618034008 2642.02814366 1279.7081618 648.840971936 761.974944854 889.204393596 324.014062309 495.923458424 1045.60568954 1597.14714112 1028.72127762 633.185876457 358.124461865 763.287957515 595.714675441 437.541845167 710.981665368 681.606381099 606.004510034 1493.88043678 1658.6247776 1038.60855852 785.049093053 1120.7315481 1003.04835702 2593.97626942 3032.69920601 2139.13195485 3742.17293738 4889.57791394 8007.9090738 7543.24541696 6082.82632681 5109.38824596 4467.62150572 11240.1985591 7855.13275719 5719.94568374 2176.96967091 1535.46879364 1367.54084412 673.698091451 1011.50483326 1085.37748445 857.036128536 1092.73400471 725.629226268 1586.69964933 1263.97988102 1968.55075954 2412.80060011 1862.04976088 1845.4489117 742.840065272 894.218037526 793.208361822 2078.26986837 1517.12048034 717.503817464 592.747620107 2127.20189198 3589.13008903 3191.35271313 1754.65321836 1505.62358857 1366.80789834 971.143673907 730.036246083 1159.16392428 1391.5115214 505.609326616 617.899196933 2904.63758673 2990.1133821 4379.53615717 4095.14500939 4324.68163215 4631.61938782 1656.76883425 1766.52866337 1632.37700015 1195.23685126 484.813631276 641.533151481 820.149224648 610.337104617 787.80458073 1196.83699257 1351.45363682 866.074531779 591.523188416 718.395134821 814.318524793 478.381792081 966.106730044 1059.23413951 2012.58822201 2549.61388799 1325.89385961 2091.6211452 2667.86255292 3172.209104 896.439685037 573.030373771 649.075768093 345.948518356 149.051310069 270.071442803 345.995970407 228.38675274 179.185422381 232.162992789 175.586916504 260.653331419 359.66949466 308.102045753 255.744959407 110.207026367 88.8768744521 108.138191207 159.435126676 638.100590916 1165.45646193 1661.39012104 2104.04720703 1067.98979546 464.327343229 164.147312756 92.5749115145 72.9608413118 63.7988800521
300.808631026 285.353380041 273.067891255 273.390214661 280.426909743 349.467949078 442.805572326 602.754198807 1229.05447713 608.418953474 901.761651609 1304.06406794 971.008950195 419.103195574 698.94413067 879.576760337 600.440117229 641.795647161 725.638020235 765.92668561 606.876400693 946.578813466 1940.53496413 1021.08079409 369.432773448 509.810403317 946.400426466 748.297561106 499.373955625 494.445425168 1194.64058545 608.82636771 684.554554037 791.897992368 491.99396883 437.092332499 358.924945876 282.805596125 352.724322437 565.257470697 775.678739957 740.251193405 486.466813513 536.135693018 353.504325929 214.571910227 525.648563305 321.951368869 475.932094746 375.353773914 308.400148138 351.353211714 269.340411447 327.982415773 319.950292572 383.452849946 382.47439556 333.047784317 149.156464698 200.492333554 309.285092616 258.485856891 230.196766905 783.849699163 947.287972553 463.281086387 206.314360057 734.506257124 541.042264973 260.604704206 555.385630746 481.34292928 582.740947993 659.035873657 346.580576038 316.739830007 368.617137546 480.580501672 805.992233453 560.449521313 895.648199965 1035.06370924 767.117948633 631.575883976 1273.36686146 1366.83984834 794.578506727 1022.50837109 974.08026491 508.631987444 641.472939918 885.088777325 938.764605532 647.322982888 510.560454905 212.08132065 588.813601196 797.74548014 960.11918518 831.468007744 839.955804815 580.301136729 562.607902694 626.665740906 367.23961597 906.153023486 524.809090983 2562.80274718 3454.13984772 2041.53920587 1561.7698032 1581.45005252 1341.78353118 1463.88238965 1421.70459712 921.757543091 1114.33818432 1034.6680706 1105.73016844 454.340112847 1501.22219072 1460.8385877 641.380031436 1156.84689403 1558.75429827 1364.28510968 1695.09846036 1305.03678454 1428.82153969 2883.16339948 1990.80706626 782.166438055 723.809427464 471.779864165 632.798927946 1070.23791214 1391.14715319 891.186032744 499.267685171 761.039739053 780.91151286 574.556311191 1184.20152927 1371.36340918 2050.95583045 921.262284659 267.288902416 293.569158325 706.683717672 720.423303853 879.968956211 668.037265515 889.451098142 1115.35363347 887.001079125 1371.76249195 1917.3603172 1217.66784562 1473.98107444 1270.07031389 1153.62771073 1097.21872457 849.071420758 1223.3577097 801.366197363 1049.07336145 986.139825409 435.252851966 1096.94639235 1283.74055538 955.952051142 602.321316513 650.523986898 495.661004193 309.13662022 532.708210997 783.751906638 709.805259501 770.792726285 650.148899246 639.568409717 657.3046044 1216.52758972 2204.14085423 1107.63914649 1100.15191971 604.642082013 434.470386888 252.463987994 247.70695623 465.066805237 184.736177779 250.804428387 569.659293471 698.171179463 415.818315518 646.396066966 446.3493656 232.389928983 274.948339628 368.775922952 317.11930146 147.912558405 185.081854666 280.303245147 394.824809194 181.244284802 147.343634569 160.033840992 79.400888591 72.8677364075 400.136957947 1906.6529168 7119.03508248 2190.09872095 768.944773635 440.792310017 138.171165049 103.88015028 73.6110785756
