DSAA
220 79
-53.7467606931 1725.25421543
-634.934377137 -0.975714143942
475.51 475.51
475.51 475.51 475.51 475.51 475.51 475.51 475.51 475.51 475.51 475.51 475.51 475.51 475.51 475.51 475.51 475.51 475.51 475.51 475.51 475.51 475.51 475.51 475.51 475.51 475.51 475.51 475.51 475.51 475.51 475.51 475.51 475.51 475.51 475.51 475.51 475.51 475.51 475.51 475.51 475.51 475.51 475.51 475.51 475.51 475.51 475.51 475.51 475.51 475.51 475.51 475.51 475.51 475.51 475.51 475.51 475.51 475.51 475.51 475.51 475.51 475.51 475.51 475.51 475.51 475.51 475.51 475.51 475.51 475.51 475.51 475.51 475.51 475.51 475.51 475.51 475.51 475.51 475.51 475.51 475.51 475.51 475.51 475.51 475.51 475.51 475.51 475.51 475.51 475.51 475.51 475.51 475.51 475.51 475.51 475.51 475.51 475.51 475.51 475.51 475.51 475.51 475.51 475.51 475.51 475.51 475.51 475.51 475.51 475.51 475.51 475.51 475.51 475.51 475.51 475.51 475.51 475.51 475.51 475.51 475.51 475.51 475.51 475.51 475.51 475.51 475.51 475.51 475.51 475.51 475.51 475.51 475.51 475.51 475.51 475.51 475.51 475.51 475.51 475.51 475.51 475.51 475.51 475.51 475.51 475.51 475.51 475.51 475.51 475.51 475.51 475.51 475.51 475.51 475.51 475.51 475.51 475.51 475.51 475.51 475.51 475.51 475.51 475.51 475.51 475.51 475.51 475.51 475.51 475.51 475.51 475.51 475.51 475.51 475.51 475.51 475.51 475.51 475.51 475.51 475.51 475.51 475.51 475.51 475.51 475.51 475.51 475.51 475.51 475.51 475.51 475.51 475.51 475.51 475.51 475.51 475.51 475.51 475.51 475.51 475.51 475.51 475.51 475.51 475.51 475.51 475.51 475.51 475.51 475.51 475.51 475.51 475.51 475.51 475.51 475.51 475.51 475.51 475.51 475.51 475.51
475.51 475.51 475.51 475.51 475.51 475.51 475.51 475.51 475.51 475.51 475.51 475.51 475.51 475.51 475.51 475.51 475.51 475.51 475.51 475.51 475.51 475.51 475.51 475.51 475.51 475.51 475.51 475.51 475.51 475.51 475.51 475.51 475.51 475.51 475.51 475.51 475.51 475.51 475.51 475.51 475.51 475.51 475.51 475.51 475.51 475.51 475.51 475.51 475.51 475.51 475.51 475.51 475.51 475.51 475.51 475.51 475.51 475.51 475.51 475.51 475.51 475.51 475.51 475.51 475.51 475.51 475.51 475.51 475.51 475.51 475.51 475.51 475.51 475.51 475.51 475.51 475.51 475.51 475.51 475.51 475.51 475.51 475.51 475.51 475.51 475.51 475.51 475.51 475.51 475.51 475.51 475.51 475.51 475.51 475.51 475.51 475.51 475.51 475.51 475.51 475.51 475.51 475.51 475.51 475.51 475.51 475.51 475.51 475.51 475.51 475.51 475.51 475.51 475.51 475.51 475.51 475.51 475.51 475.51 475.51 475.51 475.51 475.51 475.51 475.51 475.51 475.51 475.51 475.51 475.51 475.51 475.51 475.51 475.51 475.51 475.51 475.51 475.51 475.51 475.51 475.51 475.51 475.51 475.51 475.51 475.51 475.51 475.51 475.51 475.51 475.51 475.51 475.51 475.51 475.51 475.51 475.51 475.51 475.51 475.51 475.51 475.51 475.51 475.51 475.51 475.51 475.51 475.51 475.51 475.51 475.51 475.51 475.51 475.51 475.51 475.51 475.51 475.51 475.51 475.51 475.51 475.51 475.51 475.51 475.51 475.51 475.51 475.51 475.51 475.51 475.51 475.51 475.51 475.51 475.51 475.51 475.51 475.51 475.51 475.51 475.51 475.51 475.51 475.51 475.51 475.51 475.51 475.51 475.51 475.51 475.51 475.51 475.51 475.51 475.51 475.51 475.51 475.51 475.51 475.51
475.51 475.51 475.51 475.51 475.51 475.51 475.51 475.51 475.51 475.51 475.51 475.51 475.51 475.51 475.51 475.51 475.51 475.51 475.51 475.51 475.51 475.51 475.51 475.51 475.51 475.51 475.51 475.51 475.51 475.51 475.51 475.51 475.51 475.51 475.51 475.51 475.51 475.51 475.51 475.51 475.51 475.51 475.51 475.51 475.51 475.51 475.51 475.51 475.51 475.51 475.51 475.51 475.51 475.51 475.51 475.51 475.51 475.51 475.51 475.51 475.51 475.51 475.51 475.51 475.51 475.51 475.51 475.51 475.51 475.51 475.51 475.51 475.51 475.51 475.51 475.51 475.51 475.51 475.51 475.51 475.51 475.51 475.51 475.51 475.51 475.51 475.51 475.51 475.51 475.51 475.51 475.51 475.51 475.51 475.51 475.51 475.51 475.51 475.51 475.51 475.51 475.51 475.51 475.51 475.51 475.51 475.51 475.51 475.51 475.51 475.51 475.51 475.51 475.51 475.51 475.51 475.51 475.51 475.51 475.51 475.51 475.51 475.51 475.51 475.51 475.51 475.51 475.51 475.51 475.51 475.51 475.51 475.51 475.51 475.51 475.51 475.51 475.51 475.51 475.51 475.51 475.51 475.51 475.51 475.51 475.51 475.51 475.51 475.51 475.51 475.51 475.51 475.51 475.51 475.51 475.51 475.51 475.51 475.51 475.51 475.51 475.51 475.51 475.51 475.51 475.51 475.51 475.51 475.51 475.51 475.51 475.51 475.51 475.51 475.51 475.51 475.51 475.51 475.51 475.51 475.51 475.51 475.51 475.51 475.51 475.51 475.51 475.51 475.51 475.51 475.51 475.51 475.51 475.51 475.51 475.51 475.51 475.51 475.51 475.51 475.51 475.51 475.51 475.51 475.51 475.51 475.51 475.51 475.51 475.51 475.51 475.51 475.51 475.51 475.51 475.51 475.51 475.51 475.51 475.51
475.51 475.51 475.51 475.51 475.51 475.51 475.51 475.51 475.51 475.51 475.51 475.51 475.51 475.51 475.51 475.51 475.51 475.51 475.51 475.51 475.51 475.51 475.51 475.51 475.51 475.51 475.51 475.51 475.51 475.51 475.51 475.51 475.51 475.51 475.51 475.51 475.51 475.51 475.51 475.51 475.51 475.51 475.51 475.51 475.51 475.51 475.51 475.51 475.51 475.51 475.51 475.51 475.51 475.51 475.51 475.51 475.51 475.51 475.51 475.51 475.51 475.51 475.51 475.51 475.51 475.51 475.51 475.51 475.51 475.51 475.51 475.51 475.51 475.51 475.51 475.51 475.51 475.51 475.51 475.51 475.51 475.51 475.51 475.51 475.51 475.51 475.51 475.51 475.51 475.51 475.51 475.51 475.51 475.51 475.51 475.51 475.51 475.51 475.51 475.51 475.51 475.51 475.51 475.51 475.51 475.51 475.51 475.51 475.51 475.51 475.51 475.51 475.51 475.51 475.51 475.51 475.51 475.51 475.51 475.51 475.51 475.51 475.51 475.51 475.51 475.51 475.51 475.51 475.51 475.51 475.51 475.51 475.51 475.51 475.51 475.51 475.51 475.51 475.51 475.51 475.51 475.51 475.51 475.51 475.51 475.51 475.51 475.51 475.51 475.51 475.51 475.51 475.51 475.51 475.51 475.51 475.51 475.51 475.51 475.51 475.51 475.51 475.51 475.51 475.51 475.51 475.51 475.51 475.51 475.51 475.51 475.51 475.51 475.51 475.51 475.51 475.51 475.51 475.51 475.51 475.51 475.51 475.51 475.51 475.51 475.51 475.51 475.51 475.51 475.51 475.51 475.51 475.51 475.51 475.51 475.51 475.51 475.51 475.51 475.51 475.51 475.51 475.51 475.51 475.51 475.51 475.51 475.51 475.51 475.51 475.51 475.51 475.51 475.51 475.51 475.51 475.51 475.51 475.51 475.51
475.51 475.51 475.51 475.51 475.51 475.51 475.51 475.51 475.51 475.51 475.51 475.51 475.51 475.51 475.51 475.51 475.51 475.51 475.51 475.51 475.51 475.51 475.51 475.51 475.51 475.51 475.51 475.51 475.51 475.51 475.51 475.51 475.51 475.51 475.51 475.51 475.51 475.51 475.51 475.51 475.51 475.51 475.51 475.51 475.51 475.51 475.51 475.51 475.51 475.51 475.51 475.51 475.51 475.51 475.51 475.51 475.51 475.51 475.51 475.51 475.51 475.51 475.51 475.51 475.51 475.51 475.51 475.51 475.51 475.51 475.51 475.51 475.51 475.51 475.51 475.51 475.51 475.51 475.51 475.51 475.51 475.51 475.51 475.51 475.51 475.51 475.51 475.51 475.51 475.51 475.51 475.51 475.51 475.51 475.51 475.51 475.51 475.51 475.51 475.51 475.51 475.51 475.51 475.51 475.51 475.51 475.51 475.51 475.51 475.51 475.51 475.51 475.51 475.51 475.51 475.51 475.51 475.51 475.51 475.51 475.51 475.51 475.51 475.51 475.51 475.51 475.51 475.51 475.51 475.51 475.51 475.51 475.51 475.51 475.51 475.51 475.51 475.51 475.51 475.51 475.51 475.51 475.51 475.51 475.51 475.51 475.51 475.51 475.51 475.51 475.51 475.51 475.51 475.51 475.51 475.51 475.51 475.51 475.51 475.51 475.51 475.51 475.51 475.51 475.51 475.51 475.51 475.51 475.51 475.51 475.51 475.51 475.51 475.51 475.51 475.51 475.51 475.51 475.51 475.51 475.51 475.51 475.51 475.51 475.51 475.51 475.51 475.51 475.51 475.51 475.51 475.51 475.51 475.51 475.51 475.51 475.51 475.51 475.51 475.51 475.51 475.51 475.51 475.51 475.51 475.51 475.51 475.51 475.51 475.51 475.51 475.51 475.51 475.51 475.51 475.51 475.51 475.51 475.51 475.51
475.51 475.51 475.51 475.51 475.51 475.51 475.51 475.51 475.51 475.51 475.51 475.51 475.51 475.51 475.51 475.51 475.51 475.51 475.51 475.51 475.51 475.51 475.51 475.51 475.51 475.51 475.51 475.51 475.51 475.51 475.51 475.51 475.51 475.51 475.51 475.51 475.51 475.51 475.51 475.51 475.51 475.51 475.51 475.51 475.51 475.51 475.51 475.51 475.51 475.51 475.51 475.51 475.51 475.51 475.51 475.51 475.51 475.51 475.51 475.51 475.51 475.51 475.51 475.51 475.51 475.51 475.51 475.51 475.51 475.51 475.51 475.51 475.51 475.51 475.51 475.51 475.51 475.51 475.51 475.51 475.51 475.51 475.51 475.51 475.51 475.51 475.51 475.51 475.51 475.51 475.51 475.51 475.51 475.51 475.51 475.51 475.51 475.51 475.51 475.51 475.51 475.51 475.51 475.51 475.51 475.51 475.51 475.51 475.51 475.51 475.51 475.51 475.51 475.51 475.51 475.51 475.51 475.51 475.51 475.51 475.51 475.51 475.51 475.51 475.51 475.51 475.51 475.51 475.51 475.51 475.51 475.51 475.51 475.51 475.51 475.51 475.51 475.51 475.51 475.51 475.51 475.51 475.51 475.51 475.51 475.51 475.51 475.51 475.51 475.51 475.51 475.51 475.51 475.51 475.51 475.51 475.51 475.51 475.51 475.51 475.51 475.51 475.51 475.51 475.51 475.51 475.51 475.51 475.51 475.51 475.51 475.51 475.51 475.51 475.51 475.51 475.51 475.51 475.51 475.51 475.51 475.51 475.51 475.51 475.51 475.51 475.51 475.51 475.51 475.51 475.51 475.51 475.51 475.51 475.51 475.51 475.51 475.51 475.51 475.51 475.51 475.51 475.51 475.51 475.51 475.51 475.51 475.51 475.51 475.51 475.51 475.51 475.51 475.51 475.51 475.51 475.51 475.51 475.51 475.51
475.51 475.51 475.51 475.51 475.51 475.51 475.51 475.51 475.51 475.51 475.51 475.51 475.51 475.51 475.51 475.51 475.51 475.51 475.51 475.51 475.51 475.51 475.51 475.51 475.51 475.51 475.51 475.51 475.51 475.51 475.51 475.51 475.51 475.51 475.51 475.51 475.51 475.51 475.51 475.51 475.51 475.51 475.51 475.51 475.51 475.51 475.51 475.51 475.51 475.51 475.51 475.51 475.51 475.51 475.51 475.51 475.51 475.51 475.51 475.51 475.51 475.51 475.51 475.51 475.51 475.51 475.51 475.51 475.51 475.51 475.51 475.51 475.51 475.51 475.51 475.51 475.51 475.51 475.51 475.51 475.51 475.51 475.51 475.51 475.51 475.51 475.51 475.51 475.51 475.51 475.51 475.51 475.51 475.51 475.51 475.51 475.51 475.51 475.51 475.51 475.51 475.51 475.51 475.51 475.51 475.51 475.51 475.51 475.51 475.51 475.51 475.51 475.51 475.51 475.51 475.51 475.51 475.51 475.51 475.51 475.51 475.51 475.51 475.51 475.51 475.51 475.51 475.51 475.51 475.51 475.51 475.51 475.51 475.51 475.51 475.51 475.51 475.51 475.51 475.51 475.51 475.51 475.51 475.51 475.51 475.51 475.51 475.51 475.51 475.51 475.51 475.51 475.51 475.51 475.51 475.51 475.51 475.51 475.51 475.51 475.51 475.51 475.51 475.51 475.51 475.51 475.51 475.51 475.51 475.51 475.51 475.51 475.51 475.51 475.51 475.51 475.51 475.51 475.51 475.51 475.51 475.51 475.51 475.51 475.51 475.51 475.51 475.51 475.51 475.51 475.51 475.51 475.51 475.51 475.51 475.51 475.51 475.51 475.51 475.51 475.51 475.51 475.51 475.51 475.51 475.51 475.51 475.51 475.51 475.51 475.51 475.51 475.51 475.51 475.51 475.51 475.51 475.51 475.51 475.51
475.51 475.51 475.51 475.51 475.51 475.51 475.51 475.51 475.51 475.51 475.51 475.51 475.51 475.51 475.51 475.51 475.51 475.51 475.51 475.51 475.51 475.51 475.51 475.51 475.51 475.51 475.51 475.51 475.51 475.51 475.51 475.51 475.51 475.51 475.51 475.51 475.51 475.51 475.51 475.51 475.51 475.51 475.51 475.51 475.51 475.51 475.51 475.51 475.51 475.51 475.51 475.51 475.51 475.51 475.51 475.51 475.51 475.51 475.51 475.51 475.51 475.51 475.51 475.51 475.51 475.51 475.51 475.51 475.51 475.51 475.51 475.51 475.51 475.51 475.51 475.51 475.51 475.51 475.51 475.51 475.51 475.51 475.51 475.51 475.51 475.51 475.51 475.51 475.51 475.51 475.51 475.51 475.51 475.51 475.51 475.51 475.51 475.51 475.51 475.51 475.51 475.51 475.51 475.51 475.51 475.51 475.51 475.51 475.51 475.51 475.51 475.51 475.51 475.51 475.51 475.51 475.51 475.51 475.51 475.51 475.51 475.51 475.51 475.51 475.51 475.51 475.51 475.51 475.51 475.51 475.51 475.51 475.51 475.51 475.51 475.51 475.51 475.51 475.51 475.51 475.51 475.51 475.51 475.51 475.51 475.51 475.51 475.51 475.51 475.51 475.51 475.51 475.51 475.51 475.51 475.51 475.51 475.51 475.51 475.51 475.51 475.51 475.51 475.51 475.51 475.51 475.51 475.51 475.51 475.51 475.51 475.51 475.51 475.51 475.51 475.51 475.51 475.51 475.51 475.51 475.51 475.51 475.51 475.51 475.51 475.51 475.51 475.51 475.51 475.51 475.51 475.51 475.51 475.51 475.51 475.51 475.51 475.51 475.51 475.51 475.51 475.51 475.51 475.51 475.51 475.51 475.51 475.51 475.51 475.51 475.51 475.51 475.51 475.51 475.51 475.51 475.51 475.51 475.51 475.51
475.51 475.51 475.51 475.51 475.51 475.51 475.51 475.51 475.51 475.51 475.51 475.51 475.51 475.51 475.51 475.51 475.51 475.51 475.51 475.51 475.51 475.51 475.51 475.51 475.51 475.51 475.51 475.51 475.51 475.51 475.51 475.51 475.51 475.51 475.51 475.51 475.51 475.51 475.51 475.51 475.51 475.51 475.51 475.51 475.51 475.51 475.51 475.51 475.51 475.51 475.51 475.51 475.51 475.51 475.51 475.51 475.51 475.51 475.51 475.51 475.51 475.51 475.51 475.51 475.51 475.51 475.51 475.51 475.51 475.51 475.51 475.51 475.51 475.51 475.51 475.51 475.51 475.51 475.51 475.51 475.51 475.51 475.51 475.51 475.51 475.51 475.51 475.51 475.51 475.51 475.51 475.51 475.51 475.51 475.51 475.51 475.51 475.51 475.51 475.51 475.51 475.51 475.51 475.51 475.51 475.51 475.51 475.51 475.51 475.51 475.51 475.51 475.51 475.51 475.51 475.51 475.51 475.51 475.51 475.51 475.51 475.51 475.51 475.51 475.51 475.51 475.51 475.51 475.51 475.51 475.51 475.51 475.51 475.51 475.51 475.51 475.51 475.51 475.51 475.51 475.51 475.51 475.51 475.51 475.51 475.51 475.51 475.51 475.51 475.51 475.51 475.51 475.51 475.51 475.51 475.51 475.51 475.51 475.51 475.51 475.51 475.51 475.51 475.51 475.51 475.51 475.51 475.51 475.51 475.51 475.51 475.51 475.51 475.51 475.51 475.51 475.51 475.51 475.51 475.51 475.51 475.51 475.51 475.51 475.51 475.51 475.51 475.51 475.51 475.51 475.51 475.51 475.51 475.51 475.51 475.51 475.51 475.51 475.51 475.51 475.51 475.51 475.51 475.51 475.51 475.51 475.51 475.51 475.51 475.51 475.51 475.51 475.51 475.51 475.51 475.51 475.51 475.51 475.51 475.51
475.51 475.51 475.51 475.51 475.51 475.51 475.51 475.51 475.51 475.51 475.51 475.51 475.51 475.51 475.51 475.51 475.51 475.51 475.51 475.51 475.51 475.51 475.51 475.51 475.51 475.51 475.51 475.51 475.51 475.51 475.51 475.51 475.51 475.51 475.51 475.51 475.51 475.51 475.51 475.51 475.51 475.51 475.51 475.51 475.51 475.51 475.51 475.51 475.51 475.51 475.51 475.51 475.51 475.51 475.51 475.51 475.51 475.51 475.51 475.51 475.51 475.51 475.51 475.51 475.51 475.51 475.51 475.51 475.51 475.51 475.51 475.51 475.51 475.51 475.51 475.51 475.51 475.51 475.51 475.51 475.51 475.51 475.51 475.51 475.51 475.51 475.51 475.51 475.51 475.51 475.51 475.51 475.51 475.51 475.51 475.51 475.51 475.51 475.51 475.51 475.51 475.51 475.51 475.51 475.51 475.51 475.51 475.51 475.51 475.51 475.51 475.51 475.51 475.51 475.51 475.51 475.51 475.51 475.51 475.51 475.51 475.51 475.51 475.51 475.51 475.51 475.51 475.51 475.51 475.51 475.51 475.51 475.51 475.51 475.51 475.51 475.51 475.51 475.51 475.51 475.51 475.51 475.51 475.51 475.51 475.51 475.51 475.51 475.51 475.51 475.51 475.51 475.51 475.51 475.51 475.51 475.51 475.51 475.51 475.51 475.51 475.51 475.51 475.51 475.51 475.51 475.51 475.51 475.51 475.51 475.51 475.51 475.51 475.51 475.51 475.51 475.51 475.51 475.51 475.51 475.51 475.51 475.51 475.51 475.51 475.51 475.51 475.51 475.51 475.51 475.51 475.51 475.51 475.51 475.51 475.51 475.51 475.51 475.51 475.51 475.51 475.51 475.51 475.51 475.51 475.51 475.51 475.51 475.51 475.51 475.51 475.51 475.51 475.51 475.51 475.51 475.51 475.51 475.51 475.51
475.51 475.51 475.51 475.51 475.51 475.51 475.51 475.51 475.51 475.51 475.51 475.51 475.51 475.51 475.51 475.51 475.51 475.51 475.51 475.51 475.51 475.51 475.51 475.51 475.51 475.51 475.51 475.51 475.51 475.51 475.51 475.51 475.51 475.51 475.51 475.51 475.51 475.51 475.51 475.51 475.51 475.51 475.51 475.51 475.51 475.51 475.51 475.51 475.51 475.51 475.51 475.51 475.51 475.51 475.51 475.51 475.51 475.51 475.51 475.51 475.51 475.51 475.51 475.51 475.51 475.51 475.51 475.51 475.51 475.51 475.51 475.51 475.51 475.51 475.51 475.51 475.51 475.51 475.51 475.51 475.51 475.51 475.51 475.51 475.51 475.51 475.51 475.51 475.51 475.51 475.51 475.51 475.51 475.51 475.51 475.51 475.51 475.51 475.51 475.51 475.51 475.51 475.51 475.51 475.51 475.51 475.51 475.51 475.51 475.51 475.51 475.51 475.51 475.51 475.51 475.51 475.51 475.51 475.51 475.51 475.51 475.51 475.51 475.51 475.51 475.51 475.51 475.51 475.51 475.51 475.51 475.51 475.51 475.51 475.51 475.51 475.51 475.51 475.51 475.51 475.51 475.51 475.51 475.51 475.51 475.51 475.51 475.51 475.51 475.51 475.51 475.51 475.51 475.51 475.51 475.51 475.51 475.51 475.51 475.51 475.51 475.51 475.51 475.51 475.51 475.51 475.51 475.51 475.51 475.51 475.51 475.51 475.51 475.51 475.51 475.51 475.51 475.51 475.51 475.51 475.51 475.51 475.51 475.51 475.51 475.51 475.51 475.51 475.51 475.51 475.51 475.51 475.51 475.51 475.51 475.51 475.51 475.51 475.51 475.51 475.51 475.51 475.51 475.51 475.51 475.51 475.51 475.51 475.51 475.51 475.51 475.51 475.51 475.51 475.51 475.51 475.51 475.51 475.51 475.51
475.51 475.51 475.51 475.51 475.51 475.51 475.51 475.51 475.51 475.51 475.51 475.51 475.51 475.51 475.51 475.51 475.51 475.51 475.51 475.51 475.51 475.51 475.51 475.51 475.51 475.51 475.51 475.51 475.51 475.51 475.51 475.51 475.51 475.51 475.51 475.51 475.51 475.51 475.51 475.51 475.51 475.51 475.51 475.51 475.51 475.51 475.51 475.51 475.51 475.51 475.51 475.51 475.51 475.51 475.51 475.51 475.51 475.51 475.51 475.51 475.51 475.51 475.51 475.51 475.51 475.51 475.51 475.51 475.51 475.51 475.51 475.51 475.51 475.51 475.51 475.51 475.51 475.51 475.51 475.51 475.51 475.51 475.51 475.51 475.51 475.51 475.51 475.51 475.51 475.51 475.51 475.51 475.51 475.51 475.51 475.51 475.51 475.51 475.51 475.51 475.51 475.51 475.51 475.51 475.51 475.51 475.51 475.51 475.51 475.51 475.51 475.51 475.51 475.51 475.51 475.51 475.51 475.51 475.51 475.51 475.51 475.51 475.51 475.51 475.51 475.51 475.51 475.51 475.51 475.51 475.51 475.51 475.51 475.51 475.51 475.51 475.51 475.51 475.51 475.51 475.51 475.51 475.51 475.51 475.51 475.51 475.51 475.51 475.51 475.51 475.51 475.51 475.51 475.51 475.51 475.51 475.51 475.51 475.51 475.51 475.51 475.51 475.51 475.51 475.51 475.51 475.51 475.51 475.51 475.51 475.51 475.51 475.51 475.51 475.51 475.51 475.51 475.51 475.51 475.51 475.51 475.51 475.51 475.51 475.51 475.51 475.51 475.51 475.51 475.51 475.51 475.51 475.51 475.51 475.51 475.51 475.51 475.51 475.51 475.51 475.51 475.51 475.51 475.51 475.51 475.51 475.51 475.51 475.51 475.51 475.51 475.51 475.51 475.51 475.51 475.51 475.51 475.51 475.51 475.51
475.51 475.51 475.51 475.51 475.51 475.51 475.51 475.51 475.51 475.51 475.51 475.51 475.51 475.51 475.51 475.51 475.51 475.51 475.51 475.51 475.51 475.51 475.51 475.51 475.51 475.51 475.51 475.51 475.51 475.51 475.51 475.51 475.51 475.51 475.51 475.51 475.51 475.51 475.51 475.51 475.51 475.51 475.51 475.51 475.51 475.51 475.51 475.51 475.51 475.51 475.51 475.51 475.51 475.51 475.51 475.51 475.51 475.51 475.51 475.51 475.51 475.51 475.51 475.51 475.51 475.51 475.51 475.51 475.51 475.51 475.51 475.51 475.51 475.51 475.51 475.51 475.51 475.51 475.51 475.51 475.51 475.51 475.51 475.51 475.51 475.51 475.51 475.51 475.51 475.51 475.51 475.51 475.51 475.51 475.51 475.51 475.51 475.51 475.51 475.51 475.51 475.51 475.51 475.51 475.51 475.51 475.51 475.51 475.51 475.51 475.51 475.51 475.51 475.51 475.51 475.51 475.51 475.51 475.51 475.51 475.51 475.51 475.51 475.51 475.51 475.51 475.51 475.51 475.51 475.51 475.51 475.51 475.51 475.51 475.51 475.51 475.51 475.51 475.51 475.51 475.51 475.51 475.51 475.51 475.51 475.51 475.51 475.51 475.51 475.51 475.51 475.51 475.51 475.51 475.51 475.51 475.51 475.51 475.51 475.51 475.51 475.51 475.51 475.51 475.51 475.51 475.51 475.51 475.51 475.51 475.51 475.51 475.51 475.51 475.51 475.51 475.51 475.51 475.51 475.51 475.51 475.51 475.51 475.51 475.51 475.51 475.51 475.51 475.51 475.51 475.51 475.51 475.51 475.51 475.51 475.51 475.51 475.51 475.51 475.51 475.51 475.51 475.51 475.51 475.51 475.51 475.51 475.51 475.51 475.51 475.51 475.51 475.51 475.51 475.51 475.51 475.51 475.51 475.51 475.51
475.51 475.51 475.51 475.51 475.51 475.51 475.51 475.51 475.51 475.51 475.51 475.51 475.51 475.51 475.51 475.51 475.51 475.51 475.51 475.51 475.51 475.51 475.51 475.51 475.51 475.51 475.51 475.51 475.51 475.51 475.51 475.51 475.51 475.51 475.51 475.51 475.51 475.51 475.51 475.51 475.51 475.51 475.51 475.51 475.51 475.51 475.51 475.51 475.51 475.51 475.51 475.51 475.51 475.51 475.51 475.51 475.51 475.51 475.51 475.51 475.51 475.51 475.51 475.51 475.51 475.51 475.51 475.51 475.51 475.51 475.51 475.51 475.51 475.51 475.51 475.51 475.51 475.51 475.51 475.51 475.51 475.51 475.51 475.51 475.51 475.51 475.51 475.51 475.51 475.51 475.51 475.51 475.51 475.51 475.51 475.51 475.51 475.51 475.51 475.51 475.51 475.51 475.51 475.51 475.51 475.51 475.51 475.51 475.51 475.51 475.51 475.51 475.51 475.51 475.51 475.51 475.51 475.51 475.51 475.51 475.51 475.51 475.51 475.51 475.51 475.51 475.51 475.51 475.51 475.51 475.51 475.51 475.51 475.51 475.51 475.51 475.51 475.51 475.51 475.51 475.51 475.51 475.51 475.51 475.51 475.51 475.51 475.51 475.51 475.51 475.51 475.51 475.51 475.51 475.51 475.51 475.51 475.51 475.51 475.51 475.51 475.51 475.51 475.51 475.51 475.51 475.51 475.51 475.51 475.51 475.51 475.51 475.51 475.51 475.51 475.51 475.51 475.51 475.51 475.51 475.51 475.51 475.51 475.51 475.51 475.51 475.51 475.51 475.51 475.51 475.51 475.51 475.51 475.51 475.51 475.51 475.51 475.51 475.51 475.51 475.51 475.51 475.51 475.51 475.51 475.51 475.51 475.51 475.51 475.51 475.51 475.51 475.51 475.51 475.51 475.51 475.51 475.51 475.51 475.51
475.51 475.51 475.51 475.51 475.51 475.51 475.51 475.51 475.51 475.51 475.51 475.51 475.51 475.51 475.51 475.51 475.51 475.51 475.51 475.51 475.51 475.51 475.51 475.51 475.51 475.51 475.51 475.51 475.51 475.51 475.51 475.51 475.51 475.51 475.51 475.51 475.51 475.51 475.51 475.51 475.51 475.51 475.51 475.51 475.51 475.51 475.51 475.51 475.51 475.51 475.51 475.51 475.51 475.51 475.51 475.51 475.51 475.51 475.51 475.51 475.51 475.51 475.51 475.51 475.51 475.51 475.51 475.51 475.51 475.51 475.51 475.51 475.51 475.51 475.51 475.51 475.51 475.51 475.51 475.51 475.51 475.51 475.51 475.51 475.51 475.51 475.51 475.51 475.51 475.51 475.51 475.51 475.51 475.51 475.51 475.51 475.51 475.51 475.51 475.51 475.51 475.51 475.51 475.51 475.51 475.51 475.51 475.51 475.51 475.51 475.51 475.51 475.51 475.51 475.51 475.51 475.51 475.51 475.51 475.51 475.51 475.51 475.51 475.51 475.51 475.51 475.51 475.51 475.51 475.51 475.51 475.51 475.51 475.51 475.51 475.51 475.51 475.51 475.51 475.51 475.51 475.51 475.51 475.51 475.51 475.51 475.51 475.51 475.51 475.51 475.51 475.51 475.51 475.51 475.51 475.51 475.51 475.51 475.51 475.51 475.51 475.51 475.51 475.51 475.51 475.51 475.51 475.51 475.51 475.51 475.51 475.51 475.51 475.51 475.51 475.51 475.51 475.51 475.51 475.51 475.51 475.51 475.51 475.51 475.51 475.51 475.51 475.51 475.51 475.51 475.51 475.51 475.51 475.51 475.51 475.51 475.51 475.51 475.51 475.51 475.51 475.51 475.51 475.51 475.51 475.51 475.51 475.51 475.51 475.51 475.51 475.51 475.51 475.51 475.51 475.51 475.51 475.51 475.51 475.51
475.51 475.51 475.51 475.51 475.51 475.51 475.51 475.51 475.51 475.51 475.51 475.51 475.51 475.51 475.51 475.51 475.51 475.51 475.51 475.51 475.51 475.51 475.51 475.51 475.51 475.51 475.51 475.51 475.51 475.51 475.51 475.51 475.51 475.51 475.51 475.51 475.51 475.51 475.51 475.51 475.51 475.51 475.51 475.51 475.51 475.51 475.51 475.51 475.51 475.51 475.51 475.51 475.51 475.51 475.51 475.51 475.51 475.51 475.51 475.51 475.51 475.51 475.51 475.51 475.51 475.51 475.51 475.51 475.51 475.51 475.51 475.51 475.51 475.51 475.51 475.51 475.51 475.51 475.51 475.51 475.51 475.51 475.51 475.51 475.51 475.51 475.51 475.51 475.51 475.51 475.51 475.51 475.51 475.51 475.51 475.51 475.51 475.51 475.51 475.51 475.51 475.51 475.51 475.51 475.51 475.51 475.51 475.51 475.51 475.51 475.51 475.51 475.51 475.51 475.51 475.51 475.51 475.51 475.51 475.51 475.51 475.51 475.51 475.51 475.51 475.51 475.51 475.51 475.51 475.51 475.51 475.51 475.51 475.51 475.51 475.51 475.51 475.51 475.51 475.51 475.51 475.51 475.51 475.51 475.51 475.51 475.51 475.51 475.51 475.51 475.51 475.51 475.51 475.51 475.51 475.51 475.51 475.51 475.51 475.51 475.51 475.51 475.51 475.51 475.51 475.51 475.51 475.51 475.51 475.51 475.51 475.51 475.51 475.51 475.51 475.51 475.51 475.51 475.51 475.51 475.51 475.51 475.51 475.51 475.51 475.51 475.51 475.51 475.51 475.51 475.51 475.51 475.51 475.51 475.51 475.51 475.51 475.51 475.51 475.51 475.51 475.51 475.51 475.51 475.51 475.51 475.51 475.51 475.51 475.51 475.51 475.51 475.51 475.51 475.51 475.51 475.51 475.51 475.51 475.51
475.51 475.51 475.51 475.51 475.51 475.51 475.51 475.51 475.51 475.51 475.51 475.51 475.51 475.51 475.51 475.51 475.51 475.51 475.51 475.51 475.51 475.51 475.51 475.51 475.51 475.51 475.51 475.51 475.51 475.51 475.51 475.51 475.51 475.51 475.51 475.51 475.51 475.51 475.51 475.51 475.51 475.51 475.51 475.51 475.51 475.51 475.51 475.51 475.51 475.51 475.51 475.51 475.51 475.51 475.51 475.51 475.51 475.51 475.51 475.51 475.51 475.51 475.51 475.51 475.51 475.51 475.51 475.51 475.51 475.51 475.51 475.51 475.51 475.51 475.51 475.51 475.51 475.51 475.51 475.51 475.51 475.51 475.51 475.51 475.51 475.51 475.51 475.51 475.51 475.51 475.51 475.51 475.51 475.51 475.51 475.51 475.51 475.51 475.51 475.51 475.51 475.51 475.51 475.51 475.51 475.51 475.51 475.51 475.51 475.51 475.51 475.51 475.51 475.51 475.51 475.51 475.51 475.51 475.51 475.51 475.51 475.51 475.51 475.51 475.51 475.51 475.51 475.51 475.51 475.51 475.51 475.51 475.51 475.51 475.51 475.51 475.51 475.51 475.51 475.51 475.51 475.51 475.51 475.51 475.51 475.51 475.51 475.51 475.51 475.51 475.51 475.51 475.51 475.51 475.51 475.51 475.51 475.51 475.51 475.51 475.51 475.51 475.51 475.51 475.51 475.51 475.51 475.51 475.51 475.51 475.51 475.51 475.51 475.51 475.51 475.51 475.51 475.51 475.51 475.51 475.51 475.51 475.51 475.51 475.51 475.51 475.51 475.51 475.51 475.51 475.51 475.51 475.51 475.51 475.51 475.51 475.51 475.51 475.51 475.51 475.51 475.51 475.51 475.51 475.51 475.51 475.51 475.51 475.51 475.51 475.51 475.51 475.51 475.51 475.51 475.51 475.51 475.51 475.51 475.51
475.51 475.51 475.51 475.51 475.51 475.51 475.51 475.51 475.51 475.51 475.51 475.51 475.51 475.51 475.51 475.51 475.51 475.51 475.51 475.51 475.51 475.51 475.51 475.51 475.51 475.51 475.51 475.51 475.51 475.51 475.51 475.51 475.51 475.51 475.51 475.51 475.51 475.51 475.51 475.51 475.51 475.51 475.51 475.51 475.51 475.51 475.51 475.51 475.51 475.51 475.51 475.51 475.51 475.51 475.51 475.51 475.51 475.51 475.51 475.51 475.51 475.51 475.51 475.51 475.51 475.51 475.51 475.51 475.51 475.51 475.51 475.51 475.51 475.51 475.51 475.51 475.51 475.51 475.51 475.51 475.51 475.51 475.51 475.51 475.51 475.51 475.51 475.51 475.51 475.51 475.51 475.51 475.51 475.51 475.51 475.51 475.51 475.51 475.51 475.51 475.51 475.51 475.51 475.51 475.51 475.51 475.51 475.51 475.51 475.51 475.51 475.51 475.51 475.51 475.51 475.51 475.51 475.51 475.51 475.51 475.51 475.51 475.51 475.51 475.51 475.51 475.51 475.51 475.51 475.51 475.51 475.51 475.51 475.51 475.51 475.51 475.51 475.51 475.51 475.51 475.51 475.51 475.51 475.51 475.51 475.51 475.51 475.51 475.51 475.51 475.51 475.51 475.51 475.51 475.51 475.51 475.51 475.51 475.51 475.51 475.51 475.51 475.51 475.51 475.51 475.51 475.51 475.51 475.51 475.51 475.51 475.51 475.51 475.51 475.51 475.51 475.51 475.51 475.51 475.51 475.51 475.51 475.51 475.51 475.51 475.51 475.51 475.51 475.51 475.51 475.51 475.51 475.51 475.51 475.51 475.51 475.51 475.51 475.51 475.51 475.51 475.51 475.51 475.51 475.51 475.51 475.51 475.51 475.51 475.51 475.51 475.51 475.51 475.51 475.51 475.51 475.51 475.51 475.51 475.51
475.51 475.51 475.51 475.51 475.51 475.51 475.51 475.51 475.51 475.51 475.51 475.51 475.51 475.51 475.51 475.51 475.51 475.51 475.51 475.51 475.51 475.51 475.51 475.51 475.51 475.51 475.51 475.51 475.51 475.51 475.51 475.51 475.51 475.51 475.51 475.51 475.51 475.51 475.51 475.51 475.51 475.51 475.51 475.51 475.51 475.51 475.51 475.51 475.51 475.51 475.51 475.51 475.51 475.51 475.51 475.51 475.51 475.51 475.51 475.51 475.51 475.51 475.51 475.51 475.51 475.51 475.51 475.51 475.51 475.51 475.51 475.51 475.51 475.51 475.51 475.51 475.51 475.51 475.51 475.51 475.51 475.51 475.51 475.51 475.51 475.51 475.51 475.51 475.51 475.51 475.51 475.51 475.51 475.51 475.51 475.51 475.51 475.51 475.51 475.51 475.51 475.51 475.51 475.51 475.51 475.51 475.51 475.51 475.51 475.51 475.51 475.51 475.51 475.51 475.51 475.51 475.51 475.51 475.51 475.51 475.51 475.51 475.51 475.51 475.51 475.51 475.51 475.51 475.51 475.51 475.51 475.51 475.51 475.51 475.51 475.51 475.51 475.51 475.51 475.51 475.51 475.51 475.51 475.51 475.51 475.51 475.51 475.51 475.51 475.51 475.51 475.51 475.51 475.51 475.51 475.51 475.51 475.51 475.51 475.51 475.51 475.51 475.51 475.51 475.51 475.51 475.51 475.51 475.51 475.51 475.51 475.51 475.51 475.51 475.51 475.51 475.51 475.51 475.51 475.51 475.51 475.51 475.51 475.51 475.51 475.51 475.51 475.51 475.51 475.51 475.51 475.51 475.51 475.51 475.51 475.51 475.51 475.51 475.51 475.51 475.51 475.51 475.51 475.51 475.51 475.51 475.51 475.51 475.51 475.51 475.51 475.51 475.51 475.51 475.51 475.51 475.51 475.51 475.51 475.51
475.51 475.51 475.51 475.51 475.51 475.51 475.51 475.51 475.51 475.51 475.51 475.51 475.51 475.51 475.51 475.51 475.51 475.51 475.51 475.51 475.51 475.51 475.51 475.51 475.51 475.51 475.51 475.51 475.51 475.51 475.51 475.51 475.51 475.51 475.51 475.51 475.51 475.51 475.51 475.51 475.51 475.51 475.51 475.51 475.51 475.51 475.51 475.51 475.51 475.51 475.51 475.51 475.51 475.51 475.51 475.51 475.51 475.51 475.51 475.51 475.51 475.51 475.51 475.51 475.51 475.51 475.51 475.51 475.51 475.51 475.51 475.51 475.51 475.51 475.51 475.51 475.51 475.51 475.51 475.51 475.51 475.51 475.51 475.51 475.51 475.51 475.51 475.51 475.51 475.51 475.51 475.51 475.51 475.51 475.51 475.51 475.51 475.51 475.51 475.51 475.51 475.51 475.51 475.51 475.51 475.51 475.51 475.51 475.51 475.51 475.51 475.51 475.51 475.51 475.51 475.51 475.51 475.51 475.51 475.51 475.51 475.51 475.51 475.51 475.51 475.51 475.51 475.51 475.51 475.51 475.51 475.51 475.51 475.51 475.51 475.51 475.51 475.51 475.51 475.51 475.51 475.51 475.51 475.51 475.51 475.51 475.51 475.51 475.51 475.51 475.51 475.51 475.51 475.51 475.51 475.51 475.51 475.51 475.51 475.51 475.51 475.51 475.51 475.51 475.51 475.51 475.51 475.51 475.51 475.51 475.51 475.51 475.51 475.51 475.51 475.51 475.51 475.51 475.51 475.51 475.51 475.51 475.51 475.51 475.51 475.51 475.51 475.51 475.51 475.51 475.51 475.51 475.51 475.51 475.51 475.51 475.51 475.51 475.51 475.51 475.51 475.51 475.51 475.51 475.51 475.51 475.51 475.51 475.51 475.51 475.51 475.51 475.51 475.51 475.51 475.51 475.51 475.51 475.51 475.51
475.51 475.51 475.51 475.51 475.51 475.51 475.51 475.51 475.51 475.51 475.51 475.51 475.51 475.51 475.51 475.51 475.51 475.51 475.51 475.51 475.51 475.51 475.51 475.51 475.51 475.51 475.51 475.51 475.51 475.51 475.51 475.51 475.51 475.51 475.51 475.51 475.51 475.51 475.51 475.51 475.51 475.51 475.51 475.51 475.51 475.51 475.51 475.51 475.51 475.51 475.51 475.51 475.51 475.51 475.51 475.51 475.51 475.51 475.51 475.51 475.51 475.51 475.51 475.51 475.51 475.51 475.51 475.51 475.51 475.51 475.51 475.51 475.51 475.51 475.51 475.51 475.51 475.51 475.51 475.51 475.51 475.51 475.51 475.51 475.51 475.51 475.51 475.51 475.51 475.51 475.51 475.51 475.51 475.51 475.51 475.51 475.51 475.51 475.51 475.51 475.51 475.51 475.51 475.51 475.51 475.51 475.51 475.51 475.51 475.51 475.51 475.51 475.51 475.51 475.51 475.51 475.51 475.51 475.51 475.51 475.51 475.51 475.51 475.51 475.51 475.51 475.51 475.51 475.51 475.51 475.51 475.51 475.51 475.51 475.51 475.51 475.51 475.51 475.51 475.51 475.51 475.51 475.51 475.51 475.51 475.51 475.51 475.51 475.51 475.51 475.51 475.51 475.51 475.51 475.51 475.51 475.51 475.51 475.51 475.51 475.51 475.51 475.51 475.51 475.51 475.51 475.51 475.51 475.51 475.51 475.51 475.51 475.51 475.51 475.51 475.51 475.51 475.51 475.51 475.51 475.51 475.51 475.51 475.51 475.51 475.51 475.51 475.51 475.51 475.51 475.51 475.51 475.51 475.51 475.51 475.51 475.51 475.51 475.51 475.51 475.51 475.51 475.51 475.51 475.51 475.51 475.51 475.51 475.51 475.51 475.51 475.51 475.51 475.51 475.51 475.51 475.51 475.51 475.51 475.51
475.51 475.51 475.51 475.51 475.51 475.51 475.51 475.51 475.51 475.51 475.51 475.51 475.51 475.51 475.51 475.51 475.51 475.51 475.51 475.51 475.51 475.51 475.51 475.51 475.51 475.51 475.51 475.51 475.51 475.51 475.51 475.51 475.51 475.51 475.51 475.51 475.51 475.51 475.51 475.51 475.51 475.51 475.51 475.51 475.51 475.51 475.51 475.51 475.51 475.51 475.51 475.51 475.51 475.51 475.51 475.51 475.51 475.51 475.51 475.51 475.51 475.51 475.51 475.51 475.51 475.51 475.51 475.51 475.51 475.51 475.51 475.51 475.51 475.51 475.51 475.51 475.51 475.51 475.51 475.51 475.51 475.51 475.51 475.51 475.51 475.51 475.51 475.51 475.51 475.51 475.51 475.51 475.51 475.51 475.51 475.51 475.51 475.51 475.51 475.51 475.51 475.51 475.51 475.51 475.51 475.51 475.51 475.51 475.51 475.51 475.51 475.51 475.51 475.51 475.51 475.51 475.51 475.51 475.51 475.51 475.51 475.51 475.51 475.51 475.51 475.51 475.51 475.51 475.51 475.51 475.51 475.51 475.51 475.51 475.51 475.51 475.51 475.51 475.51 475.51 475.51 475.51 475.51 475.51 475.51 475.51 475.51 475.51 475.51 475.51 475.51 475.51 475.51 475.51 475.51 475.51 475.51 475.51 475.51 475.51 475.51 475.51 475.51 475.51 475.51 475.51 475.51 475.51 475.51 475.51 475.51 475.51 475.51 475.51 475.51 475.51 475.51 475.51 475.51 475.51 475.51 475.51 475.51 475.51 475.51 475.51 475.51 475.51 475.51 475.51 475.51 475.51 475.51 475.51 475.51 475.51 475.51 475.51 475.51 475.51 475.51 475.51 475.51 475.51 475.51 475.51 475.51 475.51 475.51 475.51 475.51 475.51 475.51 475.51 475.51 475.51 475.51 475.51 475.51 475.51
475.51 475.51 475.51 475.51 475.51 475.51 475.51 475.51 475.51 475.51 475.51 475.51 475.51 475.51 475.51 475.51 475.51 475.51 475.51 475.51 475.51 475.51 475.51 475.51 475.51 475.51 475.51 475.51 475.51 475.51 475.51 475.51 475.51 475.51 475.51 475.51 475.51 475.51 475.51 475.51 475.51 475.51 475.51 475.51 475.51 475.51 475.51 475.51 475.51 475.51 475.51 475.51 475.51 475.51 475.51 475.51 475.51 475.51 475.51 475.51 475.51 475.51 475.51 475.51 475.51 475.51 475.51 475.51 475.51 475.51 475.51 475.51 475.51 475.51 475.51 475.51 475.51 475.51 475.51 475.51 475.51 475.51 475.51 475.51 475.51 475.51 475.51 475.51 475.51 475.51 475.51 475.51 475.51 475.51 475.51 475.51 475.51 475.51 475.51 475.51 475.51 475.51 475.51 475.51 475.51 475.51 475.51 475.51 475.51 475.51 475.51 475.51 475.51 475.51 475.51 475.51 475.51 475.51 475.51 475.51 475.51 475.51 475.51 475.51 475.51 475.51 475.51 475.51 475.51 475.51 475.51 475.51 475.51 475.51 475.51 475.51 475.51 475.51 475.51 475.51 475.51 475.51 475.51 475.51 475.51 475.51 475.51 475.51 475.51 475.51 475.51 475.51 475.51 475.51 475.51 475.51 475.51 475.51 475.51 475.51 475.51 475.51 475.51 475.51 475.51 475.51 475.51 475.51 475.51 475.51 475.51 475.51 475.51 475.51 475.51 475.51 475.51 475.51 475.51 475.51 475.51 475.51 475.51 475.51 475.51 475.51 475.51 475.51 475.51 475.51 475.51 475.51 475.51 475.51 475.51 475.51 475.51 475.51 475.51 475.51 475.51 475.51 475.51 475.51 475.51 475.51 475.51 475.51 475.51 475.51 475.51 475.51 475.51 475.51 475.51 475.51 475.51 475.51 475.51 475.51
475.51 475.51 475.51 475.51 475.51 475.51 475.51 475.51 475.51 475.51 475.51 475.51 475.51 475.51 475.51 475.51 475.51 475.51 475.51 475.51 475.51 475.51 475.51 475.51 475.51 475.51 475.51 475.51 475.51 475.51 475.51 475.51 475.51 475.51 475.51 475.51 475.51 475.51 475.51 475.51 475.51 475.51 475.51 475.51 475.51 475.51 475.51 475.51 475.51 475.51 475.51 475.51 475.51 475.51 475.51 475.51 475.51 475.51 475.51 475.51 475.51 475.51 475.51 475.51 475.51 475.51 475.51 475.51 475.51 475.51 475.51 475.51 475.51 475.51 475.51 475.51 475.51 475.51 475.51 475.51 475.51 475.51 475.51 475.51 475.51 475.51 475.51 475.51 475.51 475.51 475.51 475.51 475.51 475.51 475.51 475.51 475.51 475.51 475.51 475.51 475.51 475.51 475.51 475.51 475.51 475.51 475.51 475.51 475.51 475.51 475.51 475.51 475.51 475.51 475.51 475.51 475.51 475.51 475.51 475.51 475.51 475.51 475.51 475.51 475.51 475.51 475.51 475.51 475.51 475.51 475.51 475.51 475.51 475.51 475.51 475.51 475.51 475.51 475.51 475.51 475.51 475.51 475.51 475.51 475.51 475.51 475.51 475.51 475.51 475.51 475.51 475.51 475.51 475.51 475.51 475.51 475.51 475.51 475.51 475.51 475.51 475.51 475.51 475.51 475.51 475.51 475.51 475.51 475.51 475.51 475.51 475.51 475.51 475.51 475.51 475.51 475.51 475.51 475.51 475.51 475.51 475.51 475.51 475.51 475.51 475.51 475.51 475.51 475.51 475.51 475.51 475.51 475.51 475.51 475.51 475.51 475.51 475.51 475.51 475.51 475.51 475.51 475.51 475.51 475.51 475.51 475.51 475.51 475.51 475.51 475.51 475.51 475.51 475.51 475.51 475.51 475.51 475.51 475.51 475.51
475.51 475.51 475.51 475.51 475.51 475.51 475.51 475.51 475.51 475.51 475.51 475.51 475.51 475.51 475.51 475.51 475.51 475.51 475.51 475.51 475.51 475.51 475.51 475.51 475.51 475.51 475.51 475.51 475.51 475.51 475.51 475.51 475.51 475.51 475.51 475.51 475.51 475.51 475.51 475.51 475.51 475.51 475.51 475.51 475.51 475.51 475.51 475.51 475.51 475.51 475.51 475.51 475.51 475.51 475.51 475.51 475.51 475.51 475.51 475.51 475.51 475.51 475.51 475.51 475.51 475.51 475.51 475.51 475.51 475.51 475.51 475.51 475.51 475.51 475.51 475.51 475.51 475.51 475.51 475.51 475.51 475.51 475.51 475.51 475.51 475.51 475.51 475.51 475.51 475.51 475.51 475.51 475.51 475.51 475.51 475.51 475.51 475.51 475.51 475.51 475.51 475.51 475.51 475.51 475.51 475.51 475.51 475.51 475.51 475.51 475.51 475.51 475.51 475.51 475.51 475.51 475.51 475.51 475.51 475.51 475.51 475.51 475.51 475.51 475.51 475.51 475.51 475.51 475.51 475.51 475.51 475.51 475.51 475.51 475.51 475.51 475.51 475.51 475.51 475.51 475.51 475.51 475.51 475.51 475.51 475.51 475.51 475.51 475.51 475.51 475.51 475.51 475.51 475.51 475.51 475.51 475.51 475.51 475.51 475.51 475.51 475.51 475.51 475.51 475.51 475.51 475.51 475.51 475.51 475.51 475.51 475.51 475.51 475.51 475.51 475.51 475.51 475.51 475.51 475.51 475.51 475.51 475.51 475.51 475.51 475.51 475.51 475.51 475.51 475.51 475.51 475.51 475.51 475.51 475.51 475.51 475.51 475.51 475.51 475.51 475.51 475.51 475.51 475.51 475.51 475.51 475.51 475.51 475.51 475.51 475.51 475.51 475.51 475.51 475.51 475.51 475.51 475.51 475.51 475.51
475.51 475.51 475.51 475.51 475.51 475.51 475.51 475.51 475.51 475.51 475.51 475.51 475.51 475.51 475.51 475.51 475.51 475.51 475.51 475.51 475.51 475.51 475.51 475.51 475.51 475.51 475.51 475.51 475.51 475.51 475.51 475.51 475.51 475.51 475.51 475.51 475.51 475.51 475.51 475.51 475.51 475.51 475.51 475.51 475.51 475.51 475.51 475.51 475.51 475.51 475.51 475.51 475.51 475.51 475.51 475.51 475.51 475.51 475.51 475.51 475.51 475.51 475.51 475.51 475.51 475.51 475.51 475.51 475.51 475.51 475.51 475.51 475.51 475.51 475.51 475.51 475.51 475.51 475.51 475.51 475.51 475.51 475.51 475.51 475.51 475.51 475.51 475.51 475.51 475.51 475.51 475.51 475.51 475.51 475.51 475.51 475.51 475.51 475.51 475.51 475.51 475.51 475.51 475.51 475.51 475.51 475.51 475.51 475.51 475.51 475.51 475.51 475.51 475.51 475.51 475.51 475.51 475.51 475.51 475.51 475.51 475.51 475.51 475.51 475.51 475.51 475.51 475.51 475.51 475.51 475.51 475.51 475.51 475.51 475.51 475.51 475.51 475.51 475.51 475.51 475.51 475.51 475.51 475.51 475.51 475.51 475.51 475.51 475.51 475.51 475.51 475.51 475.51 475.51 475.51 475.51 475.51 475.51 475.51 475.51 475.51 475.51 475.51 475.51 475.51 475.51 475.51 475.51 475.51 475.51 475.51 475.51 475.51 475.51 475.51 475.51 475.51 475.51 475.51 475.51 475.51 475.51 475.51 475.51 475.51 475.51 475.51 475.51 475.51 475.51 475.51 475.51 475.51 475.51 475.51 475.51 475.51 475.51 475.51 475.51 475.51 475.51 475.51 475.51 475.51 475.51 475.51 475.51 475.51 475.51 475.51 475.51 475.51 475.51 475.51 475.51 475.51 475.51 475.51 475.51
475.51 475.51 475.51 475.51 475.51 475.51 475.51 475.51 475.51 475.51 475.51 475.51 475.51 475.51 475.51 475.51 475.51 475.51 475.51 475.51 475.51 475.51 475.51 475.51 475.51 475.51 475.51 475.51 475.51 475.51 475.51 475.51 475.51 475.51 475.51 475.51 475.51 475.51 475.51 475.51 475.51 475.51 475.51 475.51 475.51 475.51 475.51 475.51 475.51 475.51 475.51 475.51 475.51 475.51 475.51 475.51 475.51 475.51 475.51 475.51 475.51 475.51 475.51 475.51 475.51 475.51 475.51 475.51 475.51 475.51 475.51 475.51 475.51 475.51 475.51 475.51 475.51 475.51 475.51 475.51 475.51 475.51 475.51 475.51 475.51 475.51 475.51 475.51 475.51 475.51 475.51 475.51 475.51 475.51 475.51 475.51 475.51 475.51 475.51 475.51 475.51 475.51 475.51 475.51 475.51 475.51 475.51 475.51 475.51 475.51 475.51 475.51 475.51 475.51 475.51 475.51 475.51 475.51 475.51 475.51 475.51 475.51 475.51 475.51 475.51 475.51 475.51 475.51 475.51 475.51 475.51 475.51 475.51 475.51 475.51 475.51 475.51 475.51 475.51 475.51 475.51 475.51 475.51 475.51 475.51 475.51 475.51 475.51 475.51 475.51 475.51 475.51 475.51 475.51 475.51 475.51 475.51 475.51 475.51 475.51 475.51 475.51 475.51 475.51 475.51 475.51 475.51 475.51 475.51 475.51 475.51 475.51 475.51 475.51 475.51 475.51 475.51 475.51 475.51 475.51 475.51 475.51 475.51 475.51 475.51 475.51 475.51 475.51 475.51 475.51 475.51 475.51 475.51 475.51 475.51 475.51 475.51 475.51 475.51 475.51 475.51 475.51 475.51 475.51 475.51 475.51 475.51 475.51 475.51 475.51 475.51 475.51 475.51 475.51 475.51 475.51 475.51 475.51 475.51 475.51
475.51 475.51 475.51 475.51 475.51 475.51 475.51 475.51 475.51 475.51 475.51 475.51 475.51 475.51 475.51 475.51 475.51 475.51 475.51 475.51 475.51 475.51 475.51 475.51 475.51 475.51 475.51 475.51 475.51 475.51 475.51 475.51 475.51 475.51 475.51 475.51 475.51 475.51 475.51 475.51 475.51 475.51 475.51 475.51 475.51 475.51 475.51 475.51 475.51 475.51 475.51 475.51 475.51 475.51 475.51 475.51 475.51 475.51 475.51 475.51 475.51 475.51 475.51 475.51 475.51 475.51 475.51 475.51 475.51 475.51 475.51 475.51 475.51 475.51 475.51 475.51 475.51 475.51 475.51 475.51 475.51 475.51 475.51 475.51 475.51 475.51 475.51 475.51 475.51 475.51 475.51 475.51 475.51 475.51 475.51 475.51 475.51 475.51 475.51 475.51 475.51 475.51 475.51 475.51 475.51 475.51 475.51 475.51 475.51 475.51 475.51 475.51 475.51 475.51 475.51 475.51 475.51 475.51 475.51 475.51 475.51 475.51 475.51 475.51 475.51 475.51 475.51 475.51 475.51 475.51 475.51 475.51 475.51 475.51 475.51 475.51 475.51 475.51 475.51 475.51 475.51 475.51 475.51 475.51 475.51 475.51 475.51 475.51 475.51 475.51 475.51 475.51 475.51 475.51 475.51 475.51 475.51 475.51 475.51 475.51 475.51 475.51 475.51 475.51 475.51 475.51 475.51 475.51 475.51 475.51 475.51 475.51 475.51 475.51 475.51 475.51 475.51 475.51 475.51 475.51 475.51 475.51 475.51 475.51 475.51 475.51 475.51 475.51 475.51 475.51 475.51 475.51 475.51 475.51 475.51 475.51 475.51 475.51 475.51 475.51 475.51 475.51 475.51 475.51 475.51 475.51 475.51 475.51 475.51 475.51 475.51 475.51 475.51 475.51 475.51 475.51 475.51 475.51 475.51 475.51
475.51 475.51 475.51 475.51 475.51 475.51 475.51 475.51 475.51 475.51 475.51 475.51 475.51 475.51 475.51 475.51 475.51 475.51 475.51 475.51 475.51 475.51 475.51 475.51 475.51 475.51 475.51 475.51 475.51 475.51 475.51 475.51 475.51 475.51 475.51 475.51 475.51 475.51 475.51 475.51 475.51 475.51 475.51 475.51 475.51 475.51 475.51 475.51 475.51 475.51 475.51 475.51 475.51 475.51 475.51 475.51 475.51 475.51 475.51 475.51 475.51 475.51 475.51 475.51 475.51 475.51 475.51 475.51 475.51 475.51 475.51 475.51 475.51 475.51 475.51 475.51 475.51 475.51 475.51 475.51 475.51 475.51 475.51 475.51 475.51 475.51 475.51 475.51 475.51 475.51 475.51 475.51 475.51 475.51 475.51 475.51 475.51 475.51 475.51 475.51 475.51 475.51 475.51 475.51 475.51 475.51 475.51 475.51 475.51 475.51 475.51 475.51 475.51 475.51 475.51 475.51 475.51 475.51 475.51 475.51 475.51 475.51 475.51 475.51 475.51 475.51 475.51 475.51 475.51 475.51 475.51 475.51 475.51 475.51 475.51 475.51 475.51 475.51 475.51 475.51 475.51 475.51 475.51 475.51 475.51 475.51 475.51 475.51 475.51 475.51 475.51 475.51 475.51 475.51 475.51 475.51 475.51 475.51 475.51 475.51 475.51 475.51 475.51 475.51 475.51 475.51 475.51 475.51 475.51 475.51 475.51 475.51 475.51 475.51 475.51 475.51 475.51 475.51 475.51 475.51 475.51 475.51 475.51 475.51 475.51 475.51 475.51 475.51 475.51 475.51 475.51 475.51 475.51 475.51 475.51 475.51 475.51 475.51 475.51 475.51 475.51 475.51 475.51 475.51 475.51 475.51 475.51 475.51 475.51 475.51 475.51 475.51 475.51 475.51 475.51 475.51 475.51 475.51 475.51 475.51
475.51 475.51 475.51 475.51 475.51 475.51 475.51 475.51 475.51 475.51 475.51 475.51 475.51 475.51 475.51 475.51 475.51 475.51 475.51 475.51 475.51 475.51 475.51 475.51 475.51 475.51 475.51 475.51 475.51 475.51 475.51 475.51 475.51 475.51 475.51 475.51 475.51 475.51 475.51 475.51 475.51 475.51 475.51 475.51 475.51 475.51 475.51 475.51 475.51 475.51 475.51 475.51 475.51 475.51 475.51 475.51 475.51 475.51 475.51 475.51 475.51 475.51 475.51 475.51 475.51 475.51 475.51 475.51 475.51 475.51 475.51 475.51 475.51 475.51 475.51 475.51 475.51 475.51 475.51 475.51 475.51 475.51 475.51 475.51 475.51 475.51 475.51 475.51 475.51 475.51 475.51 475.51 475.51 475.51 475.51 475.51 475.51 475.51 475.51 475.51 475.51 475.51 475.51 475.51 475.51 475.51 475.51 475.51 475.51 475.51 475.51 475.51 475.51 475.51 475.51 475.51 475.51 475.51 475.51 475.51 475.51 475.51 475.51 475.51 475.51 475.51 475.51 475.51 475.51 475.51 475.51 475.51 475.51 475.51 475.51 475.51 475.51 475.51 475.51 475.51 475.51 475.51 475.51 475.51 475.51 475.51 475.51 475.51 475.51 475.51 475.51 475.51 475.51 475.51 475.51 475.51 475.51 475.51 475.51 475.51 475.51 475.51 475.51 475.51 475.51 475.51 475.51 475.51 475.51 475.51 475.51 475.51 475.51 475.51 475.51 475.51 475.51 475.51 475.51 475.51 475.51 475.51 475.51 475.51 475.51 475.51 475.51 475.51 475.51 475.51 475.51 475.51 475.51 475.51 475.51 475.51 475.51 475.51 475.51 475.51 475.51 475.51 475.51 475.51 475.51 475.51 475.51 475.51 475.51 475.51 475.51 475.51 475.51 475.51 475.51 475.51 475.51 475.51 475.51 475.51
475.51 475.51 475.51 475.51 475.51 475.51 475.51 475.51 475.51 475.51 475.51 475.51 475.51 475.51 475.51 475.51 475.51 475.51 475.51 475.51 475.51 475.51 475.51 475.51 475.51 475.51 475.51 475.51 475.51 475.51 475.51 475.51 475.51 475.51 475.51 475.51 475.51 475.51 475.51 475.51 475.51 475.51 475.51 475.51 475.51 475.51 475.51 475.51 475.51 475.51 475.51 475.51 475.51 475.51 475.51 475.51 475.51 475.51 475.51 475.51 475.51 475.51 475.51 475.51 475.51 475.51 475.51 475.51 475.51 475.51 475.51 475.51 475.51 475.51 475.51 475.51 475.51 475.51 475.51 475.51 475.51 475.51 475.51 475.51 475.51 475.51 475.51 475.51 475.51 475.51 475.51 475.51 475.51 475.51 475.51 475.51 475.51 475.51 475.51 475.51 475.51 475.51 475.51 475.51 475.51 475.51 475.51 475.51 475.51 475.51 475.51 475.51 475.51 475.51 475.51 475.51 475.51 475.51 475.51 475.51 475.51 475.51 475.51 475.51 475.51 475.51 475.51 475.51 475.51 475.51 475.51 475.51 475.51 475.51 475.51 475.51 475.51 475.51 475.51 475.51 475.51 475.51 475.51 475.51 475.51 475.51 475.51 475.51 475.51 475.51 475.51 475.51 475.51 475.51 475.51 475.51 475.51 475.51 475.51 475.51 475.51 475.51 475.51 475.51 475.51 475.51 475.51 475.51 475.51 475.51 475.51 475.51 475.51 475.51 475.51 475.51 475.51 475.51 475.51 475.51 475.51 475.51 475.51 475.51 475.51 475.51 475.51 475.51 475.51 475.51 475.51 475.51 475.51 475.51 475.51 475.51 475.51 475.51 475.51 475.51 475.51 475.51 475.51 475.51 475.51 475.51 475.51 475.51 475.51 475.51 475.51 475.51 475.51 475.51 475.51 475.51 475.51 475.51 475.51 475.51
475.51 475.51 475.51 475.51 475.51 475.51 475.51 475.51 475.51 475.51 475.51 475.51 475.51 475.51 475.51 475.51 475.51 475.51 475.51 475.51 475.51 475.51 475.51 475.51 475.51 475.51 475.51 475.51 475.51 475.51 475.51 475.51 475.51 475.51 475.51 475.51 475.51 475.51 475.51 475.51 475.51 475.51 475.51 475.51 475.51 475.51 475.51 475.51 475.51 475.51 475.51 475.51 475.51 475.51 475.51 475.51 475.51 475.51 475.51 475.51 475.51 475.51 475.51 475.51 475.51 475.51 475.51 475.51 475.51 475.51 475.51 475.51 475.51 475.51 475.51 475.51 475.51 475.51 475.51 475.51 475.51 475.51 475.51 475.51 475.51 475.51 475.51 475.51 475.51 475.51 475.51 475.51 475.51 475.51 475.51 475.51 475.51 475.51 475.51 475.51 475.51 475.51 475.51 475.51 475.51 475.51 475.51 475.51 475.51 475.51 475.51 475.51 475.51 475.51 475.51 475.51 475.51 475.51 475.51 475.51 475.51 475.51 475.51 475.51 475.51 475.51 475.51 475.51 475.51 475.51 475.51 475.51 475.51 475.51 475.51 475.51 475.51 475.51 475.51 475.51 475.51 475.51 475.51 475.51 475.51 475.51 475.51 475.51 475.51 475.51 475.51 475.51 475.51 475.51 475.51 475.51 475.51 475.51 475.51 475.51 475.51 475.51 475.51 475.51 475.51 475.51 475.51 475.51 475.51 475.51 475.51 475.51 475.51 475.51 475.51 475.51 475.51 475.51 475.51 475.51 475.51 475.51 475.51 475.51 475.51 475.51 475.51 475.51 475.51 475.51 475.51 475.51 475.51 475.51 475.51 475.51 475.51 475.51 475.51 475.51 475.51 475.51 475.51 475.51 475.51 475.51 475.51 475.51 475.51 475.51 475.51 475.51 475.51 475.51 475.51 475.51 475.51 475.51 475.51 475.51
475.51 475.51 475.51 475.51 475.51 475.51 475.51 475.51 475.51 475.51 475.51 475.51 475.51 475.51 475.51 475.51 475.51 475.51 475.51 475.51 475.51 475.51 475.51 475.51 475.51 475.51 475.51 475.51 475.51 475.51 475.51 475.51 475.51 475.51 475.51 475.51 475.51 475.51 475.51 475.51 475.51 475.51 475.51 475.51 475.51 475.51 475.51 475.51 475.51 475.51 475.51 475.51 475.51 475.51 475.51 475.51 475.51 475.51 475.51 475.51 475.51 475.51 475.51 475.51 475.51 475.51 475.51 475.51 475.51 475.51 475.51 475.51 475.51 475.51 475.51 475.51 475.51 475.51 475.51 475.51 475.51 475.51 475.51 475.51 475.51 475.51 475.51 475.51 475.51 475.51 475.51 475.51 475.51 475.51 475.51 475.51 475.51 475.51 475.51 475.51 475.51 475.51 475.51 475.51 475.51 475.51 475.51 475.51 475.51 475.51 475.51 475.51 475.51 475.51 475.51 475.51 475.51 475.51 475.51 475.51 475.51 475.51 475.51 475.51 475.51 475.51 475.51 475.51 475.51 475.51 475.51 475.51 475.51 475.51 475.51 475.51 475.51 475.51 475.51 475.51 475.51 475.51 475.51 475.51 475.51 475.51 475.51 475.51 475.51 475.51 475.51 475.51 475.51 475.51 475.51 475.51 475.51 475.51 475.51 475.51 475.51 475.51 475.51 475.51 475.51 475.51 475.51 475.51 475.51 475.51 475.51 475.51 475.51 475.51 475.51 475.51 475.51 475.51 475.51 475.51 475.51 475.51 475.51 475.51 475.51 475.51 475.51 475.51 475.51 475.51 475.51 475.51 475.51 475.51 475.51 475.51 475.51 475.51 475.51 475.51 475.51 475.51 475.51 475.51 475.51 475.51 475.51 475.51 475.51 475.51 475.51 475.51 475.51 475.51 475.51 475.51 475.51 475.51 475.51 475.51
475.51 475.51 475.51 475.51 475.51 475.51 475.51 475.51 475.51 475.51 475.51 475.51 475.51 475.51 475.51 475.51 475.51 475.51 475.51 475.51 475.51 475.51 475.51 475.51 475.51 475.51 475.51 475.51 475.51 475.51 475.51 475.51 475.51 475.51 475.51 475.51 475.51 475.51 475.51 475.51 475.51 475.51 475.51 475.51 475.51 475.51 475.51 475.51 475.51 475.51 475.51 475.51 475.51 475.51 475.51 475.51 475.51 475.51 475.51 475.51 475.51 475.51 475.51 475.51 475.51 475.51 475.51 475.51 475.51 475.51 475.51 475.51 475.51 475.51 475.51 475.51 475.51 475.51 475.51 475.51 475.51 475.51 475.51 475.51 475.51 475.51 475.51 475.51 475.51 475.51 475.51 475.51 475.51 475.51 475.51 475.51 475.51 475.51 475.51 475.51 475.51 475.51 475.51 475.51 475.51 475.51 475.51 475.51 475.51 475.51 475.51 475.51 475.51 475.51 475.51 475.51 475.51 475.51 475.51 475.51 475.51 475.51 475.51 475.51 475.51 475.51 475.51 475.51 475.51 475.51 475.51 475.51 475.51 475.51 475.51 475.51 475.51 475.51 475.51 475.51 475.51 475.51 475.51 475.51 475.51 475.51 475.51 475.51 475.51 475.51 475.51 475.51 475.51 475.51 475.51 475.51 475.51 475.51 475.51 475.51 475.51 475.51 475.51 475.51 475.51 475.51 475.51 475.51 475.51 475.51 475.51 475.51 475.51 475.51 475.51 475.51 475.51 475.51 475.51 475.51 475.51 475.51 475.51 475.51 475.51 475.51 475.51 475.51 475.51 475.51 475.51 475.51 475.51 475.51 475.51 475.51 475.51 475.51 475.51 475.51 475.51 475.51 475.51 475.51 475.51 475.51 475.51 475.51 475.51 475.51 475.51 475.51 475.51 475.51 475.51 475.51 475.51 475.51 475.51 475.51
475.51 475.51 475.51 475.51 475.51 475.51 475.51 475.51 475.51 475.51 475.51 475.51 475.51 475.51 475.51 475.51 475.51 475.51 475.51 475.51 475.51 475.51 475.51 475.51 475.51 475.51 475.51 475.51 475.51 475.51 475.51 475.51 475.51 475.51 475.51 475.51 475.51 475.51 475.51 475.51 475.51 475.51 475.51 475.51 475.51 475.51 475.51 475.51 475.51 475.51 475.51 475.51 475.51 475.51 475.51 475.51 475.51 475.51 475.51 475.51 475.51 475.51 475.51 475.51 475.51 475.51 475.51 475.51 475.51 475.51 475.51 475.51 475.51 475.51 475.51 475.51 475.51 475.51 475.51 475.51 475.51 475.51 475.51 475.51 475.51 475.51 475.51 475.51 475.51 475.51 475.51 475.51 475.51 475.51 475.51 475.51 475.51 475.51 475.51 475.51 475.51 475.51 475.51 475.51 475.51 475.51 475.51 475.51 475.51 475.51 475.51 475.51 475.51 475.51 475.51 475.51 475.51 475.51 475.51 475.51 475.51 475.51 475.51 475.51 475.51 475.51 475.51 475.51 475.51 475.51 475.51 475.51 475.51 475.51 475.51 475.51 475.51 475.51 475.51 475.51 475.51 475.51 475.51 475.51 475.51 475.51 475.51 475.51 475.51 475.51 475.51 475.51 475.51 475.51 475.51 475.51 475.51 475.51 475.51 475.51 475.51 475.51 475.51 475.51 475.51 475.51 475.51 475.51 475.51 475.51 475.51 475.51 475.51 475.51 475.51 475.51 475.51 475.51 475.51 475.51 475.51 475.51 475.51 475.51 475.51 475.51 475.51 475.51 475.51 475.51 475.51 475.51 475.51 475.51 475.51 475.51 475.51 475.51 475.51 475.51 475.51 475.51 475.51 475.51 475.51 475.51 475.51 475.51 475.51 475.51 475.51 475.51 475.51 475.51 475.51 475.51 475.51 475.51 475.51 475.51
475.51 475.51 475.51 475.51 475.51 475.51 475.51 475.51 475.51 475.51 475.51 475.51 475.51 475.51 475.51 475.51 475.51 475.51 475.51 475.51 475.51 475.51 475.51 475.51 475.51 475.51 475.51 475.51 475.51 475.51 475.51 475.51 475.51 475.51 475.51 475.51 475.51 475.51 475.51 475.51 475.51 475.51 475.51 475.51 475.51 475.51 475.51 475.51 475.51 475.51 475.51 475.51 475.51 475.51 475.51 475.51 475.51 475.51 475.51 475.51 475.51 475.51 475.51 475.51 475.51 475.51 475.51 475.51 475.51 475.51 475.51 475.51 475.51 475.51 475.51 475.51 475.51 475.51 475.51 475.51 475.51 475.51 475.51 475.51 475.51 475.51 475.51 475.51 475.51 475.51 475.51 475.51 475.51 475.51 475.51 475.51 475.51 475.51 475.51 475.51 475.51 475.51 475.51 475.51 475.51 475.51 475.51 475.51 475.51 475.51 475.51 475.51 475.51 475.51 475.51 475.51 475.51 475.51 475.51 475.51 475.51 475.51 475.51 475.51 475.51 475.51 475.51 475.51 475.51 475.51 475.51 475.51 475.51 475.51 475.51 475.51 475.51 475.51 475.51 475.51 475.51 475.51 475.51 475.51 475.51 475.51 475.51 475.51 475.51 475.51 475.51 475.51 475.51 475.51 475.51 475.51 475.51 475.51 475.51 475.51 475.51 475.51 475.51 475.51 475.51 475.51 475.51 475.51 475.51 475.51 475.51 475.51 475.51 475.51 475.51 475.51 475.51 475.51 475.51 475.51 475.51 475.51 475.51 475.51 475.51 475.51 475.51 475.51 475.51 475.51 475.51 475.51 475.51 475.51 475.51 475.51 475.51 475.51 475.51 475.51 475.51 475.51 475.51 475.51 475.51 475.51 475.51 475.51 475.51 475.51 475.51 475.51 475.51 475.51 475.51 475.51 475.51 475.51 475.51 475.51
475.51 475.51 475.51 475.51 475.51 475.51 475.51 475.51 475.51 475.51 475.51 475.51 475.51 475.51 475.51 475.51 475.51 475.51 475.51 475.51 475.51 475.51 475.51 475.51 475.51 475.51 475.51 475.51 475.51 475.51 475.51 475.51 475.51 475.51 475.51 475.51 475.51 475.51 475.51 475.51 475.51 475.51 475.51 475.51 475.51 475.51 475.51 475.51 475.51 475.51 475.51 475.51 475.51 475.51 475.51 475.51 475.51 475.51 475.51 475.51 475.51 475.51 475.51 475.51 475.51 475.51 475.51 475.51 475.51 475.51 475.51 475.51 475.51 475.51 475.51 475.51 475.51 475.51 475.51 475.51 475.51 475.51 475.51 475.51 475.51 475.51 475.51 475.51 475.51 475.51 475.51 475.51 475.51 475.51 475.51 475.51 475.51 475.51 475.51 475.51 475.51 475.51 475.51 475.51 475.51 475.51 475.51 475.51 475.51 475.51 475.51 475.51 475.51 475.51 475.51 475.51 475.51 475.51 475.51 475.51 475.51 475.51 475.51 475.51 475.51 475.51 475.51 475.51 475.51 475.51 475.51 475.51 475.51 475.51 475.51 475.51 475.51 475.51 475.51 475.51 475.51 475.51 475.51 475.51 475.51 475.51 475.51 475.51 475.51 475.51 475.51 475.51 475.51 475.51 475.51 475.51 475.51 475.51 475.51 475.51 475.51 475.51 475.51 475.51 475.51 475.51 475.51 475.51 475.51 475.51 475.51 475.51 475.51 475.51 475.51 475.51 475.51 475.51 475.51 475.51 475.51 475.51 475.51 475.51 475.51 475.51 475.51 475.51 475.51 475.51 475.51 475.51 475.51 475.51 475.51 475.51 475.51 475.51 475.51 475.51 475.51 475.51 475.51 475.51 475.51 475.51 475.51 475.51 475.51 475.51 475.51 475.51 475.51 475.51 475.51 475.51 475.51 475.51 475.51 475.51
475.51 475.51 475.51 475.51 475.51 475.51 475.51 475.51 475.51 475.51 475.51 475.51 475.51 475.51 475.51 475.51 475.51 475.51 475.51 475.51 475.51 475.51 475.51 475.51 475.51 475.51 475.51 475.51 475.51 475.51 475.51 475.51 475.51 475.51 475.51 475.51 475.51 475.51 475.51 475.51 475.51 475.51 475.51 475.51 475.51 475.51 475.51 475.51 475.51 475.51 475.51 475.51 475.51 475.51 475.51 475.51 475.51 475.51 475.51 475.51 475.51 475.51 475.51 475.51 475.51 475.51 475.51 475.51 475.51 475.51 475.51 475.51 475.51 475.51 475.51 475.51 475.51 475.51 475.51 475.51 475.51 475.51 475.51 475.51 475.51 475.51 475.51 475.51 475.51 475.51 475.51 475.51 475.51 475.51 475.51 475.51 475.51 475.51 475.51 475.51 475.51 475.51 475.51 475.51 475.51 475.51 475.51 475.51 475.51 475.51 475.51 475.51 475.51 475.51 475.51 475.51 475.51 475.51 475.51 475.51 475.51 475.51 475.51 475.51 475.51 475.51 475.51 475.51 475.51 475.51 475.51 475.51 475.51 475.51 475.51 475.51 475.51 475.51 475.51 475.51 475.51 475.51 475.51 475.51 475.51 475.51 475.51 475.51 475.51 475.51 475.51 475.51 475.51 475.51 475.51 475.51 475.51 475.51 475.51 475.51 475.51 475.51 475.51 475.51 475.51 475.51 475.51 475.51 475.51 475.51 475.51 475.51 475.51 475.51 475.51 475.51 475.51 475.51 475.51 475.51 475.51 475.51 475.51 475.51 475.51 475.51 475.51 475.51 475.51 475.51 475.51 475.51 475.51 475.51 475.51 475.51 475.51 475.51 475.51 475.51 475.51 475.51 475.51 475.51 475.51 475.51 475.51 475.51 475.51 475.51 475.51 475.51 475.51 475.51 475.51 475.51 475.51 475.51 475.51 475.51
475.51 475.51 475.51 475.51 475.51 475.51 475.51 475.51 475.51 475.51 475.51 475.51 475.51 475.51 475.51 475.51 475.51 475.51 475.51 475.51 475.51 475.51 475.51 475.51 475.51 475.51 475.51 475.51 475.51 475.51 475.51 475.51 475.51 475.51 475.51 475.51 475.51 475.51 475.51 475.51 475.51 475.51 475.51 475.51 475.51 475.51 475.51 475.51 475.51 475.51 475.51 475.51 475.51 475.51 475.51 475.51 475.51 475.51 475.51 475.51 475.51 475.51 475.51 475.51 475.51 475.51 475.51 475.51 475.51 475.51 475.51 475.51 475.51 475.51 475.51 475.51 475.51 475.51 475.51 475.51 475.51 475.51 475.51 475.51 475.51 475.51 475.51 475.51 475.51 475.51 475.51 475.51 475.51 475.51 475.51 475.51 475.51 475.51 475.51 475.51 475.51 475.51 475.51 475.51 475.51 475.51 475.51 475.51 475.51 475.51 475.51 475.51 475.51 475.51 475.51 475.51 475.51 475.51 475.51 475.51 475.51 475.51 475.51 475.51 475.51 475.51 475.51 475.51 475.51 475.51 475.51 475.51 475.51 475.51 475.51 475.51 475.51 475.51 475.51 475.51 475.51 475.51 475.51 475.51 475.51 475.51 475.51 475.51 475.51 475.51 475.51 475.51 475.51 475.51 475.51 475.51 475.51 475.51 475.51 475.51 475.51 475.51 475.51 475.51 475.51 475.51 475.51 475.51 475.51 475.51 475.51 475.51 475.51 475.51 475.51 475.51 475.51 475.51 475.51 475.51 475.51 475.51 475.51 475.51 475.51 475.51 475.51 475.51 475.51 475.51 475.51 475.51 475.51 475.51 475.51 475.51 475.51 475.51 475.51 475.51 475.51 475.51 475.51 475.51 475.51 475.51 475.51 475.51 475.51 475.51 475.51 475.51 475.51 475.51 475.51 475.51 475.51 475.51 475.51 475.51
475.51 475.51 475.51 475.51 475.51 475.51 475.51 475.51 475.51 475.51 475.51 475.51 475.51 475.51 475.51 475.51 475.51 475.51 475.51 475.51 475.51 475.51 475.51 475.51 475.51 475.51 475.51 475.51 475.51 475.51 475.51 475.51 475.51 475.51 475.51 475.51 475.51 475.51 475.51 475.51 475.51 475.51 475.51 475.51 475.51 475.51 475.51 475.51 475.51 475.51 475.51 475.51 475.51 475.51 475.51 475.51 475.51 475.51 475.51 475.51 475.51 475.51 475.51 475.51 475.51 475.51 475.51 475.51 475.51 475.51 475.51 475.51 475.51 475.51 475.51 475.51 475.51 475.51 475.51 475.51 475.51 475.51 475.51 475.51 475.51 475.51 475.51 475.51 475.51 475.51 475.51 475.51 475.51 475.51 475.51 475.51 475.51 475.51 475.51 475.51 475.51 475.51 475.51 475.51 475.51 475.51 475.51 475.51 475.51 475.51 475.51 475.51 475.51 475.51 475.51 475.51 475.51 475.51 475.51 475.51 475.51 475.51 475.51 475.51 475.51 475.51 475.51 475.51 475.51 475.51 475.51 475.51 475.51 475.51 475.51 475.51 475.51 475.51 475.51 475.51 475.51 475.51 475.51 475.51 475.51 475.51 475.51 475.51 475.51 475.51 475.51 475.51 475.51 475.51 475.51 475.51 475.51 475.51 475.51 475.51 475.51 475.51 475.51 475.51 475.51 475.51 475.51 475.51 475.51 475.51 475.51 475.51 475.51 475.51 475.51 475.51 475.51 475.51 475.51 475.51 475.51 475.51 475.51 475.51 475.51 475.51 475.51 475.51 475.51 475.51 475.51 475.51 475.51 475.51 475.51 475.51 475.51 475.51 475.51 475.51 475.51 475.51 475.51 475.51 475.51 475.51 475.51 475.51 475.51 475.51 475.51 475.51 475.51 475.51 475.51 475.51 475.51 475.51 475.51 475.51
475.51 475.51 475.51 475.51 475.51 475.51 475.51 475.51 475.51 475.51 475.51 475.51 475.51 475.51 475.51 475.51 475.51 475.51 475.51 475.51 475.51 475.51 475.51 475.51 475.51 475.51 475.51 475.51 475.51 475.51 475.51 475.51 475.51 475.51 475.51 475.51 475.51 475.51 475.51 475.51 475.51 475.51 475.51 475.51 475.51 475.51 475.51 475.51 475.51 475.51 475.51 475.51 475.51 475.51 475.51 475.51 475.51 475.51 475.51 475.51 475.51 475.51 475.51 475.51 475.51 475.51 475.51 475.51 475.51 475.51 475.51 475.51 475.51 475.51 475.51 475.51 475.51 475.51 475.51 475.51 475.51 475.51 475.51 475.51 475.51 475.51 475.51 475.51 475.51 475.51 475.51 475.51 475.51 475.51 475.51 475.51 475.51 475.51 475.51 475.51 475.51 475.51 475.51 475.51 475.51 475.51 475.51 475.51 475.51 475.51 475.51 475.51 475.51 475.51 475.51 475.51 475.51 475.51 475.51 475.51 475.51 475.51 475.51 475.51 475.51 475.51 475.51 475.51 475.51 475.51 475.51 475.51 475.51 475.51 475.51 475.51 475.51 475.51 475.51 475.51 475.51 475.51 475.51 475.51 475.51 475.51 475.51 475.51 475.51 475.51 475.51 475.51 475.51 475.51 475.51 475.51 475.51 475.51 475.51 475.51 475.51 475.51 475.51 475.51 475.51 475.51 475.51 475.51 475.51 475.51 475.51 475.51 475.51 475.51 475.51 475.51 475.51 475.51 475.51 475.51 475.51 475.51 475.51 475.51 475.51 475.51 475.51 475.51 475.51 475.51 475.51 475.51 475.51 475.51 475.51 475.51 475.51 475.51 475.51 475.51 475.51 475.51 475.51 475.51 475.51 475.51 475.51 475.51 475.51 475.51 475.51 475.51 475.51 475.51 475.51 475.51 475.51 475.51 475.51 475.51
475.51 475.51 475.51 475.51 475.51 475.51 475.51 475.51 475.51 475.51 475.51 475.51 475.51 475.51 475.51 475.51 475.51 475.51 475.51 475.51 475.51 475.51 475.51 475.51 475.51 475.51 475.51 475.51 475.51 475.51 475.51 475.51 475.51 475.51 475.51 475.51 475.51 475.51 475.51 475.51 475.51 475.51 475.51 475.51 475.51 475.51 475.51 475.51 475.51 475.51 475.51 475.51 475.51 475.51 475.51 475.51 475.51 475.51 475.51 475.51 475.51 475.51 475.51 475.51 475.51 475.51 475.51 475.51 475.51 475.51 475.51 475.51 475.51 475.51 475.51 475.51 475.51 475.51 475.51 475.51 475.51 475.51 475.51 475.51 475.51 475.51 475.51 475.51 475.51 475.51 475.51 475.51 475.51 475.51 475.51 475.51 475.51 475.51 475.51 475.51 475.51 475.51 475.51 475.51 475.51 475.51 475.51 475.51 475.51 475.51 475.51 475.51 475.51 475.51 475.51 475.51 475.51 475.51 475.51 475.51 475.51 475.51 475.51 475.51 475.51 475.51 475.51 475.51 475.51 475.51 475.51 475.51 475.51 475.51 475.51 475.51 475.51 475.51 475.51 475.51 475.51 475.51 475.51 475.51 475.51 475.51 475.51 475.51 475.51 475.51 475.51 475.51 475.51 475.51 475.51 475.51 475.51 475.51 475.51 475.51 475.51 475.51 475.51 475.51 475.51 475.51 475.51 475.51 475.51 475.51 475.51 475.51 475.51 475.51 475.51 475.51 475.51 475.51 475.51 475.51 475.51 475.51 475.51 475.51 475.51 475.51 475.51 475.51 475.51 475.51 475.51 475.51 475.51 475.51 475.51 475.51 475.51 475.51 475.51 475.51 475.51 475.51 475.51 475.51 475.51 475.51 475.51 475.51 475.51 475.51 475.51 475.51 475.51 475.51 475.51 475.51 475.51 475.51 475.51 475.51
475.51 475.51 475.51 475.51 475.51 475.51 475.51 475.51 475.51 475.51 475.51 475.51 475.51 475.51 475.51 475.51 475.51 475.51 475.51 475.51 475.51 475.51 475.51 475.51 475.51 475.51 475.51 475.51 475.51 475.51 475.51 475.51 475.51 475.51 475.51 475.51 475.51 475.51 475.51 475.51 475.51 475.51 475.51 475.51 475.51 475.51 475.51 475.51 475.51 475.51 475.51 475.51 475.51 475.51 475.51 475.51 475.51 475.51 475.51 475.51 475.51 475.51 475.51 475.51 475.51 475.51 475.51 475.51 475.51 475.51 475.51 475.51 475.51 475.51 475.51 475.51 475.51 475.51 475.51 475.51 475.51 475.51 475.51 475.51 475.51 475.51 475.51 475.51 475.51 475.51 475.51 475.51 475.51 475.51 475.51 475.51 475.51 475.51 475.51 475.51 475.51 475.51 475.51 475.51 475.51 475.51 475.51 475.51 475.51 475.51 475.51 475.51 475.51 475.51 475.51 475.51 475.51 475.51 475.51 475.51 475.51 475.51 475.51 475.51 475.51 475.51 475.51 475.51 475.51 475.51 475.51 475.51 475.51 475.51 475.51 475.51 475.51 475.51 475.51 475.51 475.51 475.51 475.51 475.51 475.51 475.51 475.51 475.51 475.51 475.51 475.51 475.51 475.51 475.51 475.51 475.51 475.51 475.51 475.51 475.51 475.51 475.51 475.51 475.51 475.51 475.51 475.51 475.51 475.51 475.51 475.51 475.51 475.51 475.51 475.51 475.51 475.51 475.51 475.51 475.51 475.51 475.51 475.51 475.51 475.51 475.51 475.51 475.51 475.51 475.51 475.51 475.51 475.51 475.51 475.51 475.51 475.51 475.51 475.51 475.51 475.51 475.51 475.51 475.51 475.51 475.51 475.51 475.51 475.51 475.51 475.51 475.51 475.51 475.51 475.51 475.51 475.51 475.51 475.51 475.51
475.51 475.51 475.51 475.51 475.51 475.51 475.51 475.51 475.51 475.51 475.51 475.51 475.51 475.51 475.51 475.51 475.51 475.51 475.51 475.51 475.51 475.51 475.51 475.51 475.51 475.51 475.51 475.51 475.51 475.51 475.51 475.51 475.51 475.51 475.51 475.51 475.51 475.51 475.51 475.51 475.51 475.51 475.51 475.51 475.51 475.51 475.51 475.51 475.51 475.51 475.51 475.51 475.51 475.51 475.51 475.51 475.51 475.51 475.51 475.51 475.51 475.51 475.51 475.51 475.51 475.51 475.51 475.51 475.51 475.51 475.51 475.51 475.51 475.51 475.51 475.51 475.51 475.51 475.51 475.51 475.51 475.51 475.51 475.51 475.51 475.51 475.51 475.51 475.51 475.51 475.51 475.51 475.51 475.51 475.51 475.51 475.51 475.51 475.51 475.51 475.51 475.51 475.51 475.51 475.51 475.51 475.51 475.51 475.51 475.51 475.51 475.51 475.51 475.51 475.51 475.51 475.51 475.51 475.51 475.51 475.51 475.51 475.51 475.51 475.51 475.51 475.51 475.51 475.51 475.51 475.51 475.51 475.51 475.51 475.51 475.51 475.51 475.51 475.51 475.51 475.51 475.51 475.51 475.51 475.51 475.51 475.51 475.51 475.51 475.51 475.51 475.51 475.51 475.51 475.51 475.51 475.51 475.51 475.51 475.51 475.51 475.51 475.51 475.51 475.51 475.51 475.51 475.51 475.51 475.51 475.51 475.51 475.51 475.51 475.51 475.51 475.51 475.51 475.51 475.51 475.51 475.51 475.51 475.51 475.51 475.51 475.51 475.51 475.51 475.51 475.51 475.51 475.51 475.51 475.51 475.51 475.51 475.51 475.51 475.51 475.51 475.51 475.51 475.51 475.51 475.51 475.51 475.51 475.51 475.51 475.51 475.51 475.51 475.51 475.51 475.51 475.51 475.51 475.51 475.51
475.51 475.51 475.51 475.51 475.51 475.51 475.51 475.51 475.51 475.51 475.51 475.51 475.51 475.51 475.51 475.51 475.51 475.51 475.51 475.51 475.51 475.51 475.51 475.51 475.51 475.51 475.51 475.51 475.51 475.51 475.51 475.51 475.51 475.51 475.51 475.51 475.51 475.51 475.51 475.51 475.51 475.51 475.51 475.51 475.51 475.51 475.51 475.51 475.51 475.51 475.51 475.51 475.51 475.51 475.51 475.51 475.51 475.51 475.51 475.51 475.51 475.51 475.51 475.51 475.51 475.51 475.51 475.51 475.51 475.51 475.51 475.51 475.51 475.51 475.51 475.51 475.51 475.51 475.51 475.51 475.51 475.51 475.51 475.51 475.51 475.51 475.51 475.51 475.51 475.51 475.51 475.51 475.51 475.51 475.51 475.51 475.51 475.51 475.51 475.51 475.51 475.51 475.51 475.51 475.51 475.51 475.51 475.51 475.51 475.51 475.51 475.51 475.51 475.51 475.51 475.51 475.51 475.51 475.51 475.51 475.51 475.51 475.51 475.51 475.51 475.51 475.51 475.51 475.51 475.51 475.51 475.51 475.51 475.51 475.51 475.51 475.51 475.51 475.51 475.51 475.51 475.51 475.51 475.51 475.51 475.51 475.51 475.51 475.51 475.51 475.51 475.51 475.51 475.51 475.51 475.51 475.51 475.51 475.51 475.51 475.51 475.51 475.51 475.51 475.51 475.51 475.51 475.51 475.51 475.51 475.51 475.51 475.51 475.51 475.51 475.51 475.51 475.51 475.51 475.51 475.51 475.51 475.51 475.51 475.51 475.51 475.51 475.51 475.51 475.51 475.51 475.51 475.51 475.51 475.51 475.51 475.51 475.51 475.51 475.51 475.51 475.51 475.51 475.51 475.51 475.51 475.51 475.51 475.51 475.51 475.51 475.51 475.51 475.51 475.51 475.51 475.51 475.51 475.51 475.51
475.51 475.51 475.51 475.51 475.51 475.51 475.51 475.51 475.51 475.51 475.51 475.51 475.51 475.51 475.51 475.51 475.51 475.51 475.51 475.51 475.51 475.51 475.51 475.51 475.51 475.51 475.51 475.51 475.51 475.51 475.51 475.51 475.51 475.51 475.51 475.51 475.51 475.51 475.51 475.51 475.51 475.51 475.51 475.51 475.51 475.51 475.51 475.51 475.51 475.51 475.51 475.51 475.51 475.51 475.51 475.51 475.51 475.51 475.51 475.51 475.51 475.51 475.51 475.51 475.51 475.51 475.51 475.51 475.51 475.51 475.51 475.51 475.51 475.51 475.51 475.51 475.51 475.51 475.51 475.51 475.51 475.51 475.51 475.51 475.51 475.51 475.51 475.51 475.51 475.51 475.51 475.51 475.51 475.51 475.51 475.51 475.51 475.51 475.51 475.51 475.51 475.51 475.51 475.51 475.51 475.51 475.51 475.51 475.51 475.51 475.51 475.51 475.51 475.51 475.51 475.51 475.51 475.51 475.51 475.51 475.51 475.51 475.51 475.51 475.51 475.51 475.51 475.51 475.51 475.51 475.51 475.51 475.51 475.51 475.51 475.51 475.51 475.51 475.51 475.51 475.51 475.51 475.51 475.51 475.51 475.51 475.51 475.51 475.51 475.51 475.51 475.51 475.51 475.51 475.51 475.51 475.51 475.51 475.51 475.51 475.51 475.51 475.51 475.51 475.51 475.51 475.51 475.51 475.51 475.51 475.51 475.51 475.51 475.51 475.51 475.51 475.51 475.51 475.51 475.51 475.51 475.51 475.51 475.51 475.51 475.51 475.51 475.51 475.51 475.51 475.51 475.51 475.51 475.51 475.51 475.51 475.51 475.51 475.51 475.51 475.51 475.51 475.51 475.51 475.51 475.51 475.51 475.51 475.51 475.51 475.51 475.51 475.51 475.51 475.51 475.51 475.51 475.51 475.51 475.51
475.51 475.51 475.51 475.51 475.51 475.51 475.51 475.51 475.51 475.51 475.51 475.51 475.51 475.51 475.51 475.51 475.51 475.51 475.51 475.51 475.51 475.51 475.51 475.51 475.51 475.51 475.51 475.51 475.51 475.51 475.51 475.51 475.51 475.51 475.51 475.51 475.51 475.51 475.51 475.51 475.51 475.51 475.51 475.51 475.51 475.51 475.51 475.51 475.51 475.51 475.51 475.51 475.51 475.51 475.51 475.51 475.51 475.51 475.51 475.51 475.51 475.51 475.51 475.51 475.51 475.51 475.51 475.51 475.51 475.51 475.51 475.51 475.51 475.51 475.51 475.51 475.51 475.51 475.51 475.51 475.51 475.51 475.51 475.51 475.51 475.51 475.51 475.51 475.51 475.51 475.51 475.51 475.51 475.51 475.51 475.51 475.51 475.51 475.51 475.51 475.51 475.51 475.51 475.51 475.51 475.51 475.51 475.51 475.51 475.51 475.51 475.51 475.51 475.51 475.51 475.51 475.51 475.51 475.51 475.51 475.51 475.51 475.51 475.51 475.51 475.51 475.51 475.51 475.51 475.51 475.51 475.51 475.51 475.51 475.51 475.51 475.51 475.51 475.51 475.51 475.51 475.51 475.51 475.51 475.51 475.51 475.51 475.51 475.51 475.51 475.51 475.51 475.51 475.51 475.51 475.51 475.51 475.51 475.51 475.51 475.51 475.51 475.51 475.51 475.51 475.51 475.51 475.51 475.51 475.51 475.51 475.51 475.51 475.51 475.51 475.51 475.51 475.51 475.51 475.51 475.51 475.51 475.51 475.51 475.51 475.51 475.51 475.51 475.51 475.51 475.51 475.51 475.51 475.51 475.51 475.51 475.51 475.51 475.51 475.51 475.51 475.51 475.51 475.51 475.51 475.51 475.51 475.51 475.51 475.51 475.51 475.51 475.51 475.51 475.51 475.51 475.51 475.51 475.51 475.51
475.51 475.51 475.51 475.51 475.51 475.51 475.51 475.51 475.51 475.51 475.51 475.51 475.51 475.51 475.51 475.51 475.51 475.51 475.51 475.51 475.51 475.51 475.51 475.51 475.51 475.51 475.51 475.51 475.51 475.51 475.51 475.51 475.51 475.51 475.51 475.51 475.51 475.51 475.51 475.51 475.51 475.51 475.51 475.51 475.51 475.51 475.51 475.51 475.51 475.51 475.51 475.51 475.51 475.51 475.51 475.51 475.51 475.51 475.51 475.51 475.51 475.51 475.51 475.51 475.51 475.51 475.51 475.51 475.51 475.51 475.51 475.51 475.51 475.51 475.51 475.51 475.51 475.51 475.51 475.51 475.51 475.51 475.51 475.51 475.51 475.51 475.51 475.51 475.51 475.51 475.51 475.51 475.51 475.51 475.51 475.51 475.51 475.51 475.51 475.51 475.51 475.51 475.51 475.51 475.51 475.51 475.51 475.51 475.51 475.51 475.51 475.51 475.51 475.51 475.51 475.51 475.51 475.51 475.51 475.51 475.51 475.51 475.51 475.51 475.51 475.51 475.51 475.51 475.51 475.51 475.51 475.51 475.51 475.51 475.51 475.51 475.51 475.51 475.51 475.51 475.51 475.51 475.51 475.51 475.51 475.51 475.51 475.51 475.51 475.51 475.51 475.51 475.51 475.51 475.51 475.51 475.51 475.51 475.51 475.51 475.51 475.51 475.51 475.51 475.51 475.51 475.51 475.51 475.51 475.51 475.51 475.51 475.51 475.51 475.51 475.51 475.51 475.51 475.51 475.51 475.51 475.51 475.51 475.51 475.51 475.51 475.51 475.51 475.51 475.51 475.51 475.51 475.51 475.51 475.51 475.51 475.51 475.51 475.51 475.51 475.51 475.51 475.51 475.51 475.51 475.51 475.51 475.51 475.51 475.51 475.51 475.51 475.51 475.51 475.51 475.51 475.51 475.51 475.51 475.51
475.51 475.51 475.51 475.51 475.51 475.51 475.51 475.51 475.51 475.51 475.51 475.51 475.51 475.51 475.51 475.51 475.51 475.51 475.51 475.51 475.51 475.51 475.51 475.51 475.51 475.51 475.51 475.51 475.51 475.51 475.51 475.51 475.51 475.51 475.51 475.51 475.51 475.51 475.51 475.51 475.51 475.51 475.51 475.51 475.51 475.51 475.51 475.51 475.51 475.51 475.51 475.51 475.51 475.51 475.51 475.51 475.51 475.51 475.51 475.51 475.51 475.51 475.51 475.51 475.51 475.51 475.51 475.51 475.51 475.51 475.51 475.51 475.51 475.51 475.51 475.51 475.51 475.51 475.51 475.51 475.51 475.51 475.51 475.51 475.51 475.51 475.51 475.51 475.51 475.51 475.51 475.51 475.51 475.51 475.51 475.51 475.51 475.51 475.51 475.51 475.51 475.51 475.51 475.51 475.51 475.51 475.51 475.51 475.51 475.51 475.51 475.51 475.51 475.51 475.51 475.51 475.51 475.51 475.51 475.51 475.51 475.51 475.51 475.51 475.51 475.51 475.51 475.51 475.51 475.51 475.51 475.51 475.51 475.51 475.51 475.51 475.51 475.51 475.51 475.51 475.51 475.51 475.51 475.51 475.51 475.51 475.51 475.51 475.51 475.51 475.51 475.51 475.51 475.51 475.51 475.51 475.51 475.51 475.51 475.51 475.51 475.51 475.51 475.51 475.51 475.51 475.51 475.51 475.51 475.51 475.51 475.51 475.51 475.51 475.51 475.51 475.51 475.51 475.51 475.51 475.51 475.51 475.51 475.51 475.51 475.51 475.51 475.51 475.51 475.51 475.51 475.51 475.51 475.51 475.51 475.51 475.51 475.51 475.51 475.51 475.51 475.51 475.51 475.51 475.51 475.51 475.51 475.51 475.51 475.51 475.51 475.51 475.51 475.51 475.51 475.51 475.51 475.51 475.51 475.51
475.51 475.51 475.51 475.51 475.51 475.51 475.51 475.51 475.51 475.51 475.51 475.51 475.51 475.51 475.51 475.51 475.51 475.51 475.51 475.51 475.51 475.51 475.51 475.51 475.51 475.51 475.51 475.51 475.51 475.51 475.51 475.51 475.51 475.51 475.51 475.51 475.51 475.51 475.51 475.51 475.51 475.51 475.51 475.51 475.51 475.51 475.51 475.51 475.51 475.51 475.51 475.51 475.51 475.51 475.51 475.51 475.51 475.51 475.51 475.51 475.51 475.51 475.51 475.51 475.51 475.51 475.51 475.51 475.51 475.51 475.51 475.51 475.51 475.51 475.51 475.51 475.51 475.51 475.51 475.51 475.51 475.51 475.51 475.51 475.51 475.51 475.51 475.51 475.51 475.51 475.51 475.51 475.51 475.51 475.51 475.51 475.51 475.51 475.51 475.51 475.51 475.51 475.51 475.51 475.51 475.51 475.51 475.51 475.51 475.51 475.51 475.51 475.51 475.51 475.51 475.51 475.51 475.51 475.51 475.51 475.51 475.51 475.51 475.51 475.51 475.51 475.51 475.51 475.51 475.51 475.51 475.51 475.51 475.51 475.51 475.51 475.51 475.51 475.51 475.51 475.51 475.51 475.51 475.51 475.51 475.51 475.51 475.51 475.51 475.51 475.51 475.51 475.51 475.51 475.51 475.51 475.51 475.51 475.51 475.51 475.51 475.51 475.51 475.51 475.51 475.51 475.51 475.51 475.51 475.51 475.51 475.51 475.51 475.51 475.51 475.51 475.51 475.51 475.51 475.51 475.51 475.51 475.51 475.51 475.51 475.51 475.51 475.51 475.51 475.51 475.51 475.51 475.51 475.51 475.51 475.51 475.51 475.51 475.51 475.51 475.51 475.51 475.51 475.51 475.51 475.51 475.51 475.51 475.51 475.51 475.51 475.51 475.51 475.51 475.51 475.51 475.51 475.51 475.51 475.51
475.51 475.51 475.51 475.51 475.51 475.51 475.51 475.51 475.51 475.51 475.51 475.51 475.51 475.51 475.51 475.51 475.51 475.51 475.51 475.51 475.51 475.51 475.51 475.51 475.51 475.51 475.51 475.51 475.51 475.51 475.51 475.51 475.51 475.51 475.51 475.51 475.51 475.51 475.51 475.51 475.51 475.51 475.51 475.51 475.51 475.51 475.51 475.51 475.51 475.51 475.51 475.51 475.51 475.51 475.51 475.51 475.51 475.51 475.51 475.51 475.51 475.51 475.51 475.51 475.51 475.51 475.51 475.51 475.51 475.51 475.51 475.51 475.51 475.51 475.51 475.51 475.51 475.51 475.51 475.51 475.51 475.51 475.51 475.51 475.51 475.51 475.51 475.51 475.51 475.51 475.51 475.51 475.51 475.51 475.51 475.51 475.51 475.51 475.51 475.51 475.51 475.51 475.51 475.51 475.51 475.51 475.51 475.51 475.51 475.51 475.51 475.51 475.51 475.51 475.51 475.51 475.51 475.51 475.51 475.51 475.51 475.51 475.51 475.51 475.51 475.51 475.51 475.51 475.51 475.51 475.51 475.51 475.51 475.51 475.51 475.51 475.51 475.51 475.51 475.51 475.51 475.51 475.51 475.51 475.51 475.51 475.51 475.51 475.51 475.51 475.51 475.51 475.51 475.51 475.51 475.51 475.51 475.51 475.51 475.51 475.51 475.51 475.51 475.51 475.51 475.51 475.51 475.51 475.51 475.51 475.51 475.51 475.51 475.51 475.51 475.51 475.51 475.51 475.51 475.51 475.51 475.51 475.51 475.51 475.51 475.51 475.51 475.51 475.51 475.51 475.51 475.51 475.51 475.51 475.51 475.51 475.51 475.51 475.51 475.51 475.51 475.51 475.51 475.51 475.51 475.51 475.51 475.51 475.51 475.51 475.51 475.51 475.51 475.51 475.51 475.51 475.51 475.51 475.51 475.51
475.51 475.51 475.51 475.51 475.51 475.51 475.51 475.51 475.51 475.51 475.51 475.51 475.51 475.51 475.51 475.51 475.51 475.51 475.51 475.51 475.51 475.51 475.51 475.51 475.51 475.51 475.51 475.51 475.51 475.51 475.51 475.51 475.51 475.51 475.51 475.51 475.51 475.51 475.51 475.51 475.51 475.51 475.51 475.51 475.51 475.51 475.51 475.51 475.51 475.51 475.51 475.51 475.51 475.51 475.51 475.51 475.51 475.51 475.51 475.51 475.51 475.51 475.51 475.51 475.51 475.51 475.51 475.51 475.51 475.51 475.51 475.51 475.51 475.51 475.51 475.51 475.51 475.51 475.51 475.51 475.51 475.51 475.51 475.51 475.51 475.51 475.51 475.51 475.51 475.51 475.51 475.51 475.51 475.51 475.51 475.51 475.51 475.51 475.51 475.51 475.51 475.51 475.51 475.51 475.51 475.51 475.51 475.51 475.51 475.51 475.51 475.51 475.51 475.51 475.51 475.51 475.51 475.51 475.51 475.51 475.51 475.51 475.51 475.51 475.51 475.51 475.51 475.51 475.51 475.51 475.51 475.51 475.51 475.51 475.51 475.51 475.51 475.51 475.51 475.51 475.51 475.51 475.51 475.51 475.51 475.51 475.51 475.51 475.51 475.51 475.51 475.51 475.51 475.51 475.51 475.51 475.51 475.51 475.51 475.51 475.51 475.51 475.51 475.51 475.51 475.51 475.51 475.51 475.51 475.51 475.51 475.51 475.51 475.51 475.51 475.51 475.51 475.51 475.51 475.51 475.51 475.51 475.51 475.51 475.51 475.51 475.51 475.51 475.51 475.51 475.51 475.51 475.51 475.51 475.51 475.51 475.51 475.51 475.51 475.51 475.51 475.51 475.51 475.51 475.51 475.51 475.51 475.51 475.51 475.51 475.51 475.51 475.51 475.51 475.51 475.51 475.51 475.51 475.51 475.51
475.51 475.51 475.51 475.51 475.51 475.51 475.51 475.51 475.51 475.51 475.51 475.51 475.51 475.51 475.51 475.51 475.51 475.51 475.51 475.51 475.51 475.51 475.51 475.51 475.51 475.51 475.51 475.51 475.51 475.51 475.51 475.51 475.51 475.51 475.51 475.51 475.51 475.51 475.51 475.51 475.51 475.51 475.51 475.51 475.51 475.51 475.51 475.51 475.51 475.51 475.51 475.51 475.51 475.51 475.51 475.51 475.51 475.51 475.51 475.51 475.51 475.51 475.51 475.51 475.51 475.51 475.51 475.51 475.51 475.51 475.51 475.51 475.51 475.51 475.51 475.51 475.51 475.51 475.51 475.51 475.51 475.51 475.51 475.51 475.51 475.51 475.51 475.51 475.51 475.51 475.51 475.51 475.51 475.51 475.51 475.51 475.51 475.51 475.51 475.51 475.51 475.51 475.51 475.51 475.51 475.51 475.51 475.51 475.51 475.51 475.51 475.51 475.51 475.51 475.51 475.51 475.51 475.51 475.51 475.51 475.51 475.51 475.51 475.51 475.51 475.51 475.51 475.51 475.51 475.51 475.51 475.51 475.51 475.51 475.51 475.51 475.51 475.51 475.51 475.51 475.51 475.51 475.51 475.51 475.51 475.51 475.51 475.51 475.51 475.51 475.51 475.51 475.51 475.51 475.51 475.51 475.51 475.51 475.51 475.51 475.51 475.51 475.51 475.51 475.51 475.51 475.51 475.51 475.51 475.51 475.51 475.51 475.51 475.51 475.51 475.51 475.51 475.51 475.51 475.51 475.51 475.51 475.51 475.51 475.51 475.51 475.51 475.51 475.51 475.51 475.51 475.51 475.51 475.51 475.51 475.51 475.51 475.51 475.51 475.51 475.51 475.51 475.51 475.51 475.51 475.51 475.51 475.51 475.51 475.51 475.51 475.51 475.51 475.51 475.51 475.51 475.51 475.51 475.51 475.51
475.51 475.51 475.51 475.51 475.51 475.51 475.51 475.51 475.51 475.51 475.51 475.51 475.51 475.51 475.51 475.51 475.51 475.51 475.51 475.51 475.51 475.51 475.51 475.51 475.51 475.51 475.51 475.51 475.51 475.51 475.51 475.51 475.51 475.51 475.51 475.51 475.51 475.51 475.51 475.51 475.51 475.51 475.51 475.51 475.51 475.51 475.51 475.51 475.51 475.51 475.51 475.51 475.51 475.51 475.51 475.51 475.51 475.51 475.51 475.51 475.51 475.51 475.51 475.51 475.51 475.51 475.51 475.51 475.51 475.51 475.51 475.51 475.51 475.51 475.51 475.51 475.51 475.51 475.51 475.51 475.51 475.51 475.51 475.51 475.51 475.51 475.51 475.51 475.51 475.51 475.51 475.51 475.51 475.51 475.51 475.51 475.51 475.51 475.51 475.51 475.51 475.51 475.51 475.51 475.51 475.51 475.51 475.51 475.51 475.51 475.51 475.51 475.51 475.51 475.51 475.51 475.51 475.51 475.51 475.51 475.51 475.51 475.51 475.51 475.51 475.51 475.51 475.51 475.51 475.51 475.51 475.51 475.51 475.51 475.51 475.51 475.51 475.51 475.51 475.51 475.51 475.51 475.51 475.51 475.51 475.51 475.51 475.51 475.51 475.51 475.51 475.51 475.51 475.51 475.51 475.51 475.51 475.51 475.51 475.51 475.51 475.51 475.51 475.51 475.51 475.51 475.51 475.51 475.51 475.51 475.51 475.51 475.51 475.51 475.51 475.51 475.51 475.51 475.51 475.51 475.51 475.51 475.51 475.51 475.51 475.51 475.51 475.51 475.51 475.51 475.51 475.51 475.51 475.51 475.51 475.51 475.51 475.51 475.51 475.51 475.51 475.51 475.51 475.51 475.51 475.51 475.51 475.51 475.51 475.51 475.51 475.51 475.51 475.51 475.51 475.51 475.51 475.51 475.51 475.51
475.51 475.51 475.51 475.51 475.51 475.51 475.51 475.51 475.51 475.51 475.51 475.51 475.51 475.51 475.51 475.51 475.51 475.51 475.51 475.51 475.51 475.51 475.51 475.51 475.51 475.51 475.51 475.51 475.51 475.51 475.51 475.51 475.51 475.51 475.51 475.51 475.51 475.51 475.51 475.51 475.51 475.51 475.51 475.51 475.51 475.51 475.51 475.51 475.51 475.51 475.51 475.51 475.51 475.51 475.51 475.51 475.51 475.51 475.51 475.51 475.51 475.51 475.51 475.51 475.51 475.51 475.51 475.51 475.51 475.51 475.51 475.51 475.51 475.51 475.51 475.51 475.51 475.51 475.51 475.51 475.51 475.51 475.51 475.51 475.51 475.51 475.51 475.51 475.51 475.51 475.51 475.51 475.51 475.51 475.51 475.51 475.51 475.51 475.51 475.51 475.51 475.51 475.51 475.51 475.51 475.51 475.51 475.51 475.51 475.51 475.51 475.51 475.51 475.51 475.51 475.51 475.51 475.51 475.51 475.51 475.51 475.51 475.51 475.51 475.51 475.51 475.51 475.51 475.51 475.51 475.51 475.51 475.51 475.51 475.51 475.51 475.51 475.51 475.51 475.51 475.51 475.51 475.51 475.51 475.51 475.51 475.51 475.51 475.51 475.51 475.51 475.51 475.51 475.51 475.51 475.51 475.51 475.51 475.51 475.51 475.51 475.51 475.51 475.51 475.51 475.51 475.51 475.51 475.51 475.51 475.51 475.51 475.51 475.51 475.51 475.51 475.51 475.51 475.51 475.51 475.51 475.51 475.51 475.51 475.51 475.51 475.51 475.51 475.51 475.51 475.51 475.51 475.51 475.51 475.51 475.51 475.51 475.51 475.51 475.51 475.51 475.51 475.51 475.51 475.51 475.51 475.51 475.51 475.51 475.51 475.51 475.51 475.51 475.51 475.51 475.51 475.51 475.51 475.51 475.51
475.51 475.51 475.51 475.51 475.51 475.51 475.51 475.51 475.51 475.51 475.51 475.51 475.51 475.51 475.51 475.51 475.51 475.51 475.51 475.51 475.51 475.51 475.51 475.51 475.51 475.51 475.51 475.51 475.51 475.51 475.51 475.51 475.51 475.51 475.51 475.51 475.51 475.51 475.51 475.51 475.51 475.51 475.51 475.51 475.51 475.51 475.51 475.51 475.51 475.51 475.51 475.51 475.51 475.51 475.51 475.51 475.51 475.51 475.51 475.51 475.51 475.51 475.51 475.51 475.51 475.51 475.51 475.51 475.51 475.51 475.51 475.51 475.51 475.51 475.51 475.51 475.51 475.51 475.51 475.51 475.51 475.51 475.51 475.51 475.51 475.51 475.51 475.51 475.51 475.51 475.51 475.51 475.51 475.51 475.51 475.51 475.51 475.51 475.51 475.51 475.51 475.51 475.51 475.51 475.51 475.51 475.51 475.51 475.51 475.51 475.51 475.51 475.51 475.51 475.51 475.51 475.51 475.51 475.51 475.51 475.51 475.51 475.51 475.51 475.51 475.51 475.51 475.51 475.51 475.51 475.51 475.51 475.51 475.51 475.51 475.51 475.51 475.51 475.51 475.51 475.51 475.51 475.51 475.51 475.51 475.51 475.51 475.51 475.51 475.51 475.51 475.51 475.51 475.51 475.51 475.51 475.51 475.51 475.51 475.51 475.51 475.51 475.51 475.51 475.51 475.51 475.51 475.51 475.51 475.51 475.51 475.51 475.51 475.51 475.51 475.51 475.51 475.51 475.51 475.51 475.51 475.51 475.51 475.51 475.51 475.51 475.51 475.51 475.51 475.51 475.51 475.51 475.51 475.51 475.51 475.51 475.51 475.51 475.51 475.51 475.51 475.51 475.51 475.51 475.51 475.51 475.51 475.51 475.51 475.51 475.51 475.51 475.51 475.51 475.51 475.51 475.51 475.51 475.51 475.51
475.51 475.51 475.51 475.51 475.51 475.51 475.51 475.51 475.51 475.51 475.51 475.51 475.51 475.51 475.51 475.51 475.51 475.51 475.51 475.51 475.51 475.51 475.51 475.51 475.51 475.51 475.51 475.51 475.51 475.51 475.51 475.51 475.51 475.51 475.51 475.51 475.51 475.51 475.51 475.51 475.51 475.51 475.51 475.51 475.51 475.51 475.51 475.51 475.51 475.51 475.51 475.51 475.51 475.51 475.51 475.51 475.51 475.51 475.51 475.51 475.51 475.51 475.51 475.51 475.51 475.51 475.51 475.51 475.51 475.51 475.51 475.51 475.51 475.51 475.51 475.51 475.51 475.51 475.51 475.51 475.51 475.51 475.51 475.51 475.51 475.51 475.51 475.51 475.51 475.51 475.51 475.51 475.51 475.51 475.51 475.51 475.51 475.51 475.51 475.51 475.51 475.51 475.51 475.51 475.51 475.51 475.51 475.51 475.51 475.51 475.51 475.51 475.51 475.51 475.51 475.51 475.51 475.51 475.51 475.51 475.51 475.51 475.51 475.51 475.51 475.51 475.51 475.51 475.51 475.51 475.51 475.51 475.51 475.51 475.51 475.51 475.51 475.51 475.51 475.51 475.51 475.51 475.51 475.51 475.51 475.51 475.51 475.51 475.51 475.51 475.51 475.51 475.51 475.51 475.51 475.51 475.51 475.51 475.51 475.51 475.51 475.51 475.51 475.51 475.51 475.51 475.51 475.51 475.51 475.51 475.51 475.51 475.51 475.51 475.51 475.51 475.51 475.51 475.51 475.51 475.51 475.51 475.51 475.51 475.51 475.51 475.51 475.51 475.51 475.51 475.51 475.51 475.51 475.51 475.51 475.51 475.51 475.51 475.51 475.51 475.51 475.51 475.51 475.51 475.51 475.51 475.51 475.51 475.51 475.51 475.51 475.51 475.51 475.51 475.51 475.51 475.51 475.51 475.51 475.51
475.51 475.51 475.51 475.51 475.51 475.51 475.51 475.51 475.51 475.51 475.51 475.51 475.51 475.51 475.51 475.51 475.51 475.51 475.51 475.51 475.51 475.51 475.51 475.51 475.51 475.51 475.51 475.51 475.51 475.51 475.51 475.51 475.51 475.51 475.51 475.51 475.51 475.51 475.51 475.51 475.51 475.51 475.51 475.51 475.51 475.51 475.51 475.51 475.51 475.51 475.51 475.51 475.51 475.51 475.51 475.51 475.51 475.51 475.51 475.51 475.51 475.51 475.51 475.51 475.51 475.51 475.51 475.51 475.51 475.51 475.51 475.51 475.51 475.51 475.51 475.51 475.51 475.51 475.51 475.51 475.51 475.51 475.51 475.51 475.51 475.51 475.51 475.51 475.51 475.51 475.51 475.51 475.51 475.51 475.51 475.51 475.51 475.51 475.51 475.51 475.51 475.51 475.51 475.51 475.51 475.51 475.51 475.51 475.51 475.51 475.51 475.51 475.51 475.51 475.51 475.51 475.51 475.51 475.51 475.51 475.51 475.51 475.51 475.51 475.51 475.51 475.51 475.51 475.51 475.51 475.51 475.51 475.51 475.51 475.51 475.51 475.51 475.51 475.51 475.51 475.51 475.51 475.51 475.51 475.51 475.51 475.51 475.51 475.51 475.51 475.51 475.51 475.51 475.51 475.51 475.51 475.51 475.51 475.51 475.51 475.51 475.51 475.51 475.51 475.51 475.51 475.51 475.51 475.51 475.51 475.51 475.51 475.51 475.51 475.51 475.51 475.51 475.51 475.51 475.51 475.51 475.51 475.51 475.51 475.51 475.51 475.51 475.51 475.51 475.51 475.51 475.51 475.51 475.51 475.51 475.51 475.51 475.51 475.51 475.51 475.51 475.51 475.51 475.51 475.51 475.51 475.51 475.51 475.51 475.51 475.51 475.51 475.51 475.51 475.51 475.51 475.51 475.51 475.51 475.51
475.51 475.51 475.51 475.51 475.51 475.51 475.51 475.51 475.51 475.51 475.51 475.51 475.51 475.51 475.51 475.51 475.51 475.51 475.51 475.51 475.51 475.51 475.51 475.51 475.51 475.51 475.51 475.51 475.51 475.51 475.51 475.51 475.51 475.51 475.51 475.51 475.51 475.51 475.51 475.51 475.51 475.51 475.51 475.51 475.51 475.51 475.51 475.51 475.51 475.51 475.51 475.51 475.51 475.51 475.51 475.51 475.51 475.51 475.51 475.51 475.51 475.51 475.51 475.51 475.51 475.51 475.51 475.51 475.51 475.51 475.51 475.51 475.51 475.51 475.51 475.51 475.51 475.51 475.51 475.51 475.51 475.51 475.51 475.51 475.51 475.51 475.51 475.51 475.51 475.51 475.51 475.51 475.51 475.51 475.51 475.51 475.51 475.51 475.51 475.51 475.51 475.51 475.51 475.51 475.51 475.51 475.51 475.51 475.51 475.51 475.51 475.51 475.51 475.51 475.51 475.51 475.51 475.51 475.51 475.51 475.51 475.51 475.51 475.51 475.51 475.51 475.51 475.51 475.51 475.51 475.51 475.51 475.51 475.51 475.51 475.51 475.51 475.51 475.51 475.51 475.51 475.51 475.51 475.51 475.51 475.51 475.51 475.51 475.51 475.51 475.51 475.51 475.51 475.51 475.51 475.51 475.51 475.51 475.51 475.51 475.51 475.51 475.51 475.51 475.51 475.51 475.51 475.51 475.51 475.51 475.51 475.51 475.51 475.51 475.51 475.51 475.51 475.51 475.51 475.51 475.51 475.51 475.51 475.51 475.51 475.51 475.51 475.51 475.51 475.51 475.51 475.51 475.51 475.51 475.51 475.51 475.51 475.51 475.51 475.51 475.51 475.51 475.51 475.51 475.51 475.51 475.51 475.51 475.51 475.51 475.51 475.51 475.51 475.51 475.51 475.51 475.51 475.51 475.51 475.51
475.51 475.51 475.51 475.51 475.51 475.51 475.51 475.51 475.51 475.51 475.51 475.51 475.51 475.51 475.51 475.51 475.51 475.51 475.51 475.51 475.51 475.51 475.51 475.51 475.51 475.51 475.51 475.51 475.51 475.51 475.51 475.51 475.51 475.51 475.51 475.51 475.51 475.51 475.51 475.51 475.51 475.51 475.51 475.51 475.51 475.51 475.51 475.51 475.51 475.51 475.51 475.51 475.51 475.51 475.51 475.51 475.51 475.51 475.51 475.51 475.51 475.51 475.51 475.51 475.51 475.51 475.51 475.51 475.51 475.51 475.51 475.51 475.51 475.51 475.51 475.51 475.51 475.51 475.51 475.51 475.51 475.51 475.51 475.51 475.51 475.51 475.51 475.51 475.51 475.51 475.51 475.51 475.51 475.51 475.51 475.51 475.51 475.51 475.51 475.51 475.51 475.51 475.51 475.51 475.51 475.51 475.51 475.51 475.51 475.51 475.51 475.51 475.51 475.51 475.51 475.51 475.51 475.51 475.51 475.51 475.51 475.51 475.51 475.51 475.51 475.51 475.51 475.51 475.51 475.51 475.51 475.51 475.51 475.51 475.51 475.51 475.51 475.51 475.51 475.51 475.51 475.51 475.51 475.51 475.51 475.51 475.51 475.51 475.51 475.51 475.51 475.51 475.51 475.51 475.51 475.51 475.51 475.51 475.51 475.51 475.51 475.51 475.51 475.51 475.51 475.51 475.51 475.51 475.51 475.51 475.51 475.51 475.51 475.51 475.51 475.51 475.51 475.51 475.51 475.51 475.51 475.51 475.51 475.51 475.51 475.51 475.51 475.51 475.51 475.51 475.51 475.51 475.51 475.51 475.51 475.51 475.51 475.51 475.51 475.51 475.51 475.51 475.51 475.51 475.51 475.51 475.51 475.51 475.51 475.51 475.51 475.51 475.51 475.51 475.51 475.51 475.51 475.51 475.51 475.51
475.51 475.51 475.51 475.51 475.51 475.51 475.51 475.51 475.51 475.51 475.51 475.51 475.51 475.51 475.51 475.51 475.51 475.51 475.51 475.51 475.51 475.51 475.51 475.51 475.51 475.51 475.51 475.51 475.51 475.51 475.51 475.51 475.51 475.51 475.51 475.51 475.51 475.51 475.51 475.51 475.51 475.51 475.51 475.51 475.51 475.51 475.51 475.51 475.51 475.51 475.51 475.51 475.51 475.51 475.51 475.51 475.51 475.51 475.51 475.51 475.51 475.51 475.51 475.51 475.51 475.51 475.51 475.51 475.51 475.51 475.51 475.51 475.51 475.51 475.51 475.51 475.51 475.51 475.51 475.51 475.51 475.51 475.51 475.51 475.51 475.51 475.51 475.51 475.51 475.51 475.51 475.51 475.51 475.51 475.51 475.51 475.51 475.51 475.51 475.51 475.51 475.51 475.51 475.51 475.51 475.51 475.51 475.51 475.51 475.51 475.51 475.51 475.51 475.51 475.51 475.51 475.51 475.51 475.51 475.51 475.51 475.51 475.51 475.51 475.51 475.51 475.51 475.51 475.51 475.51 475.51 475.51 475.51 475.51 475.51 475.51 475.51 475.51 475.51 475.51 475.51 475.51 475.51 475.51 475.51 475.51 475.51 475.51 475.51 475.51 475.51 475.51 475.51 475.51 475.51 475.51 475.51 475.51 475.51 475.51 475.51 475.51 475.51 475.51 475.51 475.51 475.51 475.51 475.51 475.51 475.51 475.51 475.51 475.51 475.51 475.51 475.51 475.51 475.51 475.51 475.51 475.51 475.51 475.51 475.51 475.51 475.51 475.51 475.51 475.51 475.51 475.51 475.51 475.51 475.51 475.51 475.51 475.51 475.51 475.51 475.51 475.51 475.51 475.51 475.51 475.51 475.51 475.51 475.51 475.51 475.51 475.51 475.51 475.51 475.51 475.51 475.51 475.51 475.51 475.51
475.51 475.51 475.51 475.51 475.51 475.51 475.51 475.51 475.51 475.51 475.51 475.51 475.51 475.51 475.51 475.51 475.51 475.51 475.51 475.51 475.51 475.51 475.51 475.51 475.51 475.51 475.51 475.51 475.51 475.51 475.51 475.51 475.51 475.51 475.51 475.51 475.51 475.51 475.51 475.51 475.51 475.51 475.51 475.51 475.51 475.51 475.51 475.51 475.51 475.51 475.51 475.51 475.51 475.51 475.51 475.51 475.51 475.51 475.51 475.51 475.51 475.51 475.51 475.51 475.51 475.51 475.51 475.51 475.51 475.51 475.51 475.51 475.51 475.51 475.51 475.51 475.51 475.51 475.51 475.51 475.51 475.51 475.51 475.51 475.51 475.51 475.51 475.51 475.51 475.51 475.51 475.51 475.51 475.51 475.51 475.51 475.51 475.51 475.51 475.51 475.51 475.51 475.51 475.51 475.51 475.51 475.51 475.51 475.51 475.51 475.51 475.51 475.51 475.51 475.51 475.51 475.51 475.51 475.51 475.51 475.51 475.51 475.51 475.51 475.51 475.51 475.51 475.51 475.51 475.51 475.51 475.51 475.51 475.51 475.51 475.51 475.51 475.51 475.51 475.51 475.51 475.51 475.51 475.51 475.51 475.51 475.51 475.51 475.51 475.51 475.51 475.51 475.51 475.51 475.51 475.51 475.51 475.51 475.51 475.51 475.51 475.51 475.51 475.51 475.51 475.51 475.51 475.51 475.51 475.51 475.51 475.51 475.51 475.51 475.51 475.51 475.51 475.51 475.51 475.51 475.51 475.51 475.51 475.51 475.51 475.51 475.51 475.51 475.51 475.51 475.51 475.51 475.51 475.51 475.51 475.51 475.51 475.51 475.51 475.51 475.51 475.51 475.51 475.51 475.51 475.51 475.51 475.51 475.51 475.51 475.51 475.51 475.51 475.51 475.51 475.51 475.51 475.51 475.51 475.51
475.51 475.51 475.51 475.51 475.51 475.51 475.51 475.51 475.51 475.51 475.51 475.51 475.51 475.51 475.51 475.51 475.51 475.51 475.51 475.51 475.51 475.51 475.51 475.51 475.51 475.51 475.51 475.51 475.51 475.51 475.51 475.51 475.51 475.51 475.51 475.51 475.51 475.51 475.51 475.51 475.51 475.51 475.51 475.51 475.51 475.51 475.51 475.51 475.51 475.51 475.51 475.51 475.51 475.51 475.51 475.51 475.51 475.51 475.51 475.51 475.51 475.51 475.51 475.51 475.51 475.51 475.51 475.51 475.51 475.51 475.51 475.51 475.51 475.51 475.51 475.51 475.51 475.51 475.51 475.51 475.51 475.51 475.51 475.51 475.51 475.51 475.51 475.51 475.51 475.51 475.51 475.51 475.51 475.51 475.51 475.51 475.51 475.51 475.51 475.51 475.51 475.51 475.51 475.51 475.51 475.51 475.51 475.51 475.51 475.51 475.51 475.51 475.51 475.51 475.51 475.51 475.51 475.51 475.51 475.51 475.51 475.51 475.51 475.51 475.51 475.51 475.51 475.51 475.51 475.51 475.51 475.51 475.51 475.51 475.51 475.51 475.51 475.51 475.51 475.51 475.51 475.51 475.51 475.51 475.51 475.51 475.51 475.51 475.51 475.51 475.51 475.51 475.51 475.51 475.51 475.51 475.51 475.51 475.51 475.51 475.51 475.51 475.51 475.51 475.51 475.51 475.51 475.51 475.51 475.51 475.51 475.51 475.51 475.51 475.51 475.51 475.51 475.51 475.51 475.51 475.51 475.51 475.51 475.51 475.51 475.51 475.51 475.51 475.51 475.51 475.51 475.51 475.51 475.51 475.51 475.51 475.51 475.51 475.51 475.51 475.51 475.51 475.51 475.51 475.51 475.51 475.51 475.51 475.51 475.51 475.51 475.51 475.51 475.51 475.51 475.51 475.51 475.51 475.51 475.51
475.51 475.51 475.51 475.51 475.51 475.51 475.51 475.51 475.51 475.51 475.51 475.51 475.51 475.51 475.51 475.51 475.51 475.51 475.51 475.51 475.51 475.51 475.51 475.51 475.51 475.51 475.51 475.51 475.51 475.51 475.51 475.51 475.51 475.51 475.51 475.51 475.51 475.51 475.51 475.51 475.51 475.51 475.51 475.51 475.51 475.51 475.51 475.51 475.51 475.51 475.51 475.51 475.51 475.51 475.51 475.51 475.51 475.51 475.51 475.51 475.51 475.51 475.51 475.51 475.51 475.51 475.51 475.51 475.51 475.51 475.51 475.51 475.51 475.51 475.51 475.51 475.51 475.51 475.51 475.51 475.51 475.51 475.51 475.51 475.51 475.51 475.51 475.51 475.51 475.51 475.51 475.51 475.51 475.51 475.51 475.51 475.51 475.51 475.51 475.51 475.51 475.51 475.51 475.51 475.51 475.51 475.51 475.51 475.51 475.51 475.51 475.51 475.51 475.51 475.51 475.51 475.51 475.51 475.51 475.51 475.51 475.51 475.51 475.51 475.51 475.51 475.51 475.51 475.51 475.51 475.51 475.51 475.51 475.51 475.51 475.51 475.51 475.51 475.51 475.51 475.51 475.51 475.51 475.51 475.51 475.51 475.51 475.51 475.51 475.51 475.51 475.51 475.51 475.51 475.51 475.51 475.51 475.51 475.51 475.51 475.51 475.51 475.51 475.51 475.51 475.51 475.51 475.51 475.51 475.51 475.51 475.51 475.51 475.51 475.51 475.51 475.51 475.51 475.51 475.51 475.51 475.51 475.51 475.51 475.51 475.51 475.51 475.51 475.51 475.51 475.51 475.51 475.51 475.51 475.51 475.51 475.51 475.51 475.51 475.51 475.51 475.51 475.51 475.51 475.51 475.51 475.51 475.51 475.51 475.51 475.51 475.51 475.51 475.51 475.51 475.51 475.51 475.51 475.51 475.51
475.51 475.51 475.51 475.51 475.51 475.51 475.51 475.51 475.51 475.51 475.51 475.51 475.51 475.51 475.51 475.51 475.51 475.51 475.51 475.51 475.51 475.51 475.51 475.51 475.51 475.51 475.51 475.51 475.51 475.51 475.51 475.51 475.51 475.51 475.51 475.51 475.51 475.51 475.51 475.51 475.51 475.51 475.51 475.51 475.51 475.51 475.51 475.51 475.51 475.51 475.51 475.51 475.51 475.51 475.51 475.51 475.51 475.51 475.51 475.51 475.51 475.51 475.51 475.51 475.51 475.51 475.51 475.51 475.51 475.51 475.51 475.51 475.51 475.51 475.51 475.51 475.51 475.51 475.51 475.51 475.51 475.51 475.51 475.51 475.51 475.51 475.51 475.51 475.51 475.51 475.51 475.51 475.51 475.51 475.51 475.51 475.51 475.51 475.51 475.51 475.51 475.51 475.51 475.51 475.51 475.51 475.51 475.51 475.51 475.51 475.51 475.51 475.51 475.51 475.51 475.51 475.51 475.51 475.51 475.51 475.51 475.51 475.51 475.51 475.51 475.51 475.51 475.51 475.51 475.51 475.51 475.51 475.51 475.51 475.51 475.51 475.51 475.51 475.51 475.51 475.51 475.51 475.51 475.51 475.51 475.51 475.51 475.51 475.51 475.51 475.51 475.51 475.51 475.51 475.51 475.51 475.51 475.51 475.51 475.51 475.51 475.51 475.51 475.51 475.51 475.51 475.51 475.51 475.51 475.51 475.51 475.51 475.51 475.51 475.51 475.51 475.51 475.51 475.51 475.51 475.51 475.51 475.51 475.51 475.51 475.51 475.51 475.51 475.51 475.51 475.51 475.51 475.51 475.51 475.51 475.51 475.51 475.51 475.51 475.51 475.51 475.51 475.51 475.51 475.51 475.51 475.51 475.51 475.51 475.51 475.51 475.51 475.51 475.51 475.51 475.51 475.51 475.51 475.51 475.51
475.51 475.51 475.51 475.51 475.51 475.51 475.51 475.51 475.51 475.51 475.51 475.51 475.51 475.51 475.51 475.51 475.51 475.51 475.51 475.51 475.51 475.51 475.51 475.51 475.51 475.51 475.51 475.51 475.51 475.51 475.51 475.51 475.51 475.51 475.51 475.51 475.51 475.51 475.51 475.51 475.51 475.51 475.51 475.51 475.51 475.51 475.51 475.51 475.51 475.51 475.51 475.51 475.51 475.51 475.51 475.51 475.51 475.51 475.51 475.51 475.51 475.51 475.51 475.51 475.51 475.51 475.51 475.51 475.51 475.51 475.51 475.51 475.51 475.51 475.51 475.51 475.51 475.51 475.51 475.51 475.51 475.51 475.51 475.51 475.51 475.51 475.51 475.51 475.51 475.51 475.51 475.51 475.51 475.51 475.51 475.51 475.51 475.51 475.51 475.51 475.51 475.51 475.51 475.51 475.51 475.51 475.51 475.51 475.51 475.51 475.51 475.51 475.51 475.51 475.51 475.51 475.51 475.51 475.51 475.51 475.51 475.51 475.51 475.51 475.51 475.51 475.51 475.51 475.51 475.51 475.51 475.51 475.51 475.51 475.51 475.51 475.51 475.51 475.51 475.51 475.51 475.51 475.51 475.51 475.51 475.51 475.51 475.51 475.51 475.51 475.51 475.51 475.51 475.51 475.51 475.51 475.51 475.51 475.51 475.51 475.51 475.51 475.51 475.51 475.51 475.51 475.51 475.51 475.51 475.51 475.51 475.51 475.51 475.51 475.51 475.51 475.51 475.51 475.51 475.51 475.51 475.51 475.51 475.51 475.51 475.51 475.51 475.51 475.51 475.51 475.51 475.51 475.51 475.51 475.51 475.51 475.51 475.51 475.51 475.51 475.51 475.51 475.51 475.51 475.51 475.51 475.51 475.51 475.51 475.51 475.51 475.51 475.51 475.51 475.51 475.51 475.51 475.51 475.51 475.51
475.51 475.51 475.51 475.51 475.51 475.51 475.51 475.51 475.51 475.51 475.51 475.51 475.51 475.51 475.51 475.51 475.51 475.51 475.51 475.51 475.51 475.51 475.51 475.51 475.51 475.51 475.51 475.51 475.51 475.51 475.51 475.51 475.51 475.51 475.51 475.51 475.51 475.51 475.51 475.51 475.51 475.51 475.51 475.51 475.51 475.51 475.51 475.51 475.51 475.51 475.51 475.51 475.51 475.51 475.51 475.51 475.51 475.51 475.51 475.51 475.51 475.51 475.51 475.51 475.51 475.51 475.51 475.51 475.51 475.51 475.51 475.51 475.51 475.51 475.51 475.51 475.51 475.51 475.51 475.51 475.51 475.51 475.51 475.51 475.51 475.51 475.51 475.51 475.51 475.51 475.51 475.51 475.51 475.51 475.51 475.51 475.51 475.51 475.51 475.51 475.51 475.51 475.51 475.51 475.51 475.51 475.51 475.51 475.51 475.51 475.51 475.51 475.51 475.51 475.51 475.51 475.51 475.51 475.51 475.51 475.51 475.51 475.51 475.51 475.51 475.51 475.51 475.51 475.51 475.51 475.51 475.51 475.51 475.51 475.51 475.51 475.51 475.51 475.51 475.51 475.51 475.51 475.51 475.51 475.51 475.51 475.51 475.51 475.51 475.51 475.51 475.51 475.51 475.51 475.51 475.51 475.51 475.51 475.51 475.51 475.51 475.51 475.51 475.51 475.51 475.51 475.51 475.51 475.51 475.51 475.51 475.51 475.51 475.51 475.51 475.51 475.51 475.51 475.51 475.51 475.51 475.51 475.51 475.51 475.51 475.51 475.51 475.51 475.51 475.51 475.51 475.51 475.51 475.51 475.51 475.51 475.51 475.51 475.51 475.51 475.51 475.51 475.51 475.51 475.51 475.51 475.51 475.51 475.51 475.51 475.51 475.51 475.51 475.51 475.51 475.51 475.51 475.51 475.51 475.51
475.51 475.51 475.51 475.51 475.51 475.51 475.51 475.51 475.51 475.51 475.51 475.51 475.51 475.51 475.51 475.51 475.51 475.51 475.51 475.51 475.51 475.51 475.51 475.51 475.51 475.51 475.51 475.51 475.51 475.51 475.51 475.51 475.51 475.51 475.51 475.51 475.51 475.51 475.51 475.51 475.51 475.51 475.51 475.51 475.51 475.51 475.51 475.51 475.51 475.51 475.51 475.51 475.51 475.51 475.51 475.51 475.51 475.51 475.51 475.51 475.51 475.51 475.51 475.51 475.51 475.51 475.51 475.51 475.51 475.51 475.51 475.51 475.51 475.51 475.51 475.51 475.51 475.51 475.51 475.51 475.51 475.51 475.51 475.51 475.51 475.51 475.51 475.51 475.51 475.51 475.51 475.51 475.51 475.51 475.51 475.51 475.51 475.51 475.51 475.51 475.51 475.51 475.51 475.51 475.51 475.51 475.51 475.51 475.51 475.51 475.51 475.51 475.51 475.51 475.51 475.51 475.51 475.51 475.51 475.51 475.51 475.51 475.51 475.51 475.51 475.51 475.51 475.51 475.51 475.51 475.51 475.51 475.51 475.51 475.51 475.51 475.51 475.51 475.51 475.51 475.51 475.51 475.51 475.51 475.51 475.51 475.51 475.51 475.51 475.51 475.51 475.51 475.51 475.51 475.51 475.51 475.51 475.51 475.51 475.51 475.51 475.51 475.51 475.51 475.51 475.51 475.51 475.51 475.51 475.51 475.51 475.51 475.51 475.51 475.51 475.51 475.51 475.51 475.51 475.51 475.51 475.51 475.51 475.51 475.51 475.51 475.51 475.51 475.51 475.51 475.51 475.51 475.51 475.51 475.51 475.51 475.51 475.51 475.51 475.51 475.51 475.51 475.51 475.51 475.51 475.51 475.51 475.51 475.51 475.51 475.51 475.51 475.51 475.51 475.51 475.51 475.51 475.51 475.51 475.51
475.51 475.51 475.51 475.51 475.51 475.51 475.51 475.51 475.51 475.51 475.51 475.51 475.51 475.51 475.51 475.51 475.51 475.51 475.51 475.51 475.51 475.51 475.51 475.51 475.51 475.51 475.51 475.51 475.51 475.51 475.51 475.51 475.51 475.51 475.51 475.51 475.51 475.51 475.51 475.51 475.51 475.51 475.51 475.51 475.51 475.51 475.51 475.51 475.51 475.51 475.51 475.51 475.51 475.51 475.51 475.51 475.51 475.51 475.51 475.51 475.51 475.51 475.51 475.51 475.51 475.51 475.51 475.51 475.51 475.51 475.51 475.51 475.51 475.51 475.51 475.51 475.51 475.51 475.51 475.51 475.51 475.51 475.51 475.51 475.51 475.51 475.51 475.51 475.51 475.51 475.51 475.51 475.51 475.51 475.51 475.51 475.51 475.51 475.51 475.51 475.51 475.51 475.51 475.51 475.51 475.51 475.51 475.51 475.51 475.51 475.51 475.51 475.51 475.51 475.51 475.51 475.51 475.51 475.51 475.51 475.51 475.51 475.51 475.51 475.51 475.51 475.51 475.51 475.51 475.51 475.51 475.51 475.51 475.51 475.51 475.51 475.51 475.51 475.51 475.51 475.51 475.51 475.51 475.51 475.51 475.51 475.51 475.51 475.51 475.51 475.51 475.51 475.51 475.51 475.51 475.51 475.51 475.51 475.51 475.51 475.51 475.51 475.51 475.51 475.51 475.51 475.51 475.51 475.51 475.51 475.51 475.51 475.51 475.51 475.51 475.51 475.51 475.51 475.51 475.51 475.51 475.51 475.51 475.51 475.51 475.51 475.51 475.51 475.51 475.51 475.51 475.51 475.51 475.51 475.51 475.51 475.51 475.51 475.51 475.51 475.51 475.51 475.51 475.51 475.51 475.51 475.51 475.51 475.51 475.51 475.51 475.51 475.51 475.51 475.51 475.51 475.51 475.51 475.51 475.51
475.51 475.51 475.51 475.51 475.51 475.51 475.51 475.51 475.51 475.51 475.51 475.51 475.51 475.51 475.51 475.51 475.51 475.51 475.51 475.51 475.51 475.51 475.51 475.51 475.51 475.51 475.51 475.51 475.51 475.51 475.51 475.51 475.51 475.51 475.51 475.51 475.51 475.51 475.51 475.51 475.51 475.51 475.51 475.51 475.51 475.51 475.51 475.51 475.51 475.51 475.51 475.51 475.51 475.51 475.51 475.51 475.51 475.51 475.51 475.51 475.51 475.51 475.51 475.51 475.51 475.51 475.51 475.51 475.51 475.51 475.51 475.51 475.51 475.51 475.51 475.51 475.51 475.51 475.51 475.51 475.51 475.51 475.51 475.51 475.51 475.51 475.51 475.51 475.51 475.51 475.51 475.51 475.51 475.51 475.51 475.51 475.51 475.51 475.51 475.51 475.51 475.51 475.51 475.51 475.51 475.51 475.51 475.51 475.51 475.51 475.51 475.51 475.51 475.51 475.51 475.51 475.51 475.51 475.51 475.51 475.51 475.51 475.51 475.51 475.51 475.51 475.51 475.51 475.51 475.51 475.51 475.51 475.51 475.51 475.51 475.51 475.51 475.51 475.51 475.51 475.51 475.51 475.51 475.51 475.51 475.51 475.51 475.51 475.51 475.51 475.51 475.51 475.51 475.51 475.51 475.51 475.51 475.51 475.51 475.51 475.51 475.51 475.51 475.51 475.51 475.51 475.51 475.51 475.51 475.51 475.51 475.51 475.51 475.51 475.51 475.51 475.51 475.51 475.51 475.51 475.51 475.51 475.51 475.51 475.51 475.51 475.51 475.51 475.51 475.51 475.51 475.51 475.51 475.51 475.51 475.51 475.51 475.51 475.51 475.51 475.51 475.51 475.51 475.51 475.51 475.51 475.51 475.51 475.51 475.51 475.51 475.51 475.51 475.51 475.51 475.51 475.51 475.51 475.51 475.51
475.51 475.51 475.51 475.51 475.51 475.51 475.51 475.51 475.51 475.51 475.51 475.51 475.51 475.51 475.51 475.51 475.51 475.51 475.51 475.51 475.51 475.51 475.51 475.51 475.51 475.51 475.51 475.51 475.51 475.51 475.51 475.51 475.51 475.51 475.51 475.51 475.51 475.51 475.51 475.51 475.51 475.51 475.51 475.51 475.51 475.51 475.51 475.51 475.51 475.51 475.51 475.51 475.51 475.51 475.51 475.51 475.51 475.51 475.51 475.51 475.51 475.51 475.51 475.51 475.51 475.51 475.51 475.51 475.51 475.51 475.51 475.51 475.51 475.51 475.51 475.51 475.51 475.51 475.51 475.51 475.51 475.51 475.51 475.51 475.51 475.51 475.51 475.51 475.51 475.51 475.51 475.51 475.51 475.51 475.51 475.51 475.51 475.51 475.51 475.51 475.51 475.51 475.51 475.51 475.51 475.51 475.51 475.51 475.51 475.51 475.51 475.51 475.51 475.51 475.51 475.51 475.51 475.51 475.51 475.51 475.51 475.51 475.51 475.51 475.51 475.51 475.51 475.51 475.51 475.51 475.51 475.51 475.51 475.51 475.51 475.51 475.51 475.51 475.51 475.51 475.51 475.51 475.51 475.51 475.51 475.51 475.51 475.51 475.51 475.51 475.51 475.51 475.51 475.51 475.51 475.51 475.51 475.51 475.51 475.51 475.51 475.51 475.51 475.51 475.51 475.51 475.51 475.51 475.51 475.51 475.51 475.51 475.51 475.51 475.51 475.51 475.51 475.51 475.51 475.51 475.51 475.51 475.51 475.51 475.51 475.51 475.51 475.51 475.51 475.51 475.51 475.51 475.51 475.51 475.51 475.51 475.51 475.51 475.51 475.51 475.51 475.51 475.51 475.51 475.51 475.51 475.51 475.51 475.51 475.51 475.51 475.51 475.51 475.51 475.51 475.51 475.51 475.51 475.51 475.51
475.51 475.51 475.51 475.51 475.51 475.51 475.51 475.51 475.51 475.51 475.51 475.51 475.51 475.51 475.51 475.51 475.51 475.51 475.51 475.51 475.51 475.51 475.51 475.51 475.51 475.51 475.51 475.51 475.51 475.51 475.51 475.51 475.51 475.51 475.51 475.51 475.51 475.51 475.51 475.51 475.51 475.51 475.51 475.51 475.51 475.51 475.51 475.51 475.51 475.51 475.51 475.51 475.51 475.51 475.51 475.51 475.51 475.51 475.51 475.51 475.51 475.51 475.51 475.51 475.51 475.51 475.51 475.51 475.51 475.51 475.51 475.51 475.51 475.51 475.51 475.51 475.51 475.51 475.51 475.51 475.51 475.51 475.51 475.51 475.51 475.51 475.51 475.51 475.51 475.51 475.51 475.51 475.51 475.51 475.51 475.51 475.51 475.51 475.51 475.51 475.51 475.51 475.51 475.51 475.51 475.51 475.51 475.51 475.51 475.51 475.51 475.51 475.51 475.51 475.51 475.51 475.51 475.51 475.51 475.51 475.51 475.51 475.51 475.51 475.51 475.51 475.51 475.51 475.51 475.51 475.51 475.51 475.51 475.51 475.51 475.51 475.51 475.51 475.51 475.51 475.51 475.51 475.51 475.51 475.51 475.51 475.51 475.51 475.51 475.51 475.51 475.51 475.51 475.51 475.51 475.51 475.51 475.51 475.51 475.51 475.51 475.51 475.51 475.51 475.51 475.51 475.51 475.51 475.51 475.51 475.51 475.51 475.51 475.51 475.51 475.51 475.51 475.51 475.51 475.51 475.51 475.51 475.51 475.51 475.51 475.51 475.51 475.51 475.51 475.51 475.51 475.51 475.51 475.51 475.51 475.51 475.51 475.51 475.51 475.51 475.51 475.51 475.51 475.51 475.51 475.51 475.51 475.51 475.51 475.51 475.51 475.51 475.51 475.51 475.51 475.51 475.51 475.51 475.51 475.51
475.51 475.51 475.51 475.51 475.51 475.51 475.51 475.51 475.51 475.51 475.51 475.51 475.51 475.51 475.51 475.51 475.51 475.51 475.51 475.51 475.51 475.51 475.51 475.51 475.51 475.51 475.51 475.51 475.51 475.51 475.51 475.51 475.51 475.51 475.51 475.51 475.51 475.51 475.51 475.51 475.51 475.51 475.51 475.51 475.51 475.51 475.51 475.51 475.51 475.51 475.51 475.51 475.51 475.51 475.51 475.51 475.51 475.51 475.51 475.51 475.51 475.51 475.51 475.51 475.51 475.51 475.51 475.51 475.51 475.51 475.51 475.51 475.51 475.51 475.51 475.51 475.51 475.51 475.51 475.51 475.51 475.51 475.51 475.51 475.51 475.51 475.51 475.51 475.51 475.51 475.51 475.51 475.51 475.51 475.51 475.51 475.51 475.51 475.51 475.51 475.51 475.51 475.51 475.51 475.51 475.51 475.51 475.51 475.51 475.51 475.51 475.51 475.51 475.51 475.51 475.51 475.51 475.51 475.51 475.51 475.51 475.51 475.51 475.51 475.51 475.51 475.51 475.51 475.51 475.51 475.51 475.51 475.51 475.51 475.51 475.51 475.51 475.51 475.51 475.51 475.51 475.51 475.51 475.51 475.51 475.51 475.51 475.51 475.51 475.51 475.51 475.51 475.51 475.51 475.51 475.51 475.51 475.51 475.51 475.51 475.51 475.51 475.51 475.51 475.51 475.51 475.51 475.51 475.51 475.51 475.51 475.51 475.51 475.51 475.51 475.51 475.51 475.51 475.51 475.51 475.51 475.51 475.51 475.51 475.51 475.51 475.51 475.51 475.51 475.51 475.51 475.51 475.51 475.51 475.51 475.51 475.51 475.51 475.51 475.51 475.51 475.51 475.51 475.51 475.51 475.51 475.51 475.51 475.51 475.51 475.51 475.51 475.51 475.51 475.51 475.51 475.51 475.51 475.51 475.51
475.51 475.51 475.51 475.51 475.51 475.51 475.51 475.51 475.51 475.51 475.51 475.51 475.51 475.51 475.51 475.51 475.51 475.51 475.51 475.51 475.51 475.51 475.51 475.51 475.51 475.51 475.51 475.51 475.51 475.51 475.51 475.51 475.51 475.51 475.51 475.51 475.51 475.51 475.51 475.51 475.51 475.51 475.51 475.51 475.51 475.51 475.51 475.51 475.51 475.51 475.51 475.51 475.51 475.51 475.51 475.51 475.51 475.51 475.51 475.51 475.51 475.51 475.51 475.51 475.51 475.51 475.51 475.51 475.51 475.51 475.51 475.51 475.51 475.51 475.51 475.51 475.51 475.51 475.51 475.51 475.51 475.51 475.51 475.51 475.51 475.51 475.51 475.51 475.51 475.51 475.51 475.51 475.51 475.51 475.51 475.51 475.51 475.51 475.51 475.51 475.51 475.51 475.51 475.51 475.51 475.51 475.51 475.51 475.51 475.51 475.51 475.51 475.51 475.51 475.51 475.51 475.51 475.51 475.51 475.51 475.51 475.51 475.51 475.51 475.51 475.51 475.51 475.51 475.51 475.51 475.51 475.51 475.51 475.51 475.51 475.51 475.51 475.51 475.51 475.51 475.51 475.51 475.51 475.51 475.51 475.51 475.51 475.51 475.51 475.51 475.51 475.51 475.51 475.51 475.51 475.51 475.51 475.51 475.51 475.51 475.51 475.51 475.51 475.51 475.51 475.51 475.51 475.51 475.51 475.51 475.51 475.51 475.51 475.51 475.51 475.51 475.51 475.51 475.51 475.51 475.51 475.51 475.51 475.51 475.51 475.51 475.51 475.51 475.51 475.51 475.51 475.51 475.51 475.51 475.51 475.51 475.51 475.51 475.51 475.51 475.51 475.51 475.51 475.51 475.51 475.51 475.51 475.51 475.51 475.51 475.51 475.51 475.51 475.51 475.51 475.51 475.51 475.51 475.51 475.51
475.51 475.51 475.51 475.51 475.51 475.51 475.51 475.51 475.51 475.51 475.51 475.51 475.51 475.51 475.51 475.51 475.51 475.51 475.51 475.51 475.51 475.51 475.51 475.51 475.51 475.51 475.51 475.51 475.51 475.51 475.51 475.51 475.51 475.51 475.51 475.51 475.51 475.51 475.51 475.51 475.51 475.51 475.51 475.51 475.51 475.51 475.51 475.51 475.51 475.51 475.51 475.51 475.51 475.51 475.51 475.51 475.51 475.51 475.51 475.51 475.51 475.51 475.51 475.51 475.51 475.51 475.51 475.51 475.51 475.51 475.51 475.51 475.51 475.51 475.51 475.51 475.51 475.51 475.51 475.51 475.51 475.51 475.51 475.51 475.51 475.51 475.51 475.51 475.51 475.51 475.51 475.51 475.51 475.51 475.51 475.51 475.51 475.51 475.51 475.51 475.51 475.51 475.51 475.51 475.51 475.51 475.51 475.51 475.51 475.51 475.51 475.51 475.51 475.51 475.51 475.51 475.51 475.51 475.51 475.51 475.51 475.51 475.51 475.51 475.51 475.51 475.51 475.51 475.51 475.51 475.51 475.51 475.51 475.51 475.51 475.51 475.51 475.51 475.51 475.51 475.51 475.51 475.51 475.51 475.51 475.51 475.51 475.51 475.51 475.51 475.51 475.51 475.51 475.51 475.51 475.51 475.51 475.51 475.51 475.51 475.51 475.51 475.51 475.51 475.51 475.51 475.51 475.51 475.51 475.51 475.51 475.51 475.51 475.51 475.51 475.51 475.51 475.51 475.51 475.51 475.51 475.51 475.51 475.51 475.51 475.51 475.51 475.51 475.51 475.51 475.51 475.51 475.51 475.51 475.51 475.51 475.51 475.51 475.51 475.51 475.51 475.51 475.51 475.51 475.51 475.51 475.51 475.51 475.51 475.51 475.51 475.51 475.51 475.51 475.51 475.51 475.51 475.51 475.51 475.51
475.51 475.51 475.51 475.51 475.51 475.51 475.51 475.51 475.51 475.51 475.51 475.51 475.51 475.51 475.51 475.51 475.51 475.51 475.51 475.51 475.51 475.51 475.51 475.51 475.51 475.51 475.51 475.51 475.51 475.51 475.51 475.51 475.51 475.51 475.51 475.51 475.51 475.51 475.51 475.51 475.51 475.51 475.51 475.51 475.51 475.51 475.51 475.51 475.51 475.51 475.51 475.51 475.51 475.51 475.51 475.51 475.51 475.51 475.51 475.51 475.51 475.51 475.51 475.51 475.51 475.51 475.51 475.51 475.51 475.51 475.51 475.51 475.51 475.51 475.51 475.51 475.51 475.51 475.51 475.51 475.51 475.51 475.51 475.51 475.51 475.51 475.51 475.51 475.51 475.51 475.51 475.51 475.51 475.51 475.51 475.51 475.51 475.51 475.51 475.51 475.51 475.51 475.51 475.51 475.51 475.51 475.51 475.51 475.51 475.51 475.51 475.51 475.51 475.51 475.51 475.51 475.51 475.51 475.51 475.51 475.51 475.51 475.51 475.51 475.51 475.51 475.51 475.51 475.51 475.51 475.51 475.51 475.51 475.51 475.51 475.51 475.51 475.51 475.51 475.51 475.51 475.51 475.51 475.51 475.51 475.51 475.51 475.51 475.51 475.51 475.51 475.51 475.51 475.51 475.51 475.51 475.51 475.51 475.51 475.51 475.51 475.51 475.51 475.51 475.51 475.51 475.51 475.51 475.51 475.51 475.51 475.51 475.51 475.51 475.51 475.51 475.51 475.51 475.51 475.51 475.51 475.51 475.51 475.51 475.51 475.51 475.51 475.51 475.51 475.51 475.51 475.51 475.51 475.51 475.51 475.51 475.51 475.51 475.51 475.51 475.51 475.51 475.51 475.51 475.51 475.51 475.51 475.51 475.51 475.51 475.51 475.51 475.51 475.51 475.51 475.51 475.51 475.51 475.51 475.51
475.51 475.51 475.51 475.51 475.51 475.51 475.51 475.51 475.51 475.51 475.51 475.51 475.51 475.51 475.51 475.51 475.51 475.51 475.51 475.51 475.51 475.51 475.51 475.51 475.51 475.51 475.51 475.51 475.51 475.51 475.51 475.51 475.51 475.51 475.51 475.51 475.51 475.51 475.51 475.51 475.51 475.51 475.51 475.51 475.51 475.51 475.51 475.51 475.51 475.51 475.51 475.51 475.51 475.51 475.51 475.51 475.51 475.51 475.51 475.51 475.51 475.51 475.51 475.51 475.51 475.51 475.51 475.51 475.51 475.51 475.51 475.51 475.51 475.51 475.51 475.51 475.51 475.51 475.51 475.51 475.51 475.51 475.51 475.51 475.51 475.51 475.51 475.51 475.51 475.51 475.51 475.51 475.51 475.51 475.51 475.51 475.51 475.51 475.51 475.51 475.51 475.51 475.51 475.51 475.51 475.51 475.51 475.51 475.51 475.51 475.51 475.51 475.51 475.51 475.51 475.51 475.51 475.51 475.51 475.51 475.51 475.51 475.51 475.51 475.51 475.51 475.51 475.51 475.51 475.51 475.51 475.51 475.51 475.51 475.51 475.51 475.51 475.51 475.51 475.51 475.51 475.51 475.51 475.51 475.51 475.51 475.51 475.51 475.51 475.51 475.51 475.51 475.51 475.51 475.51 475.51 475.51 475.51 475.51 475.51 475.51 475.51 475.51 475.51 475.51 475.51 475.51 475.51 475.51 475.51 475.51 475.51 475.51 475.51 475.51 475.51 475.51 475.51 475.51 475.51 475.51 475.51 475.51 475.51 475.51 475.51 475.51 475.51 475.51 475.51 475.51 475.51 475.51 475.51 475.51 475.51 475.51 475.51 475.51 475.51 475.51 475.51 475.51 475.51 475.51 475.51 475.51 475.51 475.51 475.51 475.51 475.51 475.51 475.51 475.51 475.51 475.51 475.51 475.51 475.51
475.51 475.51 475.51 475.51 475.51 475.51 475.51 475.51 475.51 475.51 475.51 475.51 475.51 475.51 475.51 475.51 475.51 475.51 475.51 475.51 475.51 475.51 475.51 475.51 475.51 475.51 475.51 475.51 475.51 475.51 475.51 475.51 475.51 475.51 475.51 475.51 475.51 475.51 475.51 475.51 475.51 475.51 475.51 475.51 475.51 475.51 475.51 475.51 475.51 475.51 475.51 475.51 475.51 475.51 475.51 475.51 475.51 475.51 475.51 475.51 475.51 475.51 475.51 475.51 475.51 475.51 475.51 475.51 475.51 475.51 475.51 475.51 475.51 475.51 475.51 475.51 475.51 475.51 475.51 475.51 475.51 475.51 475.51 475.51 475.51 475.51 475.51 475.51 475.51 475.51 475.51 475.51 475.51 475.51 475.51 475.51 475.51 475.51 475.51 475.51 475.51 475.51 475.51 475.51 475.51 475.51 475.51 475.51 475.51 475.51 475.51 475.51 475.51 475.51 475.51 475.51 475.51 475.51 475.51 475.51 475.51 475.51 475.51 475.51 475.51 475.51 475.51 475.51 475.51 475.51 475.51 475.51 475.51 475.51 475.51 475.51 475.51 475.51 475.51 475.51 475.51 475.51 475.51 475.51 475.51 475.51 475.51 475.51 475.51 475.51 475.51 475.51 475.51 475.51 475.51 475.51 475.51 475.51 475.51 475.51 475.51 475.51 475.51 475.51 475.51 475.51 475.51 475.51 475.51 475.51 475.51 475.51 475.51 475.51 475.51 475.51 475.51 475.51 475.51 475.51 475.51 475.51 475.51 475.51 475.51 475.51 475.51 475.51 475.51 475.51 475.51 475.51 475.51 475.51 475.51 475.51 475.51 475.51 475.51 475.51 475.51 475.51 475.51 475.51 475.51 475.51 475.51 475.51 475.51 475.51 475.51 475.51 475.51 475.51 475.51 475.51 475.51 475.51 475.51 475.51
475.51 475.51 475.51 475.51 475.51 475.51 475.51 475.51 475.51 475.51 475.51 475.51 475.51 475.51 475.51 475.51 475.51 475.51 475.51 475.51 475.51 475.51 475.51 475.51 475.51 475.51 475.51 475.51 475.51 475.51 475.51 475.51 475.51 475.51 475.51 475.51 475.51 475.51 475.51 475.51 475.51 475.51 475.51 475.51 475.51 475.51 475.51 475.51 475.51 475.51 475.51 475.51 475.51 475.51 475.51 475.51 475.51 475.51 475.51 475.51 475.51 475.51 475.51 475.51 475.51 475.51 475.51 475.51 475.51 475.51 475.51 475.51 475.51 475.51 475.51 475.51 475.51 475.51 475.51 475.51 475.51 475.51 475.51 475.51 475.51 475.51 475.51 475.51 475.51 475.51 475.51 475.51 475.51 475.51 475.51 475.51 475.51 475.51 475.51 475.51 475.51 475.51 475.51 475.51 475.51 475.51 475.51 475.51 475.51 475.51 475.51 475.51 475.51 475.51 475.51 475.51 475.51 475.51 475.51 475.51 475.51 475.51 475.51 475.51 475.51 475.51 475.51 475.51 475.51 475.51 475.51 475.51 475.51 475.51 475.51 475.51 475.51 475.51 475.51 475.51 475.51 475.51 475.51 475.51 475.51 475.51 475.51 475.51 475.51 475.51 475.51 475.51 475.51 475.51 475.51 475.51 475.51 475.51 475.51 475.51 475.51 475.51 475.51 475.51 475.51 475.51 475.51 475.51 475.51 475.51 475.51 475.51 475.51 475.51 475.51 475.51 475.51 475.51 475.51 475.51 475.51 475.51 475.51 475.51 475.51 475.51 475.51 475.51 475.51 475.51 475.51 475.51 475.51 475.51 475.51 475.51 475.51 475.51 475.51 475.51 475.51 475.51 475.51 475.51 475.51 475.51 475.51 475.51 475.51 475.51 475.51 475.51 475.51 475.51 475.51 475.51 475.51 475.51 475.51 475.51
