DSAA
220 79
-53.7467606931 1725.25421543
-634.934377137 -0.975714143942
5.79275943783 95104.8119156
16.7755639059 16.4716518855 15.9537613757 15.4446205416 14.9373275272 13.3521608114 12.8944082221 12.3979137556 11.8477583813 11.2356315921 10.566992058 9.86822351625 8.68433685504 8.21488688875 7.88727053027 7.7601076126 7.86483307454 8.19457361318 8.68477128957 9.31809254928 9.99694198147 10.6559794184 11.2465318297 11.7396281322 12.1245063735 12.4047021381 12.5932437559 12.7077779243 12.6471024678 12.6606645567 12.6387520468 12.5791410454 15.6870595719 15.4487927068 15.0607309036 14.4925629423 13.7352141096 12.816718507 11.8136797063 10.8505659781 10.0803489193 8.86474272419 8.884830389 10.8560216888 9.76912935853 10.5622508649 15.0896249416 16.7654113234 18.3296168217 19.6921710649 20.8056691943 24.6205028281 19.2533774225 19.7366280598 20.0873138957 20.3317250612 20.5033806092 20.5579593046 20.5362204424 20.4222055187 20.1882383232 22.3296836322 21.7007867939 20.8222958502 19.6999704985 18.3847729404 16.9818586574 15.6478653266 14.6921824704 13.81952412 13.7473746067 14.2515738008 15.2505313768 16.5754249608 18.0175233332 19.3806199292 20.519173624 21.3543129203 21.8707397829 22.0984672299 22.0768584314 21.908151281 21.6687628394 21.1460342348 20.971281215 20.7396462375 20.3967724302 19.8678474258 19.0733410715 17.9487946484 16.4499049905 14.6475501892 12.4863765215 10.6532706094 9.14262465024 8.28939307761 8.18502816973 8.67674853657 9.4871932822 10.2077753874 9.66429357648 11.7169402481 12.018327859 12.1083725804 12.2117490977 12.1416425117 12.0441418961 10.1075663684 10.0314169298 9.92002271212 9.74574652272 9.48951078751 9.20219316309 8.81506803664 8.45630780821 8.21694623577 8.16733019013 8.26311128381 8.49285900229 8.72343722967 8.88462250189 8.96013533452 8.96853313292 8.93176587487 8.85418728957 8.81455168646 8.58495408909 8.25090954564 7.84938193068 7.4831768747 7.28378465095 7.33300930637 7.56438426632 7.89575650369 8.20449914988 8.19732890247 8.28975272186 8.3227133837 8.7154887808 8.73031908548 8.75155881234 8.76889626563 8.75565142579 8.67829180678 8.50730822956 7.98454812195 7.66670436964 7.31467781186 6.99755184736 6.78809994543 6.73246690414 6.94143235688 7.24660919896 7.64811723394 8.0773969989 8.48262982258 8.32534052058 8.54401040373 8.70710489243 8.82024630389 8.89237067318 8.93309330401 9.82835799685 9.86606593706 9.88399974247 9.87990570722 9.84756301233 9.77826343486 9.62203645772 9.44728287827 9.06815657653 8.81464573595 9.22168706491 8.85215653445 8.49937591877 8.14809869 7.95440333153 7.86286946478 7.90457776993 8.05586692178 7.72742385578 7.93949399179 8.1590902729 8.36361452184 8.63260086548 8.78424859358 8.89596133691 8.14255514941 8.18638101127 8.21099733913 8.30071319474 8.29142372427 8.19692952017 8.15808809404 8.09380479458 7.99927078738 7.87018642045 7.70394068483 7.50099969567 7.26646974547 7.01163432032 6.98729552229 6.69981841412 6.47553158164 6.21617709734 6.20897584151 6.29067736234 6.44666324365 6.65134692197 6.87677106551 7.09999923268 7.30667390194 7.49088347 7.65294855624 7.7967142783 7.92728090973 7.85550323894 7.96679369715 8.07640561703 8.86054174516
16.4534073596 16.1150707257 15.5830642402 15.069310212 14.5673944492 14.0644025102 12.5999696248 12.1165023053 11.5680491603 10.936559543 10.2196658667 9.44178667022 8.66183979138 7.69706597273 7.2966025155 7.13291327301 7.24880319221 7.63549462321 8.21575573913 8.94691308799 9.71899347108 10.4533850709 11.0943355737 11.6113705501 11.9964308279 12.2586015226 12.4181738198 12.5007678493 12.42205313 12.420141927 12.3968810596 12.3499246615 12.2638407004 15.1322562906 14.7693921568 14.1920815306 13.3744633554 12.3371721505 11.1653716238 10.0112996389 9.07051160909 8.53157980251 8.13558997404 9.50664970616 10.7916318778 12.5063846549 14.4028159112 16.2905107908 18.0144708173 19.4763121134 20.6303452145 24.3463137386 19.0697990203 19.5026620827 19.7974815593 22.5118670425 22.6872433387 22.8057315202 20.169073596 20.0843894522 19.8830066723 21.9366120158 21.292698179 20.3362647335 19.0567212932 17.5019079949 15.7936711136 14.1288717315 12.8398648557 11.8525259084 11.7395975414 12.3689325891 13.6310179307 15.2950148225 17.0794205843 18.7274818717 20.0579942092 20.9826549862 24.1378575144 24.3684707395 24.2975230768 21.2815915514 20.9893834162 20.4899528286 20.3735761792 20.2595004335 20.0762967896 19.7235112849 19.0935066519 18.0967890228 16.6720840845 14.8782591844 12.6649399512 10.7418204172 9.13186617342 8.21362151411 8.18865932489 8.67747630806 9.54373013418 10.4829294468 11.2584155937 11.7643080166 11.9800331763 11.9639383459 11.9718444579 11.8182976397 11.6838954413 11.5989667387 9.91323628382 9.84495720522 9.70452956038 9.456522995 9.13936309823 8.69530465792 8.26630529278 7.97361367893 7.91767376526 8.13996050187 8.37643417644 8.65340482112 8.82380641824 8.88258618812 8.87393615142 8.84115283289 8.79562779795 8.80247819428 8.63347725098 8.3473926346 7.97296709452 7.61572483684 7.43540802418 7.49298531094 7.68356433144 7.99943265688 8.27507434342 8.21391411415 8.25213546092 8.5698736644 8.54049974817 8.5385909811 8.57682900692 8.63485774863 8.67057358135 8.63510830535 8.48672830631 7.97176699094 7.6239375176 7.22506765506 6.85965338437 6.61863140996 6.56996644657 6.73685757316 7.091841567 7.548227649 8.02418518528 8.46077716412 8.32622000379 8.54494253076 8.69837215146 8.79582098231 8.85021425264 9.70471094166 9.72587543095 9.75595287635 9.77422472418 9.7765972226 9.75342292919 9.69152419853 9.53900152814 9.35472174317 9.10301403499 9.38328276204 8.96741262567 8.52017460104 8.08697042826 7.67878610297 7.43815487109 7.33547510437 7.39744862309 7.59879371575 7.90094206693 7.70328555415 7.97476362698 8.29909275408 8.51917098015 8.68829914011 8.8077387798 8.0851281211 8.1289546896 8.23119997437 8.24134412024 8.16573866964 8.15510034457 8.12442341972 8.06774295006 7.97830070926 7.84974012514 7.67749331731 7.46041026763 7.20267907812 6.91592083619 6.81957540684 6.48326108454 6.21713396162 5.99908378587 5.9898191183 6.08938746185 6.27768969975 6.51987598921 6.77913191187 7.02708880754 7.2480169353 7.43761614699 7.5992304319 7.73985792161 7.86712973236 7.80215178151 7.91397329925 8.64542330155 8.78971089383
16.109371014 15.730146468 15.1801051851 14.661444395 14.1700501824 13.6932700387 13.2081437235 11.8647470273 11.3488490385 10.7318858959 9.9998610824 9.17144835304 8.31065311801 7.33484597302 6.86820681137 6.67099322972 6.79778500608 7.23723142034 7.91734723173 8.71372715452 9.56149425067 10.3509649454 11.0204793854 11.5388294602 11.9011407087 12.122567439 12.2315587243 12.2631665562 12.2523511533 12.1269689499 12.1028898966 12.0782761708 12.0332111683 14.8213149692 14.5339680449 14.0026039468 13.179985689 12.0749103133 10.7774571985 9.46552064369 8.37693456769 7.74497005927 7.80912451483 8.5820698651 10.033970693 11.95045817 14.0464300648 16.0965878612 17.9277235967 19.4352302777 20.5762654688 24.1523754348 24.7798156889 19.2454759899 19.4514889045 21.9293266852 22.0476384249 22.1521226684 22.241848195 22.2808400911 22.200281227 21.5827280055 20.9832600858 20.0047074714 18.6138281016 16.8501448622 14.8494071623 12.9325215059 11.219761 10.1591114148 9.9295986016 10.6897603857 12.2285114763 14.2428211699 16.3685266991 18.28277048 19.7678419371 20.7281984659 23.6957404819 23.7576062974 23.4786537991 23.0396221912 20.097663274 19.604220272 19.5549369116 19.5982986093 19.6402865189 19.5473150881 19.1783366913 18.4182810722 17.1920082805 15.5510830441 13.4291318721 11.5898199969 10.035999001 9.14592436802 9.17121594314 9.57983770133 9.99414032643 10.8589513055 11.5440799168 11.9067369363 11.9687097022 11.9070618922 11.6453528875 11.366887529 11.1772540147 11.1233410969 9.74417950938 9.75395719037 9.68658785232 9.48664124787 9.18328793745 8.72486600817 8.2652402592 7.94564040918 7.88853338055 8.12449114596 8.52287347741 8.65957786958 8.78844967231 8.78613074694 8.7300266837 8.69144563216 8.76614194566 8.77170627953 8.70831410561 8.52632465775 8.24282631307 7.95236813393 7.85008819739 7.9162989336 8.14844441252 8.21833962154 8.40573293885 8.47246878446 8.49756927942 8.38257065197 8.28512760634 8.26700719703 8.33941898701 8.46435110624 8.57716591389 8.61083111208 8.51261999055 8.02571496675 7.67760710903 7.26285521437 6.87550937028 6.64588699746 6.5631621376 6.7413793422 7.11751331612 7.59529263615 8.08500145799 8.52314701916 8.87503805615 8.57394314631 8.70188759213 8.76999081978 9.35567856774 9.58875682209 9.59090819817 9.61263272906 9.6352103031 9.65180517592 9.64806039041 10.3616283903 10.2647590913 9.28260158133 9.62693093177 9.23210094214 8.75148670982 8.22275680976 7.70220038045 7.22812098876 6.93432744632 6.8180697036 6.90293897631 7.16095740396 7.54003060525 7.49193179138 7.81684542161 8.18098055488 8.425876583 8.60508948559 8.72388676326 8.02503894934 8.06415675854 8.15863634661 8.17044215503 8.10675422249 8.10627856354 8.08844915149 8.04528172018 7.96772083 7.84711387075 7.6768019211 7.45391706382 7.18153636666 7.12385318451 6.72457131876 6.34684143188 6.04352767301 5.84741225603 5.83614131782 5.95225923914 6.16982414691 6.44405223232 6.7290301523 6.99152430038 7.21560579431 7.39991004161 7.5519011374 7.68240227549 7.80178533502 7.74196945505 8.41422235808 8.56045703624 8.71198241232
15.7384912871 15.3078225147 14.7310686623 14.2021491045 13.7218201745 13.2804884384 12.8545813012 11.6229419325 11.1784827126 10.6231981639 9.92778376986 9.1007930028 8.20704640137 7.36995398993 6.6983911364 6.47967814768 6.61550449646 7.09206451813 7.82549195637 8.67217667982 9.56054460109 10.3705488692 11.0361177694 11.5254071908 11.8361233005 11.9889608451 12.0207231862 11.9771863397 11.9052665161 16.2524961451 11.7290435096 11.7371990205 11.7550515063 14.4877596457 14.3391019369 13.9269762039 13.1799252886 12.0918736529 10.7533253011 9.36086708102 8.1855622842 7.49652989426 7.48918676884 8.32218539486 9.88187248206 11.9224609508 14.1298169022 16.2548940012 18.111057679 19.5887001292 20.6469049698 24.0264421493 24.4603378558 18.939833713 19.0152956375 21.2018543221 21.2393377662 21.3261394233 21.466198865 21.615693541 21.6851352894 21.2536803714 20.7822029375 19.8680313841 18.4507012279 16.5573907003 14.3338565047 12.1215425881 10.1360876352 8.88680683955 8.6603160201 9.53774463341 11.3216020814 13.6377043309 16.0421658796 18.1500013603 19.7101753523 22.9486767256 23.3229324014 23.103794238 22.5036392784 21.7646722183 21.1163060324 18.4025886618 18.425762518 18.6718795392 19.0146770028 19.2746142355 19.268319341 18.8538597562 19.8088529998 16.5976379594 14.7084096626 13.1186554381 11.7670134489 10.9887146607 10.9946824719 10.937582415 10.7904519607 11.4731343256 13.6447636152 12.1194932485 11.9671703032 11.6949216498 11.2107657363 10.7551288889 10.4824190621 10.4697292958 10.6714529848 9.62915123513 9.68039541149 9.57606159316 9.34191980947 8.93028883837 8.50234661836 8.20088360064 8.17295582306 8.38013078123 8.71518022327 8.96537384939 8.75988561666 8.64407229663 8.50424943699 8.44769996769 8.56216652534 8.6868668285 8.7671607057 8.72959609598 8.5779224863 8.53220110042 8.46255224265 8.47818862245 8.6197368054 8.79045090763 8.5600263646 8.49191620855 8.36697809053 8.11853368626 7.93606159524 7.90675116217 8.03715213606 8.25990872354 8.4786356136 8.6067141302 8.58477126747 8.38766029919 7.83705221758 7.44777076215 7.07575432429 6.91453536009 6.83025978342 6.99649018059 7.35376062303 7.80777270328 8.26861608387 8.67134893046 8.97995302527 8.6257960392 9.24828768537 9.27072015786 9.2453802645 9.85535878838 9.40605795531 9.41984812061 9.45313546426 9.49506608062 9.5248604113 10.2403743002 10.1783118863 10.0058284227 9.56467404765 9.13978523369 8.60365598692 7.99927376146 7.39392455266 6.85158568837 6.50350360625 6.37218939183 6.48007304654 6.79543782287 7.25097637762 7.7625923257 7.76440104023 8.10147974077 8.36009153024 8.53686408404 8.64241682933 8.81448307994 8.83513658595 8.06859134072 8.08069174104 8.03086733675 8.04444705989 8.04533629596 8.0229884262 7.96565334083 7.86223649325 7.70410039051 7.48693192614 7.53757889828 7.14852222548 6.7310208748 6.32998100349 6.00394709204 5.8052674465 5.79275943783 5.9197107261 6.15523710322 6.44619389924 6.73937052663 6.99842233643 7.20877305105 7.37324562741 7.50428339976 7.61691366318 7.72412419214 8.16868731725 8.31045820055 8.46311544358 8.62500887135
15.3380842252 14.6612562825 14.2222301568 13.6702881726 13.1936853371 12.7898671044 12.4386497162 12.0980387819 11.0243829511 10.5875257636 9.99636469522 9.2448368194 8.39271622436 7.56964966411 6.94661127481 6.64348439111 6.78423908268 7.27042703113 8.0133777952 8.8852100026 9.73608252285 10.5212978467 11.1431296108 11.5682303837 11.7950051993 11.8479427011 11.7715552412 11.6234408476 11.4653944887 15.270919669 15.2286177766 11.2936721336 11.3986413409 14.0897974385 14.15125583 13.943539913 13.3704906573 12.4106770542 11.150870947 9.79519330098 8.63006661443 7.94165230655 8.05222322248 8.89851951148 10.4731131654 12.5218591336 14.7169126985 16.8008278457 18.5790257218 19.9367826952 20.8319360088 23.9450328872 24.1013457781 23.9313793525 23.8161926733 20.2727119036 20.1963253986 20.2567668921 20.467272987 20.7762973678 21.0698634501 20.9164203596 20.6785024706 19.9442925093 18.6250190115 16.7347820911 14.4258867794 12.0645040758 9.92155834339 8.5594805211 8.32165133609 9.2762562489 11.2126280376 13.7044543805 16.2499602489 18.4183770144 19.9323381552 22.9651862736 23.0245201139 22.3976623704 21.345900647 20.1812614175 19.2163665406 18.501265185 16.9071094219 17.4082866813 18.1384054126 18.8508974916 19.3057507278 21.3251072102 20.8160711141 19.754041417 16.3220993827 15.0846121822 14.0165746285 13.3877209332 13.3539370098 13.8707182622 13.2731982735 13.9750746232 14.3349290745 14.2604113276 11.9813182934 11.4569439812 10.6970504357 10.0091182171 9.61832824215 9.6515543854 10.050136424 10.5895292736 9.67742653666 9.75847239691 9.59083739151 9.27793178379 8.93190316096 8.68072830821 8.70444766904 8.83445313761 9.02957054062 9.10484646698 8.9534217861 8.50288658516 8.23501665099 8.1411607204 8.27959807586 8.54874070014 8.79516476195 8.91734341792 9.10126269253 9.02319711905 9.04623789576 9.0484123611 9.10173197553 9.13567394351 8.71860348579 8.57432270883 8.21425768828 7.81394302708 7.53500861171 7.50150146831 7.7120925604 8.05645479626 8.39826371945 8.63319265746 8.7020329054 8.58685866489 8.08745879408 7.75978414075 7.69648641673 7.41914768558 7.3395040802 7.47514416301 7.7784533856 8.16740886701 8.55933955448 8.89117883244 9.12587514964 9.21825383592 9.2369718913 9.18152220445 9.67897762927 9.59175477607 9.15050084633 9.15831690273 9.21178350647 9.29414495998 10.028208146 10.1114364806 10.1075184719 9.97656814447 9.56099712206 9.12716927628 8.55621243632 7.895821604 7.22302644281 6.62191192242 6.22760945142 6.0821438099 6.20890218556 6.57186415563 7.08926989326 7.6598059669 7.72067252405 8.07276414157 8.32677292357 8.48287978599 8.66768548705 8.68937893874 8.68199267289 7.95147673132 7.96229849624 7.92903491354 7.96170248433 7.98861137646 7.99584491765 7.96842676532 7.89272022065 7.75844455401 7.56048001065 7.64102184822 7.26523644282 6.85582740914 6.45849081544 6.1330563093 5.90619870795 5.89401337409 6.02153966534 6.25519767452 6.53773349006 6.81277399381 7.04372107842 7.21900849977 7.34661759527 7.44452669907 7.53205767339 7.9134488111 8.0396952155 8.18566120569 8.34956339956 8.52688857451
14.9102723017 14.1623427607 13.6440012525 13.0470625778 12.5558985537 12.1800827654 11.9084767114 11.7008508564 11.4864414733 10.5718292024 10.1592290239 9.56888172028 8.84853640373 8.12336890169 7.56401157956 7.3267091866 7.31931866915 7.78311750623 8.48560286348 9.30394783664 10.0819482606 10.7950948153 11.3329797436 11.6592580511 11.7702533743 11.6914718028 11.4736206766 11.1869476658 10.9117444594 14.0419598234 13.9717984702 14.187338699 14.6224876898 13.5821449805 13.9260620695 14.0084248751 13.7098099571 12.9954808574 11.945581218 10.7592314669 9.71650524813 9.09740925593 9.51412153194 10.3246543823 11.8141127841 13.7459879149 15.797124805 17.718168322 19.3122591473 20.4588007712 21.109957789 23.8800616704 23.6703673442 49.083885287 22.6152639568 40.9765998697 18.8509437432 18.8686793089 19.1686134986 19.6914076035 20.2927813985 20.7684456403 20.6377184836 20.21792232 19.148577686 17.4340522585 28.4715678476 21.4486359283 10.8086141463 9.45436081719 9.22798044375 10.1648676377 12.1097895458 14.5886031612 17.0800102711 19.1340373287 22.6107527433 23.1953314402 22.8186642808 21.6639554778 20.0314291551 18.3070659356 16.9085213053 16.0499056807 14.9805626645 15.7956415328 17.0072524666 18.2708963727 19.2708350042 21.8182821283 21.866765706 21.3379264085 18.067677964 17.2085950308 16.4334895821 15.9471828368 15.8568703894 16.1194225825 14.7514353183 15.1041567737 15.1014552355 14.6782836363 13.7851967633 11.284198835 10.2297808877 9.27931528843 8.74565853006 8.82228047805 9.43408920416 10.2708877045 10.9815112508 9.92846547332 9.89602709666 9.7033551486 9.45535353239 9.41053783049 9.33127046936 9.35999446009 9.38902498979 9.27343344564 8.93031457557 8.42384067852 7.93806603175 7.81349564145 8.02485773287 8.43504354469 8.83705906121 9.10324442588 9.44609487809 9.47437697756 9.57986258516 9.57465220296 9.55775830613 9.47833910449 9.2635951484 8.62892195529 8.12654642971 7.58792069603 7.21854113059 7.18451953488 7.47611268468 7.93520382134 8.3868930415 8.71599120349 8.86981003446 8.84075923116 8.40099752944 8.57506262977 8.28148781795 8.06571892954 7.99775965589 8.09619101486 8.32746513989 8.62653869474 8.92258478337 9.15724906406 9.29327760885 9.28461516315 9.20080143097 9.04569054723 9.40115433436 9.23205208901 8.80342480537 8.80901973776 8.89564865552 9.03780360756 9.79438252145 9.97033052653 10.0511741249 9.98829983743 9.74890964135 9.2099269681 8.63615309512 7.95409595046 7.24790028725 6.61212592724 6.19803860115 6.03586665577 6.17222192714 6.56014347704 7.10763378168 7.70103695914 7.76142698277 8.10178251733 8.32600849493 8.43810992255 8.56419473288 8.53383856376 8.48451840217 7.79524306249 8.35446880374 7.7903838685 7.84876148897 7.91076362398 7.95787053815 7.97110412339 7.93415583042 7.83556840517 8.08243739242 7.80739637345 7.46841089046 7.09424003444 6.72909497984 6.42934232746 6.15220802882 6.14147796407 6.25668373166 6.46432237472 6.70863056174 6.93540356059 7.11110267058 7.22875204187 7.30233724847 7.3559395213 7.65880224043 7.75139331537 7.87671565093 8.03405456829 8.21703997377 8.41707158503
14.4651257214 13.6234081308 12.9970547995 12.3238476613 11.7874760505 11.4155670194 11.213237718 11.1485880909 11.1457629333 10.5008125694 10.3343780083 9.9855986359 9.48295553617 8.93637801105 8.50292712511 8.32841110901 8.4932808141 8.56663881868 9.18936462995 9.90854376937 11.1248533035 11.1688523072 11.5903033472 11.7898371197 11.7588291707 11.5204618462 11.1292591548 10.6683673327 10.2406428148 12.5550416141 12.4328646407 12.7570237265 13.4502223726 14.3237475329 13.6299262725 14.0744965653 14.1331269491 13.7614274943 13.0316698833 12.1278142449 11.3055940461 10.8197005566 11.6905400489 12.4352794663 13.7660791123 15.4834835402 17.2846043364 18.9424656209 20.2635800467 21.1213659717 21.4582484385 23.8129403668 48.8259859683 46.0956096098 42.9691239285 36.3859685527 17.156092886 17.1052797922 17.5107039086 18.3042847446 19.3019939942 20.2436652924 20.6130457079 20.6425370048 19.9776070598 38.4103692536 32.6077038452 26.3330973837 20.8359025104 11.5870620237 11.4033620993 12.2187011272 14.0179975301 16.2848681333 18.520924006 22.3236617612 23.5195824457 23.6600338806 22.7618077173 20.9993610104 18.6938020484 16.3006226777 14.3608633124 13.2916882253 13.5450307148 13.9581689797 15.7352465091 17.6253084101 21.0154064373 22.3085884882 22.9148065638 22.9051971136 22.446086047 19.2915986505 18.7738189772 18.4020096853 18.2497722893 18.281761121 18.6809515673 16.258897036 15.9490097641 15.2416442301 14.0760240644 12.494990245 10.0403040487 8.8665215341 8.2069153541 8.31487870231 9.09529701934 10.1623343647 11.1062012289 10.1561176598 10.2448856117 10.1628428683 10.00167484 10.0603802104 9.9595275564 9.89231539225 9.77848737383 9.51460898778 9.04500762675 8.43717130046 7.92074962958 7.74757886631 7.99417638621 8.48681231794 8.98366868794 9.56418130592 9.8038038908 9.90493798326 10.074287878 10.0651887289 10.0009269951 9.84561185237 9.54403489291 8.80663835246 8.22725038017 7.61377815007 7.19213763026 7.15431928336 7.48683989746 8.00327998897 8.50971624619 8.89065451843 9.10182901683 9.14329201449 9.29961941812 9.10638044726 8.90998895906 8.75889241595 8.70686806821 8.77081197048 8.92853988999 9.13101596499 9.32010350657 9.44358946923 9.464879345 9.33734951993 9.13093237195 9.35551242437 9.03251831377 8.76324321656 8.35207853361 8.36093793784 8.49704290425 9.18938985 9.52017990403 9.81697951484 10.0093285917 10.0412153195 9.87701792267 9.39386298233 8.85606025177 8.19637840402 7.50246960029 6.90171132303 6.46423203674 6.28966437993 6.42224334636 6.80235841734 7.3348143116 7.90177368703 7.89104630094 8.1867018686 8.99731445083 9.02944758045 8.43683077045 8.33366544019 8.2266870419 8.07813774599 8.07227511659 7.60375046872 7.69656988455 7.80486761317 7.90368350677 7.96893641596 7.98145326698 8.38467433771 8.2428787392 8.0218956609 7.73785189777 7.41922759533 7.10685313027 6.84998370564 6.50695317812 6.49625332364 6.58650440476 6.74643203496 6.92622150548 7.07817796136 7.17455852805 7.21444248337 7.21903903515 7.42615226169 7.45756073899 7.53814385481 7.67224064604 7.85245437372 8.06559064478 8.2976510598
14.0238833056 13.065343333 12.3000470659 11.5130762316 10.8906960821 10.4848295496 10.3252414887 10.3963414616 10.6214431154 10.8717082342 10.4325933664 10.3848476814 10.1635612153 9.85576050294 9.59668385077 9.51546561136 9.68805668771 9.50979429768 10.0360289428 11.1510745631 11.7859111125 11.613877441 11.9004464221 11.9575236783 11.7694419972 11.3537761468 10.7656859618 10.1002629386 11.6399371775 10.87928474 10.6776702079 11.1164808605 12.1025646591 13.3928085276 13.2726093678 14.1235796134 14.5877123311 14.6153741351 14.2713059046 13.7188356188 13.1797467503 12.8732594363 14.2834184191 15.0320763843 16.1807373745 17.5588824358 19.0507452642 20.3849381049 21.3764939428 21.8940865483 21.8679182945 23.7541803201 46.946151279 42.7511064863 38.1591319232 31.0294235004 28.6201798937 14.9728467265 15.4958712858 16.6158710053 18.0947747014 19.6008966471 20.7948797804 21.1653609289 21.0322392037 42.6659849535 38.2096421002 33.1372280734 28.5945137642 14.6944356129 14.5799990783 29.1770400777 16.7372240156 18.6437745588 20.474916257 24.0552027362 24.7653457031 24.4081493989 22.9709653375 20.6015043811 17.6196495262 14.533141453 12.0074220532 10.6801258 11.0210486711 12.2378931708 14.6093247619 17.1316213813 21.0358442885 22.8896811045 23.9885854413 24.4284438569 24.379103603 24.036503176 20.9318503149 20.6433303914 20.43403453 20.2805768633 20.4333269106 20.0518147658 16.9112418549 16.0276489405 14.7228420118 13.0222791749 10.3828991904 9.11233897517 8.397056096 8.5080281273 9.33518817204 10.4709732885 11.5024456075 12.251567724 10.6521614543 10.65040487 12.2042748946 10.6976965631 10.576429024 10.4387871702 10.231950798 9.89171503406 9.39169034973 8.79974297469 8.33066318782 8.17239827445 8.46565828044 9.04824014814 9.51059537624 9.94737234421 10.2176722735 10.494221263 10.5586781984 10.5457989866 10.4565880926 10.2676001754 9.94075703366 9.52169858046 8.60134869049 8.01066029765 7.59975666182 7.55007665971 7.85221654961 8.33274623982 8.81188252659 9.18458517987 9.41218203462 9.49562420824 10.0517838436 9.64897229425 9.53443089091 9.43944578328 9.4029199148 9.43807763945 9.52979609921 9.64114570907 9.72477930742 9.73440352117 9.63435162146 9.37761733346 9.03377088671 9.06430304447 8.58586403785 8.1979196016 7.80640613198 7.82511978564 8.33446043996 8.74555255627 9.22052326239 9.66241978981 9.98800881959 10.13633789 10.0722879335 9.67372765778 9.20927761576 8.61554919574 8.01463384385 7.43463559518 7.02755665302 6.85112884668 6.96810453885 7.28915458157 7.75910767719 8.2483405263 8.70441059553 8.96161332985 9.037014031 8.94707088027 8.27569137653 8.07819300196 7.89671286486 7.72121400922 7.71050177297 7.36137561675 7.49976202547 7.66770080911 7.83122912331 7.95977172261 8.03112472269 8.50195090964 8.42373283847 8.26587766977 8.04617110247 7.79223924327 7.54024418522 7.33057102922 6.91332344307 6.89784160342 6.95301302258 7.05078505705 7.14906743156 7.20846011097 7.20830955697 7.1549807936 7.2558865986 7.19092693293 7.18818520867 7.26718473465 7.42492744672 7.64359068994 7.90046227938 8.1749465645
13.6212240913 12.5277101889 11.5971942411 10.6601765286 9.90849317798 9.42403367721 9.26981439064 9.45502503909 9.90621841134 10.4720794602 10.9752437933 10.6861231871 10.7789481052 10.7422037569 10.6869158965 10.7240207936 10.9239578426 11.4497970948 10.9379551697 12.0239979435 12.5059351664 12.8471083523 12.2570871333 12.1717838185 11.8278918565 11.234974657 10.445283299 9.56308203264 10.2464692086 9.21356716521 8.91239249932 9.46585867546 10.7590505051 12.480612463 14.2485485017 14.1948857245 15.0673364768 15.502256963 15.5579935374 15.3759253128 15.1419588272 16.8584685033 17.1010880282 17.7306914631 18.6989496234 41.584448229 20.9704139653 21.9641433108 22.6073476726 22.7663715244 24.8648234011 49.7176258096 45.1679007823 39.3940579137 33.1643137296 27.534569719 21.9453454881 20.960837995 13.2544720946 14.7458989213 16.7704786574 18.9080454226 44.6451187241 47.8569144202 48.776240756 47.5289900225 44.6672777319 41.0378959722 37.6440044348 35.4160358937 34.7876857402 39.4989066644 43.1826870417 23.4632365346 25.0969301308 26.1547574516 26.3579764422 25.5258295482 23.619168872 20.7530480332 17.2287509128 13.577499176 10.5574111477 8.9875099219 9.3963436222 11.6284193042 14.8826457995 18.4001805658 21.4422065175 23.7044909732 25.1634035191 25.9375430122 26.1954983102 26.1101315813 22.8950100709 22.6609995809 22.4026279305 22.1106709996 22.0831640878 21.5009746643 20.6443568256 17.0718691875 15.7836991842 14.1600176387 12.3675303994 10.1804549683 9.49262029516 9.56056866409 10.2796396914 11.2936534545 12.2452908956 12.9842692337 13.3471321335 13.1808954618 13.0788758868 11.3388777165 11.2047847938 11.0281365052 10.7805640754 10.4313932699 9.98019444444 9.55454910848 9.16034540917 9.05091125274 9.29150820364 9.76225157035 10.0950547467 10.4693831261 10.7079924468 10.9923549509 11.0526889668 11.0336136357 10.9377672628 10.752511265 10.5502479265 10.1172779137 9.57315527269 8.75430326969 8.40775309392 8.33836257408 8.54737168629 8.91035577185 9.28997674799 9.60000986039 9.80428217645 10.5038152918 10.5630476592 10.1921977647 10.1378903825 10.0850844384 10.0600852358 10.0715107167 10.1076103548 10.1393333439 10.1272124632 11.0971124084 10.8278314913 10.376315444 9.65902113001 8.76418185151 8.11513713201 7.59494245506 7.4515671843 7.25388313809 7.74872089675 8.30098064418 8.93656361192 9.53586797172 10.0046091362 10.2802011911 10.3313064562 10.0373578103 9.67382737735 9.17865201643 8.67939434023 8.17758953864 7.82068139474 7.6375934767 7.72319631225 7.99670847488 8.37596757236 8.75759051323 9.03307833929 9.1526485933 9.08548326789 8.84892287446 8.08133232655 7.76984446518 7.49740414321 7.28721163237 7.27222404312 7.06583750091 7.26264365489 7.50459383313 7.74555121082 7.94703033883 8.54651362764 8.62717986072 8.61585284789 8.52319363317 8.36847500749 8.1779216626 7.98251862358 7.81382367826 7.32082358288 7.29414228647 7.30793267326 7.33737126649 7.34751370301 7.30656418644 7.20057939343 7.20846959344 7.01982964077 6.88474634444 6.85403514186 6.94596852673 7.14579073364 7.42045833485 7.73484741313 8.06102979908
13.3051224149 12.0701246982 10.8689579503 9.85189228647 8.93856993534 8.33787303229 8.15274750313 8.42390711722 9.08378825426 9.95618806168 10.8215011286 10.8799780642 11.2872914445 11.5254833938 11.6828770953 11.8533174824 12.1012037628 12.6319897358 13.0624681424 12.9090485854 13.2545574887 13.4537531632 12.6654836034 12.454753136 11.9761287886 11.2306706547 10.2649563823 9.18794722747 9.193552292 7.90550253835 7.50685870864 8.16367002534 9.73591368404 11.8411871223 14.0309510449 15.9468711653 15.6223243358 16.425416236 16.8498848215 17.0155584044 17.0745240677 19.4268950374 19.7917308913 20.3997425927 21.2214994097 47.3777474998 50.1197290379 52.3249004893 23.939978814 23.7569182992 53.8807014383 49.8227927975 43.9355544134 36.6415659442 28.777986164 21.6028888353 15.675847402 14.3081694762 11.1092005836 12.9875851541 15.5728113735 18.3466681612 44.6130538468 49.6117943352 52.276807232 52.723028428 51.4912005487 49.336961709 47.1113989975 45.5763286709 44.9910771079 50.3219075795 53.093370344 26.9381849132 61.4060797794 28.5853270029 28.3340423165 27.1192446404 24.8904345925 21.739693138 17.9452595815 14.0307994707 10.7816315132 9.08239529975 9.52857001551 11.9527187262 15.4623766244 19.2187065354 22.4494065241 24.876548616 26.50758516 27.4714844825 27.923139567 28.0059703646 27.8389741828 24.4830729988 24.1789755228 24.1660060366 23.6227299904 22.925764301 22.024520268 18.3291545145 17.1911459144 15.8039779965 14.2965649548 12.9609514613 11.3258105819 11.3050501692 11.8053666962 12.5668429055 13.3181941557 13.9467933143 14.2689148504 14.0860520539 13.9967158189 12.0071038642 11.8679577399 11.6781560319 11.4282280144 11.1121356548 10.7469866299 10.4753029182 10.2151429066 10.1632060298 10.3444731664 10.6745700658 11.023370901 11.0987564921 11.2614024131 11.5196941414 11.5571391231 11.5286023338 11.4375439995 11.2803646511 11.1469567784 10.8310699088 10.4507639063 9.70356273254 9.44130492771 9.3473507207 9.43764754603 9.64821486818 9.89388238552 10.1111389203 10.2659013151 11.0115646482 11.0942462336 11.1168352119 10.719990504 10.6952100664 10.6767313323 10.6685300682 10.6598619008 10.6263158447 11.7113803993 11.4801807088 11.0775086934 10.4758449673 9.59711970581 8.54031549178 7.72554497669 7.16582744996 6.78993331779 6.86594116406 7.25715154319 7.9495830734 8.73966599823 9.48716278136 10.0903468219 10.4883164863 10.6555705874 10.4730848459 10.2232508359 9.84251625425 9.46107149508 9.0501542903 8.75013659954 8.5577180707 8.60232266606 8.78776730912 9.04395929122 9.28219130272 9.40356070242 9.36823861169 9.14499709284 8.75015516885 7.87517013844 7.43665961588 7.06069310696 6.80809876009 6.7896419519 6.74027015646 7.00732850711 7.33527979963 7.66268811171 8.35782926522 8.61134326724 8.76285149634 8.81590260975 8.78435871983 8.68868167999 8.55338476206 8.4045009604 7.76700284407 7.70118233813 7.6582745889 7.62910088654 7.5915479792 7.51612705469 7.37661688733 7.3386007641 7.03847389774 6.74348100799 6.53752808737 6.48632820852 6.60617128224 6.86540178221 7.21063430071 7.59200196566 7.97443998536
14.4286043972 12.7984943289 10.414458703 9.21388436097 8.1337921186 7.40341065762 7.16687318751 7.49781603176 8.33448067323 9.47539062997 10.6607955062 11.6845901214 11.7219273562 12.2117242532 12.5696214163 12.8741340883 13.1831762173 13.73897515 14.1061861531 14.4420307327 14.0205371442 14.1052251937 13.975982254 16.8829946291 12.2627655916 11.4161545468 10.3359700868 9.13086915618 8.83752154731 7.38372663435 6.92311875299 7.65359466469 9.41524753344 11.7752587172 14.2453504694 16.4559863345 18.2120668513 17.4323788855 18.1613984883 18.6234338152 18.9394943979 21.8525726858 22.3415057639 22.9529271063 50.5962083014 52.9288286339 55.033117218 56.5157821059 56.9622603098 56.0103911571 55.7514712362 50.7641227824 43.8248373522 35.3174652717 26.1112361858 17.62282621 11.625855013 9.54162162227 12.0560391004 11.8040410605 14.8794766996 37.037283353 45.4828104516 52.0050775504 56.2074698247 58.1827108021 58.4426718354 57.6416349809 56.4852151064 55.5870472173 88.4883061654 61.0672422176 63.0883429971 67.9175402087 69.3789666615 69.4641586305 30.7401547003 29.2769209181 26.9127369847 23.7353706834 20.0066760852 16.2182029329 13.1047984592 11.4569174716 11.902315337 14.221486976 17.5320216035 21.0849411957 24.1249219641 26.4283428681 28.0244877836 29.0323180509 29.5740542836 29.7509250397 29.6426278085 26.1414012304 25.7853742473 25.6698419322 25.0178390782 24.246647794 23.3547378565 22.3315959726 18.7574925538 17.6896765155 16.5401195928 15.799284417 13.5329761299 13.4035840752 13.6565955506 14.1298378376 14.6363929109 15.1024209753 15.330741353 15.7692342698 14.9775806407 12.7186635729 12.57863254 12.3904569758 12.1566557693 11.8858833416 11.7161650012 11.4586002272 11.3003967358 11.2874416437 11.4138441482 11.6157987845 11.8146475065 12.2321259454 11.8351077959 12.0492448873 12.0556385615 12.015768748 11.9330231506 11.8108929743 11.7491475546 11.5526712497 11.3307320453 11.100010957 10.5005649201 10.3817389139 10.3635455888 10.433702805 11.0333956174 11.1961036318 11.326509236 11.5502617361 11.6385354339 12.557927042 11.2854609198 11.277308585 11.2614053441 11.2377322195 11.1954635587 12.4123198353 12.2292446254 11.9083073566 11.4063987737 11.2404757906 10.2314992643 8.5043678577 7.86010998694 6.91359214851 6.43236244852 6.51562180933 7.0149545571 7.81456365095 8.72055719294 9.57918444788 10.2861404683 10.7842870692 11.0538174786 10.9756732176 10.8372432405 10.6390798701 10.3046663487 9.98189881249 9.73457461211 9.52847062543 9.52646635753 9.61854904092 9.7467869144 9.83753369964 9.80218292098 9.61279411761 9.23766740994 8.69088544887 7.70602434816 7.14151495179 6.66006122276 6.35999280062 6.33849977799 6.50781166925 6.78078307955 7.1979658685 7.94363883074 8.3753983169 8.70297288793 8.91745569817 9.0265621748 9.04714013716 9.0004391895 8.90917181168 8.79509685639 8.11025741559 8.04741199471 7.98676339754 7.9182297484 7.82186480639 7.6719939818 7.65026066124 7.30130250906 6.88963255642 6.49349145464 6.22056826121 6.15533882021 6.31209649303 6.63853814616 7.05777555275 7.50482221543 7.93892879978
14.450612838 12.7088622895 10.9557213922 8.89108402507 7.67823022448 6.84162667798 6.55887280793 6.929365707 7.89438206361 9.23243757738 10.6556650992 11.9341326076 12.9589390312 12.8548503341 13.381165869 13.8048291038 14.1766161562 14.7700285615 15.0997436884 15.3656501656 15.5200441409 14.809860639 14.606885149 17.62712781 16.6191423387 11.8512341754 10.7465967778 9.51784569452 9.45390952369 7.98789567754 7.53057848209 8.28728988194 10.0945117953 12.514380998 15.0646826431 17.3915902149 19.3137798362 20.7885281884 19.5321790477 20.2237237486 23.5235886855 24.1354226328 24.739874324 25.3725985545 42.4860963694 58.1880285612 59.8273622134 60.7742013437 60.6646236484 59.1571497299 58.4459928937 52.9079597829 45.3914873576 36.2386921353 26.3098449839 17.0925250178 10.529731113 8.38098260902 11.1297315501 17.9384666336 28.0781950919 38.4324539629 47.8611421464 55.4416471343 60.8096871475 64.0111006639 65.5079936669 65.8450475463 65.5930481195 65.2397912118 104.755302889 105.814561768 76.0336862412 77.2761827282 77.7662230228 76.9719755976 74.459400425 32.0356483278 29.7106089955 26.7309392278 23.3480910534 20.0033106513 17.3198922793 15.8647516281 16.2526354199 18.1784442363 22.2983296069 25.4710311347 26.2971415606 28.22096376 29.6111043454 30.5552380184 31.1211110899 31.3506779484 31.2732279717 30.9158804737 27.643876869 26.9919952181 26.2136100377 25.3472653164 24.4441747075 23.5436444665 20.2189169237 19.480432151 18.6881801759 18.3377643446 17.8176998743 15.5419096306 15.5888438651 15.8133872532 16.6430649395 16.3915687831 16.50556786 16.9275964928 16.8204780909 13.4809754326 13.3401204942 13.1574506515 12.9405632318 12.7037565852 12.5946311059 12.3950085789 12.2779547514 12.2614004903 12.3260983964 12.4222955643 12.7242847113 12.8097978505 12.8747486556 12.5408594484 12.5230458017 12.4739442569 12.3961155207 12.3970322764 12.2826934648 12.1721723299 12.0657502792 11.9520304759 11.8298037079 11.6984767701 11.6410844319 11.6544639919 11.7216380242 11.8106323603 11.8911044154 12.1005845462 13.1003740654 13.2114888979 13.2824670354 11.8394620274 11.8242399895 11.7900612246 13.1451272958 13.0140938873 12.7813148378 12.4072991756 11.8519315147 11.6633728553 10.5971694468 9.34388936153 8.09699929576 7.09351838013 6.58053625299 6.65467920459 7.1682807653 8.00919449366 8.96175958989 9.86998895769 10.6317882251 11.1938779848 11.5397832985 12.7478231913 11.5063109721 11.4150098015 11.1759321728 10.9288545745 10.7238938151 10.4996335588 10.4492425876 10.4512998722 10.4590207632 10.4127828114 10.2338145038 9.90759589375 9.40260726637 8.7307155603 7.64486619691 6.97716437457 6.40733641651 6.06254216211 6.03815742237 6.28524746686 6.65344245054 7.14660606034 7.95701683166 8.45745676578 8.84116261747 9.10298827439 9.25437506199 9.31435039654 9.30431734685 9.2451338442 9.15506963945 8.42757483027 8.36498298371 8.2890361558 8.1895704865 8.04864975361 8.08876165494 7.76289825361 7.33663215412 6.84248003683 6.36869524028 6.04302194932 5.96804426937 6.15714902696 6.53899666415 7.01576214462 7.51045360402 7.97912842282
14.7666876715 12.9773733381 11.1636160272 9.42979868359 7.94076049289 6.85413152768 6.55441354373 6.94817610058 7.97640837562 9.41058207337 10.9564094186 12.3787881902 13.5601461817 13.5197023069 14.1669390426 14.6816978676 15.1066824258 15.7418937951 16.0533959098 16.2773827003 17.0218775723 19.5023367386 15.3397245872 16.9959525888 17.609837045 16.2481841301 11.5261332614 10.3890156543 11.096803967 9.78826333749 9.40816200003 10.1407603264 11.8395674431 14.1144647024 16.5383922052 18.7991850519 20.734900831 22.300811057 23.5242610658 24.4788676139 25.5346352732 26.3047212942 27.0106918291 32.0802425997 46.4829986875 63.1771183044 64.5250826866 65.1353000528 64.6973726724 65.9270047992 62.2656051902 56.4792852683 48.9740719166 39.9115208382 30.1070124701 21.0043603648 14.5249019936 12.1643520132 15.0863818184 21.67034261 32.1473378716 42.6722609346 52.4091492526 60.4886871324 101.342487754 108.84316387 72.7924197647 74.0103066617 74.4709538666 119.374014462 120.268495054 121.076427744 121.73046744 86.7403967698 86.5596302525 85.1879924058 82.3274319101 77.8303121109 71.7611569586 30.5543844733 27.653470064 24.8784506653 22.7116364014 21.4487408184 21.6732666212 24.4276387978 26.5241975233 28.6489532008 48.7107372685 29.9402819369 31.0460629172 31.9006959367 32.4938953914 32.7884342315 32.749816684 32.3638646724 28.9361555606 28.1291659638 27.1608263066 26.111413704 25.0924233706 24.2106330428 23.5227523469 20.8503553561 20.8083920073 20.4108048028 20.0908365552 19.9308527781 17.4335407803 17.489594689 18.2114027155 18.3492904913 18.4121675519 18.1556442778 17.9978107264 17.7411435495 14.1513445055 13.9711104167 16.4134876674 15.8810647913 13.4338345782 13.2254685397 13.0731175947 12.9876020763 12.9578472624 12.9574695752 13.139769806 13.185650661 13.2469536805 12.9561790571 12.9380891736 13.2083623858 13.0997261698 12.7998805864 12.6913816613 12.6054068564 12.5475743696 12.4995644213 12.4260549875 12.3520641915 12.3022829472 12.2975107022 12.3334818145 12.3897349907 12.4431486324 12.6463159713 13.7314438736 13.8517495662 13.9337513623 13.9794266971 12.3729044158 13.8587428375 13.7817333474 13.6308739797 13.3783091135 12.9905162115 13.4937044298 12.3025767395 11.2724062554 10.0638416459 8.86203049646 7.88924379502 7.38101587969 7.47446040601 7.78774397333 8.58896658949 9.50602229024 10.3928345424 11.1533362294 11.7368617431 13.2727532277 13.5006134157 12.230171387 12.2239348048 12.061137887 11.8730707954 11.6982282034 11.4523834895 11.3550216197 11.2759304831 11.1782018873 11.0023005995 10.7160166643 10.2822022298 9.68344466104 8.47157328201 7.76445284636 7.03976434381 6.54332520828 6.04710444724 6.02055046829 6.2947752242 6.80487739553 7.47418352277 8.09856297066 8.63264343139 9.04406800119 9.33076024299 9.50633994959 9.59051995063 9.60390285815 9.5653084675 9.49016220064 8.72562176988 8.66324292647 8.57744282471 8.45885622271 8.57897748644 8.31552542405 7.95734596894 7.4991716291 6.97266834499 6.46725245074 6.11777455749 6.0358900367 6.23576596921 6.6371111447 7.13215766009 7.63898446243 8.11322953852
15.4013365275 13.6415304814 11.8598973267 10.1607710856 8.70782774713 7.71464202053 7.27117748443 7.67177730063 8.68927159099 10.1060651645 11.646829327 13.0911070853 14.32329858 15.3185711077 14.9668884305 15.5372294021 15.9984797865 16.6731918904 16.9793768249 17.184258015 17.9562605684 20.5986173589 20.2757011911 18.039030476 18.8676607794 17.7011927521 16.2674943371 11.6806554863 13.5636953273 12.538734314 12.2920685505 12.9663659456 14.4460572587 16.4253421772 18.5668203396 20.6190602129 22.444886764 23.9964482279 25.2806983233 26.3454064567 27.4997229924 28.3916532239 33.9856531046 34.6869534531 50.2969120918 51.035008438 69.1537884214 89.7513478424 88.532889666 85.6695427159 66.8680315912 61.466246491 54.5450816138 46.2946072358 37.4571850509 29.3225290489 23.593260451 21.8416151538 23.7270037229 30.3715943921 39.593687971 49.4587896272 58.7796955933 100.098528356 110.890643476 119.230349685 125.371338445 129.735581814 132.796154794 133.997689419 135.19417242 139.404937094 139.279144923 96.3453890685 95.7532976431 94.0543401584 91.0632179246 86.7208364978 81.1448653136 74.669429087 32.5197172024 30.2393671618 28.4575800269 27.2248046873 27.1041421563 29.3947832348 30.3224611923 31.2681989506 50.4422328697 52.4164263013 54.789388307 32.8706435413 33.592658997 34.0371051803 34.0933642927 33.7008415844 33.1874141165 29.1105269484 27.8571086549 26.4834593817 25.170761559 24.1246697788 23.4995061879 23.3018195982 21.8500253973 21.8348739411 21.8148007241 21.82050509 21.8790663318 21.9260587379 19.7526666063 19.7894464376 19.7658543404 19.4316821512 19.2198257768 18.9223525531 18.5156561499 18.0289015159 17.4874050349 16.9018734239 14.2297839764 13.9481728381 13.6819335126 13.4483384066 13.2657360113 13.2534469141 13.2262085313 13.3124427391 13.4560813815 13.5862228848 13.6120138835 13.5715279164 13.4495295059 13.1185258444 12.9605676999 12.8246980494 12.7397885874 12.7101984913 12.7077024581 12.7225427753 12.7510000587 12.7978562365 12.8589587653 12.9216691934 13.6197986683 14.1835311367 14.3478606613 14.4746928359 14.5634264303 14.6138959805 16.223728904 16.2034182796 14.4146345919 14.2630709061 15.3629869691 14.8994381283 14.2704769852 14.2339122905 13.1525325984 11.157984826 10.098939556 9.23347781699 8.76225508279 8.83568193994 9.34889185346 9.52824254135 10.3408632358 11.1456261573 12.9508457003 13.6136100253 14.0760623112 14.3435595104 14.5266046601 13.0675411665 12.9603816679 12.8141710062 12.6578277955 13.5973145185 13.4721974417 12.0992827004 11.9147798066 12.9364957981 11.2687085676 10.7622569075 10.1124058633 8.82671866421 8.11190923624 7.38985778899 6.98912321589 6.44681158482 6.37157607988 6.60764280107 7.11343100941 7.78204128259 8.39406188512 8.91709737069 9.32165579509 9.6069860986 9.78656322602 9.87886577281 9.90253612025 9.87401965062 9.80630744615 9.01071901694 8.95000186833 8.86102931269 9.05952637427 8.86429553541 8.59972640923 8.24997351349 7.81153356864 7.31290461037 6.83452720382 6.49995501662 6.41425333985 6.59338951732 6.96401293564 7.42528202419 7.89975260149 8.34514198383
16.3411918837 14.6852227334 13.0247100331 11.4597325058 10.141496013 9.26012520998 8.99451531499 9.05800034403 9.99682297265 11.2951359974 12.7173464206 14.0735693806 15.2593983175 16.2447904237 17.0430515448 16.3883457852 16.8668284568 17.5755375524 17.8847418922 18.0882029624 18.9119459069 21.749914331 21.4815237236 20.9598235874 24.3079292636 19.4054213861 18.3049712494 17.1388709853 16.488715589 15.7961542719 15.7045731933 16.3085964896 17.5260536378 19.1453259221 20.9302967572 22.6989193739 24.3433494485 25.8145405252 31.9358733569 33.2369146632 29.1152369869 33.3287149593 36.4522901195 37.192367403 53.9642951295 54.6744760479 95.518104098 95.6117094761 94.4586895041 91.8309355778 94.6357171402 88.2406543349 80.0971727097 54.772943367 47.4997653516 40.9307086416 36.4187761078 35.1915785545 35.971126591 41.7435008 49.7894617534 58.4702375031 66.8956895299 111.071623989 121.71205922 130.403937965 137.229462072 142.421234007 146.272266436 148.254638708 150.493302991 153.931427561 153.470020442 151.991686822 105.323022796 103.479755637 100.491343015 96.3576274971 91.2166539295 85.3648927777 79.2491891332 35.6247596955 67.5287642762 63.5024694439 33.7238140086 33.2285095467 32.8466345824 49.3624094844 49.2696957615 50.4434810641 52.9787533457 56.4007421777 34.3225614299 35.0828203961 35.3424494563 35.3586211899 34.3298215535 32.7122121058 28.3935387259 26.5472015378 24.7410077849 23.3158357626 22.5922746387 22.6678007032 22.1601143289 22.6266914186 23.0268546981 23.3217024486 29.4799560653 24.2996948349 21.2391526267 21.2188405641 21.1328843926 20.7354089853 20.4715535736 20.1323929343 19.6864345899 19.1650758568 18.5799382046 17.9265814296 15.0221053121 14.6223624558 14.1838426745 13.7376241604 13.3465335636 13.1365080908 13.0858796678 13.2716937195 13.5622543564 13.8197999568 13.9297262184 13.9175985547 13.776469167 13.3882888981 13.1400100068 12.8985641986 12.7305803031 12.6872174833 12.7614759265 12.9015749305 13.0563260965 13.2001080755 13.3223278533 13.4166219164 14.1773419196 14.7730845301 14.943734263 15.0756640316 15.1691253699 16.8621661949 16.910740656 16.8902782019 16.7921520775 16.3893626686 16.0821955444 15.6653550051 15.9896217202 15.2664927989 14.3945257137 13.4134701159 11.6397690157 10.928748281 10.5177350505 10.5725934695 10.9586746674 10.7369966053 11.4080324095 13.223461804 13.9591894614 14.5600447549 15.0004326398 47.4120438872 48.6097203661 15.4866127654 13.8804768165 13.7605595391 14.8170082929 14.6746981569 14.5119081647 14.3146100148 14.1264053423 13.759451103 12.0474186151 11.4984656471 10.6990363613 9.36313785436 8.6903140211 8.5381585274 7.85120923091 7.23182308906 7.20511527648 7.22152530799 7.73264706755 8.2925581409 8.83885837911 9.3071439091 9.67123154202 9.92984456189 10.094067475 10.1793619637 10.201340038 10.1737000373 10.1072023274 9.28664827852 10.0791322102 9.49454020521 9.3567006136 9.17347591518 8.93340840489 8.62604442799 8.25032671093 7.82973182693 7.42776861651 7.14170868279 7.05627655318 7.18897152819 7.48644907738 7.86946909335 8.2734594154 8.66051016409
17.5355276832 16.0395063034 14.564702883 13.2024165287 12.0821867099 11.3574105573 11.1628152223 11.5518814492 11.7356915172 12.8462320691 14.0709735218 15.2597070182 16.3260744536 17.2396933042 18.0034339029 18.6328215188 17.712422546 18.4499799088 18.7684950854 18.9841573023 19.8771852653 22.9300533562 22.7436537022 22.3477202225 26.2254310916 25.3328871893 20.4515581416 19.6673481923 19.4811857488 19.0941478577 19.1407363949 19.6738141582 20.6401518988 21.9120109654 23.3466857272 24.8289555087 26.2811907395 32.5317808077 34.0424970098 35.3836148988 36.5453079654 37.852635521 38.8237144967 39.6137450042 57.5040859462 100.032586433 101.242877764 101.483230912 100.579302363 98.3794128212 118.950143469 97.0895571156 90.5458372976 83.1350967206 58.8570597871 54.0603031679 50.9268378902 50.3112699826 49.906806986 54.9488156762 61.4609989822 68.7944083321 96.9362285979 105.371439032 133.396250982 142.152440196 149.377269159 155.13735697 159.572913109 162.83648675 164.560494174 168.164398785 167.513732488 165.737114527 115.227116976 113.360227919 110.438477027 106.489972119 101.641369525 96.1210179254 90.2342855026 84.3000207193 77.6989997308 72.1088471346 66.831905308 35.5682940795 33.6642711996 46.2885159814 44.4224508558 45.2227698119 48.6719448053 53.7558740237 59.0713461231 63.3907486283 65.7566712642 65.7782689261 35.5802066146 56.0232914027 33.5842536056 26.5900643893 24.1734278934 22.2267907134 21.2842667365 21.5824747334 22.0197880054 23.0349536303 23.9268328454 30.0889974022 31.2951344619 32.1050554213 30.0532864248 30.3244471826 22.4960703788 22.0490262809 21.7369791637 21.358771572 20.8782271201 20.3307358573 19.7134475499 19.0060210127 18.1818322306 15.358710888 14.734252138 14.062620148 13.5454302618 13.093402824 13.0235407762 13.2996147051 13.7212373089 14.0924617832 14.2764315417 14.2893857259 14.1293590714 13.6781115874 13.3400215227 12.9928817027 12.7382387602 12.6860450505 12.9522941465 13.0605296706 13.3386782352 13.5814655183 13.7684822647 14.818369453 15.0120460478 15.3375967818 15.5121473412 17.199402351 17.3806926989 17.5028219561 17.5576415823 17.5378990683 17.4385011823 17.0555028745 16.7710203372 17.3015855907 16.835660302 16.2838204894 15.6445112761 14.9380509772 14.2290455126 12.7314976669 12.3995582939 12.4538694047 12.7284554193 13.2130593514 13.8389278638 14.4985536232 15.1151258964 15.6365889622 49.6041208983 51.5473578699 52.8671298607 16.534909735 52.2672647014 51.7174533826 51.0493989749 15.7519104221 15.5579155638 15.3145109692 15.0670805921 14.6480528888 14.1241404397 12.2147053507 11.5667403859 10.8491585698 9.94165212566 9.5944192947 9.01850212475 8.67535520794 8.27616038703 8.54914886151 8.50466248567 8.95603490776 9.39806664558 9.77923687833 10.0771981062 10.2891196125 10.4223311104 10.4881684955 10.4985450495 10.4641696546 10.6070432744 10.4964633324 10.3595121212 9.77697024507 9.65129609448 9.49089603859 9.29018579032 9.04416634952 8.75371857123 8.43559826549 8.13287067235 7.91140074285 7.83091264482 7.90943453847 8.11722941607 8.40218167194 8.71686538173 9.64122911605
18.9065626333 17.5987012526 16.3379100783 15.202812659 14.2962953623 13.7307737615 13.5956716376 13.9161779579 14.6296499991 14.563423042 15.552662487 16.5324775723 17.4384627397 18.2442561045 18.9456865757 19.5466803601 18.5222603238 19.2870666933 19.6217065509 20.7127433252 20.8343299549 20.8312134727 24.0147599985 23.7491434599 28.115011165 27.5185003563 26.8162507059 26.1166071096 25.4160581798 22.057615591 22.1894271102 22.6439246562 23.3933532333 24.3767571202 25.5264630228 26.7818061618 32.9100208372 34.4996607737 36.0205355431 37.4211035806 38.6646972647 43.405721625 41.1036974727 41.9562776238 66.8429308062 105.305284429 106.732921328 107.235684197 106.689279326 132.075505069 128.066066725 122.705160986 100.959415726 95.4225120175 90.0137231001 85.5283577349 64.9642374554 64.9342184257 67.0061443807 86.5141913454 73.1781930927 100.982601975 108.903255053 116.423248714 145.37421792 154.135674373 161.644598248 167.836976082 172.734359528 270.951097495 182.500509056 182.175481858 181.436388915 179.489450005 176.285477179 123.598102668 120.763233112 116.942531572 112.230283196 106.772869007 100.734856498 94.2379646449 86.4713706483 105.44883344 72.3165765683 36.6552066338 32.9596002813 40.0404241436 36.3021649154 37.1332561552 42.3008050379 49.9294327593 57.7663452358 64.1045992301 67.8521292301 68.6016477526 66.2912523325 58.5511354453 34.6683014653 30.5902034347 26.1923326665 22.4482143062 20.5474907335 20.9835012676 22.676299853 24.7468727643 29.440055376 31.5757442537 33.0306178823 33.9526496106 31.8358660825 32.0999861585 32.1379516592 31.5487969606 31.1633598653 30.4347763827 29.5416215098 21.5245378781 20.9048628787 20.185968841 19.3228160899 16.2885039076 15.5161182687 14.6673916767 14.037303567 13.4859217029 13.3778022779 13.6584643699 14.1067759456 14.5091172927 14.7162010826 14.7346362562 14.5604901626 14.0622561809 13.6769494336 13.2796315488 13.2113935296 13.0830966208 13.3639662428 13.9203198496 13.7166966611 14.0162492064 14.2390395741 15.3561124801 15.544192209 15.8652802286 17.5019485509 17.7545007806 17.957735074 18.0975223861 18.160790189 18.1388139019 18.029512625 17.7848356483 18.2614649746 17.9117105532 17.5335512952 17.1361555202 16.7180917036 16.2800242063 15.8461359133 14.4254152426 14.1964961646 14.2850169155 14.4947933735 14.9815756114 15.4692553228 15.9984815183 16.3745883321 51.5515831873 54.0028810749 55.9335964617 57.3122094921 58.1530453023 56.8053055554 56.3318300285 55.6295551194 16.8429177786 16.6233057948 16.425184464 16.0520709934 15.600414553 15.0610505187 14.4321063911 12.4099861898 11.7607531904 11.376890437 10.7963149659 10.3313862134 10.052099438 10.364335613 10.5533990219 9.37221986423 9.69774810509 10.0183948249 10.2967786845 10.5148971197 10.6683443312 10.7604619289 10.7982470128 10.7898194874 10.7429140086 10.8706422036 10.7550432916 10.6162730483 10.0426362791 9.92978318843 9.79355575757 9.63386420733 9.45047503278 9.24513249415 9.02705756788 8.81997970271 8.66220586697 8.5919803538 8.62668091541 8.75539026696 9.3033043421 9.77459293753 10.0838940876
20.3655895113 19.2447866262 18.1897974408 17.2642485895 16.5440363237 16.1041622881 15.9962806949 16.2250022456 16.7387012156 17.4456868807 18.247614096 17.7492579961 18.4860035157 19.1761215831 19.8109579563 20.3840942044 20.8873812238 20.0692996326 20.4295988233 21.5981035209 21.7627924826 21.8147733206 25.2495712882 25.1036714509 24.8243900027 29.5013143457 29.0375761734 28.5652140534 28.047791099 27.8083601687 24.5673982602 24.9125545953 25.4739983947 26.2446775114 31.5553925334 32.9627306852 34.5308898499 36.1684946414 37.7843911064 39.3009768292 44.1233107094 45.5441264835 70.7931030414 69.018324567 70.2347144503 110.16643142 111.882500433 112.715157341 112.56786941 139.930623854 136.676228947 132.283787444 110.335840762 106.130449579 102.191696454 99.1304945299 97.5390735631 97.8693302577 100.102464433 100.391833317 106.262998484 112.980759259 120.123545278 127.127272369 157.050361068 165.973073745 173.812403837 180.417911759 284.945936347 289.919372264 292.789698244 296.284699731 195.224136202 193.188277738 189.866066833 185.25729844 131.364700203 127.61607198 122.920757373 117.348664905 110.945866824 103.677629812 125.844423845 112.759451196 97.0646404917 61.8259095488 42.936989259 32.9307201136 27.2586390806 28.3774170582 35.7537468306 46.3873864129 57.0320755288 70.3490314209 76.42341307 78.5959946486 70.4135589145 62.5671418662 36.720165291 32.4339419045 27.8099158445 23.8812661546 21.9132870693 22.6659954532 23.6539781556 25.8952612686 31.1248769419 33.3343055308 34.7848108906 35.6691161929 33.4743139971 33.7224421291 33.7436692596 33.300401855 32.7110976544 31.9212474253 30.9625908287 28.3679830057 22.14791525 21.4796524692 20.6615245468 17.9551522728 17.0732412531 15.7148068834 15.0804657765 14.465752915 14.275746349 14.4515315969 17.4927901222 18.4696135242 19.1120686835 15.2935037589 15.1099100599 15.4419768901 15.0408166382 14.4820478882 14.0684438706 13.9609010763 14.2055629359 14.6917652414 15.2383146058 15.7123560414 15.6432489267 15.8673542388 16.808676758 17.0205658518 17.9418671156 18.2315944436 18.474386537 18.6440789006 18.71964278 18.6889749588 18.5517444181 18.2702594734 18.6782246654 18.309951672 17.9656555403 17.6762666597 17.4462961672 17.2592119355 17.1004388561 16.9802544955 15.8609978152 15.9404377425 16.1503190405 16.5822213655 16.9800735086 17.4121061877 53.4898011618 56.2338708622 58.6049077979 60.5143225391 61.9177701825 62.8077972046 62.988506047 62.6925042399 62.0135428526 60.8878923789 59.2570363804 57.2694641482 17.0813027059 16.6079590502 16.061783559 15.4484311396 13.3140598978 14.0191577007 12.5018779437 12.0165821652 11.6333829335 11.3926802962 11.7618113803 11.8447778346 11.3185280433 10.4411179496 10.6432163856 10.8195144942 10.9563727394 11.0483289103 11.0953585451 11.1007033576 11.0691797343 11.2123293877 11.1122525254 10.9887457026 10.8450619022 10.2835111618 10.1778859445 10.0579436654 9.92855923957 9.79393036888 9.65662032961 9.51941963522 9.39080001462 9.28882688466 9.23613096777 9.24789153458 9.6863475577 9.84271458848 10.2630156756 10.5025931091
21.8291723106 20.8705971892 19.9853515386 19.2215576313 18.6311645793 18.2596009626 18.1318966897 18.2414266696 18.549667872 19.0001669666 19.5390352387 20.1286657273 19.3489666108 19.941871405 20.5300259622 21.0960989294 21.6190002574 20.7751849084 21.174873619 22.4269545634 22.6421506845 22.7511999978 26.4102736818 26.3652708018 26.1961111141 31.2045124598 30.8571184731 30.4494902125 30.0475841135 30.2523860338 30.0533946781 26.2816789589 26.6612985316 31.2220687312 32.3622108208 33.8576692058 35.5976607136 37.4483682722 39.282403949 40.9974803305 45.9744369021 71.2101285536 73.5918684848 75.4987602386 73.3859305689 114.516041417 116.564818097 117.763894268 118.014823818 147.081317811 144.324910809 140.433451626 135.744313537 114.248297504 110.836966688 108.262689558 107.062825764 107.647379122 109.969005529 110.000040326 122.39294487 122.561532026 129.75700825 136.883698711 167.930088193 177.336006244 285.098685228 295.080212049 302.776389935 308.181876688 424.666068717 314.844123826 323.363589142 320.45010028 203.353520303 198.645715084 142.17279463 138.461608915 133.72060566 127.96568356 121.166512961 113.19271994 176.87032293 156.425130844 104.363314603 81.8141363739 41.7289925851 29.0006802241 21.7449897691 23.1792751902 32.4551853887 45.5515471962 80.9572667553 73.4562179012 80.8059520417 83.855230398 82.7230805453 74.9375367939 67.0806649172 35.8841359471 31.5852445019 27.9955794561 26.20297407 26.809613997 29.4107186678 30.9772256101 33.5360368606 35.3450970319 36.4621763905 37.123306091 38.2756999614 38.4867182102 41.6522015268 47.0447081509 40.0560421498 39.2934887748 38.1817326669 29.5722843571 28.7817794521 27.9271715761 26.9733492601 19.5379012544 18.6727713334 17.5637574418 16.6145009115 15.9274116685 18.6381490953 18.8834635102 19.4971100247 20.143685481 20.560412188 20.6047698587 17.0366755189 16.3089476288 16.0052618585 15.5557105014 15.2323839074 15.1453657477 15.3166733941 15.6575366628 16.0270218809 16.3229321028 16.485522549 16.6059423557 17.0819345425 17.8808160149 18.2474222155 18.6124342722 18.9265412611 19.1466054289 19.2412447141 19.1932775986 19.8498420764 19.3565236994 18.8979656958 18.4286765683 18.0343897809 17.7842792895 17.7017623049 17.7567352098 17.8920225975 18.0638573218 17.7758835832 17.3667316892 17.7591183015 18.0854356618 18.4523010424 55.3323986974 58.2916420031 60.9941526744 63.3353012416 65.2376686006 66.6542559955 67.565798348 67.7286150237 67.3874108653 66.6216054722 65.3627639988 63.5615341039 61.3793347822 18.2254127944 17.7366054086 17.1046563356 16.496786233 15.8549375667 15.1216877829 14.5104861722 13.1489867155 12.7993635641 13.0614720904 12.9297669763 12.9146645393 12.207473268 11.1218620956 11.2231295081 11.3110870262 11.3756152351 11.4107050684 11.4140429181 11.3862965784 11.5331486503 11.4423006878 11.3288866434 11.1952250737 10.5854941032 10.4939718665 10.385258156 10.266303381 10.1466748345 10.0361358894 9.94064763596 9.86026922984 9.79303018517 9.74221566017 10.0511380686 10.0882569104 10.1688841536 10.5062720484 10.679350221 10.8712816208
23.230863279 22.3951984292 21.6281998548 20.9632394313 20.4326613006 20.0607322276 19.8564577911 19.8105324532 19.9002621766 20.1014484491 20.3996713741 20.7922415252 21.2793535079 20.9605640088 21.5966029234 22.2551628985 22.8964414873 23.482813417 23.9845351161 23.1833814005 23.4545784488 23.619481691 27.468295053 27.5040206024 27.4098708845 32.6074798564 32.2665227882 31.7716888027 31.1631530758 30.9972827014 30.3708825351 30.0063882471 30.1127665097 30.784311919 32.0922923469 33.9191652218 36.0671482182 38.32623459 40.5198884149 42.5230980871 70.3778243744 73.5069619506 76.0710773037 78.1106884271 105.847822578 124.595989737 120.632989788 122.231289116 154.401911679 153.322182569 150.765569472 146.823283067 141.786816259 119.197756881 115.164653602 111.923061774 126.667895956 126.490990541 113.332715466 118.411123513 127.547022615 129.001048999 137.278529007 145.32929406 208.676471504 219.594631195 300.676686521 311.484270522 319.804974657 325.658040896 447.291220552 332.586697938 341.562300102 338.618678214 275.979011256 271.493753498 265.207328569 208.151534648 201.804875182 138.721126633 131.627474877 208.121138129 190.320004509 168.979495037 113.80103635 90.1292496113 62.9886981039 32.5517916474 26.9641769322 29.3368091007 45.0484846808 66.6516692827 88.0624803981 79.3031954907 87.1989339335 90.7919227044 90.2853870975 83.0832993367 76.2379643591 67.6017754926 58.6768006411 34.1120040819 32.5806369647 32.8717661426 34.613450525 36.7340511072 36.2906127317 37.2384300081 37.7039316198 38.6126385499 38.9217519228 39.2416974419 45.5469033472 48.2227417564 48.1293741623 40.4818674294 39.1643856341 37.5315197919 29.6960174905 28.9006075567 28.1616515525 25.7713218275 25.0062878134 19.4376774898 22.820908612 21.9637229062 21.5216191105 21.5121894283 21.7824275307 22.1073181632 22.2885998332 22.204641932 23.224513211 22.1275157179 17.1393670869 16.7880366835 16.5304583816 16.4305348513 16.486536019 16.6232834434 16.7377237506 16.7725449411 16.72352471 16.7204432248 18.0046704199 18.4399759614 18.9919440882 19.5502192818 20.0183996839 20.3270888585 20.432557288 19.6708911088 20.2013157365 19.6922606955 18.9219134024 18.2498687913 17.7014198227 17.4100350829 17.4387599878 17.7463378502 18.2195797489 18.7450308308 18.7618419153 18.5765674207 19.0959206814 19.4933647179 56.653566095 59.9584403819 63.0229568246 65.7748373965 68.1415339783 70.0622867942 71.4943559908 72.4141192479 72.5346277952 74.099079186 73.1130532753 69.8400031041 67.8609243562 65.477843951 62.7206103139 18.81921123 18.2487123271 17.6291091521 16.8051578705 16.1478049557 15.5243337068 14.6846796775 14.2824387667 13.9688462893 13.7641094192 13.6619842766 12.8731925839 12.930128659 11.7199922592 11.7430768533 11.7520575729 11.7406366749 13.0721012737 13.0037275793 11.7539668826 11.6446235158 11.517600531 11.3732627215 10.776067113 10.6734714221 10.5494739843 10.4118179071 10.2745164905 10.1559642403 10.0720711912 10.0273113082 10.0131801097 10.3016503785 10.357893283 10.430899042 10.7249271415 10.8606044732 11.0127481141 11.1776440792
24.5266333072 23.7697255708 23.0659966368 22.4351877714 21.8937902663 21.4512714026 21.1081436618 20.8587355094 20.6997722181 20.6409837175 20.7090539786 20.937801418 21.3477299357 21.0714326873 21.7704740758 22.5277541419 23.2788611504 23.968334876 24.5574467191 25.0255051208 24.1859344449 24.4025625676 28.4019778089 28.5025833494 28.4587763765 33.7363824927 33.3273789546 32.6313840789 31.656165078 30.8994631332 29.6314344151 28.6833550589 28.4447060916 29.1457478937 30.8236095654 33.2364266038 36.0352087148 38.894665474 41.5764851324 64.9799006835 72.1605944676 75.5174846752 78.1987366123 80.313079362 108.425929982 127.234342551 155.644613238 158.405168326 159.348111532 158.60245092 156.004543942 151.487487229 145.230597582 137.73522954 114.954710841 125.833207116 121.035015349 120.124150752 123.750854434 118.198673687 127.701075843 138.62441595 142.587753007 203.653356887 217.802288468 230.108908094 315.170016028 326.93807715 335.924691948 463.21810115 468.314646672 469.987026156 358.76717647 355.809869441 290.220322818 285.763442692 279.451672558 271.252399943 214.8432419 206.649616304 237.947375122 222.319826001 204.775849019 184.353912096 160.266955745 106.229152623 81.1906270999 73.5506592592 48.2688288569 49.8396797136 63.2618588315 82.2871628396 101.654303438 88.3358688562 95.8972033716 99.5624344585 99.5009255452 92.8826004867 87.1427600725 79.9271532641 72.5093607864 66.3027881647 39.7929644158 39.5613394337 40.1447822806 40.7184851101 40.7949050133 38.3744232505 38.4122449508 38.2668995838 38.6339680484 44.6003918126 47.8919798538 49.0678521481 49.2575787282 48.2844606686 39.8689047447 37.7515416161 35.5347710706 29.698278365 29.0696348718 28.7189973987 26.739029745 26.2258846942 25.3070926063 24.6896648217 24.2871956322 24.1411781677 24.1758476938 24.2525115413 25.7088940778 25.5712288647 25.1836484459 24.2984143136 23.5559938539 18.0994386222 17.8590363442 17.6940102343 17.5817390361 17.45376627 17.2395645783 16.9378842222 17.1937481598 17.1882742216 17.4553276495 18.081738007 18.8873310689 19.6862192056 20.3419999687 20.7696695256 20.9203879426 29.4631152557 20.546658493 27.3024357737 24.8606198153 17.8533889517 17.0511407421 16.6432801471 16.7574090971 17.341407588 18.2055310228 19.1454227386 20.7045211442 21.6188938293 20.3331370775 56.8375309942 60.807750339 64.4231834973 67.6812601366 70.551924196 72.992078216 74.9582012713 76.4147529223 77.3381293394 79.3334118709 78.7633246604 77.6616964594 76.0535345718 72.3189874397 69.7184028876 66.7224149623 19.9308632022 19.3279314044 18.6692338262 18.0892017104 17.073409813 16.3694345174 15.441769405 15.9822328341 15.4951001464 14.2008778364 14.020307356 14.1353511772 13.3361440737 12.1070904081 12.0965532914 13.3719368365 13.3759690604 13.3266229255 13.2262351101 13.0839200433 11.8141456851 11.6748172323 11.5221402001 11.0027128509 10.8278421275 10.6789306284 10.5034272278 10.3184964862 10.1553456971 10.0510751919 10.1799596133 10.2549508034 10.3834151012 10.5208038252 10.824487723 10.9739101369 11.1190322853 11.2662802025 11.4191638116
25.6945794372 24.975493264 24.2860698898 23.6331996266 23.019560481 22.442824717 21.8982151613 21.3866078656 20.9277023773 20.5716545716 20.3966716132 20.4836330573 20.8764606538 21.5540759511 21.6209481307 22.5614479367 23.4892189449 24.3261833121 25.0256746909 25.5703814369 25.9644523608 25.0844508192 29.1898714945 29.3474716231 29.3474139397 29.1655410717 34.1538712409 33.2132317206 33.088004087 30.3010651042 28.2291196243 26.5552047545 25.9142626108 26.7110031639 28.9284046327 32.1369611401 35.7754312641 39.3693960326 61.2136554608 66.4264983504 73.8001050939 77.2445009383 79.9010191116 81.9774901036 110.074162861 112.619776384 157.778852458 161.313116044 163.478469002 163.020063381 160.309716617 154.857087882 146.641208149 136.109788903 127.133946282 115.649304265 107.573781141 105.33218538 110.121026371 122.740973692 123.360993556 207.541802801 270.253561321 209.239916513 225.89409139 239.864116721 328.656666058 341.384542621 351.000557845 481.964569646 487.464552556 489.352931422 487.710018454 371.786772533 366.287746286 299.049173932 292.718530167 284.421777631 271.880420551 263.028114953 250.701838922 236.289050394 218.870384963 202.958343454 182.450356654 159.898075258 136.041788669 113.320066623 100.996393724 101.917483749 90.8078438869 105.232262022 120.674933808 100.308906025 106.833101556 110.12635447 110.238536125 107.531975137 99.2026351521 93.0913764437 86.6888690054 80.9486275694 76.4776168305 73.1614086302 45.1707374503 48.6442607547 46.3069789191 41.9113814585 36.9086808771 36.3999885484 40.8694089099 43.2061739443 47.5677601996 49.708654912 50.3777477914 49.3354500306 46.673524473 37.6007096049 34.5516108116 31.7054485118 28.5291801228 28.5056928763 27.5756677671 27.634738378 27.2839417775 27.0295195072 26.8016179588 26.659156524 26.5832668922 28.0271223507 27.9537677619 27.7183877115 27.2959223407 26.4067308391 25.6887730414 24.9200506953 24.1416306653 18.9188419474 18.5925013658 18.1500441669 18.3094369147 17.3675149088 16.5635668406 16.324994612 16.6997857246 17.6116325381 18.7498010547 19.8410769776 20.7134333148 21.274835413 21.4780487355 30.3152777092 29.7350448925 27.4050935277 24.2926613508 20.8954324892 18.0107076564 15.7882031074 15.9689604485 16.8369742186 18.1128195754 19.9665731141 21.4019180101 22.638887251 55.3680028187 60.3947462127 64.8453106391 68.7984882941 72.290385925 75.3212091252 77.869080061 79.9034538066 81.3950700105 84.2240879049 84.0900156041 83.4253506511 82.1947513893 80.4236570592 76.465957853 73.6247538564 70.3625934279 66.7166757686 20.5356433403 19.8079599211 19.0157990808 17.9075831976 16.7013170232 17.0699641247 16.2515871463 15.5411441261 15.0099292637 14.7224272323 14.0582452462 14.2208397769 13.6517333174 13.7713305548 13.5987918209 13.6044221039 13.535269963 13.401681524 13.2224353286 11.9438713018 11.7943007191 11.2503145354 11.1532071635 10.9679622141 10.7932977344 10.5698560733 10.3146018559 10.0742163533 9.99148106951 9.97406212558 10.1347683831 10.3741054657 10.6036946222 10.9626742185 11.1438137367 11.2998369847 11.4475560239 11.5972452132
26.7305723534 26.0172445844 25.3058331346 24.5906348786 23.8606625407 23.1013051268 22.3010244963 21.4656404646 20.6392672866 19.9218769015 19.4626462622 19.4119302538 19.847270889 20.7251612185 23.8513491018 22.3809734673 23.5571796234 24.5823534742 25.4051014691 26.0191698668 26.4480076282 31.5184460831 31.830740001 30.0150123093 30.0754452295 29.9299637705 34.8822811568 35.3619043163 33.1669579099 30.2964014496 26.8491105125 24.4310122564 23.3904623554 24.3206072202 27.1460020836 31.2202090197 47.4219588417 55.4603775896 62.4333173246 68.0539577543 75.3686968721 78.6350109752 81.02467959 82.8821593998 110.424034363 113.209084511 158.146324868 162.81106199 166.118483565 166.780890491 164.175543174 157.748260173 147.182968717 135.681097273 118.191073761 101.118505928 88.4820651771 84.3311050185 90.6964247334 143.055755119 179.362126041 201.21367965 269.626111225 305.043144565 334.783695189 249.21212462 341.237473432 354.707950648 488.700689165 498.461586039 504.3681211 506.480537121 504.842177067 386.242429081 380.588354781 311.079296714 304.753915035 296.391794921 283.742629045 274.55392931 261.885882759 247.128318177 232.510030497 215.412591814 198.834092222 183.062276296 168.240202922 153.431825449 145.958517996 146.569473005 155.242798513 131.605390543 142.893910773 152.612519942 119.61039981 122.24424224 122.26550221 119.914473574 111.981811543 106.515432931 100.552917219 94.6679817781 94.9008767383 89.0434052446 82.3914506313 73.6636889358 45.945892535 39.6597181438 35.8588365085 34.9683104296 37.1001713527 41.1024959848 47.0064325466 50.4522534597 51.7809335328 50.7306298036 47.4326966606 42.3920254507 36.6424758457 31.5783693261 28.2084621633 28.6517850662 30.8268531763 31.9099162565 33.3633339752 34.3793063439 29.0873809861 29.0622842029 30.4983356776 30.4500130281 30.28404621 29.9728891404 29.5075516663 28.5887921835 27.847793879 27.0203136154 26.1030133303 25.0465931924 20.7609752098 19.8280173267 18.5955750057 17.4250280742 16.1385784375 15.6575675198 16.1617703603 17.3581555674 18.8098893775 20.1671629758 21.2322080647 21.9121974599 31.7715019976 31.529212169 30.7744140971 28.1181739516 24.5318921211 20.5702860653 17.1661661252 15.406841492 15.9608536894 18.6042247042 22.4261809624 26.4600001548 22.3004962501 63.369314262 71.3171337649 64.0571953095 68.894025165 73.1480681883 76.8729897095 80.0810195755 82.7580777607 123.239709335 88.252500082 127.47284518 88.8430811864 88.0752339049 86.703644861 84.7556493359 80.5757216446 77.47721905 73.9303825147 69.9668782686 65.6106278739 20.8438713808 19.9359545086 20.0202156079 19.4327782442 17.3664466909 16.2363309056 15.213695707 14.4321601356 14.0243162573 13.6091504726 13.9149094709 14.4511184194 13.8629446836 13.7670637278 13.7917007351 13.7043209798 13.5285975466 13.298616992 13.0506681563 11.8641296978 11.3737822589 11.2842554438 11.1040595444 10.9180830872 10.6572228705 10.5285690156 10.0998626278 9.81136045289 9.79798592222 10.0395822747 10.3785209917 10.8108336686 11.0714092639 11.2608719458 11.4143255929 11.5597277545 11.7116528318
41.1466645536 26.9138416665 26.1607923558 25.3642627908 24.4986014387 23.5339226321 22.4465313071 21.2406135389 19.981451763 18.8268077075 18.0216381756 17.8194001922 18.3500308719 19.5338102698 21.1200221337 24.9794219917 23.5527819059 24.7881726242 25.7240175962 26.375641602 26.798555709 31.7876175327 32.1159456706 32.3428088582 38.2736433105 38.2871529763 37.7250124918 36.1323004587 33.7158139528 30.3898211484 26.651918806 23.5554007535 22.102289474 23.1628000013 26.4916043634 38.6854558514 48.1447604045 56.9860504488 64.3791151843 70.0175062817 76.8566501023 79.5332186628 81.2942081056 82.6707414865 108.92252799 112.000044767 156.163451552 162.54142599 173.147858524 175.248688199 168.232697624 161.269518846 151.671199565 132.750450628 109.741290862 86.4413159535 68.5725863469 62.181738714 84.8757968889 118.819762997 163.980551817 211.316741496 288.922545119 311.605672799 344.171027975 369.61942946 352.838969835 401.42187104 501.86392004 512.132072581 518.525637758 520.921725991 519.247296294 513.618889306 392.874575063 321.467298309 315.195563245 424.351852218 403.532934448 384.963979901 271.069153052 333.923263681 238.409110301 220.604457062 205.588376597 194.87972829 187.890622206 184.129344395 183.479877074 184.463715051 191.693954455 201.740252512 212.197569171 181.178695588 186.607207501 188.844953282 135.270045111 132.996265631 125.188688559 150.814806409 143.855043676 142.745337562 133.832971707 123.503636972 110.545168975 76.071227958 45.8735913873 37.5759179393 31.8153891188 30.4744328546 34.5931957697 41.8791672994 49.2518096423 51.8321297858 53.8628392532 52.8871342837 49.1055462351 43.1170223965 36.1174036549 30.0260376194 26.762089376 27.7421397529 30.319124863 33.9658788303 36.8650613338 36.6126829059 38.8743082662 39.4753013808 32.9593935516 32.8860830524 32.6599706225 32.2861261445 31.7723039686 41.5278879983 30.0287145743 39.7346574477 38.2320579493 36.283658931 30.438194479 27.7870228983 24.2851519002 20.6705557062 16.3833367172 15.8387360988 16.3892923144 17.7264540637 19.3376154731 20.834887222 22.0055402539 22.7543970307 42.7831052741 42.0787256273 32.4643351024 29.7374106503 26.0445209206 21.9588273918 18.4409101986 16.6181522441 17.2012965421 19.9768566892 24.000857035 28.2467961669 32.6240808224 67.2859595536 75.4034558677 80.8978445135 73.0057898983 91.6895678884 118.207407485 122.928497364 126.726715723 129.576521111 133.065980545 133.625750686 133.214639741 92.6963863648 91.1723270136 89.0333385576 169.537586097 81.2646243391 77.4252680835 73.1441848173 68.4319084379 23.3404136952 22.0969126943 21.4622076389 19.9368520112 18.2894814196 16.1043028396 14.6990239617 13.6070146773 13.0546992123 12.9506534362 13.48058703 14.2597624588 14.9460291685 15.3923206944 13.9611964123 13.8467324725 13.6094532765 13.3029467775 12.9859491473 12.1506524866 11.4490521035 11.3832424367 11.2842841732 11.0702331771 11.1022827167 10.6691904954 10.2037074104 9.88086205721 9.86403059265 10.1327725656 10.6473034835 10.9392113236 11.172594633 11.3268173245 11.4554634227 11.5947848969 12.2358542703
42.2956168129 40.6735948212 33.3990076481 32.0245258708 25.028720185 23.8732134005 22.5091747933 20.929170855 19.2106327054 17.5699287159 16.3678120051 15.9954051707 16.6576702875 18.226390751 20.311738482 24.4591827193 26.9289841238 28.8957589924 26.0168602186 26.6368113472 26.9790071833 31.7290798484 32.0264485367 32.332018086 38.2372054239 38.6348927718 38.48305855 37.4248307924 35.0542454069 31.7482884766 28.1457985039 24.7453749583 23.2622848097 24.5200365966 32.3225621052 41.3190276004 51.0871269687 60.0477574216 67.2532563784 93.2567946439 97.6747772849 79.650847642 80.2870972376 102.647343699 104.811747113 108.300033165 151.077334186 165.463946295 173.222893057 177.960967583 177.76231416 169.686574779 155.569488303 133.837368165 106.393611043 77.8479005131 61.0108196556 48.1740705755 63.5521333775 104.151796827 157.989328203 213.003496611 295.444803941 407.537398007 452.606634687 379.628581074 398.616846004 410.441046629 511.179066553 522.11861351 529.302526546 532.177756705 530.41507257 524.151211795 402.49885918 459.044019154 446.766891101 431.993036578 411.74989517 392.848195829 367.894431709 335.617137467 302.022018258 266.7055597 239.015580527 189.087037818 188.921835096 195.177229969 204.075806334 233.73816852 246.706822818 237.041174695 246.326447532 253.444811286 205.516972809 206.517685674 204.708531286 186.531987242 211.665661785 205.311452544 196.145545991 158.024545445 147.896390907 135.584823301 119.908209299 99.742852001 60.0052567333 42.885998384 30.1627807013 28.5649519275 33.5939723118 42.296922693 50.9847999065 57.2148028992 59.9387502985 56.2282386711 52.2860865202 45.9872839276 38.4903850531 32.0550034002 28.5785221279 29.5420472939 33.9221595726 39.3952706517 44.0837377325 51.1016889905 54.0444805268 42.3175701722 42.5334384464 51.7868874412 51.7941655154 51.3702991272 61.7064682676 60.5670659656 43.9576736559 42.7390742936 41.1824494888 40.53890474 37.7832570755 34.198906058 27.4231904854 23.5991263055 20.5027498923 19.3301486604 20.4088636604 23.2883965534 20.5086082865 29.9801969624 32.4619469634 44.6746591521 45.7836707076 45.144455446 34.9031599228 32.3848198676 28.988510446 25.2673168544 22.0977133543 20.4782670708 26.5366771708 34.4316121593 27.3461223174 31.7849509537 64.0580041691 72.1537927358 79.8889238302 116.798982801 91.0631180856 96.1379090636 123.812726971 128.769456688 132.75329219 135.718575062 139.053199431 139.554221043 139.018515103 97.2635821217 95.5753944896 181.361162513 176.357052608 156.159408741 80.8283294696 76.2501162043 71.2318103249 24.5741162751 23.7992856851 22.3788895791 20.6045207027 18.6285079715 16.116596575 14.3179400453 12.9227000382 12.2053751595 12.3772420199 13.0685713049 14.088588501 14.9915961024 15.5567999549 15.7211534883 15.5226547305 15.0500029392 13.6153858167 12.9432256495 12.3129086255 12.1690530181 11.6563571244 11.6508516227 11.5686291759 12.0560782697 10.9843674714 10.5800714887 10.3784599828 10.3499020361 10.5989172827 10.9335466439 11.1837538886 11.6002090735 11.6170000351 11.7280485085 11.9077149586 12.1538336107
43.2584952425 41.589675384 39.8197287041 32.7028157625 31.0464633717 29.0772461947 22.6822108028 20.8001143713 18.6835276886 16.5971590361 15.0167530081 14.4817920445 15.2822208452 17.2375172159 19.8068190585 24.2738746251 27.0774262995 29.1711700295 30.5034408468 26.7830590307 26.9243303227 31.2003956568 31.3860048308 31.775285469 32.3402213321 38.610066534 39.1880555057 38.8741507214 37.2309824449 34.523597658 31.5378319473 28.5944383683 27.3910360157 33.1251006169 38.6706503429 47.20861274 56.4241490332 64.7137672776 71.0259561092 95.7450059824 97.8429890254 97.5100672696 96.1553415466 95.7723476104 97.2112300367 101.32582147 147.061378816 159.775764153 171.859647873 180.612737171 183.610578606 177.561066739 164.158333409 190.030010858 146.870592302 100.730490812 63.8394671737 49.9604461011 66.7770522878 120.896879349 188.300971108 226.886849318 310.867139572 422.297515857 463.155205809 493.054760736 516.355348834 534.15383248 514.949223143 527.219680054 535.968878175 539.793244911 537.875077005 530.391361643 581.346255435 461.029083721 448.966298493 477.74686844 460.763268494 437.836785128 405.8641214 337.494562791 291.398233053 243.641880335 205.008766769 187.460951097 172.209798593 190.215177701 227.922531815 251.677767864 271.050640615 286.187622983 270.209399267 275.542424217 263.813692718 265.565293115 264.264931523 290.805114866 283.160722549 222.588183905 213.211135739 172.37523203 161.672929352 148.660866615 132.290781325 111.593910473 86.9480295026 51.1006831454 35.6510275468 37.2215274405 44.9802081895 58.6281294285 55.8025833302 61.989616865 64.7444985158 63.8944495485 57.8407080432 51.7106567136 44.6424683136 38.415696788 35.1238004928 35.7266750621 39.3214411539 43.9748279113 48.0140054204 61.6620861001 59.4976287033 61.3143655987 62.3687059588 55.2611098443 55.2282820402 54.7383371411 65.6541282221 64.392522075 62.6027813968 45.5721959498 45.4574359852 43.5012596603 41.072561343 38.0244690727 31.4332162732 28.2985761463 25.7667226575 24.746763317 25.3904337471 27.6405651873 30.5154164813 42.954049498 46.8263217326 48.5543940096 49.574083026 49.0337592308 38.0799946467 35.9761313273 33.1603748118 30.1334514485 39.0627063785 36.627259411 37.5419570585 45.8859301652 68.6446635665 80.3743388244 70.3612670679 103.935535499 113.746154995 148.773995133 129.916224614 137.645686706 129.01847866 134.279193548 138.496141553 156.483517198 144.751780699 145.193067637 144.526564253 142.789178695 192.077283098 188.099956262 182.678854047 161.410029788 156.104925824 80.6439562988 73.9883199654 69.5124653986 63.6796704328 23.5682943374 21.609672878 55.2013291464 42.2698994724 29.1022545268 12.8292355729 11.9935239973 12.2060321575 13.2626060736 14.2462655587 15.2677262561 15.8725649131 15.9945855927 15.6805024513 15.0295898214 13.4442519827 12.6228548456 11.9579312201 11.7805074238 12.0144637063 12.2701509073 12.4455555669 12.3838412794 12.0891409631 11.2955947042 11.0638701765 11.0153996214 11.1291638368 11.2681050519 11.5768794312 11.5075166745 11.3809080518 11.4404690113 11.6570352853 11.9849554018
44.0255317577 42.3227868953 40.5383851751 38.6002060449 31.6791459788 29.686927388 27.2329405549 24.2512544042 18.7801616551 16.4312141443 14.6189233099 13.9894236094 14.8932167945 17.1109664702 19.9927695809 24.7132616248 27.643147066 29.6631110327 30.7159091826 30.9491482589 30.6709636457 30.0158521547 29.9642228516 30.432249648 37.6386725303 39.5399269392 41.1771826437 41.9283802848 41.3982429497 38.508156212 36.5906078631 34.5535176815 41.3184195937 43.6558018764 49.2709637293 55.7429442745 63.7447005998 70.702289741 75.486019235 98.1692856746 97.013716624 93.0383340356 88.1464385503 85.0165823095 85.4424764343 90.5192677923 133.061023042 151.187517701 169.13549445 183.388282479 191.095838459 193.421473552 241.336768488 212.478724819 192.249949308 142.912214478 103.877329938 84.4062398345 109.140522068 158.888514786 223.172096834 286.925297988 335.19015547 440.664876067 471.801587743 492.837631636 509.721629607 525.422356341 541.593578866 557.627122561 537.824316432 543.549836356 599.588343481 590.256746112 576.771727985 556.564390545 537.200970279 470.390476337 458.135227107 440.018271761 474.845166484 442.945827084 283.933328227 221.23740442 167.862951514 144.051416012 152.61396951 179.002025534 229.376036577 265.231938169 291.705095112 309.559314502 291.479089098 295.183703956 282.140426807 317.285923511 316.227703219 312.165849395 300.182867178 238.247439984 228.53071993 224.9354331 174.953330435 162.501711538 147.451607409 129.005169164 107.491164521 71.1178515219 59.8349107687 56.8433834567 62.5241012966 73.2673572149 84.399419626 92.560339773 71.4311970122 88.0590910564 83.4306323984 59.355257651 53.290043828 47.9855555284 45.013995088 45.0002073632 56.5242036319 50.2211430783 63.5613603554 66.6662468829 63.3061085611 64.6132915243 65.4482832637 65.8621802875 70.4081791852 69.9028454424 85.9207254988 84.0980246546 81.3409600713 77.9379210022 47.8544368767 46.148857445 44.2497125535 42.0339408966 39.4525276033 33.8062211375 31.9948608546 31.2061481679 38.4865236545 41.3158472517 44.9075725014 48.6585778973 51.8454095338 54.030598905 54.1124751106 54.768030516 53.0185359315 50.1574149238 46.6451228551 54.4231459124 50.8823748805 49.136381209 70.359750994 75.2098303693 102.503465178 90.3808829843 122.635890712 132.69140437 117.367486207 152.034916204 133.350783172 141.49443558 148.90732004 154.515130036 158.878413451 161.862283963 150.076595933 150.450205786 149.647682786 202.442004175 239.16855174 194.258846452 188.362080001 165.973723143 160.326593759 153.640188611 77.9592620579 137.867284574 66.0835999515 80.9999437316 23.0890972596 60.2405822216 47.663296173 34.7529095317 13.7719314664 18.4064328568 13.0569772648 14.061892625 15.1197209285 16.1758134044 16.7741882849 16.8284044676 16.3705789565 15.488907596 14.3119944374 12.5252661481 11.5576955211 11.3516787707 11.5566667328 12.0695338097 12.522412895 12.7033864748 12.6224491179 11.8823025093 11.7276834482 11.6449540473 11.6104796673 11.8150023584 11.569092579 11.1644247787 10.9198037 10.9596604463 11.2837892724 11.7588364681
44.5587793794 42.8225435443 41.0601898752 39.2123767122 37.1683040823 30.5235239064 28.2543445512 25.4428594301 22.174595016 18.8742356943 15.6670004737 15.068339453 16.0044379884 18.2499625471 21.1403958184 25.9509240243 28.7134786293 30.4060791494 30.9326330841 30.4490923738 29.8585796201 28.6878887434 28.1551701913 28.678976288 34.7364601303 37.8893671302 41.037334302 43.3768341744 44.4417142284 44.2270543447 48.2393353252 46.4019067968 53.4010705706 55.9733786036 60.9194951695 67.4010294447 72.3557067046 77.605937921 101.164120375 100.511026984 95.3707407201 86.8240083328 77.362399573 71.9786959308 85.732570378 95.9049493227 115.684009646 140.625700123 165.823070627 186.816255583 209.975683206 214.05150775 301.024457333 276.060097341 240.00463782 200.937265811 170.670034327 161.402595818 195.990722424 243.051214646 334.516282744 400.268066768 446.800674283 477.715878414 492.843525106 481.255759808 489.278848355 502.771154685 521.981474976 589.383275327 612.000852821 595.533072299 594.475842434 583.175861356 558.694513415 532.465478057 510.976543807 451.787653473 523.638180271 510.696557704 481.57223675 507.961589302 370.936950684 264.135843545 152.853475635 123.663330078 148.655179551 186.16098492 238.269491802 282.554808189 313.271076422 331.6574097 349.114909393 352.227568558 351.652664648 330.503801408 329.17880436 325.223841757 321.094578818 309.999045731 248.525570219 236.332663856 223.026963567 208.925717481 193.625788263 176.238852849 134.739549483 118.816094923 106.125509477 82.8824160822 85.8821805688 92.7809219927 119.947395399 127.884365726 131.441687813 129.983075681 110.140745666 103.172678723 76.2940135719 71.0656225342 67.9467400047 67.1403946008 68.5810290192 70.8342839418 72.5100125559 70.7696370646 66.0648501287 66.7443633949 81.9357779977 79.1855881811 89.4854171798 96.9604395782 89.2684371483 87.0683237022 83.5857660551 79.3297108195 62.8495391122 47.8928806248 46.5471969353 45.2851862261 50.6239939699 39.0633883415 38.0513048098 37.6131397355 46.9568736506 49.2328327018 52.0120043498 54.9496543058 57.4923044788 73.1154216996 87.5994362471 73.9284685421 71.9764592576 68.882964424 77.9665948075 75.5712579068 72.0533462117 86.4557966279 86.9014531821 111.0942015 115.128951588 120.024827919 125.912936501 133.265308365 142.606750346 153.652825752 163.683550899 144.15547303 184.351530129 192.087127284 163.542257084 240.909123198 154.903796619 155.18709762 154.248354635 208.12063713 244.914870794 199.707645071 193.250878299 169.636258503 163.467698697 156.364957171 149.605418618 140.366178222 68.4146476772 85.3792326746 77.8231257738 67.6888544054 56.7908626599 45.5411515396 36.1740948351 31.1735486827 15.0520118365 15.6789868196 16.3592683218 17.1600037748 17.5442953345 17.4198186179 16.8000114672 15.751724412 14.3834799249 12.4213334961 11.5157096308 11.0373260595 11.3200805913 12.0284340685 12.6839165016 13.0390335005 13.110412744 12.3940643666 12.282380378 12.5217894291 12.3329418974 12.0079860396 11.4699944006 10.7672044664 10.3221389277 10.388124537 10.8941100003 11.5653471218
44.793572749 42.9908864156 41.2514021683 39.5502101755 37.8002409221 35.8422800997 33.7701909975 27.3445839529 24.6447481381 21.8916778999 19.7964343501 19.146659292 18.618128763 20.6533869186 23.2450394042 27.9586145436 30.2733420231 31.4081526216 31.1911648435 30.19682545 27.9038946104 25.6892300614 24.5423024588 25.1438307836 31.3105646323 36.1161088173 41.1510156793 45.3554946956 53.7655369984 55.3913095052 55.9163877376 70.4588180724 71.9830606126 75.1435265467 79.9604790044 85.7055646389 89.1408859506 92.7254529799 107.407437017 103.332217222 93.9806762802 80.4343075282 66.8867609952 55.5961098372 60.0374342209 72.4000394707 98.0375449897 130.825125327 171.610176588 233.946899065 258.373024926 270.508672576 335.936185349 322.653133039 299.561622083 273.740919128 254.535159641 275.611799268 317.741257592 358.092785245 410.855802638 455.511205464 483.678830656 486.927805514 479.110798845 466.84130569 480.776891757 460.320893158 521.143186997 559.916604524 594.71416174 614.30029135 611.979417294 567.068466527 530.443371629 520.890309801 492.500254429 483.885397279 490.425010293 499.789289471 583.425804271 540.168109943 411.293411153 308.315359983 212.545786928 168.264221189 184.788712489 265.4966679 354.156603384 309.916427822 338.805514732 360.069870784 363.958979841 362.136769944 337.835125705 337.89943262 337.291171825 334.489303801 330.63528531 318.865459005 257.284085016 243.514110143 229.444552894 216.545790782 205.179625676 194.390420519 185.316594885 173.617575042 156.978983128 128.011647507 130.274314286 135.796580936 142.111311857 146.87887103 148.56321461 146.563303948 153.670524942 119.990267033 113.418868976 107.235333959 82.7091109998 99.2606964328 79.446014894 78.2254360771 76.5567777412 73.5075856523 78.187017628 79.0635844972 81.2550722483 94.2916491684 97.565793619 99.1865346201 98.4723071011 89.3391748538 85.8815649102 79.8757395649 73.9007605005 58.9623530572 57.3925324066 57.2508997846 57.8569774571 54.8962745364 55.32807254 64.3395288313 66.7288741591 81.3350450022 85.6476350892 89.8910601297 93.5117077465 94.8355415914 95.6327981719 80.7761170036 79.1483541057 76.5809080733 88.2628629471 87.1193315164 83.9387365822 125.840528436 123.493406432 121.611269509 120.055816478 119.512987594 121.392989346 126.972406712 136.639206803 149.395572701 162.236165309 175.497205821 186.544089019 195.157136067 201.224863088 245.657385927 250.859826204 159.182441965 158.123526687 253.244313533 249.468968754 279.304250263 273.133195683 172.188978417 251.398919265 158.338953224 149.438229489 140.624536334 132.807463773 124.274406042 114.992180771 103.329647889 90.80780068 59.4079021384 52.0024834121 47.8315247047 47.8480116476 18.0792700245 18.0007522772 18.4407020982 18.5459206637 18.2240407006 17.4719562102 16.3397038933 15.0528408844 13.4781847858 11.9391828917 11.5136820058 11.671483144 12.3858244819 13.0537763286 13.445611398 13.574537925 12.8403309482 13.17077023 12.9867509663 12.6968477367 12.2261027186 11.4945003938 10.5620897998 9.95176508885 10.0577151579 10.7305686217 11.5563549577
64.5051332892 42.6941867285 40.9123196638 39.342940777 37.9519488709 36.8965592549 35.3440128036 33.4093598094 31.0724474318 28.662527278 26.8518942379 27.6879047856 29.0931422869 27.3579067326 30.0279395448 37.2901649756 38.9953053456 39.3103704804 37.5340571437 33.7927755202 25.9140137186 22.4620158467 20.5648798058 22.633420913 27.0545073614 33.6200466437 40.592205681 51.8931949796 57.3365384248 60.9360125904 63.2613087349 82.9226024487 85.0559033743 88.7253672946 93.1771493099 97.8599228068 101.751404088 126.330042087 130.958665529 114.304514706 99.9094438492 81.1752097057 66.0319410432 45.7605811696 40.8250861162 55.7263115435 89.8479507009 131.876813451 200.650352946 243.353557704 275.099399733 294.757275282 382.227556751 374.20338573 364.428023641 351.838366521 343.281783657 379.151019993 425.978263007 453.948211834 483.235365207 508.626914534 510.511063278 485.706208552 448.684201076 411.02643756 405.652785588 418.543354886 489.448957697 521.116802771 575.408678476 769.854001743 605.214001981 575.68995971 516.886139904 454.140902034 411.156249217 405.364436645 523.012515486 583.431906087 594.855276625 588.573099301 531.154558012 403.652752779 326.1605456 299.69014991 324.934828013 353.004122699 425.444236378 482.496937089 512.866653849 378.044166005 371.719534164 361.924459878 336.067432228 336.391864159 338.698804894 339.297858673 337.041554488 324.64094306 305.541017894 245.15928912 227.962972824 214.406366784 206.275957087 202.488172194 219.508350238 199.276033851 187.865097017 187.033057201 179.130150333 161.626172521 165.051659453 167.306473641 167.324055074 178.171841905 173.470527618 137.261695727 131.434591532 125.383086039 119.615893235 113.615821376 107.435797268 82.7840204664 77.1223594818 70.9623422813 72.9873440646 73.7475998043 77.4845292138 91.8990143467 97.7166432325 100.999609075 100.760403794 96.7615576424 85.726641439 77.1068436594 68.389218157 61.9617227248 52.9092114012 54.4053379646 57.6360992864 66.9775002861 70.9607730629 85.0073667866 89.0108646523 91.1256001891 95.292390827 99.0758658248 102.171037612 103.293195767 103.869441573 103.178355055 86.3770645142 84.0942145078 100.45909621 97.3982119549 122.937245318 117.64768149 132.159721842 124.561519367 116.291825008 109.598518476 107.660309185 112.726481806 124.710364994 141.290729475 159.417757666 174.794093086 259.474596637 276.215592371 288.216793825 296.333342918 255.382121663 258.090304532 259.181917656 256.155294678 252.617502447 282.156022213 275.249832342 264.040304912 249.144880492 309.112691884 216.545035533 137.526489689 130.206388602 124.480619956 119.28762173 112.556416814 104.988394684 73.58707991 68.4711635046 65.2234411345 64.5312545924 20.549928598 19.8681928588 19.932678519 19.7544689141 19.2496484141 18.4083197595 17.4505487871 16.0716785086 14.6756609962 13.3498735999 12.8994993588 12.8856926031 13.4876662364 14.0635354875 14.4293772863 14.3235970156 14.7584743429 13.5977141556 13.3857017805 13.0600193897 12.5739010387 11.8565923336 10.9281516207 10.3049628519 10.3942005501 11.054899866 11.8673014379
63.199682237 58.970965061 55.2892192698 45.7811596259 44.3507046845 43.4553719326 36.2311819859 35.5826464088 34.6412011132 33.5477473615 32.7414803036 34.6932673064 35.9991363976 38.2769085109 40.907026187 43.0658728996 47.0846454457 41.4651327598 38.6884652631 33.7242023424 27.3261564488 21.3351574915 17.8670313562 18.9004927199 24.3552725714 32.4747650297 45.4670977178 54.2196540822 61.3961055854 73.9913898348 77.928220414 93.8667482141 97.2324944488 101.504976791 105.88923801 109.951339039 112.849085887 137.591768767 141.035346261 130.238525802 112.214371798 88.0355320618 68.5237163551 44.2500045628 37.7315514881 55.1522428137 91.9569286944 138.277970187 212.468201689 260.054830911 297.152997151 323.069780947 425.369816497 435.597488477 430.304806016 439.284625008 473.041279192 477.621033367 488.504645327 544.194548484 555.865642931 557.869383849 562.694904966 504.79888129 405.221200409 335.603041706 317.910274644 333.882962589 407.633374352 617.700586075 593.315908689 761.871306317 759.39970653 675.321401222 470.845597172 374.660199014 307.415768405 343.69914971 419.910428631 534.781964377 631.2009618 673.64944981 767.5573872 550.10084415 497.901495808 471.814024972 487.171345205 531.920912637 583.053268818 569.576480342 550.964281589 390.196959362 367.699694573 345.815149163 318.881115463 321.791498627 331.252141553 339.347460842 341.226810581 328.692569797 304.753053873 273.475005125 216.930750901 199.446951893 193.252604218 211.572586895 223.067720132 233.721896449 210.477008591 202.794816272 206.764391722 210.520380807 187.722915308 188.253867711 186.946318525 198.336641974 193.525354499 154.618134299 148.81939841 142.150953735 147.878732042 138.588710456 127.035551012 95.6790367076 81.5553307341 70.8079773146 62.6290174772 63.962980999 76.7555512019 87.7042583627 97.3301623442 103.02675128 103.581066236 98.7571767635 85.6391517657 73.6268350669 61.0737387475 51.7599475786 49.126165246 49.0297546112 61.7990988755 71.3584717783 84.1980988861 91.3574935635 94.5712377247 99.6773335676 104.038098775 107.682947343 110.50314974 112.34722528 144.46612642 145.134182894 128.296498527 126.093924178 122.665666213 118.100905721 133.277135136 125.648505365 136.194981705 121.791998659 105.554341594 91.7192984111 85.944653683 91.7776754609 108.238317095 130.851201568 154.554660689 234.712853602 259.313795709 276.593979749 287.480602801 293.786109189 285.085019157 287.177639077 257.825670848 257.998302574 324.970514384 408.966829164 397.506097427 345.177866611 321.237858905 293.743720988 265.923451928 185.260952176 121.91570649 119.048358277 171.677145144 172.277359241 115.87952824 87.0634674047 84.5311073647 81.4182634674 80.3570689307 79.5560503172 23.1155973216 22.9256999016 21.1429860118 20.4850374681 20.0121075308 18.6479750973 17.409901847 16.2253699227 14.9965400676 14.1255544143 14.1791063591 14.4228411377 14.6759346033 14.8631763309 15.152502158 15.1201038704 14.924564113 14.5790237017 13.7461552771 13.3096962427 12.7615692174 12.1027174312 11.602015073 11.640767646 12.1867094465 12.9332526644
61.2077223904 56.1144897147 51.717555519 42.571891753 41.3525498771 41.3093155816 41.1676984158 42.2763044565 37.2655315111 37.623808357 37.9350890397 41.0595197607 42.4853112544 44.3671436187 46.2919196287 47.6473666348 51.1467341014 49.4881577225 45.3273055272 35.6304193773 28.7962716544 21.9189024278 18.0612284425 19.2006931266 25.2419708441 34.2028081337 48.4635147291 58.236621903 74.0778687044 80.9368727485 86.0936494271 104.273659086 109.680399719 113.664602942 118.245564173 122.140808162 135.328023499 150.390916329 154.137260182 143.392549311 125.915993419 102.660601754 89.654308301 64.9041713887 59.6344779367 77.6235092716 113.588822568 182.070642364 236.873268715 285.597285634 325.409565584 355.727627782 471.162773766 490.72114503 506.838455752 513.97394338 560.977561902 568.710665797 577.08907939 582.374570055 626.046169495 603.599115817 589.134014019 531.445404666 403.862155558 280.603876365 210.588612512 235.1022698 343.835055821 565.545347226 722.283661029 810.82030578 773.374529698 686.999011057 522.2839025 307.926614668 229.006955074 215.436530099 327.618509937 498.482674619 650.084890752 863.122904552 899.378396175 845.487628238 665.351040046 650.52723227 656.306623892 780.768097601 803.907549216 752.000570254 608.519100431 557.191603962 369.263144678 327.327862734 280.547438173 290.174609842 313.690310359 422.081872551 345.218177033 333.745821766 303.875868288 247.277388613 208.139303512 179.606024995 178.52995159 196.952981246 216.769054625 241.130826051 225.737807755 224.826519499 230.937798926 234.960007793 237.205222451 237.570684958 221.795575837 218.528340547 213.352696131 206.797474354 197.409156354 209.981339163 197.756456896 149.890609422 133.237468564 111.942965244 77.7716436316 59.5503394356 49.4446139113 54.0940017736 67.0791163229 83.6037214396 97.7742402265 106.272796175 107.849729456 102.396502464 87.2577706537 71.9349461566 55.4626716058 43.0202601584 40.2936224732 48.8043448854 64.3917876481 78.4993870194 87.9220751429 97.1241005383 101.539606283 107.329907729 111.968091929 115.631535762 118.329080836 151.284736973 153.389502322 154.12207243 154.345088017 151.690328327 147.520753354 161.44235219 142.404455065 132.467359199 138.805113216 117.46961335 92.8529068786 71.4119987773 61.8327230105 69.3250351784 91.7135399482 121.669486151 198.2182361 234.316415733 260.770013815 276.879552412 284.692327028 287.409012922 276.922901716 278.053069532 329.862842537 400.839052896 405.20006708 404.257467173 393.251562113 370.577551725 310.268334722 273.104908426 236.192564962 206.867034439 106.619655796 149.575771312 158.161800306 169.623446588 178.90623439 97.1861265768 97.5175849653 96.9686239483 94.8260831938 92.8808481405 90.9316988958 24.8256427124 24.2325557749 23.5051499278 22.4548886992 20.2522722024 19.094216521 17.2849625677 16.5195599404 15.3808498541 15.1407453633 14.9941315973 14.952902077 15.206394785 15.3497943322 15.3717866851 15.1648296362 14.2906770544 13.8801579436 13.5085971644 13.243907154 13.0268775689 12.8688880012 12.9328611141 13.2728100536 13.7763957003
58.7046081639 52.3089657937 46.6513281231 37.6557138961 36.2802951578 36.9548620098 39.3202657806 41.6069464631 44.6863137517 47.2489337738 49.3318539009 46.4625816431 48.261119419 50.0700610175 51.6406263163 52.5477753877 55.9303808142 54.0767765427 49.9923129246 43.668162259 36.1643147764 27.4162368719 25.1692394157 26.746132081 33.9205551403 44.3982809375 54.7033714094 72.0210407059 81.3622134303 88.7697113019 94.6302818395 114.451822235 120.744001275 125.443783428 130.44127142 134.592070293 148.664806866 148.804438445 170.381665768 161.60656852 147.287355097 151.538460883 126.912941496 107.000695552 104.65635433 121.699577015 155.085171825 222.718519792 273.088406231 319.607287063 359.682403425 392.548057165 519.065066861 545.871009458 569.699750676 584.544343013 642.755553258 653.600561488 661.155079943 767.734609271 753.12283019 713.317629938 675.016819273 552.437133561 395.633464234 241.325532699 152.118179826 178.642043899 314.033794778 563.986575079 748.874375832 853.347103843 856.564349916 725.965473644 556.208166098 348.031096899 191.939155571 177.755237024 313.424695233 519.764216339 817.772607625 965.899180837 1040.74690926 1017.04633074 1014.08595086 819.411077884 938.844555482 937.912789977 924.166449316 827.042990078 749.617403101 542.562432938 420.947351514 262.273448993 235.49810235 259.153908862 349.339225689 411.711999349 352.543807354 343.801016552 308.673528016 242.344044974 189.016651505 151.128491304 143.227564927 173.338760814 219.745289789 247.860686958 263.414378158 244.919186894 253.056606485 257.5883706 259.432125989 258.983408306 271.86397705 267.574894349 260.645860925 275.871947435 215.245485472 229.496771353 215.488876614 162.224798065 141.765372372 115.084055433 83.3438231942 53.5636353336 40.3615401673 44.6195322926 61.8868291609 83.2634629955 101.234990934 112.055668665 114.590315619 114.370898726 92.5376306339 75.3094397379 60.3449171516 43.3407186705 38.8503326686 48.6971233288 66.5633030929 86.8995042429 103.285144016 103.30947481 108.181555308 114.285220389 119.108202502 122.84072445 155.807066344 159.196734584 161.221338444 162.936150463 161.836630692 159.459799169 155.596058433 170.56618066 188.999621422 175.56805103 154.250880408 124.620000388 89.8174717369 59.6993671583 45.9454407863 55.15286515 82.9374589597 149.66767987 200.079966471 288.388517163 264.991158002 276.932598861 278.600947771 275.054350664 272.488292384 327.880129435 365.325763569 381.29255905 395.571869887 399.023663319 390.31592825 364.959710333 298.589433006 250.050390193 199.964215811 159.695823234 140.07460977 117.067914945 135.624036857 159.736417509 181.128383187 167.426959546 108.622573538 109.807604606 109.440540015 107.144480122 103.808209803 99.292890933 26.8622157839 25.9340080693 24.0808497374 21.7362751906 20.5818222516 18.6723837729 17.7471517573 16.2246993824 15.529977231 14.8944276385 14.5872934099 14.8861682455 15.3057689151 15.5314779925 15.342649159 14.3543048373 13.7212475307 13.2204412452 13.1398932004 13.3745877495 13.6355691491 13.8819609156 14.185983977 14.5581583184
56.1372214492 48.036320862 40.5432965856 31.3271053572 29.3395723136 30.5683146762 34.6502324456 39.3754553463 44.8508388703 49.5288703994 53.2653154533 56.2717664112 53.3941200926 55.4069879538 56.9502311109 63.6296539231 63.4654890816 61.7084108179 64.4897467877 58.0126625039 45.630041964 39.9439555543 37.8913242762 39.6743315913 45.9872662457 55.0882088474 71.2036438331 81.5965079588 90.2442598896 97.5601541374 103.651363464 124.562941805 139.326718546 145.520743717 142.580180546 159.428749717 162.717795659 193.06983925 197.824981517 191.1648601 180.869831006 167.431414265 174.710885703 164.637893808 162.971861296 178.538992884 211.819578124 279.445383943 326.91710555 370.710060587 410.636438763 534.837210712 573.933585604 628.656570999 701.810291454 713.242907677 731.660270248 746.210284872 851.847020852 851.897439899 834.872483433 791.94547108 751.309776055 625.117328863 463.72195261 304.201370264 211.731333078 260.182381736 425.534930943 643.840617226 830.279146161 937.569764705 946.559900699 856.110852163 751.207793864 522.825686147 350.148813232 338.154338058 503.691760522 636.389527351 952.848870275 1107.53994569 1318.5583961 1363.20601536 1200.10981535 1337.28857555 1106.93875525 1084.86067859 1042.11433127 994.583479606 793.841983077 543.695357949 373.743970905 226.410681379 165.117059912 228.285910639 321.893848536 413.720110477 462.150986424 464.286159099 343.648483598 278.227861181 198.082133528 146.357198983 137.291843407 173.735559045 228.799003406 281.018600326 282.497534791 301.046933529 311.117957351 278.92937189 280.296362056 297.111958998 343.399087934 339.756790541 333.318572447 323.991112906 346.224006829 248.92609892 234.35915775 177.456741904 155.715677896 159.677271794 113.963161339 59.6798178629 45.2162634841 54.4760144593 82.5699466492 90.8315178025 110.046859262 121.711902871 124.74283586 125.516240495 112.628288669 94.4757648456 73.4444398599 57.3230301377 52.9282898478 65.0556402604 83.8715310493 97.0045818836 111.763621901 123.498202309 131.533341795 137.825827202 142.83461961 146.564130036 179.42840605 165.786552857 192.535018946 168.64963979 167.568132294 165.561037774 162.402502963 179.008654121 199.357568575 186.914883277 165.538318743 134.643368428 97.9415162704 65.3893323291 50.7336620534 61.4924086001 107.747448362 162.252977882 255.282796607 302.399794532 327.617283851 276.062078171 323.189076381 254.661074211 243.981004619 289.575002792 327.633040543 353.728147738 379.746257423 394.124536279 391.900518992 364.910855152 314.895763461 230.952668668 165.252893174 111.112238987 85.403483364 95.8091465939 110.506867543 148.016500161 181.721249121 177.006718327 189.145562079 122.007712007 122.250944107 118.799311034 114.445101511 108.711931179 101.777464223 27.7329945316 26.5998970195 25.3500220763 22.8354669535 20.0027356318 18.7991143582 16.8067128228 15.4758847682 14.1360801737 13.5436407512 14.0612757188 15.0813689529 15.694445156 15.5707248055 14.4088505384 13.3894237116 12.5202292982 12.5248488105 13.2731398898 14.0011391631 14.48513839 15.2494613293 15.6412248829
54.2689446862 44.2922927093 34.6043660855 26.8188928793 21.7121007528 23.3464611291 29.259750005 37.3765149865 44.5325573591 51.269597178 66.1589897353 71.0560423455 74.7963449054 66.6109014179 73.5598080339 69.2753400473 69.491592285 68.459961175 73.5043880572 69.0192361196 63.9212332093 53.9918135014 53.7987632488 55.9144923363 61.1975854433 68.5102493158 83.8746178767 92.5651614456 106.451898582 113.519394628 137.0556205 145.072219302 152.518770333 167.410696357 186.193039388 182.939278376 187.09645338 189.657804368 217.859254082 215.353263361 210.838220648 204.601649529 198.468517687 221.672770951 232.867071222 243.030489073 297.934475388 332.199053053 370.413280587 412.859840691 450.878233116 592.59037949 632.997766474 677.980226985 758.824767876 787.925994254 801.045152424 820.672581682 934.180380879 938.419589526 926.518872355 891.029136219 863.308582931 754.823479288 616.787490039 552.389980673 403.94807375 485.731639381 623.929021784 808.73424733 969.770413566 1066.58883208 1081.89456451 1015.2169327 1108.21862174 909.368776352 677.127033773 675.741725915 807.107223926 1005.01264282 1344.17237279 1506.05514197 1510.48441541 1557.76902734 1530.90112051 1526.32309761 1503.70268213 1226.82530179 1193.6422631 1101.47062487 873.830486225 671.248167199 396.683676831 236.088385249 160.089296513 226.600994465 406.212837019 460.141779361 525.136625553 526.905368528 477.596276474 391.799205394 284.532058047 215.777650253 182.992477651 215.86352432 265.842618772 308.554675298 337.366621155 321.87739052 330.564338963 334.483845708 347.113274344 362.461173412 361.232915954 357.334083209 350.744009931 375.8560128 365.118741706 319.369023304 302.061762077 251.040455973 225.106891445 190.621781467 153.427489977 113.776698039 85.4778663012 88.4036945382 111.972242569 141.738538305 167.064777955 293.53422942 319.819048299 304.860410516 277.104381231 114.467478348 96.9170025838 83.6832245129 84.6830637415 91.4816551603 111.636318451 122.159101946 133.096236334 129.181605455 135.557583097 141.500874548 146.86925208 178.945403987 183.750831321 186.216036015 196.312446022 195.697910307 170.688252604 169.087888082 167.160686749 186.139596097 210.083901144 201.65075098 184.287222645 157.431024183 136.693298794 103.239139099 88.4055467326 99.8001522062 149.304275738 231.805100324 306.513417954 346.403270701 391.085366972 378.801150508 345.488258031 265.440941655 236.368187925 234.869197352 275.654654357 334.979084479 380.035107857 411.351601556 397.300491978 373.232132927 318.820239712 241.106482513 146.457113323 79.4652730616 47.5512449399 62.0808114924 113.505673672 178.261782241 187.691928193 240.164186304 204.799517131 211.5257729 133.950928067 131.253287273 124.838007905 117.974233419 109.905429922 29.6327858091 28.4454891916 27.1392105907 25.7006621172 23.5384525908 20.6327099608 17.5582219713 15.5914730944 13.6155042929 12.4087499666 13.3542503063 15.0624957655 16.0644430867 16.0218779559 14.7348057935 13.4528941379 12.2922558069 12.3185974493 13.3990111347 14.6325614268 15.252050133 15.6795628853 16.0810968571
58.9546506725 42.5405571985 30.8752499006 21.0876426743 15.8997690887 17.8328190319 27.3907558654 39.7093230304 51.8441561975 61.9831465042 69.8314724619 75.7492534037 80.1844021556 83.4509578904 85.6894905069 80.7977313961 75.7830562086 84.7850679342 83.1146339855 80.6526237312 77.9784859589 73.1532911262 74.303429556 72.8135720843 77.2572925951 82.8927646769 98.1042282912 110.170721497 116.962087768 123.232255216 129.290342888 154.746660808 167.833453097 185.511899179 195.008201602 204.130065746 209.913744747 214.610006858 237.542959638 239.082169269 239.882146111 239.941352945 240.241923522 278.549332181 285.868793707 299.756036194 349.893155747 379.397643616 413.519772801 453.604237763 500.283729405 633.623888703 685.87087861 724.050111853 759.462337153 845.296698104 876.427024368 891.745467099 914.64280738 1026.52711199 1026.01060352 1006.51858458 1002.24096023 925.898819103 828.005864254 844.504054265 784.939152079 797.89080325 895.818376141 1031.90889617 1155.55521722 1235.42298068 1256.45190628 1405.98089315 1430.25948359 1301.57932848 1224.91566748 1086.5707895 1177.35531398 1465.45493428 1613.03257584 1728.06585235 1804.0854289 1906.23641102 1957.38952241 1700.05627697 1669.31063577 1367.72639084 1329.94143699 1233.66404124 1117.71457046 915.428923174 668.664565638 445.1908631 355.734570915 441.230330957 589.219799747 631.835540162 589.795709428 589.617603123 546.521515889 490.372437221 408.54948425 328.316054252 315.966366543 339.533695928 316.410562247 342.172742824 359.621144926 341.191298953 347.493179475 350.278787631 363.308405483 377.334361588 375.766331552 371.765483641 365.255959645 391.400861739 380.951878353 352.387212692 321.304143071 272.753259621 290.13313008 259.624224992 202.208570297 173.074812975 155.500859106 240.104191605 263.911054165 312.443104444 357.736745949 388.999348524 362.488600547 356.849839115 329.458716197 296.457047513 261.112999611 241.334965489 227.898538981 128.330521907 134.048225267 138.949551147 191.141495592 130.533110575 135.417085288 141.910251824 148.69481798 181.019376051 186.544342676 197.804393523 197.338567376 194.780220088 199.649282186 200.090682175 168.365058866 193.6168476 219.567410761 218.194670537 208.604581758 211.895830318 184.159784462 159.59571222 177.341210353 158.80745068 218.852566088 309.315369566 354.509768833 378.520151835 405.221816854 369.17258139 308.038213298 241.06756155 173.117620247 165.527120595 223.16798214 289.591868384 359.224674716 455.869505207 457.738871672 437.820621965 378.225611069 260.403736373 159.276483804 86.405073783 51.4081585475 67.2568324129 123.219508048 193.165854354 203.090999879 260.290955128 284.984371619 228.494523523 216.741073579 142.203516361 136.114090429 127.508904353 118.323140636 33.1543587904 31.907130525 30.5099209242 27.9341669891 25.3260628901 23.5863521114 21.1743144013 17.3759937136 14.6324098586 13.2392510281 14.1493870654 15.9039219914 16.8903192806 16.840001477 15.5611864237 14.4314582024 13.4629316143 13.6135948668 14.4665006413 15.1095961988 15.4424894113 15.8213049047 16.3063431794
63.8236534081 49.4962461631 34.7243925006 22.0378535653 15.5113585506 18.4865480827 27.8690634145 41.4295351247 54.6231870534 65.583132278 74.0812015448 80.5262624735 85.3927000953 89.0288651897 91.6360334914 93.3058568374 94.5932898259 92.8395389726 92.5085752141 91.7799293116 91.0973941359 87.7101226585 89.0632808982 95.8047139972 100.206646775 105.632629529 110.659898067 121.277309442 126.872806245 132.4891259 138.336702926 171.217169574 187.651854049 195.394663933 205.631010322 215.804423473 222.963463846 229.605332774 263.983030851 269.355944996 265.561813123 270.28495658 275.035574898 315.246314226 324.15930596 344.80374153 358.905200014 416.658123483 462.815251336 499.031853447 536.087468814 578.213764544 725.267781233 766.096690501 805.066478446 896.923126956 933.508483663 967.98554396 990.086265861 1112.85718007 1127.70763886 1129.11297629 1157.88310612 1119.50408621 1061.05771922 1139.24919611 1109.53193358 1129.31116232 1217.64867943 1315.85921011 1368.23056844 1432.58580307 1670.16881831 1655.72901652 1750.31576921 1680.92647004 1649.73532999 1667.68212537 1733.9931101 1782.28586347 1867.14666672 1937.93365068 1988.52781098 2115.21693772 2120.60370101 2099.67115039 1957.05767555 1898.21896663 1703.9924382 1407.72875581 1285.54941325 1130.35776058 952.225013075 784.128255186 702.959222709 735.823225533 816.742395963 907.800818521 679.469732539 670.814271758 631.268051471 589.619722885 524.790601631 459.016936006 436.057705933 365.68196955 372.86579231 378.671219974 372.10475951 354.339044587 359.72185036 372.505637635 387.582749517 388.102427952 386.066343136 382.190456425 376.23140072 403.24129528 392.89601723 364.761855578 349.599584768 330.810302541 313.635377186 295.850972075 283.671177143 232.825169711 221.35962919 344.324139068 372.314847238 389.670701038 423.498067148 447.415276526 413.273115717 457.366426597 386.499743385 360.17923709 341.633995132 314.829654797 294.763211282 279.403275436 149.597547902 189.974815484 180.019562292 169.130061432 177.884838794 137.908689705 211.795996204 181.643836044 188.32266247 198.749938262 195.182209083 188.670876815 189.188127646 189.011969501 194.401258667 192.853808422 201.158329971 262.954099351 263.025109779 253.956752197 289.044214972 272.129351854 266.305832789 277.087212018 347.300015931 383.800982097 411.811672247 418.431994178 417.991377975 366.528246071 276.222061227 179.028645439 102.52953593 102.590542522 158.254605553 275.756228577 383.360694916 464.751195715 484.213045471 476.366343889 425.962440996 345.777188833 249.632219803 143.364351682 120.756099368 122.935175208 173.084659493 235.928597383 261.139591184 288.746162313 309.89547412 318.934980939 232.533730543 228.552967247 146.10510749 137.117208696 125.333363211 35.231728755 33.949066958 32.5204340005 30.2809839622 28.6338580375 26.8223152382 24.6765091111 21.2880423786 18.9002696514 17.1198932098 17.5167658545 18.1822923471 18.7210107552 17.8831759376 17.2872894832 16.4190855728 15.7040873011 15.4768522274 15.4565370405 15.3031739439 15.1928123208 15.7860050004 16.6771070874
69.8990480875 56.3212585058 42.4366454719 30.6454026646 24.7420572206 27.7333993814 35.242560268 47.9978042478 60.4082663952 70.8357553535 79.086571329 85.5039946505 90.4847713242 94.3306309623 97.2374426102 99.3265824277 101.050486277 102.36654328 101.10193997 101.682726011 102.444525033 100.169253307 102.597386314 108.345436895 113.374205271 117.613328084 126.323705513 130.552839174 135.242117696 147.948288105 153.931282007 179.058289127 196.016362356 204.238547698 215.073701399 226.125859199 234.474789997 242.798174816 278.735481344 286.597082202 294.039613852 301.026441459 307.467665702 313.034634089 345.646149188 366.274561074 417.567964338 453.43569189 490.145007708 529.151596635 568.564757327 612.96501902 760.398426863 803.498207127 845.422677258 942.026840359 983.552204665 1024.74594594 1065.72985935 1202.49747103 1224.23967101 1258.25458721 1300.20879407 1288.77074289 1263.62365744 1383.99502157 1380.44229017 1405.55779911 1482.15044623 1556.93515869 1632.41522127 1686.78182948 1900.33946512 2062.13033707 2044.54129149 2018.63359262 1988.25285826 1992.18225801 2016.9504461 2017.26395042 2058.7435546 2102.92815863 2282.79777826 2257.13120787 2259.18639331 2234.4231677 2086.73312563 2025.34856361 1936.00140601 1730.42392363 1450.10691832 1344.7116171 1235.5445346 1127.78770814 1057.4455747 1043.87858543 1051.42461374 1082.5230428 930.253209715 903.888183364 743.773466143 688.780184055 608.264324451 559.726409957 519.388383008 483.207025313 391.807716455 376.150028657 374.007265034 391.401316708 398.076749918 407.583302402 394.640668041 393.550826563 390.462632399 387.144789269 382.847980353 411.102706069 395.575265123 371.325218922 352.631532152 334.96108154 320.759595793 321.21563681 318.305937151 315.275924323 414.904452535 433.261339446 458.989047841 479.221996296 507.128361329 527.14088383 526.666942718 519.903630081 527.813604863 502.339785685 407.051700794 377.331852174 346.804182565 312.514604462 207.679168375 177.527268261 150.646495359 141.206053867 149.403084967 190.429704506 204.991479158 182.108340189 199.078314606 198.768014718 189.788426544 176.164767797 164.318738125 166.79019308 176.097168544 194.218291323 266.372611572 289.675846784 303.519494705 307.579531329 355.093044164 351.969088697 353.830677071 364.422659533 439.342141249 462.599480561 475.88164222 467.868498866 454.119377466 384.118969392 271.677772013 150.422312798 65.4612580819 58.0624340757 146.597330289 263.519103855 393.837818023 524.896087497 582.161020964 532.594557139 496.125840206 432.317773455 354.012480194 272.63703587 239.948510923 250.23115004 294.638331489 301.598177749 365.817936923 323.455986384 336.49974782 339.632550051 334.82262542 240.955982218 154.471028988 144.294989437 132.945606691 120.884696722 36.1287268876 34.6795101815 32.4487783864 30.8090230748 29.158663401 27.62955135 26.2258111067 24.3177995716 23.0465063936 21.7949854007 20.6638539235 20.4547234621 19.2914430167 18.7807935769 18.9965903729 18.2466456936 17.1808774766 16.1275751398 14.5865018491 14.144771626 15.3009492924 16.7114852623
135.007349634 67.3327648741 55.8798383909 46.5905393645 42.2656257776 44.8496015732 47.9673799292 58.1995652517 68.3438706657 77.1853534742 84.5098989918 90.4837926716 95.332750302 99.245516395 102.362113348 104.788202836 106.812763627 108.755776449 115.562461448 116.96867398 111.688770647 110.203296138 113.350668594 119.152795009 128.13303909 130.848522293 133.588827632 142.982934983 148.304271838 154.467975115 161.04608747 175.926696252 203.362268556 211.958947755 219.900460581 234.771411956 244.01723784 253.667748964 290.218893076 299.684292067 308.341493156 315.687269576 321.536330988 325.981862312 353.647505896 377.105611785 430.703594736 471.738257575 510.80728819 555.163193938 598.299164973 645.361578159 791.068873105 835.849356424 879.958835541 924.23657647 1025.06475881 1071.93810904 1121.66002011 1265.36072551 1317.17590195 1357.5526503 1415.4277184 1426.32078148 1422.52837738 1556.85535389 1580.35346463 1687.90799765 1752.21847933 1935.79782545 2011.38950367 2071.29924866 2308.11919019 2308.27852219 2301.63954459 2278.26765546 2231.7017485 2195.76098492 2166.14524239 2129.31042992 2150.35660518 2310.10695354 2375.08393647 2365.44614071 2369.66207519 2342.92842373 2195.19594457 2132.88173179 2039.7468914 1862.50144065 1571.31576375 1492.8810816 1430.73037021 1372.55313826 1322.54988331 1291.4713019 1257.68086751 1248.47654256 1230.67438572 1185.06368159 983.094266982 782.690323968 698.747877508 639.874698492 576.258575347 503.836161378 385.346059636 347.752021562 343.083116305 372.107634896 406.62089265 425.116872142 397.117523684 391.444748627 385.81157686 384.055628722 439.587942139 440.147186008 428.393692111 391.617045559 358.993644972 318.39418764 308.549220509 314.088296842 330.105693183 346.129246079 471.439163561 503.517407007 533.939142427 552.050482151 576.177207655 592.570643746 746.548985084 734.358992445 744.29010946 571.418362763 539.869901559 431.57514423 389.618624323 400.222369936 209.544413742 157.993826056 111.969248538 114.508845235 121.542898043 169.904727959 217.407600139 206.087771301 273.653566393 199.414006597 182.36454596 157.643116978 149.998178445 142.394790352 161.65767419 197.076215913 259.350306801 299.740244408 328.959665558 347.114578044 415.746475847 425.084649213 434.561627863 521.772266334 540.826971175 543.028444303 546.736839128 530.012907131 511.855628493 427.08453067 347.26322976 205.203441077 104.791876286 98.5262489947 190.48338466 339.77157527 472.884103466 584.964917118 650.07380842 606.69611676 584.616112227 539.490689211 481.866222056 448.750028152 419.421415493 385.54768681 409.485310701 440.6293626 426.060519219 359.025534685 360.274990365 355.334956105 345.740250459 250.348110293 239.784372563 150.487266458 138.018094124 124.81330304 38.4812400826 37.0336147219 34.7699067731 32.9840532004 31.2205042519 29.9363407518 28.8649252986 28.339164744 27.1332181673 25.065934506 24.0911906758 23.8995989805 21.9272266012 21.3205315899 20.6360449133 19.9005596076 18.5977666387 17.0939798689 14.9453350537 14.3158123625 15.7013097378 17.2607747715
154.0076302 134.794006157 71.8023481544 65.2165439994 62.3308346652 64.0114013178 69.4459920986 69.0825903373 76.4923878213 83.4271134007 89.6280818205 95.0364368436 99.6704396688 103.586386679 106.853039606 109.538535646 111.73298828 114.099392575 121.501459999 123.367947727 125.22311673 127.147170225 121.279749269 126.610195226 132.141595217 138.185558933 140.845122213 145.983424693 152.351768973 159.701490199 167.387674385 183.012096152 209.78251848 218.517329998 226.551803853 241.442336226 251.24530209 261.878951053 298.409947584 308.897613883 317.701532158 323.675689969 330.287107616 330.398045539 346.965591512 367.96606107 403.024924573 478.534846272 537.40550787 590.388132153 626.847983061 679.420699079 718.668105728 862.926726096 908.270902738 954.276813453 1056.56628129 1106.98197249 1163.33165005 1319.05840101 1382.16732222 1435.6809744 1500.72029894 1522.16919899 1528.09220851 1584.83410573 1714.33341483 1854.81838497 2090.48347703 2186.91094503 2216.13086882 2279.01045617 2526.95516826 2714.70534542 2701.95997209 2651.06808737 2508.47042989 2291.32100551 2177.4629485 2095.43950204 2182.87269169 2300.01829952 2421.29877979 2443.45499127 2449.11087412 2416.87273603 2275.02276184 2217.44142586 2120.49820058 1925.34563909 1762.95542332 1625.69585411 1532.66471539 1485.34468566 1477.37959808 1474.07525311 1473.9773691 1448.8866427 1411.72843651 1182.59850505 1079.14690638 891.512406501 782.497095793 712.695015478 628.37675715 525.025868274 379.522352851 321.832021973 317.557575411 360.45415592 407.960710735 427.558072585 407.802851229 410.828601421 400.236527352 407.593672988 425.900886313 438.436524258 431.081570194 389.36791569 341.319806546 293.178681413 328.902472861 288.019087892 326.064145028 485.497522223 555.326991206 560.936947704 599.384894307 1134.66462349 1198.34179714 1226.77053795 818.005449197 898.923990981 882.783726961 795.441875324 755.499216486 572.840719461 515.558128001 438.920091321 340.414930382 216.20132445 105.229544898 69.9091522379 124.940295735 175.008631263 223.177999573 284.499529469 283.199555786 267.29112632 195.509463261 163.483096914 116.158632183 100.450890233 129.534448973 188.324304898 254.568975812 311.72471576 354.881006707 396.774925087 471.740042814 491.767701977 508.509046043 607.426229244 625.852475073 624.858652708 625.026244164 606.834647458 621.845405611 576.657344139 460.744248948 336.734669706 248.764292042 253.10530011 332.498091168 462.578897816 596.418441183 678.766719968 741.937113539 754.105208339 687.435862755 658.167313003 671.191073739 629.468626186 577.888977776 569.102416709 523.087111004 526.141163938 481.331787937 388.1166545 374.454951904 360.022632576 361.549567816 269.837130661 244.936288886 172.778407156 141.881160562 127.401843955 113.091731134 54.9520732318 50.8881847474 35.5505958969 33.230371521 31.1882001796 30.2887665856 30.1904406093 29.3084469798 28.1060637066 26.1824664048 25.2660136339 24.5073656483 22.677223539 22.0112674 21.3389497719 20.2938388042 19.3022724017 17.7094001196 16.9144369988 17.5173909496 18.6455620667
180.383548886 163.832020703 149.129315275 85.9681318336 79.4241523949 79.6669543436 82.1494750059 77.5846119937 82.7429152087 88.2127928874 93.6260313745 98.673883504 103.188372459 107.137401944 110.547947926 113.450205004 115.883828526 123.737354751 126.024204917 128.092226172 130.00155596 131.685049724 132.94238711 135.858033126 136.668123572 136.887297258 140.495625054 146.737577879 155.004332877 164.173008839 173.364933766 189.805478538 197.435985092 223.866198851 231.519957494 240.074526065 255.862172586 271.491974077 283.411582451 314.968563115 323.575313639 332.139031186 328.170501778 326.040910339 330.210480922 368.201894275 425.849636959 487.171797197 556.024198896 614.945284269 666.39751248 708.285438878 747.247114704 884.576035562 930.214037737 976.656093055 1089.84367841 1136.94371612 1193.28368145 1264.19389423 1415.58544528 1489.04772772 1565.22971865 1572.18427674 1604.49185371 1647.24604578 1868.45360166 2112.86991488 2252.59272019 2370.03541195 2408.95618649 2477.76008912 2732.75329708 2919.59365328 2900.87951447 2825.47581233 2674.1363782 2426.6556902 2136.80470675 1967.66031325 2054.35382025 2247.60621926 2453.37294962 2504.25008392 2491.21492883 2435.82550544 2307.74720466 2273.08097011 2206.16121632 2053.29205379 1792.21360348 1552.30199636 1457.72169663 1526.78523619 1585.51824882 1599.52084097 1591.31323991 1560.57386057 1513.55590395 1276.1854056 1162.7319026 988.48339185 922.362025639 842.578294611 718.567093229 580.925172687 455.824195983 353.110581025 341.001588546 383.988981165 433.92585593 465.994272109 426.2873629 379.656739862 353.922762024 369.83972485 413.056293089 437.954060778 451.255793729 396.742310272 479.204250643 317.063134919 244.071294093 268.190281032 397.483338828 779.035808378 595.374167666 659.51873732 1206.81860421 1698.60901897 1296.2001668 1323.36529154 1483.03553929 968.388689825 951.78576531 875.893135112 834.487325461 626.286908653 566.342857657 599.917145708 388.893404038 319.51973008 177.450943874 128.703074489 196.372075236 203.267838037 267.649025422 307.126581707 315.670031006 303.003552969 246.848932372 151.049462996 90.3999565861 68.5171012108 110.75227329 193.603609131 281.836459559 355.78247705 411.930708395 437.286018045 525.663446195 554.291694577 673.55802642 686.210472654 706.944467598 792.800612736 780.503976604 764.808395275 727.280830699 708.075682176 623.193804475 533.258547906 469.369882449 488.16842576 544.61327073 640.203143047 742.266033469 827.436895752 855.823227943 867.326168601 866.814369228 847.682746194 815.781739726 810.771151398 724.932894056 702.222384029 623.317423919 596.730145251 560.129258313 479.32291849 370.705127376 357.485222478 343.423835559 264.457560424 260.950072606 175.689408416 162.348770754 145.152274505 128.03700947 112.215915851 53.7714681871 49.5340291951 35.1414649148 32.3343073199 30.5735023313 30.4309958815 30.1179225566 29.1177312068 27.1265348167 26.1426723908 25.393555458 24.3433365325 23.6242773448 22.8147771536 22.1272607572 21.6812535652 20.8860180027 20.1210368007 20.1580880482 20.6044996837
197.227831192 182.359040163 168.779731768 157.206135451 97.2914907423 95.3870888213 95.2854363057 97.2265180273 85.4986254068 90.5090263459 95.9027057965 101.032899635 105.623876181 109.688752809 113.289961614 116.417150269 119.04120846 126.762188858 129.149418658 131.31188902 133.226210552 134.613780909 143.156306525 138.509213499 134.538135725 134.760548559 140.700696895 151.219573683 157.546787498 168.753903972 186.841182508 196.628484585 204.503587784 227.846520883 234.505199856 242.304413283 261.900605013 273.648313951 286.775889471 323.938451041 334.868665293 334.953508285 328.558158637 320.68000568 326.998409719 366.808847907 433.855276473 514.28658709 588.335608135 651.975054518 695.881135706 738.918295705 773.354325715 956.083448195 1002.7228801 1048.1340271 1091.78675129 1135.29691664 1189.97698467 1337.66164245 1428.05855902 1549.10436826 1587.03311852 1584.65653439 1603.72954872 1678.2354661 1936.42548361 2237.15253446 2411.48045314 2546.82263794 2648.97853448 2668.97189453 2926.87059838 3112.44174352 3097.03793337 3013.22647164 2828.75858429 2509.82715658 2124.61385873 1874.65645608 1988.08328988 2393.65972125 2636.73843506 2661.00972047 2564.53188943 2432.61443251 2386.05496345 2499.95189703 2346.58871912 2139.03328015 1854.31665131 1522.92382353 1423.61995974 1546.69668271 1682.21452459 1685.63501496 1681.13938908 1645.05119825 1591.2878279 1369.29023694 1254.1273233 1064.61168881 1002.02256094 900.204735701 810.752032466 698.511192007 587.612164425 454.186462379 430.521407882 459.935089735 483.180853286 492.368491594 420.48118104 334.047363176 291.220555916 322.766164784 395.182030492 454.651494073 481.21436066 449.343695161 542.779469261 376.516020111 311.646547094 412.410011105 637.527814915 859.30753222 1030.17182643 712.9711381 1704.70372525 1798.03838453 1380.61397029 1562.79461989 1567.86672434 1030.30120148 1012.52444894 934.271167868 889.247237005 831.67376586 755.455040474 670.689558633 575.769429996 452.265496091 345.758951041 301.972913045 343.523848053 352.5845021 344.468826102 377.940483146 346.060959027 329.303304249 240.512794631 178.155430733 122.682187971 98.8207850377 143.114157949 228.077975998 335.676940468 391.550021272 463.536030267 509.824616214 608.7303385 745.528179774 831.90706023 860.919395676 883.498902554 958.0444581 969.592576449 865.616473568 845.209332191 856.232057515 806.501894086 753.455043741 759.845138806 746.706038607 780.312725238 840.926958531 909.606746449 1002.05893636 1048.96627347 1073.7502028 1072.06867113 1058.93839715 991.18131833 957.464628526 939.012555049 821.252868 774.385554643 653.297097894 580.078921432 509.832010469 388.946245831 346.545956699 336.751094172 351.225087082 255.348276223 251.57570816 233.387188861 142.355593822 122.16022067 105.774454049 56.8970412811 53.5935514217 48.4881303041 34.9071011081 32.4193725216 31.2308368872 30.7552106911 29.7278467195 27.5672207507 26.4674236169 25.7540278622 25.0670406384 24.4330952046 23.4044581788 22.3426132881 22.2197545969 22.3852823942 22.0635318886 21.7460821791 21.8935420662
241.270556335 196.044639967 181.522716141 167.26449305 153.430592821 96.9025531122 93.321876624 93.2383084934 97.3248333303 89.8496781862 96.3051102248 102.001766378 106.784091355 111.017146979 114.916082622 118.354982393 128.225586141 128.429653276 130.745225346 133.009812708 140.319445542 147.607115261 144.546981588 138.962096256 133.902281723 133.932535741 141.188187572 153.384458961 167.176696713 181.648760925 194.793055686 203.578885207 211.218853622 234.917365262 243.295507841 250.676723405 261.213573078 274.654485105 291.584261759 329.101646412 342.882121116 341.433033721 336.82374782 331.770326249 345.043726955 394.419467918 463.777943326 547.007939351 622.656268477 685.630195814 728.576532464 765.768829503 913.765129919 960.67657087 1003.34602903 1047.01604132 1087.59332431 1120.76093172 1166.16084733 1297.24751633 1453.40003388 1541.44144452 1585.41662659 1595.65235543 1629.34565861 1836.45596588 2049.64477031 2391.39891737 2586.31286992 2727.01468437 2826.59279927 2903.88060536 3179.49671265 3242.05787437 3297.04995469 3233.97058301 3069.86768529 2870.05896504 2484.13052492 2197.26427639 2294.92591223 2647.59674094 2912.39622767 2807.65849307 2537.22636475 2218.1663824 2157.32275304 2369.48493684 2547.46809597 2392.68193819 2073.0963576 1769.97565423 1662.35715371 1705.30002533 1805.69797698 1849.75872755 1747.74151069 1698.87402144 1640.99706732 1426.05358207 1311.39819045 1128.1072936 1072.82018609 987.297411572 914.09218617 820.02397176 732.146294321 589.817807929 557.059552267 544.951838332 539.388513636 529.699950197 440.324433564 338.974008361 284.100397007 323.053081586 410.581826595 482.906752953 520.342193749 784.179299206 689.694125631 570.897643734 720.715150547 844.312751646 1105.65126669 1366.44477291 1567.92756748 1695.58402833 1768.78770215 1864.66225244 1939.21169284 1629.66923487 1634.18061449 1609.99096123 1592.79357627 1514.7893478 930.319473503 865.709781562 791.612994511 725.304864932 667.530677099 595.858564497 536.004264493 504.023623286 422.611648985 460.519325502 408.709034757 427.969244589 436.483838554 401.757662671 354.034372564 289.314556074 214.046478133 200.358843628 236.933657567 304.605879918 397.972569336 467.790217823 510.719579038 556.915502926 764.309042885 805.893718237 839.210817377 930.82042674 957.879876621 1039.79828969 1059.89284306 1064.49387165 964.651580151 1003.14319578 984.679913067 962.68598108 995.949606966 984.789082429 1002.17567429 1036.84444232 1079.58457482 1155.30463954 1189.30185393 1284.41776287 1206.15509901 1193.83421209 1169.20778726 1095.93200726 1071.80794367 1017.35294263 861.101416697 703.747235429 589.100727517 470.837378442 356.70080948 252.820485022 250.459283383 295.076699729 286.512914887 300.333623605 231.967670636 194.889915916 184.72528233 115.330495696 58.6394036616 57.2168755789 54.080676028 49.3076163309 35.4115383365 33.5156701411 32.493023279 30.5726487384 29.0454082791 26.2462316605 25.2112370266 25.3063365337 25.1842222554 24.4900578634 23.1716358772 22.7182044597 23.0297998556 23.0226085414 22.9892509841 23.2432042199
252.172659461 234.428744015 189.169201085 170.905559023 150.366745686 111.188949099 83.4513018967 81.3687376239 87.6155451223 98.4464908149 108.319791352 101.72560856 137.200320276 143.368869702 120.6671166 125.084905937 128.170708953 129.958385856 134.611230335 137.409999752 140.335418503 149.091960539 147.974670302 143.81181634 139.691225641 140.16691665 149.637857355 164.653143716 180.762134657 192.160274748 201.376184457 216.194642507 222.033131649 225.174536639 237.85688959 244.235952002 255.668609965 274.542564944 290.910343956 329.306701418 347.786615924 350.625341244 352.639833032 355.408104697 385.39362467 422.37815438 489.297130746 590.873422703 664.760774827 725.66523864 763.783873873 791.369878466 846.93890821 952.389577855 1003.36540024 1046.38672667 1072.0105473 1089.50506047 1119.19911896 1187.08724471 1403.39124566 1518.73849151 1589.50147761 1632.59125494 1800.12491593 1983.96586901 2303.46441967 2678.87792252 2783.08477844 2912.08189684 2992.83038322 3155.45447725 3402.07712581 3412.57196981 3485.67915602 3556.17025824 3452.70808377 3280.65104281 3057.21715749 2867.49404718 2910.57508541 3101.26243769 3223.71707397 3039.64475925 2557.7321988 1983.16093107 1880.83892805 2289.8618212 2665.10116734 2672.43939944 2428.8094619 2213.11292184 2101.21052747 2133.60713577 2025.34705437 1944.68077956 1770.22291248 1703.93069257 1521.04270593 1463.61194288 1368.10634433 1171.34401246 1122.740223 1061.84095989 1007.70669125 939.441885968 861.285508451 793.06792296 662.287863279 628.648284196 606.759638501 581.276915155 514.062102369 429.277546598 382.640482922 419.23233141 489.136567694 554.845824716 917.776161036 925.575590429 884.757461429 824.253510749 1186.14582127 1265.99789801 1405.83270648 1526.69445938 1614.89932385 1709.64574483 1809.42455845 1884.44204258 2107.93048232 1673.03136516 1675.48099175 1648.72659166 1629.36201643 1542.99083724 954.556412511 869.475820266 781.797898506 730.953892694 704.304716788 689.050760991 678.004915977 665.542987934 546.572017557 562.76240377 475.012995258 482.8805435 488.967595549 498.026781092 460.742719665 386.136474091 326.724079576 326.256969003 352.8686077 397.028428955 469.123289658 523.905075222 561.462758905 693.379805172 818.869852367 863.350603793 979.863155695 994.692214351 1123.78075026 1113.74587168 1142.05989198 1157.74670161 1167.81791755 1164.56685176 1140.45285684 1140.73203262 1187.03235808 1180.17994585 1190.01950427 1210.99115706 1273.25059314 1304.87705056 1330.32272122 1419.30478239 1422.66997295 1326.9850047 1358.90233938 1322.02962028 1269.91097463 1187.89202935 1036.2176017 900.012139192 667.124080506 485.05721551 283.554213511 150.872889229 148.597523447 234.587000403 323.50326097 305.237773449 286.080410533 228.474080854 155.824765236 83.8952220246 66.5331256688 58.4560289208 58.1281560674 55.5203406735 51.4943496263 36.188595882 34.7179561469 33.0349529546 30.238598758 27.0703351689 24.7791386659 25.5634803441 26.2563490956 25.7748194575 24.7978726407 24.2108187474 23.7058382373 22.77303385 22.5130500939 23.2253963121
402.349797853 341.456756775 227.086459278 201.188949587 168.077117717 128.452790697 92.5398602299 70.2631178899 85.6423815392 110.845137192 128.536541259 135.230006092 128.404505015 135.014077903 144.303135558 124.102206022 127.119413042 127.548953712 154.436529718 160.548830858 166.144812092 149.71135714 152.570581538 152.061628268 150.746459823 152.404820239 162.814312593 176.515964425 190.544485115 199.859109263 211.275357408 223.739078113 224.677633308 231.815715833 233.496904887 237.993310083 251.293959399 269.816728147 288.427800442 305.993007372 351.382459185 360.629972901 370.342731361 382.849562723 408.537338363 444.108870433 535.738066683 606.387809073 707.145591303 768.161781025 803.547797334 817.735263174 851.948756459 938.019425312 990.738786226 1035.35423089 1058.25202711 1058.89892595 1071.12930237 1167.22537355 1296.11157704 1489.79312513 1598.42347592 1689.06065185 2007.06466355 2234.87717142 2495.30038536 2867.80801952 3054.77455073 3155.6934749 3213.25665695 3436.1281221 3508.64759214 3616.01986021 3689.65777054 3692.76310595 3687.52528855 3724.44707773 3745.77369387 3554.58027635 3566.45838361 3628.86351866 3746.23219023 3484.29803121 2918.66648751 2272.88388881 2168.04530072 2662.17808378 2974.90024997 3018.34750281 2932.98601217 2670.30862584 2557.56086283 2453.99277989 2189.72703731 1999.98248874 1771.00693204 1686.55277123 1519.68939255 1471.46412127 1385.01107499 1204.62255995 1151.26959811 1127.7382277 1100.44727137 1013.8531462 948.030984824 886.81034646 754.987186331 704.489387851 680.786603032 667.890475107 627.179410614 585.392709218 554.593455836 568.072896294 612.394868565 639.605422536 1062.14855782 1090.88328622 1091.15347416 1199.29799887 1592.41787642 1616.48327746 1609.39753516 1558.58097001 1505.93812366 1548.40230599 1789.21556226 1968.09797759 2100.51723656 1687.93578484 1678.58321229 1647.74168066 1636.02811439 1553.94469947 1404.57521551 1170.46873109 932.755958989 653.951389205 658.972926513 717.825091122 756.904478332 772.523854167 641.43217931 647.662482092 563.776750763 564.607389099 572.081874618 555.039512762 530.38368458 503.99609677 480.312070773 428.062791313 446.477360708 524.794776699 567.06608907 655.305269059 777.561288836 844.952959472 870.949976752 917.718752066 1038.51382403 1073.41268321 1185.2472168 1177.83716461 1212.73782689 1236.7489697 1257.85955642 1266.69467015 1333.38679245 1338.99962951 1379.19785433 1324.7271907 1336.41293459 1356.47470088 1446.32255385 1445.68668626 1536.56751772 1551.12328682 1553.79681874 1553.72858963 1493.28552613 1454.68186247 1398.80155423 1309.52888931 1200.12469778 1042.05192623 790.706086817 497.632467736 240.366468647 80.7155550375 97.263220914 213.840723934 332.844414776 327.318063537 305.563533471 237.623939002 149.191206873 75.3016708709 57.8666285086 72.2256265181 61.4130197483 60.7151343543 57.3249932715 53.9581632761 36.5155931268 34.6283429638 32.5652197247 29.8186723448 27.4540263994 27.5897983621 28.2585871677 27.9465484829 27.1954064601 26.2093616457 24.6845162905 22.1903686876 21.7846062359 23.1607185908
403.357769898 342.061126799 311.257519145 203.792174109 167.020262987 117.923785538 68.6748939601 51.1169109029 72.5469773748 106.527755904 123.994110887 122.420034739 115.083064242 123.863362893 140.320049871 152.967885363 154.408987122 145.307707004 140.35181739 143.473086885 156.190341405 148.691404537 156.978070044 161.167221818 172.803564026 175.963373349 184.052781752 189.984065814 196.680482705 207.884549457 217.209462195 227.225820704 227.645500616 228.372849575 224.442819897 231.667293702 248.632548278 267.198313502 287.678694111 306.388617002 328.826491871 370.909240735 385.920519759 403.837070486 427.037021394 474.739731323 528.492128083 640.344485994 712.122573402 803.605525906 842.269409464 847.77637669 855.172523165 874.809169395 919.437123434 1026.54713626 1050.96129189 1045.7549674 1054.56322979 1139.6630448 1274.1180961 1479.48738113 1611.90149987 1738.42678157 1980.30664405 2476.91609973 2737.32197882 3019.00403343 3195.53745902 3259.68340514 3276.81783373 3478.80178252 3635.19363194 3769.58936253 3724.90263621 3706.14223248 3903.5069689 4114.92774613 4349.57004636 4434.07362144 4333.0755397 4297.90730562 4256.84149276 4051.29738264 3675.23417554 3317.81122884 3210.59697104 3453.21020713 3571.75836854 3613.46784716 3438.56656655 3112.76308347 2930.78485241 2723.85814624 2305.80089537 1940.75902067 1590.96525676 1459.45316274 1486.57582222 1510.97107522 1426.90285705 1221.79347205 1138.91169145 1126.51209236 1114.27584112 1057.40215893 997.263387578 851.749812568 816.269930788 792.672780657 752.503551776 782.944796027 754.436363923 734.877548313 717.915039984 717.503618286 735.612200237 1149.27314281 1211.2171095 1267.88384388 1294.60814191 1758.38978849 1915.0032702 1852.03204089 1687.77254864 1423.73551808 1189.0623553 1200.68680197 1541.31213069 1903.76326086 2081.27109181 2085.65797947 1683.55799394 1643.2278101 1636.33646347 1563.80924713 1397.52172753 1672.43527396 733.110428466 498.159722676 566.730233012 723.328173043 832.418044199 880.795084182 893.339258116 737.654733438 732.147614247 610.41188191 616.909102914 602.565220402 583.779328623 563.287776864 510.602841194 509.921454856 539.74063149 554.942272891 596.886276486 686.00264611 813.789010218 886.382862145 920.247517469 968.668446218 1091.38456591 1202.5596501 1236.27907991 1238.33594955 1269.81557505 1299.14262173 1326.2829598 1408.18323148 1416.91699191 1409.34493179 1445.48731998 1414.7765725 1441.85293136 1527.91371251 1567.25257605 1570.12916896 1592.12904969 1679.5246678 1682.23113064 1683.32491727 1626.52360821 1588.23017902 1533.42436195 1446.15313461 1340.37134132 1186.21361566 944.016448652 664.147630319 354.874093483 180.451954609 183.811249863 314.035145991 441.744375895 375.936596934 347.535701426 276.628433232 188.553878069 117.074673047 85.0769395372 85.3713081702 66.1587756089 66.2091730509 62.5677089596 58.6996043649 54.4922741434 36.9006183887 34.8955207926 33.2417727442 32.0016855206 31.1455796843 30.3020293235 29.5707883479 28.6987929464 27.6962449969 26.3202905417 24.294625038 23.6223231419 24.7793483349
395.267373395 360.695792785 309.090548578 279.702809812 179.431877534 134.109656066 86.2508800077 69.1664363676 100.193493334 115.367094346 123.345987021 106.829243319 93.0139093623 106.146969909 133.024411104 151.524935126 150.002089212 138.122363229 117.005133826 123.286108039 143.370261842 147.498859926 161.638278565 182.270324122 187.813991632 192.624319706 197.719429257 209.165713681 206.801739985 215.822589393 228.526587365 234.262709304 231.626258029 226.806627683 224.937144208 233.540461709 251.997513247 269.908734009 289.999850271 308.363534994 338.119805872 376.343066509 394.649426443 416.072850757 445.729997865 491.484860305 541.841883644 643.543127994 721.374180412 814.272653277 860.904013054 861.937627394 853.049726585 864.197543339 904.826082568 1015.28332383 1049.17026229 1057.69946334 1089.8466867 1170.30558068 1349.67862523 1496.83557591 1638.68505088 1875.81426505 2051.24889709 2562.69658459 2810.28327845 3086.18259712 3258.85457111 3300.60188843 3344.4553366 3580.4620808 3773.66581904 3816.82856549 3688.08941979 3618.57127499 3902.19537516 4422.13432758 4759.03867181 4954.03433953 5036.59603782 5032.34839056 4821.32180103 4718.75816729 4569.49606373 4498.21767462 4435.53731667 4409.47871194 4220.87075817 4120.07410629 3957.55898288 3629.40845953 3405.51442546 3125.91215522 2486.40785123 1993.49947416 1472.88242911 1346.11150029 1498.85799632 1589.90338463 1481.27118722 1319.52600208 1158.46220493 1136.0001796 1129.61508694 1085.38304529 1025.67763922 984.429458178 873.430581592 855.49900229 833.565174293 850.947777548 856.570018088 848.494588667 839.751422141 836.301255067 846.096951768 1290.48431678 1389.81040592 1461.19438992 2005.9878304 2201.08520686 2176.75052233 2044.31599771 1734.56578887 1244.27485818 796.721131971 793.676867205 1306.35134159 2470.19028742 2130.56595397 2018.19320522 1760.87872878 1641.19766368 2213.340335 2437.85063327 2288.1041273 1723.35610405 894.577450671 439.092512025 536.699486361 742.046326849 876.971076496 927.469610612 935.180108092 780.255083373 770.74191412 660.328394077 650.266155587 636.957195805 620.324638665 598.642317188 538.757665101 538.981195547 527.365559969 547.785355339 596.595126954 757.159713467 846.798546057 926.670936807 1060.98061504 1119.55668709 1137.37114712 1241.93671376 1275.23089965 1382.26630021 1311.94886064 1427.26271921 1439.92082399 1439.58744249 1434.90371311 1424.02887758 1452.95521341 1500.82050561 1549.32656538 1619.31639395 1648.67066946 1689.93580701 1716.64918144 1805.92522945 1815.2136217 1810.78548769 1754.73086865 1722.7969833 1673.2143407 1596.57202309 1509.42549482 1381.06276992 1173.87372189 932.882653987 679.168230718 476.548541445 455.170763693 499.389995349 570.858370791 520.997712569 414.869963054 344.855156724 266.583206888 205.643680142 181.327250037 110.976334346 115.827884594 74.4969459381 70.6186603048 66.1357449406 57.9437321336 52.0271394151 37.0346532541 35.0920739045 34.2056999247 33.3441433183 32.0867925331 30.7529593355 29.8376030666 28.9187824853 28.2563859226 27.4356176754 26.6949140309 26.7889073611
373.472450594 335.844853883 293.414725469 281.970210706 262.531209822 173.287634824 142.9214629 132.176818574 162.840725557 185.610531544 171.322461787 103.125285973 84.4222450265 101.607011778 135.868069458 168.43101796 162.052746287 132.28111363 100.506805851 107.222147822 143.555731047 159.968366283 181.419056029 212.540369046 221.520384914 213.035639607 212.323499871 228.131178493 231.980278789 237.919192172 239.215990781 240.31260579 238.087401227 234.313179133 235.03481681 248.111420169 267.93695479 284.905114313 295.857763154 312.294772293 338.532779102 348.595697627 397.465699424 420.138593067 446.496335802 476.522305082 534.283072298 628.651464211 697.583686451 770.607581715 826.85690179 838.357594415 818.782773472 847.532575072 883.845248011 936.558879728 1041.94744968 1074.24326173 1158.69981864 1234.82195728 1341.30794789 1522.34790203 1648.18911062 1783.11674538 2043.96474297 2371.2078001 2785.55928999 3022.70233076 3218.65216683 3280.00581895 3381.44612178 3654.98640585 3871.35064597 4005.79338498 3898.36136841 3858.70938173 4228.27171348 4854.55303292 5253.51876601 5476.34984754 5622.48251692 5640.10734809 5529.45657962 5486.37924278 5328.43367933 5458.95974024 5479.95638181 5250.83240521 4818.76371957 4529.76209302 4300.48728144 4082.25638207 3714.79059332 3275.72012251 2932.53342886 2347.67587133 1814.17551707 1584.92178351 1698.06608501 1687.60838051 1599.9446881 1409.39304533 1223.65278506 1163.96333083 1132.32090856 1086.33934823 1016.13502641 914.199256281 896.941193013 885.12244918 896.683136732 896.406160334 908.938410131 910.271171994 909.452214497 918.328745811 939.035839953 1419.80917643 1524.36809112 1630.43610925 2230.42544104 2452.01962954 2437.72809077 2290.81837737 1928.67198669 1327.92153069 776.700256059 841.253850802 1731.45115769 2695.73203504 2934.56858882 2430.47794764 1293.85570197 1078.15362138 1875.76220484 2966.22341858 2535.23902175 2126.88916735 1428.72099149 918.491173184 1107.853707 860.988390811 941.882274072 951.0790807 940.946022143 800.193713801 790.563842715 681.207193788 668.094563876 655.522639572 642.745983664 621.994187103 554.167378006 536.87376161 482.79891234 504.267526361 636.186305385 778.060657162 956.594879676 1046.57494632 1112.65590262 1169.92032332 1197.60194551 1282.79566112 1359.5710987 1387.19254979 1418.6365999 1448.5280095 1517.69356131 1495.60119614 1429.66376092 1408.41247574 1433.30755906 1531.58411566 1601.33192812 1705.20086523 1761.08807515 1813.81523871 1844.01765358 1855.84357804 1846.60862256 1896.05183393 1878.21216694 1851.10143471 1813.52871763 1752.2344961 1694.52975308 1607.36631237 1458.77667641 1278.33028632 1073.66644427 862.19130431 790.194435119 737.990378671 837.848769708 709.934911924 506.094129327 434.258720166 355.02720954 294.73099745 209.250654354 139.740662358 131.809954559 83.2928843738 80.2575418393 75.3952220897 63.7044918918 57.2863783263 41.6600421933 36.9686424433 34.3518494711 34.2406616275 33.7416740269 31.5987532727 30.9946301952 29.8631123659 28.7911435423 28.7069728554 28.4545749546 28.3699476518
358.640630952 304.075068846 249.692669503 262.381259953 279.441214801 279.406205895 204.172988496 200.0222372 225.380318606 229.469511007 208.927613152 165.023253702 116.741566618 133.767793479 166.969211373 187.141406199 179.852785109 152.844976991 122.525711374 130.1447251 162.720655777 199.847904488 233.815839901 228.386850908 237.582508091 226.889986182 234.961315861 240.018416095 244.822146536 256.976918169 252.621371397 249.044499071 248.890181039 247.80939805 254.217323401 269.0750581 285.932068691 296.655569447 301.946053716 315.087152249 338.667135045 346.402741248 361.674141298 413.82265092 438.512898861 462.732031218 512.614457745 548.595728868 640.886011649 697.242113133 741.872710634 753.08598331 771.719745732 778.960766193 855.219902253 900.848179961 1026.87539116 1083.56245871 1218.85035048 1301.5676197 1394.84403588 1481.52448309 1568.7407008 1770.55576402 2008.90783193 2301.59149587 2670.59243576 2879.71361725 3076.98135623 3225.51958455 3524.58752196 3789.50733381 4125.85785315 4276.66643219 4431.74411797 4588.41964745 4974.19098788 5580.9232101 5898.39601292 6016.2047783 6119.45016871 6136.61476436 6037.49996326 5974.84015513 5960.35250865 6089.73030959 6208.38951513 5828.86138206 5187.61723597 4814.32773539 4572.07136338 4344.42552682 4002.31849633 3641.37835408 3436.60222453 3000.08032998 2517.65726301 2115.42413771 2013.95579577 1936.8095571 1710.31071933 1508.88430399 1272.50230003 1197.86385957 1121.5881424 1053.48218476 937.829211167 920.312517199 910.330181881 902.568628385 916.702458495 923.756520828 922.206562381 922.898664017 938.77149965 979.142941723 1385.97328618 1524.23869615 1658.91692322 1786.36280285 2409.56095459 2650.83562241 2676.45335822 2596.53303123 2334.99919672 1866.77715847 1429.9525255 1838.85964721 2550.79630425 3994.28965039 4044.88330473 2377.70791864 1295.77410923 640.290588388 1666.39351386 3256.66748669 3676.66030717 2796.5541355 2363.51650615 2054.88455334 1781.7785101 1828.14455448 1723.12957743 911.326189342 885.378618034 791.884287791 792.269077907 685.823160745 663.837252079 651.503388737 650.069986724 642.486684829 633.408366535 580.991075148 513.077688889 545.627890171 681.316658779 890.683792112 1004.6214948 1074.11216185 1124.91918405 1179.46178508 1262.3263347 1347.34644335 1346.51986022 1366.2020984 1405.81123089 1455.02315484 1534.97515417 1519.26308212 1457.62252553 1414.40272935 1451.00735766 1573.42725107 1732.06481997 1813.44177438 1893.00036723 1951.76052863 1979.03030259 1985.23915735 2027.13579107 2017.56876252 1999.91083913 1973.3652999 1941.56216684 1894.63850998 1864.76289715 1817.01161241 1750.27080165 1624.34260641 1450.65310163 1283.7690957 1204.23706062 1030.97866082 1035.32999772 975.726797645 735.452420478 525.458240725 445.215029365 371.73618335 249.13784585 202.585772738 127.723204705 82.3591719097 81.7420889482 78.0632804529 69.892296182 58.5183725363 54.018846466 41.4827522801 37.7757692123 35.945877705 33.6438711567 30.7599610478 31.0517422949 30.5984899565 29.4025793573 29.5414189166 29.8439916907 29.87111862
337.008319845 218.234138792 189.93004241 213.538181692 276.286485188 316.031874545 327.108562179 254.176621478 341.845778816 335.410049376 337.521985155 254.915950596 235.569782963 251.96775301 206.381052051 219.031188863 223.097878064 202.673176529 185.511259384 191.421558161 217.619788581 249.391753607 236.084631413 247.229457018 254.061474115 257.240535466 260.348025241 250.773186638 254.651578124 262.8073152 259.207635922 262.632019875 262.512009802 264.785569488 274.274396215 280.396881912 302.523464325 308.625137137 316.714460218 326.034043546 324.285008274 342.701401849 355.715084052 371.444756289 390.160184317 442.972226471 468.94871076 507.170259524 574.936755049 610.126000917 642.989852597 661.609853347 672.610763881 688.18750663 808.938248946 861.761585332 928.067248737 1083.24488866 1181.48452286 1366.37955519 1456.75287259 1515.08419363 1574.11954491 1733.12530415 1962.20114783 2076.01984637 2483.42335407 2666.16646632 2899.88916607 3235.20099663 3589.4727504 4052.15620396 4339.73499944 4699.0319549 4972.78229638 5351.48835809 6007.03331223 6480.98875854 6664.09177744 6621.86431906 6567.58812232 6615.45125671 6579.12982935 6440.63619145 6235.08512117 6233.2986114 6346.54603927 5942.89810056 5279.19847586 4968.65485045 4794.81881962 4560.67731335 4215.16550135 4001.26734274 3996.70470797 3763.42343999 3201.35034436 2617.66756759 2319.87847196 2108.84830561 1825.62427074 1572.79483802 1304.37628379 1202.3583068 1108.48260797 1017.65176027 926.392752202 923.897260633 916.727331598 901.91495002 928.239111067 936.30320225 930.468025458 935.55656708 973.770032639 1043.21482945 1491.17263669 1642.30235412 1778.35136863 1916.03618807 2523.34402673 2781.59789106 2853.03480856 2899.68345738 2859.80431451 3451.4084203 3316.91582874 3393.08086127 3815.717803 5107.88091149 4896.35820983 3753.33230803 2138.34985528 1498.10928164 2584.13601961 4008.85641922 4478.90215866 3579.12262864 3301.37761346 2995.97737867 2711.39261446 2051.50015866 1559.72100545 768.071015205 751.821549114 756.804783274 793.898184745 747.246765748 627.591222025 612.066261705 663.615499124 693.742456068 743.513810081 674.259711731 644.897514236 690.294235596 799.374445687 978.976097688 1062.75846283 1080.31997736 1113.25700089 1197.53135511 1266.41388301 1330.45506304 1314.71072814 1314.4820755 1376.9995466 1446.16595515 1508.59018679 1566.22978472 1535.12091801 1513.12787263 1542.6425236 1691.63262055 1861.61730447 1934.54884074 2044.24464653 2101.7744788 2115.15094797 2109.78719411 2146.7398933 2138.89479595 2122.41675391 2093.03693037 2097.63713518 2013.11108167 2006.87365701 2124.94042166 2002.91280719 2035.37291514 1908.68859697 1800.80111675 1693.26666225 1372.61700401 1223.89484174 1134.82197706 956.206824797 762.59754375 523.615954683 428.913983645 277.111226409 193.588845923 100.564812312 85.8990783602 79.7804854627 80.9626035923 70.1059540153 57.6260093437 55.1075949124 49.2855421525 41.7382932123 38.7266994929 35.5811551091 32.5662552769 31.9440380299 31.8954582812 31.0764046338 30.4814414061 29.9466844178 30.0740856959
297.613445893 155.293992957 99.9646243468 188.815322547 326.718375873 420.79831956 465.469652333 390.97091767 392.592266023 385.669330476 402.87072326 328.968506849 330.855071793 333.242068197 349.987367869 270.701766486 269.433966195 261.571495532 256.834914293 261.62072587 274.0820183 290.17560369 262.757886897 267.425780305 270.314024335 270.750694121 272.013236644 260.247301457 263.085529787 271.673101202 275.806902928 276.985087332 280.844245761 291.1664038 297.428773125 299.960442774 306.831888766 317.020910486 321.535744805 327.400389777 322.152034512 337.839521499 348.280563386 361.18195747 375.634197652 389.580201613 435.559900793 458.554577572 513.452134107 532.184545674 557.249266222 581.055927131 598.687567916 623.284265769 712.427636347 814.34074573 891.415475522 996.138162036 1210.33161248 1437.87541742 1542.5617844 1562.72009503 1578.83830339 1735.25224075 1923.24196711 1999.27906753 2127.77678603 2398.70259925 2808.09513941 3305.96486183 3639.69253403 4149.97303734 4620.19798968 4978.48750724 5496.08152722 6000.34957103 6694.1216064 7383.93356959 7475.8382466 7077.98819873 6906.64397843 7117.62955881 7320.90071254 7107.4137066 6560.3568276 6151.25382184 6031.44210825 5729.61724433 5185.96167736 5073.91159951 5021.64237505 4736.5906733 4211.48726472 4224.05880309 4456.86558454 4251.82773203 3612.10716402 2915.85210106 2511.1620957 2203.80155763 1857.67845396 1659.39524677 1324.38573237 1206.45363744 1100.83130432 1003.17383276 928.653313547 923.504433327 910.732615806 903.816112513 910.033843475 952.140490042 957.178972195 991.980882563 1074.21015621 1455.38666827 1602.74296237 1725.84381309 1860.09891552 2004.6086405 2581.33608217 2651.39889923 2837.31821394 3030.12812425 3292.81307562 4438.42057894 4734.80541194 4942.44474822 5214.76930988 6488.33110873 6260.00864667 5442.50854511 4452.16204107 4072.81802829 4627.37757056 5424.27043024 5537.24035904 5506.55101248 4144.4650607 3744.21525821 3229.01133395 2358.30363424 1471.28698326 597.346835722 594.762990801 817.336175547 906.248445284 716.867770522 574.195770989 546.39814011 623.29908715 753.66014098 804.330213998 777.787602672 788.833760315 846.817052018 977.720827708 1047.74885737 1080.82092056 1056.25963317 1090.53902808 1199.20115209 1313.62752279 1343.21278703 1257.92611555 1223.5260864 1316.49487971 1442.70214079 1544.54861892 1639.98949821 1650.16230835 1664.72288548 1695.72860084 1818.62071483 2010.53123857 2117.90955369 2235.72203473 2271.85830668 2251.48138896 2221.94435973 2244.55379623 2247.84437137 2241.08767286 2207.54375876 2192.70284965 2319.77475284 2231.00455852 2205.32576676 2205.55481726 2169.917902 2077.92648971 1998.31511676 1904.16957938 1819.49691911 1458.87910182 1293.55525492 1092.65397674 970.708260452 755.322797785 491.239684527 319.278149549 204.034524821 83.8803093204 63.0843055144 103.133455389 87.85409751 75.11072158 59.076823142 55.9780978625 52.0898709827 44.6566028191 42.0340022217 39.3871303904 36.9598160091 36.1817141895 36.3477277992 34.9162074025 31.0702230613 29.0681302515 29.9415908884
334.300974929 189.56528172 128.658272283 238.136662305 395.57147835 450.849885054 498.558130104 519.242316143 420.878762732 405.112702683 420.946798284 365.069568246 385.284261953 395.515109822 411.480851422 428.730327033 421.990743467 313.766841113 313.854168148 316.717050311 319.870516233 327.026571543 328.583898396 286.180527652 283.524153214 282.324450119 280.260232067 266.103018272 269.693913108 274.03353323 284.313590827 288.054003817 304.094422397 312.164647807 317.331708431 325.172324404 319.521320846 306.207286624 324.829171429 327.739520038 319.51794869 332.313073657 340.183816301 350.35427275 362.079379882 372.027949117 397.651878807 429.910382201 440.460758501 474.084064043 489.919295827 513.841356725 540.355092253 568.394120046 604.635715917 713.3141966 795.494989871 953.155425539 1143.05654096 1415.32329234 1635.25979741 1609.92285785 1564.47852828 1715.3291456 1846.37325381 1952.70783915 1956.62647422 2148.62149523 2657.30720039 3269.86586697 3803.68826596 4179.28179443 4739.87059497 5291.17499948 5686.56441524 6196.71897719 6987.38975536 7758.58726188 7826.49349938 7307.93467504 7173.37022825 7394.71547596 7887.72308482 7594.91628463 6764.15415179 6134.06673384 5752.13257315 5327.23365452 5038.82942845 5111.55661991 5119.85610476 4748.36881769 4277.41014031 4198.30507006 4451.40256865 4259.80592248 3609.09673978 2956.85554573 2514.13075072 2224.95576696 1860.44454845 1519.28299833 1310.01496688 1188.26210322 1088.75265052 950.594788737 929.338497018 928.818682375 915.658092972 897.935755733 906.241152427 960.119917948 1002.62550712 1076.95881364 1435.72679964 1590.9696516 1683.64358578 1757.5572874 1888.70972381 2077.22596243 2584.81829109 2501.70039699 2497.7167752 2847.8722503 4280.01267763 5206.01158004 5941.57573084 7537.67118844 7959.70314267 8041.7246123 7856.36247308 7323.42461559 6777.91509802 6533.86513163 6642.6161516 7707.22564369 7621.1111556 6452.1485137 7116.59850031 5374.20121035 3907.7071495 2760.81548749 1812.67126493 977.092321836 747.768880568 990.319353197 1019.71111152 862.05832939 590.449205409 524.369479513 691.678396579 788.05419645 866.441252713 895.201801033 922.225378382 966.934209679 1081.60750611 1161.42579637 1122.9743012 1060.47503597 1097.87911058 1228.65242245 1365.10455843 1353.25370532 1252.29263043 1206.41228515 1325.81295959 1502.8922548 1634.00197013 1756.86327693 1768.96548372 1787.19553329 1841.26293747 1970.14701046 2173.92598904 2319.65795333 2460.28880778 2466.10513188 2422.35072153 2343.7330737 2331.02369252 2363.05745313 2375.55199203 2331.96921772 2421.62594561 2374.69473741 2271.48833191 2226.84573081 2222.98992491 2211.23739298 2161.44161575 2125.15116829 2059.21528039 1985.89315947 2226.23003891 1757.07715487 1631.32199815 1092.87768092 863.382494118 715.658064423 506.2675965 354.378925841 209.9805182 116.895884085 139.342000562 144.129880256 90.0220050965 73.9930241402 66.6136791056 52.9358519549 50.3484104059 43.9094591172 40.4313274022 38.290341878 38.7294291996 37.9604848276 36.1307614343 33.2850142946 30.0425347055 30.5704044298
541.451247145 362.170359717 322.937349093 385.471142829 458.677504521 501.417292358 504.251680217 534.761613872 514.839797922 380.806184972 364.374268323 350.091965917 405.296990066 439.190514229 474.544098338 480.844970897 471.480632904 448.580419246 418.870628468 373.127287182 344.81469944 341.972243917 345.016508452 342.006953696 294.556080268 289.014683077 286.132822913 257.943749966 274.097996279 278.562634545 290.241418715 296.545069994 315.245499955 327.747986174 333.181739846 336.367294531 330.946481819 317.914763374 304.256697898 300.459128156 322.410158852 325.307867271 332.192645623 339.754085015 343.81906101 356.500430789 374.227671982 399.084292958 429.299791348 441.267137546 453.143153503 473.205887606 496.151890555 520.169880911 551.779567159 648.55125213 720.301564698 824.906697957 1069.8259683 1349.80352353 1585.62564523 1562.79609642 1523.6841091 1687.61988103 1832.86651736 1966.88525045 1937.96366918 2106.25605138 2660.0926664 3311.9464822 3864.27879646 4267.12278507 4800.90310396 5354.61847647 5715.39648509 6219.94512611 6687.38116628 7275.03216941 7400.87298053 7108.04886788 7024.1605594 7268.53393272 7640.70140322 7359.52556378 6647.05958515 5998.03811721 5540.23080105 5106.10844571 4908.02585765 4828.74492948 4781.31452568 4514.01080997 4092.52632031 3874.36818536 3894.11628443 3668.93612421 3120.77994815 2762.5410688 2423.69969814 2032.07443228 1649.69154914 1401.38447522 1262.17417876 1157.5776051 1056.40146005 928.31120326 923.598976312 904.896200305 907.753572614 891.621378988 904.041378221 915.425874827 999.234374587 1094.58808234 1269.89175974 1656.44803922 1706.74846354 1742.50263246 1910.81309016 2503.41477908 2609.9347034 2356.85604696 2038.6643459 2579.12065594 4486.31789917 5991.96857886 7123.71147265 9011.51147075 9492.5891001 9584.20685718 9389.45676721 8779.91030729 8097.73567839 7657.63464619 8265.82336132 8673.59241811 8574.31389672 8404.57790755 7858.24321442 6046.93296434 4970.45666149 4159.41594777 3300.14601884 2056.46523398 1881.84173019 1985.97375833 1179.47832907 1024.25116341 788.778982338 751.284926808 852.307403372 890.435033449 948.111144868 1006.84521178 1050.59742001 1161.94804922 1221.42241205 1235.61303389 1216.24685714 1188.99186246 1231.37789486 1353.92534286 1458.77976117 1459.63878832 1391.18319739 1390.36490254 1480.84776032 1632.65691032 1735.84243927 1859.8907416 1904.16325996 1892.69177477 1943.74059538 2069.27279613 2275.90712397 2498.3518066 2658.18689542 2639.11302392 2502.38881695 2430.34431349 2409.88001466 2501.87365501 2551.5934085 2486.71642888 2501.79252979 2411.27826557 2297.13835844 2345.88992444 2295.14515688 2232.49702465 2245.66854861 2225.12157173 2186.17289852 2127.72967238 2383.19438799 2208.9157794 1787.1512839 1621.7034203 1337.67491265 816.841337124 641.327904469 520.272369313 419.017233219 321.735516331 229.657931124 184.814068651 109.815701987 90.5626391966 75.3733394754 58.1173159496 45.9368801663 48.2927311868 44.4627669571 39.1220669272 40.0285453957 38.4727195116 36.2083973587 35.9315352814 34.8406085999 35.3195971608
740.449270911 639.513750438 529.872934815 504.109572843 449.695452695 419.443839843 491.409457572 542.363785966 521.18241491 379.948474221 260.796536982 307.272692782 476.028654282 475.466546178 515.644700366 524.040687255 571.622362025 526.642017665 449.96618709 360.931260281 349.798532748 350.452424067 346.439779455 345.752572023 298.329854264 292.861578911 263.750590462 263.555630417 275.895721748 280.098774866 286.256594758 298.808206808 320.158825954 337.95313144 349.297320505 349.070686176 335.7279838 323.134853268 311.751558033 307.777698374 318.437197485 314.0520971 317.221834324 318.493124131 325.010253567 334.957794046 352.487694235 385.829139044 421.65881927 436.596060878 439.598917981 448.94584095 463.690566037 479.692160816 502.551843217 547.106347874 634.700958681 691.590946214 794.769978887 1042.575417 1255.53227527 1362.98650604 1392.69668215 1601.36660721 1796.02438813 2011.44254068 2136.93615138 2331.02226626 2909.70955857 3326.09472835 3953.63772827 4301.78042397 4645.2596306 5174.54170064 5670.21952253 5993.73893414 6234.40716234 6538.80497841 6744.27156032 6767.66789351 6776.21961117 6808.19818946 6818.7415401 6592.26293818 6168.20690294 5795.93278884 5173.40261914 4893.87682615 4616.97505871 4422.04740346 4332.65103618 4032.6245687 3681.68932889 3481.58395093 3172.98866195 2898.66337044 2667.50313938 2520.34517842 2274.1975759 1922.86123476 1581.56674661 1351.42689212 1224.06227044 1115.48263122 997.308821266 873.736705151 864.675552363 876.814969177 860.76218069 860.159531385 869.809984554 882.716885067 977.389489243 1056.64042923 1243.28725714 1648.4612268 1706.80180228 1754.75694171 1949.64846259 2612.28827077 2799.95637123 2605.44240019 2334.76463974 3063.54080433 5401.96855198 7178.19897647 8458.6843679 10457.5710169 11016.2038566 11149.4350917 10861.8961629 9823.38575973 8288.47875816 7134.49440299 7788.74609843 9032.10299514 9230.54299747 9825.22181079 8326.37193189 7384.3673793 5214.76147175 4426.99657678 3986.29450201 3713.65876343 3507.18467706 1522.90497131 1397.57749824 1236.3769732 1057.81785407 1001.25262174 1019.00601012 975.779141925 1014.08086927 1068.65073934 1116.81108703 1217.05493537 1246.12939687 1297.0270291 1321.70444277 1353.77662436 1427.39543023 1521.09991422 1605.53123816 1634.68655821 1633.93957465 1694.46422959 1774.34868194 1831.12479809 1886.34959447 1908.60697981 1970.8111458 1915.27937846 1995.61187953 2075.54578289 2249.10180174 2504.4374705 2667.94601665 2649.66839871 2497.29585724 2427.86212245 2457.99950314 2631.2284995 2728.3916536 2627.61870538 2543.77628646 2421.99908619 2348.28724804 2492.5097181 2470.15138308 2500.12388634 2844.31108681 2621.77585858 2617.89000679 2252.45881595 2787.13326378 2718.9765874 2306.13773893 1765.09369437 1541.94031712 973.705307143 767.530076332 651.68132522 558.117751637 463.442198857 311.39922215 258.151824958 211.613938761 131.96754702 85.4036066837 61.7053889078 46.3133823312 51.9118243016 51.5364157351 44.6860528482 42.5950621516 37.7490829504 33.9112669157 37.5629240318 38.8668097078 37.7058733268
929.898216235 839.115161248 675.791635839 555.19809056 363.273746931 255.942310071 404.699793754 595.937107757 578.210326439 427.155209003 295.909952437 379.328922955 538.385602677 594.609062125 584.917120755 607.415107228 610.054980339 626.677872618 470.285496157 362.225672133 356.606651639 379.346888995 349.236162259 339.629297494 331.592349497 284.309853676 273.64082784 260.853169346 271.729928894 286.252028025 295.382950074 306.514498522 319.118229628 337.091675824 353.123878914 351.319887116 332.680490134 315.634214577 313.9577239 312.425064705 311.724262261 295.045253237 317.668672117 312.39073692 318.304240219 324.557746237 328.27625256 359.267375856 391.243119861 405.174087906 390.50521431 410.14799479 440.303142408 451.843256286 464.091184263 497.496176463 563.20015851 574.393065201 578.84949407 737.947922739 931.45407306 1065.32045078 1243.77123763 1522.51471374 1705.86502831 2164.79580412 2374.58863468 2674.46244069 3060.48466961 3402.51037981 3911.350605 4308.18199551 4623.63643641 5096.13284108 5567.24378289 5896.77508513 5958.64396299 6161.4871836 6385.45598574 6517.21951018 6556.63447498 6446.85157702 6312.31550001 6116.78502315 5923.9874975 5391.48924806 5044.14056158 4753.72036816 4372.81123861 4246.42570651 4139.87338972 3734.67996401 3467.03594117 3009.21233224 2763.52877276 2499.37771716 2433.03271823 2319.36218312 2102.70926731 1694.99311523 1494.68152012 1294.73285502 1176.46001395 1076.06897485 911.167200405 839.143562688 840.3346409 855.990598786 831.487835444 806.407872366 811.210866097 830.786656982 887.83785826 946.35562501 1079.62479062 1535.93523327 1671.45458803 1794.63912162 2017.08308459 2792.76559631 3168.44956656 3445.87851251 3727.45492899 5463.2048413 7410.87650914 9003.06478286 9949.77787527 11888.0787324 12493.2330671 12816.5259668 12496.7206984 11162.4836378 9096.12654158 6712.57836814 7591.68282951 9555.56186343 9630.85281468 9703.12793812 8476.93377011 7607.73494867 5003.41735538 4140.77722045 4160.40685743 4806.63806072 4004.40389744 2773.02340106 1606.69569575 1424.08638426 1185.96408875 1088.28660495 1063.62508397 1005.66376216 1058.01229897 1108.73364236 1207.81043704 1249.43290036 1258.20964503 1281.77778176 1351.56504043 1516.14000052 1639.99400193 1733.97485234 1793.92882307 1840.65972483 1892.63455319 1991.37183885 2070.83251295 2076.64433516 2065.58594301 2029.46897011 2048.85372955 1965.607848 2023.45795908 2052.58994012 2167.53298272 2336.03786193 2462.80935296 2455.37335801 2372.18860525 2328.21205593 2427.53794003 2633.99667738 2750.58978054 2682.69892629 2547.18262602 2440.98906001 2398.26600903 2373.55939264 2648.94263823 2707.80400841 3007.55139358 2958.53366797 2890.27559527 2836.51124097 2834.59591799 2807.18404278 2417.89541247 2301.91009656 1747.39946856 1334.08935526 775.273443328 603.040067411 596.4889221 587.654908032 478.998203321 367.496576079 244.554391067 157.017820527 103.92439363 86.6951804508 69.218224436 66.2988690777 62.154995493 51.7820244774 47.621542838 42.8737498142 39.810915381 41.8309721143 43.241704097 43.5276762984
1159.96103244 1030.95355308 917.368402954 732.299416948 416.798185354 285.511583761 462.452643053 697.939216281 731.389868012 653.441113526 582.71068533 629.594770162 683.236181428 636.411727023 532.722780397 599.821935965 721.815998507 700.096976546 544.688660775 412.267925635 396.82831996 396.08182172 378.979666495 322.562299566 283.771677107 280.079089412 276.74783784 258.770253825 264.928919558 276.349657068 286.803738554 298.543118387 377.178384151 324.936399824 338.285284397 339.102319204 325.745873539 311.947216673 309.955297648 320.433028908 319.967422591 303.244261867 290.848388998 301.429350439 310.519991599 324.844645353 318.648121577 318.454193154 338.750769632 348.925770127 347.559748647 351.510976495 412.631151717 444.369239596 444.772015904 444.546251129 488.938794031 519.757336153 510.925999768 589.653081685 728.843446466 857.130605498 1015.83429021 1305.52717044 1604.64458566 2024.17612094 2408.46246401 2966.22929323 3391.59289669 3513.66314693 3838.47656642 4197.87970875 4489.70002365 4793.89050168 5290.42600449 5843.94627478 5929.85551819 6076.7223305 6309.91651095 6416.94846423 6380.07103998 6204.66705823 6062.69023387 6015.78701731 5942.86690868 5306.9595056 5047.76969068 4874.25465712 4408.31412348 4131.38553273 3838.10022139 3350.35868389 2955.41225126 2812.58529156 2600.05172646 2433.00360952 2376.15703509 2126.1731303 1752.80624668 1484.63637364 1377.73159253 1211.26803932 1148.52606577 1040.42843662 935.788940736 872.951321221 844.852634088 831.515500539 773.434856991 749.433205076 757.293190645 774.878871544 765.384492728 803.060607531 868.615284099 995.688277363 1545.32785156 1760.69710939 2067.64231227 2982.50711461 3584.81422014 4259.29071685 6261.32431403 7999.80665923 10095.0777342 11385.2311879 11721.1998383 13053.8221614 13972.2785663 14697.8251984 14701.1039948 14258.1603486 11813.7164511 9755.58981508 10134.3241264 11028.3799922 9645.26028002 8097.09358636 8037.05247553 8201.22980556 5561.07271965 3137.23272927 3519.85146029 4951.31946637 5152.54649708 3955.2400249 2716.21953684 1535.90735533 1208.48495393 1001.20412027 986.965931666 1118.50335694 1095.64733169 1134.28061459 1214.26264224 1295.45523093 1245.16126827 1157.81867539 1316.12994054 1597.47889903 1806.35915729 1924.14574031 2052.77112338 2133.00882077 2207.80376255 2197.19575702 2318.99313515 2342.75144429 2253.26630764 2113.65611278 2040.13134305 1984.3263587 1993.05887394 2021.78402449 2057.67786372 2131.86725531 2143.45483045 2172.28691851 2192.55862246 2197.22081917 2290.31047692 2447.44473096 2603.79953 2559.16753315 2479.29274303 2387.63801274 2424.90045518 2427.55370752 2794.85054484 2846.99305104 3103.14129468 2887.25356148 2658.6123208 2679.61856397 2842.68507123 2909.13351172 2742.67476184 2515.27455156 2159.64982596 1723.47419009 1022.65951281 628.33171606 647.492668561 633.172702822 592.24221713 509.764173255 334.89102986 183.533550607 150.913221611 129.188415761 113.819800695 86.4640199366 73.3483679364 64.4684808389 53.5048735511 50.9062406711 50.6337830544 48.8390163645 47.1936500063 43.7798624107
1529.04785287 1330.23200043 1050.30155224 944.131548767 788.844255074 774.084957184 759.078323347 931.390664031 1049.67732068 1036.4164979 1000.01486322 953.72703874 802.781379682 518.223736532 434.504910018 633.907991845 780.617630274 795.679977787 729.70974082 579.362763671 450.263138395 405.021266068 348.767012058 287.70340442 273.930930308 275.159191303 272.811189589 303.026744677 261.94684572 262.735893043 275.471602194 359.264617411 378.294941469 383.504662119 317.1213841 389.696441855 313.278043708 306.3107236 312.114839244 329.368783797 341.089298169 321.331691116 292.715383957 288.095924661 314.466733274 334.424042364 307.607783402 274.578373528 262.624764148 276.670682165 285.370335744 297.664311651 372.68007541 427.988372482 426.263070597 402.231070341 420.504865955 467.238415021 499.574279926 554.287678742 618.170053719 713.099083034 873.500375957 1164.42574106 1375.5250304 1704.69733571 2296.01914102 3039.84230226 3553.48945979 3599.81259777 3683.28012348 4202.05898335 4475.17668364 4544.89037604 5009.86257647 5521.33191943 5926.72389089 6176.10455751 6460.50435817 6474.53041252 6426.87806585 6330.37952074 6092.13477861 5863.21118762 5622.97437688 5105.12398044 5117.83172743 5013.48905864 4232.668015 3736.78077886 3278.48650858 2897.06921087 2835.31120249 2708.27558494 2516.752179 2305.82693381 2137.79989973 1725.99264187 1410.160282 1364.31699032 1290.97632785 1175.08403346 1144.09865753 1091.94427014 978.039291139 886.601107327 847.479258409 774.284169968 710.712269371 675.202999053 704.260018259 730.781968945 700.245258118 674.170900961 698.431138196 801.112349687 1381.75352371 1665.45454901 2012.88518502 2497.00392156 3805.73960961 4865.6179725 7454.32507324 9909.91485603 12751.8499007 13958.3136944 13331.9389985 13970.4893571 15182.0654211 16509.166114 16956.9688797 16705.4101116 15449.1048525 14363.1925921 14077.8950948 13878.3214149 9809.4035468 5484.77315166 6379.41204982 9183.58554767 7799.3225951 5365.98938094 5006.55253733 5571.14125247 5056.86763997 2807.20624538 2673.15276433 2486.00316668 1312.32328864 1030.86889129 1011.62610757 1162.76101656 1081.15595339 1072.3298903 1177.5714553 1319.34415056 1278.66034713 1154.02563681 1387.16066463 1808.8572348 2077.76347582 2182.2316584 2246.55534353 2317.74825541 2350.65920346 2420.69638421 2545.72892138 2575.27661369 2387.49190571 2183.29745302 2050.00007711 2034.54831936 2053.30684969 2034.43502638 1980.56653275 1879.68067798 1884.26548392 1855.49316018 1905.04524012 1939.2882221 1989.41795726 2145.00712828 2375.64889885 2377.4173414 2320.41616256 2323.51561118 2412.7510755 2830.14780929 2827.77010713 3303.61686778 3187.71530102 2852.03524963 2447.31367557 2489.94569302 2877.30775621 3217.08053975 2640.05858008 2294.98322041 2294.22564033 2221.05300612 1374.86837704 1020.42119526 946.464169861 711.986425632 623.017707874 495.134420394 339.877597678 213.296461119 165.144871606 131.701383159 125.683097812 101.337271981 84.1640593069 70.3997958529 61.4366028967 56.0470461455 54.9246174697 52.4410441621 49.353634556 47.4644421829
1738.21998272 1466.63270605 1251.1250026 1211.5119757 1311.1211337 1395.63900427 1534.99928613 1657.04900108 1696.56256689 1696.90576649 1415.31073515 1300.94706112 1069.41954564 703.104088455 611.880914969 838.925865631 902.140050582 908.860222926 848.459623925 674.857724907 490.990600924 411.665372353 319.366717328 262.856892992 267.108180936 273.317254909 305.267718613 291.950699523 267.927879841 255.192898135 262.399382078 350.223918644 428.411275084 397.063642428 402.685399402 403.576459866 297.003309796 297.29116911 307.651589226 328.32736958 349.982510117 326.117270506 283.944542768 269.494936831 280.847024887 294.10598698 268.003324346 234.09330425 217.000208673 226.655790559 224.086039921 244.026182953 270.034642237 302.189466858 333.776804505 340.845456617 357.137446486 380.375511752 386.29725096 400.780641011 488.449399127 577.858152353 739.904086419 873.226014698 1186.11641365 1465.49952251 1992.17955141 2580.10512516 3185.19169764 3383.19219778 3632.36596109 4064.5998929 4429.92258395 4556.06615217 4950.45572287 5372.72578895 5731.39338339 6260.86581299 6817.99344267 6681.47937714 6436.91535846 6645.78434509 6325.2106376 5645.91527676 5037.56654728 4689.53085516 4367.90882267 4043.85636442 3517.3355059 3094.97366115 2790.54073214 2744.4691036 2741.82482078 2552.77914463 2349.46129753 2072.91305196 1745.03048872 1486.59994637 1300.45548683 1303.34707616 1246.27729064 1106.09404993 1138.63972525 1082.05722846 956.854812445 892.183492516 843.83896444 782.470241465 683.945959444 638.204789523 682.313515337 710.287157113 670.573367672 625.746761714 639.154868116 698.679010028 1219.9069804 1526.67229223 1880.41786404 2347.74080377 3680.03325122 4817.13157708 7685.03175672 10576.1399774 14104.9549103 15540.1905006 14497.0014884 14317.1980265 15738.7249847 17382.2929144 17842.715951 18051.8739724 18381.2737746 18405.9449019 18274.8304898 17990.048573 14339.894699 9063.41305658 9343.93496225 11792.7854135 11061.6894564 9336.24848286 7609.23267549 6435.60579502 4312.20974535 2046.77758185 2294.1128304 2649.32499871 2313.89554248 1320.89221201 1266.59946641 1269.63970951 1116.45489425 970.063225737 1144.65590643 1398.36607214 1518.16746645 1583.01439923 1891.46278691 2280.63252465 2407.44154697 2408.68048114 2442.60128469 2482.87295844 2491.99632024 2474.86188494 2589.18804753 2619.220972 2410.3135685 2156.67933456 2051.73232191 2106.65751643 2188.27958982 2115.67061432 1921.84175901 1783.54296519 1637.29700432 1607.55182808 1646.64304879 1668.15305875 1736.08232209 1819.29204057 1949.86466519 2214.94932364 2203.28656611 2254.82506879 2339.65920959 2790.48877834 2906.51869745 3317.57079056 3366.57421087 3107.26839504 2751.04747265 2869.89165892 3529.03642022 3398.37422005 2731.15609903 1981.5009756 2074.72960478 2586.99124843 2333.81178122 2078.34350173 1517.12932171 1051.65243475 628.777175386 418.087303521 287.211678222 279.383006531 197.261587219 150.910289854 133.043212381 117.59746697 96.0887870144 77.1354314164 70.3191732783 59.0545289372 55.674190362 53.633579178 50.7258291541 49.9098172605
1765.44287589 1309.24071157 915.520029396 1069.44253259 1479.62500743 1807.37749894 2016.95529215 2113.86030577 2224.32519687 2199.91106463 2099.70988802 1850.46788836 1458.32340933 1355.30282425 1154.442458 1165.12718151 1065.72566694 1013.28532654 932.168169276 831.220683213 528.10135883 446.210127536 347.898155454 277.063834906 291.654603168 273.746224727 306.622266444 290.013368721 262.480943363 258.677332699 297.366941943 387.567488116 444.228481861 412.251773581 420.457559212 419.153842309 404.337011461 285.692391052 285.593918619 299.455025073 311.010093274 285.836462239 256.168725033 229.173371001 218.239856062 211.525101834 198.270543794 172.908577302 166.272906126 161.470343781 177.301871316 187.608183838 182.98474076 180.740467612 203.934575906 227.118640742 277.085856302 294.017865313 297.80223438 268.785376674 315.561739753 414.282308661 603.991075917 725.237081373 852.125809724 1105.96997471 1407.96224649 1853.68331852 2484.37204538 2970.86357333 3350.36603819 3885.78195951 4332.74224415 4648.25557508 4981.90838053 5194.56142208 5531.84680257 5939.38849481 6551.47076005 6388.03032271 6184.90937256 6630.63228381 6202.99842362 5218.2439264 4525.77980173 3927.42672 3194.67727964 2602.88215349 2596.26760403 2440.04932132 2173.59453692 2163.4550935 2175.89402815 2108.22421334 1947.50533813 1679.51427039 1498.70931437 1311.06900728 1235.76988404 1192.33252017 1117.4751865 1047.88786507 1043.72189708 992.896053264 906.226311931 874.222315493 840.990148675 783.50597656 733.237357737 695.06075147 714.914085365 711.72423755 665.522074326 625.958130183 615.181295336 630.141495918 1087.49354039 1346.1329476 1631.12616385 2061.41074515 3214.93983511 4165.0277337 5679.37220959 9189.52612429 12362.7335403 13937.4605335 13155.6766803 13929.2709449 15519.9195743 17166.8122453 18340.6306596 19963.3161463 21659.5990714 22238.0724954 22814.3655164 24528.0856177 23936.4580073 20309.0623354 17783.2016544 16821.0344995 15739.5758233 12107.1138317 10838.5067587 8126.16443031 4190.15156441 1592.69684514 2158.87602869 2867.01081481 2831.35404775 1643.88192732 1508.57960351 1412.73690336 1255.32523108 1122.46284933 1308.62792553 1561.85010675 1748.39608311 1993.75908159 2415.80398535 2843.20110075 2767.31925942 2604.2719855 2608.98444683 2727.39355448 2686.43750904 2517.9513311 2468.81851551 2438.01057684 2291.45613382 2059.74116347 1998.81408647 2112.26303988 2283.39545226 2135.13143805 1841.28098323 1546.68748583 1379.15718672 1323.69787949 1227.55021029 1352.51937684 1427.28842423 1608.79448951 1750.43164767 2069.04446617 2133.79297311 2196.69903569 2557.82040468 2818.57274497 2974.31421082 3383.67483894 3566.1794342 3821.31365259 3677.98924918 3743.18208591 4293.12924059 4163.04304152 3360.42491549 2411.91312009 2556.17009731 3049.7771606 3216.23628935 2719.29059149 2333.41521314 1622.92714713 906.223631498 388.879201234 249.801897965 295.645240824 294.13342298 191.198132722 151.5700333 122.609295315 81.3737104806 78.3579272692 73.5830823925 62.6028678934 56.9888843787 51.0938590213 45.6332647496 46.7753960019
1938.19905239 1413.25711257 908.687011496 1140.6275983 1868.60248656 2207.81613272 2681.42486592 2737.46314021 2674.58720276 2646.51444907 2531.2067795 2504.31652744 1944.28250273 1681.59102789 1617.53340002 1421.71507159 1200.61340477 1082.393762 973.510619269 863.452276604 564.687379493 496.175405067 420.271522779 364.254967391 334.642854169 322.642110127 313.280265128 301.07220543 323.823240937 316.602320086 362.227564193 416.120069674 555.082872131 586.551965736 531.057078357 428.58478014 405.885118754 273.608557935 263.445773905 257.713200211 256.180394433 234.304488599 205.468675311 190.919080387 166.393552565 151.695692341 125.695474356 116.115819543 123.785599169 126.44115289 126.873585564 129.948890424 131.548726982 110.569945988 140.008911509 170.351065785 184.810867146 201.082721467 255.002068567 234.584128124 245.810561473 361.845404123 467.993209455 506.789586526 658.733897907 819.045348773 769.216050761 1161.19937515 1750.40135588 2240.96467053 3003.64492655 3447.74614156 4269.36199314 4930.37424546 5261.51532724 5250.39064914 5528.54943624 5756.96896312 5748.70051717 5690.82706818 5541.06457125 5358.29021076 4840.07121009 4314.8423186 3846.80267021 3391.60678937 2702.94648118 2102.23472369 2243.57348958 2133.14395893 1834.6262684 1813.22383534 1767.14567881 1602.43744292 1344.77282274 1188.42667564 1006.96541782 975.310065705 1002.88618112 1012.31916577 955.308028792 956.696259675 945.49886257 897.139837323 848.845218668 843.407469586 828.463692828 798.144469188 823.496120617 745.117726978 717.383218116 695.554470645 661.36025641 594.234605655 536.985265528 505.050542837 504.918970636 1082.0841751 1331.01436165 1655.9624555 2077.47132545 3119.88357934 3832.38933832 6115.25503518 8443.82759475 10323.5068186 10927.166858 12900.1794322 14633.5651087 16825.2016341 19799.599922 24862.3944918 27233.3587762 26200.6607205 26503.6000122 31974.6719975 36316.5281933 32304.9664321 25736.9084257 22654.1224908 20109.3150611 16302.3618084 13547.3003213 10374.2571378 7018.6840036 3888.0040576 3388.74317386 3593.45714032 3369.7402426 1853.21375957 1625.36276483 1639.47728244 1563.18211666 1482.63432048 1563.16413395 1734.64072715 1942.22653973 2185.44169677 2569.07942146 2993.35574488 2873.74576787 2666.06015953 2807.31669702 3074.68961928 2964.06492283 2630.66530744 2346.59116864 2196.95048106 2062.53431943 1872.37964859 1827.27250516 1890.50588071 2001.47405341 1823.31128938 1496.69931168 1269.09742781 1137.75468351 1002.80800199 997.251833444 1113.61384495 1198.62483223 1359.25963131 1589.38916685 2058.65732873 2134.95172462 2123.96741725 2522.5617044 2811.23631819 3006.2323487 3250.83141989 3506.81487554 4169.42960508 4847.13328778 5066.16206598 5532.82559405 5413.59415914 4840.46749401 4294.67228926 3993.19248121 4224.48219792 4291.12236978 3752.84739058 3309.47165014 2771.73618378 1452.15173651 783.732412478 562.2930749 545.805017007 368.709748132 292.513819806 174.664336846 134.489098876 101.542054546 80.6022900088 74.3347494542 63.7801410919 57.8065317088 50.5886245228 44.0285094976 45.3385248556
2338.26051017 2009.79322431 1767.19665617 2009.2885506 2534.72076987 2849.1368378 3111.5040818 3235.82156833 3460.53917839 3306.03978117 3251.44261691 2941.45427982 2335.18945579 1659.61729985 1633.32303358 1674.82530187 1229.34709613 1067.76305625 969.357777488 854.30986904 648.305573172 530.309876568 471.721107577 385.055467149 362.792621033 334.899680532 334.654377893 383.779858054 444.876551379 384.036582818 472.520705776 521.898138023 582.339779382 615.362265919 559.579746851 518.426365732 414.909181191 364.215962765 242.139672899 224.106448107 210.930350676 189.383734389 172.039554155 150.391961454 124.411546463 106.638776896 88.7553646543 79.5478094262 94.2261555956 102.214278692 96.1818074829 95.448554722 111.538479211 112.797068489 124.845536355 145.98980606 147.353916646 162.193955277 203.101270893 227.53225203 246.439896996 310.700014871 355.493475192 421.750145315 555.184199107 621.34737082 548.425834941 831.065917422 1412.66264451 1840.11749895 2488.15701792 2951.4917848 3755.17281759 5053.57440451 5720.50434065 5073.40774351 5509.84513391 5974.92595677 5365.86994702 5010.39349279 4788.97000799 4329.49863521 3690.52761126 3567.2741309 3412.01180489 2896.85781714 2645.8403901 2386.62100881 2144.07854652 1839.20353056 1646.46355956 1480.5063343 1185.81240561 1074.65924585 900.941073748 844.671607788 701.093258312 643.58890061 668.650885102 767.941866177 825.228021629 850.490419386 832.025355917 875.991825491 827.860826257 883.769590432 876.283384579 808.514044692 824.294846251 773.867791583 738.022880328 675.335681443 630.285989678 532.629319087 455.1114909 411.505747357 437.709479651 820.377478527 1024.65239924 1231.81503195 1507.12347938 1703.34763555 1921.12442622 2261.61672591 4833.1118164 6962.81599105 8437.04473177 9885.00403804 13088.0974301 16021.1495924 21471.2012541 31552.4647399 35576.2105967 29331.5793707 28888.1287971 35888.9684154 43492.1459365 38153.5607924 30424.8557062 26931.9128682 23911.9134271 21139.5272652 16601.0530305 12939.5523007 9839.83148601 7258.28677365 6542.826762 4475.69166768 3783.96881266 3125.26116161 1741.26651934 1649.99089488 1680.96837994 1674.06432697 1712.11153978 1828.62519466 2046.74392773 2196.2068244 2394.92674118 2704.71273065 2756.6161343 2742.79581307 2917.81947387 3203.93107949 3076.87494668 2552.53208721 2221.54327724 1936.60842087 1776.67000347 1607.70384601 1478.51443059 1459.38663614 1404.34204774 1129.12136238 922.656482317 928.648976485 789.980261171 770.679437495 769.558877544 798.424880689 949.108132723 1047.19312696 1406.36886858 1983.7644525 2140.31153571 2086.94213079 2463.10297228 2854.24616012 2996.21831509 2887.81527304 3402.76598927 4455.11767283 5590.58124099 6460.13430361 6703.17625413 6610.71008459 6217.24067933 5713.10291272 5383.54311532 4950.96761619 4873.91047495 4639.97519222 3850.16563107 3172.67826772 2232.12272514 1175.62938789 969.148897283 787.654670273 704.172611123 355.771243856 205.849225536 151.604013076 114.971686091 76.9262969268 70.0118182097 67.8658782495 62.0999635942 53.0943704171 49.5697118859 47.9699145575
2724.46343354 2712.32088117 2697.6069643 2855.30467363 3112.46582497 3364.33734344 3794.37189361 4124.38760968 4265.9577438 4050.78162122 3975.20762181 3748.87448711 3071.63473213 2253.60260697 1894.35604289 1750.5856287 1273.85116287 937.455540684 925.369230667 736.797487084 600.039100122 539.956387179 485.380899943 399.032535758 299.251534975 352.115860981 335.079408477 424.066667551 502.741973733 477.30068977 459.883898719 496.59283797 657.250279484 636.20334884 688.137740979 642.373405565 490.394074142 420.462374821 311.944907485 209.710045295 195.376592206 169.006339901 145.782843154 125.659687505 103.221882057 91.6168207086 81.0920168867 78.7423847263 76.3155432084 82.8027403146 75.8073412538 79.899241439 92.3783976612 111.019573268 120.075476571 133.487550526 130.28265562 138.95281205 170.263673633 200.344711782 235.133436181 313.485641118 362.931727643 387.06959462 483.77573814 614.825376477 650.301201374 830.102862631 1239.53138356 1618.08297565 1984.57917137 2524.78565322 2912.00710455 3522.19852281 4256.06058931 4339.21070029 4617.2952612 4911.99254555 4639.15739662 4438.2757104 4154.06185903 3881.19531337 3402.21959725 3310.89627566 3061.74353556 2716.49132801 2628.57846122 2272.69484087 1738.60302152 1481.04397426 1160.73902698 610.96554582 553.815591935 668.158527036 628.096842381 556.246284404 472.715253661 346.113319326 425.191793476 559.365399586 699.634407043 736.319377268 880.864114611 892.686881128 882.905208014 927.598931321 919.099972244 881.816461863 880.521975931 868.188976835 823.022217949 645.999141367 584.292220218 497.229937681 428.132123413 385.306609711 405.016245185 684.541741234 657.220692966 746.487972063 1050.58689196 1158.2120555 884.011726164 885.917207365 2815.26545733 4810.20853598 6300.91985912 7585.65824817 10533.8881904 13186.1948148 18260.1476726 29532.4591652 35024.1701594 27732.5421634 25941.3083908 31904.9851576 36857.0778413 35387.013994 32686.5679674 29926.9589745 27441.9115013 23777.5166629 20222.9404813 15176.8662492 10258.9037233 7974.23419635 6940.78132262 5061.29041719 3922.03512651 3079.42141612 1724.12084714 1608.54480789 1655.86881631 1711.86026759 1721.94258982 2138.48000615 2275.31800765 2192.86151347 2264.97038386 2521.5384783 2629.7709112 2629.7585388 2668.51355538 2754.08248099 2656.24442554 2388.38040789 2093.42292985 1655.03517914 1752.10270163 1552.73168887 1375.89709481 981.027699644 783.817002376 524.087935297 453.52862552 486.304011468 494.990043547 466.494789563 556.897742047 581.177665713 543.823124484 637.142311637 891.910610357 1504.73347998 1774.36791186 1898.27445131 2448.10437548 2829.57669241 3224.03589558 3130.56810843 3813.70522518 5152.91659215 6457.35119493 7439.08855758 7786.76124372 8205.44902026 7767.5690944 6891.04440882 5374.03163371 5054.79743165 5413.85920684 4942.52978236 4109.71381613 3518.20258844 2088.52693179 1512.97870668 1156.01858606 1030.61598612 822.665089353 422.77608174 298.845341589 171.546622513 115.885234541 66.332185133 62.6307244594 66.6255762858 55.7348247185 52.5599629025 51.3168138202 50.0783109994
3056.106987 3108.70867273 3128.82871802 3106.79198493 2981.64509239 3341.23164523 4033.31679858 4550.49420129 4616.67116516 4503.55906175 4280.19517588 4175.36126682 3777.8044796 3135.27209544 2309.33083469 1820.94799218 1155.37785646 766.97425308 924.899391359 782.77883088 590.602819028 536.360176731 482.509644968 387.871079102 344.824786708 340.056306693 348.375643564 430.016468636 509.759614893 451.027982798 339.681621462 415.8572529 617.717933092 781.578962138 798.858888992 646.94594953 574.996957322 496.418014926 367.933681609 203.774762429 187.39918541 146.741487328 118.921188525 109.582386359 88.629603543 78.1483863438 76.4988260513 73.5885620833 71.0191706895 65.7561418195 73.1929302233 73.995256912 78.5441373488 91.1186948774 98.8757106451 114.712686331 121.868948293 124.797213824 139.304554993 173.620501508 206.314132774 236.088490262 304.476639694 328.535032847 370.995159517 499.912663263 620.418995586 891.57328009 1131.13305337 1368.99693109 1570.82479604 1798.73710675 2361.57451848 2355.60413984 2816.74152273 3156.7752295 3680.73453475 4018.53184858 4420.19896849 4194.53318436 4046.42068998 4009.78979952 3444.08019304 3011.5378847 2755.48876329 2539.74718327 2238.62080555 1763.98121279 1408.1602885 1087.45041516 844.041564718 449.6116119 434.92322169 443.912985996 332.263529389 369.033423836 352.147865063 343.394678938 405.039256191 485.490163584 570.025083668 777.628552518 1037.43186133 1020.1235383 1108.7196622 1225.69710982 1238.37707294 957.600960726 901.208779097 880.443825552 834.062390882 645.713274464 577.212683561 513.762223352 422.441886688 399.974995081 553.296715394 759.490852332 451.276653883 548.466465975 1058.38593186 1801.50622602 1313.07039649 1120.42093821 2411.22963152 3522.75584917 4520.55694729 5501.19249564 6527.69933405 8844.28038648 9716.12775813 13297.4793275 18944.7720524 19593.6374662 20555.7399313 25325.9036957 30230.1111087 34802.7125024 36647.8984007 33179.0269807 29665.7101531 28628.7484681 25358.45367 17866.8725609 10069.852648 7335.64934065 7309.79580549 4883.77476273 3472.96178272 1915.72128483 1618.5728654 1476.01678466 1513.53829481 1811.02026456 2000.77552996 2276.22522981 2438.11596788 2283.71562787 2387.62923982 3105.41366286 2809.76195919 2704.24990921 2329.39420729 2126.90701437 1990.93960861 1862.42108493 1716.11911947 1375.33256995 1748.37763653 1559.50716766 1158.67472051 697.114880091 565.413797416 196.137931528 136.877934106 233.689690427 301.941249711 264.592623133 266.377190286 289.663702682 258.34418668 262.398530194 363.528532047 847.021283871 1230.34385227 1499.41235339 2255.10962658 2840.0220521 3643.67072597 4421.98376075 5452.04409811 6506.11037918 7444.92800949 8427.96537133 8883.16408244 9418.76490682 9059.15751524 7680.07509252 4869.84148431 4761.54790273 5867.90837472 4922.23975542 4192.78127222 3585.19523289 2521.04584561 1281.51775801 1049.41108169 1081.94204976 844.659864846 429.235743291 240.373758603 187.547135771 139.42504975 80.8188638074 72.3298139687 67.2934849228 55.6054822885 52.1074891063 49.9776250466 48.077973961
3175.14797689 3173.52930798 3333.54112525 3343.5278882 3302.87033078 3763.18034578 4554.13092068 4598.0975365 4478.62960268 4774.5992282 4475.61364734 4225.9229907 3991.43454857 3579.69854262 2908.73763914 2119.82149189 1647.68230975 1270.64303785 1219.15803337 831.862365083 624.658309895 506.205924342 427.895504104 361.230747007 305.167395792 345.846991633 332.094092265 342.073365363 534.022100933 464.382532835 266.830442121 350.985203532 688.887180439 760.692906741 721.324766098 696.858572141 571.389561548 468.040430922 453.926451637 261.61913829 224.632221496 127.131815947 94.9780684522 93.0943944026 78.9583376782 76.2634453061 68.7076260299 60.1362104262 55.3778295964 55.9796712011 53.9266605632 51.8102163906 58.4898171934 66.4589725715 79.4286692561 82.6757013328 82.869251731 88.2673273149 110.256787977 124.807323482 158.601947703 165.795047436 178.625112263 255.513084447 320.12697762 397.83734399 579.163055392 874.328047156 1336.89401939 1224.98201558 1510.58164388 1645.47794008 1899.13600151 2320.84322996 2502.71071884 2667.05793885 2927.03201452 3189.63731227 3672.59501257 3513.38723967 3914.73504342 4082.0239037 3033.864404 2694.93982018 2080.26357864 1760.10491439 1327.61922854 1027.74719781 935.995619367 680.85718607 643.602113578 515.406876697 467.58918069 368.162051086 276.744611821 320.310317563 333.739831524 373.042174202 438.033108647 508.576530548 537.547679915 743.269422103 933.746971266 767.965168696 1095.2859372 1399.25735727 1432.57051364 1230.56867406 886.676134883 876.331585876 815.542693767 680.239730664 606.24047614 535.562373925 674.715509495 648.080838197 1005.64440037 873.304921112 513.783622657 612.223403801 1866.66789452 2069.53990295 2076.17027778 2051.70931343 1756.40278269 2635.00263617 2909.64993702 3540.49764034 4007.76630265 4091.95937878 3079.07912705 1679.34122017 8286.92114003 11860.1764609 13669.2369413 18397.5395258 25141.5726179 36568.9561682 40493.0259765 34397.4605122 32703.792326 36023.7935543 33063.5658523 22923.998506 13716.227725 9278.58710438 7224.63722463 4623.94436618 2322.01370525 1773.01702489 1577.74992406 1325.95713719 1428.66528298 1852.82705817 2188.45667415 2673.20352673 2915.64412101 2929.60322913 3073.30883816 3255.94379893 3202.79274565 2632.64698208 2243.93505794 1627.40311066 1453.60948747 1520.73987537 1529.93604157 1307.66160307 1548.06619155 1726.40061828 978.037638642 749.381487635 519.981824952 180.115176314 117.396914029 200.848137502 197.224761227 150.726178309 121.727102595 175.009821227 191.725699826 121.639886607 135.127041035 376.938117201 901.332441447 1211.60383994 1644.63177927 2639.65675377 3857.54014769 5257.96899283 7325.91259483 8194.45491546 8557.51843869 9366.20171391 10004.6190156 10724.5857959 10909.4663398 10181.4913 7742.23076724 6781.38107421 6598.73633693 5147.23686811 3257.85497185 3430.92836684 2937.03193799 1739.10840004 1417.24893535 1133.89004575 780.976306292 386.011599324 267.216810551 190.273052729 172.640584071 131.478756422 91.7651280528 71.7952335085 59.0200343978 49.1876526146 43.4108996036 42.9306065696
3106.15303295 2974.38570597 3267.48097887 3683.40027493 4108.72029541 4527.22214003 5139.37404193 5024.26652501 4861.2274723 5178.91801853 5049.55456462 4528.37905449 4073.70404127 3657.04650597 3138.45811448 2407.33760858 2228.7407877 1749.55397501 1160.9593936 870.834881842 628.975174625 448.46593802 254.362744399 246.104941123 354.990685181 373.883372719 342.755465286 372.466646481 463.324577847 550.03827471 600.837459361 743.681595144 976.993165532 739.684501828 498.183128768 793.785885789 530.471041087 423.446866148 506.65557013 305.659082663 241.56001424 159.687431948 97.5711153745 86.2680365484 74.99958197 63.6907977218 53.0139659206 50.2200924873 47.6865163752 47.4628783838 36.7442894124 28.612610383 45.5795773633 61.8230652547 65.0333430289 68.4525457746 47.712449973 58.5212880401 91.0401446902 105.193784405 122.640900573 115.507984629 99.4868983572 188.833195617 272.290152774 331.920292612 454.35594518 592.520759276 845.670189587 969.675079122 1220.32211343 1505.91351415 1578.14270637 1801.15188281 2273.17801583 2619.18160316 2584.01919205 2785.95188622 2658.73719828 2799.47390505 2835.06700946 2601.73274999 2337.73168719 2106.19359672 1743.71432173 1402.48282966 727.735046124 618.019789239 723.161631069 434.535028189 464.447715382 500.798680175 379.892184326 293.919677274 271.923981434 274.909780351 294.384644825 361.587695171 427.43553437 604.685145977 488.293561004 1073.04709205 1283.62657568 1084.76800488 1571.55094517 1819.01619149 1604.90767204 1470.1325903 1188.89913519 917.604633536 793.106690113 656.961475053 614.035875188 687.868710654 709.373874741 1092.66621672 1552.29735021 1409.32770787 1235.17207388 1260.87574339 2268.92936856 2903.76862711 3449.53063988 3133.49463743 1620.4477319 712.854535328 1502.87956621 2437.06952883 1605.47932514 1945.38515306 2306.2084256 2330.78928071 5058.33518427 6233.51959348 8243.14019194 11466.0621725 16117.1763818 26797.1335319 32080.8767349 30271.1091251 33474.6468984 41430.9647231 37906.1405195 25648.0888661 16633.9297028 11301.9908064 7032.70177736 3856.37214598 1624.30505545 1644.82262744 1785.98252376 1656.4867934 1798.19735339 2184.56015857 2851.16478919 3290.74200714 3453.32944289 3042.67928865 2937.50476304 3305.21148113 3154.27528229 2643.46708251 2233.86100681 1565.40287994 1347.98055227 1451.99981879 1490.9589653 1264.75263433 1607.20270497 1429.75742248 1130.70690598 605.719164047 982.990880033 621.661286933 388.401719855 219.453174885 177.429337669 75.6557183884 69.5181154334 145.715305219 175.763114934 164.888290942 175.9544167 241.24180822 389.271625031 924.920661711 1325.45584783 2254.12320334 3163.63135039 5297.0998536 8158.37656963 8946.5737158 8839.86718532 10347.7200557 11360.7785879 11312.8707471 12085.9325756 11982.8108032 10521.8779355 9524.53314001 7850.45085154 5862.6789485 3169.14569127 3599.51274285 3585.10183275 2709.82986708 1871.36922875 1106.63800284 580.724306825 320.211026912 270.99807177 206.541173182 179.938541625 144.861439362 101.37285387 73.2505912002 51.9531864425 42.5653151951 33.5974686512 37.0756081659
3128.81815998 2870.97769734 3403.58156342 4198.4867462 4647.27236207 5291.40616456 6129.70404641 6506.41605077 6488.85729029 6216.19446777 5841.38170071 5074.01178812 4133.8444662 3368.64619563 3288.6097759 2618.57148486 2424.69153501 1765.58460201 1099.4978757 759.218084841 599.838190923 371.786502457 58.4136164813 177.229337598 313.281872578 270.165192162 352.42856725 296.768033732 197.160841615 674.855833817 1063.79505002 1391.77499347 1528.08928132 1181.68078596 868.098912436 1060.55180729 953.658628714 624.355112911 553.680732222 413.088029321 253.998346674 108.137844184 80.0608232582 75.6640897632 65.2819471745 49.6571040714 28.3781851489 36.9850228278 41.9998301481 42.7323734312 36.9465888811 28.9398926875 48.9557915241 52.5642050012 54.0886795966 65.790822311 52.8567500644 61.1585879263 78.056223379 79.8720336951 100.963448158 113.960785299 112.538394878 162.08601921 225.603999064 262.049574245 306.561227874 343.219583863 460.62101503 571.381821608 757.444052786 849.387572496 952.634898595 1207.65075966 1403.19732603 1700.61915254 1846.92069635 1949.14973733 1828.99598409 1946.19564959 1928.87533045 1797.26532891 1834.74048522 1702.87880845 1571.28583732 1361.15144267 966.069813008 765.189589526 706.504594308 492.848748036 461.808722252 383.418115557 299.824502063 211.592169003 162.67151519 202.192755767 263.485987343 321.244445219 704.611115686 889.54845205 827.639497785 1440.88781912 1925.95978118 2097.0391674 2215.97294699 1822.68210013 1575.22851817 1742.71523175 1551.49731594 1309.20368582 789.213807629 652.10988163 743.353977842 761.557726942 866.516883228 1334.37600616 1833.74009517 1439.60058502 1034.80312442 1246.57700437 3163.94316354 3785.84402813 3908.42874969 3840.257615 1829.60087176 216.325381285 1329.30205173 1696.93460186 221.090927441 1136.82160792 2295.44502888 2211.74850321 2196.38419615 2080.75513725 4842.04527865 4619.17980716 6068.80926378 14546.6324345 20886.8735832 24662.3443151 29031.9714059 34015.1815273 31312.2944864 23970.7624811 17211.526636 10690.2072131 7047.77053453 4385.67816621 2482.06652616 1553.51914157 1761.50875537 1932.89587371 2098.56267547 1883.46577859 3012.85854838 3380.28404403 3589.75713291 3566.7436559 3510.36404328 3388.4417895 2656.43352785 2727.0710662 2382.30450363 1976.23818656 1632.29312377 1527.86216282 899.084785418 941.330534014 1586.01299345 1370.45771935 702.875927203 683.748292124 1111.45490945 930.102615635 887.887261411 480.617908267 160.165279791 117.96207732 110.103298427 121.230077883 126.773170327 176.623993043 185.984452419 188.494543333 210.195969237 562.337243992 900.67806407 1241.0883578 2161.43826743 3608.71077868 6141.98693671 7622.80103839 8629.88959773 10597.2437395 11812.6521045 11393.5440061 11805.6355882 12001.2722703 11815.0710245 11089.0561992 9506.02365817 7875.42189005 6545.24576149 5590.59528403 4737.26726477 3448.95982523 1923.59139945 1167.67916137 587.464789119 306.078316051 306.069424523 220.836706265 165.327294793 111.830958489 81.2279184685 63.4069528694 48.6919661287 42.3082482659 36.6377433129 37.2072912561
3423.69028793 3659.83096869 4357.894729 4612.18194885 5105.47969592 5785.29867748 6974.27979477 8621.96445484 8602.53504157 7488.86114423 6801.13010925 5959.65605472 5225.96915466 4203.13584059 3532.71387679 2709.77261237 1843.61829024 970.764635863 759.635205218 733.88367956 500.771455534 493.984515109 432.647557422 358.070656388 257.946453877 58.3697059735 353.375446597 306.06879446 249.253208295 883.456315183 1358.36796476 1906.20454358 2273.22053306 2367.6076696 2176.65991448 1810.79675934 1372.44003743 758.059200809 414.707279342 371.046311607 243.396740586 154.739811717 52.7840376292 75.2039485425 57.1713316093 48.3633437822 29.2877301052 40.1981738725 30.3351287723 30.6647612955 85.1931508974 100.156891655 103.228874253 57.7517628871 34.7915153044 101.416030927 85.0216446641 90.7579903647 83.1625862855 61.9216754 88.6430596576 114.966972801 146.478026755 181.966456736 199.315499366 224.02027378 249.244108117 310.069645483 345.009517325 408.075054354 473.050540767 542.101146067 645.363185735 747.608226876 875.586777492 934.153657699 1199.55568505 1349.96974855 1384.59502759 1517.17415395 1605.41262757 1647.65801602 1563.41241866 1529.12535873 1436.86764464 1386.65110001 1217.1497276 1009.36401574 793.14877882 585.750327177 336.850759855 227.04654439 257.146456078 113.328994959 66.8321725351 155.768274768 255.007219044 294.217394101 630.949142013 946.784723267 1512.22971649 2195.88654109 3067.7055753 3153.02562355 3071.24322136 2455.40490953 2151.05311995 2151.3859815 1823.23784951 1433.67459674 1071.22571194 782.551745749 555.558103427 623.0414707 937.497698123 1785.53791052 1862.954546 1444.65496924 179.195829605 1572.04335633 3397.05947136 4073.60241008 4796.50329528 3980.50620572 3714.65986662 3227.42193753 3003.82544981 2755.90672172 1150.49808121 1450.45205333 1891.36429477 1567.56494593 1647.56697219 1822.61009372 2775.2750058 3092.17655529 4319.99229831 9940.25265995 14795.1909497 19312.1274862 22354.3686646 25182.7020878 24770.3315625 20923.2373851 16015.2124074 10433.7822467 6733.0646055 4033.81655905 1318.80190709 1332.8810096 1413.36198181 1851.00207206 1969.8273323 1526.66923646 3130.20333148 2641.40696669 3312.81414603 4918.7173793 4780.87415755 4005.43753774 2997.4897179 2936.61072031 2672.57050511 2429.34517093 1721.99492145 1685.29120448 484.505028247 544.235016516 1799.57182647 1626.35917203 289.527349488 820.277567185 1665.84159904 1597.7210562 1190.09685189 761.473224147 359.627116853 260.421946399 135.761896645 139.920906075 143.317090174 126.353301291 124.75645579 144.114544595 151.276901195 183.03597187 491.835046283 725.021315776 871.522937387 1309.89180223 3346.64296667 5794.24815009 7797.18225241 9629.87428863 10573.8448232 11219.5249591 11806.116634 12799.9748296 13722.8983595 12142.7372503 10867.6482435 9267.95109616 8929.21625769 7342.6681613 4903.9081241 3642.19794275 2033.71746729 1213.26436032 710.880707635 408.533971843 314.088401917 198.818658551 149.187100125 79.3715462996 51.0103631749 55.0597930961 43.9759297973 40.4025689634 38.4837807968 36.7517010125
3381.63130727 4009.08343226 5218.88120088 5015.65622346 5384.85762963 6158.90176119 7260.65516968 10012.7405845 9899.99288414 8288.50699916 7902.12646906 6989.19505198 7360.50683018 6162.49161271 3802.95194335 2310.16660295 1523.54176673 480.238763301 659.960617024 692.35906289 242.426886991 847.860121553 938.352389167 885.971728217 477.036287888 344.116724316 532.356787488 648.292870881 997.046400258 1456.25073875 1749.18647268 2277.75044476 2786.04739025 3244.28377538 3051.82422687 2549.39828979 1797.69898831 1161.06018204 360.194554438 422.793813308 184.429545136 179.645915198 124.401570393 85.2227273514 35.0487932371 48.3288845048 74.9553998358 98.1358580249 70.0825770897 96.2187189425 210.190284671 248.780549368 233.103693992 178.293634954 137.548262717 158.756668862 182.162294172 135.424774956 109.384694647 103.411702086 108.913707435 124.103480467 136.255591714 151.110946355 173.461617527 190.852087046 193.079800902 221.043100709 298.11082022 316.054938919 392.588472844 424.711765088 476.006353089 595.451710641 638.824242144 788.905624338 923.399113086 969.832913077 1097.26966523 1354.0613372 1191.76381263 1300.80511798 1299.30165429 1384.88508337 1275.13828221 1285.86984885 1182.56254571 1009.98972565 883.501905824 648.49214718 309.745919999 112.090736768 291.66190346 211.533925944 159.177637883 181.836536595 187.981944676 573.013861359 354.108848283 293.285067978 1827.4106073 3203.76216648 4193.76147557 4645.49017921 4489.65995761 4139.95722685 3975.35560107 2791.94701451 1857.14605166 1324.00134635 627.970606311 529.214398887 335.389773768 295.999410769 1250.05080172 1098.66271103 1414.55205091 2500.9591575 2310.5374292 3409.22112373 2581.77644103 2874.7456852 5003.28249218 1908.04992509 3881.98537893 6709.34381895 5569.69364748 4567.86406919 2122.11890498 869.329899372 889.626741958 685.145253286 337.777062953 919.178361768 2479.35123961 3192.42796789 4248.11012076 6644.53906889 10069.4283826 14216.1812551 19394.2881492 25965.7862225 25903.0239497 18631.2922274 13340.8272805 9298.02193872 6098.84301976 2369.72640145 381.749007555 993.963767832 1240.24532353 1311.16584966 2317.14606436 3092.09573046 4454.8357438 4398.64361466 5648.51923965 6998.72215749 6283.14726414 5488.85895993 5021.1456655 4298.51765352 2883.99763716 2505.89975747 2510.27319424 2074.12635488 1821.55788946 1835.42595045 3096.88225602 3092.87565025 2284.18066528 2366.92782571 2510.33482722 2249.22595308 1578.008247 866.193199956 661.975249537 296.942561007 135.261441587 136.495076531 134.335883806 115.477987405 118.298006618 143.084134452 160.830517952 196.624088099 224.304138193 496.467221106 633.425535974 849.002092244 2298.20002505 3700.55888829 6126.66305616 8798.99866424 10960.079423 11030.3575275 11898.5511241 12722.7171353 13725.8408147 12165.5859245 12633.4460876 9670.02443481 8687.60693847 6748.3404926 4446.74676118 3202.18660778 1917.93809386 1062.04109802 419.132158263 343.382816962 283.033801532 188.404884033 143.685491345 78.9691748698 54.3896370205 50.1061845894 42.8638704687 39.1248557012 33.0165000537 30.9037385039
3060.04749803 3311.39112144 4285.52059939 4521.25267473 5333.65689531 6869.21507909 6530.79747395 7814.20305039 8157.11614261 8762.5077803 10210.3428745 7631.58588786 7213.43752145 5674.5102244 3209.44355411 2108.91925887 1625.30126223 1199.43374061 1123.65132805 1265.35901372 1083.44321081 1430.64217413 1690.6984892 1422.06573633 818.457958297 782.639052107 757.617253499 872.009269588 1262.57152562 1890.63263355 2017.82582015 2686.23208103 2944.7762968 3303.84989165 3189.01918521 2847.6583709 2287.11812951 1806.1632087 1195.7194099 654.733626678 333.633151804 251.742162862 200.586576773 152.869971832 99.1471293475 106.991158866 190.313827705 214.898010014 232.553710352 249.898861514 314.919921596 359.702717496 349.621299155 236.50143934 235.585355209 263.104297879 230.444941786 180.832233183 164.088815939 122.122731269 122.478321064 120.180025255 124.901130587 124.643841099 141.006164082 154.43559009 152.352754766 169.897012461 173.512030853 222.916418507 229.790097206 259.56796997 293.688367696 291.484344461 307.148532945 371.295720478 351.878364491 497.477389326 618.248171269 771.809717505 801.250904019 944.109572767 1049.64785899 1084.15923749 1164.64135001 1143.07898224 1132.66425723 1051.21143279 986.413094 872.771736489 754.366001426 535.32351559 480.409044226 394.740323849 276.743285855 75.8282249528 103.634085809 657.823056691 590.997589173 791.606389887 2446.52250918 4120.23105172 5811.44352075 6561.10019752 6507.83163595 5227.44227669 4575.75929933 3098.37576239 1270.99623255 647.782748753 537.259600324 524.330666982 706.668640713 1111.17522131 1871.39294364 1003.537293 928.591540203 4622.99982545 5763.93673511 6690.46124016 2534.69493653 3339.33303743 7363.48749044 3125.38630482 6500.62847584 10747.8108935 10332.2645848 7019.18673816 4177.78101911 1008.37988928 1252.14387502 965.884095616 506.039507894 755.814380134 1266.0503471 1923.01294185 2967.75220978 3966.69382871 8038.32665683 10551.9582661 15846.5670614 24411.3639854 24276.3407158 15533.3094981 11339.0752101 8129.19600907 4547.62065601 3119.57281418 1180.184698 1448.9597192 1329.58502646 388.758949048 2394.18329536 4458.23252159 6332.43990606 8349.04391228 12055.2130589 9810.34953838 8162.38498362 6591.89988105 6312.27079104 4653.15767115 2486.1929886 2210.07245853 2419.53484912 2261.49990614 2600.7879583 3935.2277373 4832.20416149 4950.73190151 4330.91485344 3214.67728159 2722.83564108 2875.13810618 2352.36673879 1419.50360707 818.220492904 516.199770541 232.128762991 246.705639191 89.4470616837 125.406638175 83.4347253597 175.911372189 168.621068214 190.897998797 201.478709757 273.352300595 388.370917419 949.825600695 1787.54752645 2650.22062857 4291.31031956 6048.18947869 10306.4470941 10617.5619018 12793.713639 12784.0671112 11542.1057876 10679.3836648 10264.6478492 8466.33764789 6629.58652829 3843.61613492 3355.70689666 2486.55348518 1651.33607738 1022.16402852 460.112382879 315.437623667 263.9860179 159.771426109 105.064512248 76.4814486996 62.7003717407 48.0626315642 40.3008811502 30.111532294 20.1501474303 22.3048258947
2830.36566147 2850.47969573 3127.52657315 3543.61872958 4342.40973858 5509.54772942 5137.46955496 5413.59391437 6175.51307161 7596.58245296 9134.62372601 6658.43901099 5050.10240841 3380.00694262 2279.53182073 1984.08169131 1633.82158982 1427.50552143 1551.06674255 1781.13994328 1350.9181796 1824.45101593 2158.49167838 1671.54640649 1180.4628548 821.742082411 837.616643652 833.316851439 1113.21262987 1543.20355421 2031.354182 2802.37043895 2977.90254244 3321.85595207 3284.11342238 2938.08780162 2547.49360261 1949.08079202 1344.84914093 757.608401149 433.203132055 203.923414033 235.606956737 201.454545825 123.654826556 161.65098429 276.594240248 356.747193484 287.49138148 132.923083239 379.561657881 365.522528405 389.891292756 276.808587374 265.579172577 360.855075209 343.298244147 294.482465726 201.229445831 148.377988364 136.550689732 118.686191121 117.235336575 125.735180136 129.523944246 137.194182782 164.34828037 179.095105796 198.006432451 171.312857188 172.814456639 172.921801479 173.044991842 109.739194769 158.808374479 151.049064436 181.219117939 260.582133036 364.091901378 522.754813386 680.945489915 841.311841738 946.990963298 1032.91909747 1093.77706039 1109.17957803 1136.75803416 1044.08443054 1016.05877261 1098.22649079 1247.86378093 883.306093023 704.250468659 578.343433602 442.311519015 317.972551684 358.374315064 881.896331988 1260.22447568 2257.51111392 2954.2190995 5142.58814721 7779.67936595 8700.3242868 10163.3723317 7167.08285253 4309.64576818 2163.90309236 228.461218297 625.809496772 281.759920402 336.222615716 1046.8314813 1942.57262476 3124.38176052 4386.29255473 5347.06724808 7087.32883198 9921.70038525 11707.4971844 11752.2863709 12277.9017202 13615.430049 15665.0490964 19002.517692 17164.9716208 14238.4840147 10313.9498295 6198.72990867 3232.68397164 2479.54857364 1634.66113649 478.181312741 517.563609136 840.99514093 1227.16850802 2369.69472437 3829.09876523 6739.04672256 8025.55356233 10310.5262684 14397.9800291 14422.505283 11421.0531913 10412.9185423 6813.08770834 4428.74070924 3769.35402463 2114.80542358 1582.70705453 1861.2316759 2606.28486194 3862.76366163 5777.52068888 7553.86448994 9548.28410099 12179.4469946 9518.66191453 10193.9457634 7034.1690991 4322.57123342 1635.24111866 1230.91801687 1682.10835578 2190.58083873 1014.96363448 2092.17590174 5518.9086269 6695.99758852 6856.2533885 6113.12152526 3051.4582017 1144.25323203 2904.56222669 1682.13044738 1400.14544764 365.701589726 953.584034342 613.109348579 393.093297001 217.597210913 199.893032307 181.779912114 190.674279091 195.24915652 161.226736631 156.479868379 230.762680281 325.721976324 667.096707967 1515.10823534 1748.35180729 2582.09328 2622.71807562 5601.0321069 7788.11541263 9882.35359633 10739.9604135 9979.88721008 9255.95611164 7888.43219493 7317.23455166 5733.86286583 4175.83545599 3084.90951938 1662.8477445 1496.66660722 970.523790839 704.415602131 372.365877837 176.226059387 113.835315518 109.945693241 74.4613655314 61.3477630005 44.9337144182 31.9230402262 25.8823283493 21.0555634377 22.8901732529
2162.60000334 1979.74665945 1898.4463888 2212.28771516 2785.02983209 2671.10720875 3147.79839882 3741.76842065 4206.17029389 4737.66138769 4367.54836384 3926.5314763 3143.29837488 2295.23818325 1839.96335072 1591.67470743 1359.45712902 1234.77985455 1648.0469068 1744.20522514 2367.97555329 2446.76748862 1978.28455562 1662.07903513 1588.56746715 1055.11741019 843.314413893 833.815254221 945.120552166 1064.34658624 1711.43717581 2819.12261574 3584.64972324 3633.28398937 3911.29531331 3682.74170194 2713.33726294 1634.09616359 712.190488359 679.553787188 530.27974239 388.43632759 204.660435211 224.651785472 242.440638636 288.31670973 263.459259754 354.005081518 385.934587101 568.311682532 646.817498887 255.819152288 596.4018309 637.980053528 493.4188023 283.7140553 336.976551284 302.073198921 202.036880214 211.431522036 164.78601242 130.97342735 122.281943548 135.249637957 136.760381819 150.410960967 202.646229311 199.073073063 214.316559378 494.996049751 401.062982181 298.744350443 175.47766391 146.064363465 107.063369742 90.0352908219 127.202184968 183.474954142 251.096967605 342.676632419 629.178469316 825.807893097 917.701188476 1033.75343752 1078.53170837 1033.3279158 1003.30884875 1079.41049125 1006.39586732 1009.20227849 1128.01715544 966.476266162 832.136276201 724.876050227 570.253186217 454.425298383 552.961034633 721.152298781 1494.38007608 2351.38835929 2342.52226776 5969.80779539 11131.1255243 9799.46133803 10711.8667192 6857.86612891 3505.0545724 1547.01680748 899.867556213 588.07404101 513.062842832 674.67857683 1417.29207551 2607.45447378 4208.29165126 7012.78116239 9585.42066377 9904.76200871 12233.7782378 14234.0278734 15874.2599688 17754.4693747 20536.675883 22655.8003621 29116.4104295 22286.906513 18329.7376731 14788.8171471 11315.4747939 4180.01103195 3433.8875045 1658.33766525 1413.36380516 910.795511467 534.980153681 742.014855197 1817.42117858 2802.3109005 5122.56756742 6214.00272015 6385.01467044 7339.42798975 7872.72557191 8705.32538042 9056.21143642 5989.7439798 3592.56750061 2733.03181416 1553.37555647 1433.06431161 1853.83670761 3136.43769014 4054.15706481 7881.44359215 8668.30503795 11830.1004939 8119.46808525 6188.63602161 4392.91403374 2908.84988359 2065.2185337 1572.59963619 1703.6554474 699.314389625 2636.21151312 4048.5054357 5850.34036782 7694.40407313 8441.07905631 8764.92000079 8556.23749621 6860.52858993 4920.74477216 4128.6988563 1387.70211006 2161.27792711 1561.03734852 1200.05636007 986.880883499 597.847104324 332.793512376 354.634380866 231.366888026 204.358574415 168.535241562 176.6133041 127.54066811 136.364037464 207.142674691 301.430566423 697.559440079 1432.92947148 2248.4809415 3010.85514527 4282.19423686 5473.46162368 6992.65195601 10313.5821223 9303.00005098 10294.9350559 7574.11136504 5995.37800107 5765.61486068 4049.6115377 2637.86982477 1656.31062135 1375.11431123 877.751264329 507.164196911 328.609221424 190.346281736 138.54510715 96.8123609858 65.3011395036 44.8638343064 28.8985344771 25.740433152 20.0536283288 22.8173401708 26.277283751
1401.83920632 1313.74521173 1298.40245035 1583.78046537 1708.15812335 2152.01715046 2307.98660518 2681.10351512 2920.94962622 2981.25598506 3097.11837163 2712.99720467 2041.08707016 1213.92528666 985.116735593 907.909012178 1049.47913271 1391.48272875 2169.82883987 3053.58194955 4306.21108607 4811.60775467 3815.36158013 2598.06391398 1973.7858958 1125.34484556 613.179288215 567.549982491 539.446599691 569.003500931 1203.35817218 1993.15120545 3586.46811368 4679.0820912 4340.20169598 4675.94015252 2600.45530293 1686.81146315 1181.74077589 909.823721787 741.559548733 631.564342404 480.049760162 437.220998583 461.212815882 428.630335962 395.909379261 561.713394909 750.822629008 1004.90351559 1107.01247677 1246.70334182 1185.6917464 1079.15307961 897.833714031 579.287238402 424.802632645 383.671266779 305.305727545 204.87754149 186.989856586 144.174660458 101.089494395 146.044371963 162.015596749 202.963980372 279.565134775 561.541104092 776.567674396 745.981918889 809.590186508 914.38312419 530.313145033 492.283721731 268.832523749 56.4715203938 68.4325854783 94.200935734 242.861239881 382.209206509 586.801868322 840.49586654 1013.89868581 1054.61396366 1050.51273658 989.527782948 880.690130655 789.789939759 805.326125916 791.109733905 873.710151775 1135.06396657 961.861470414 964.738259157 644.88320965 479.728844488 644.386165477 743.302226838 1149.7648035 2051.74862398 3707.4119496 6672.28861601 10553.3701265 8843.16830533 6708.69721197 2886.78815605 1979.60231955 645.746921158 617.379191591 579.382680299 801.728185452 963.061514962 1506.39662695 2944.41681685 4432.84974821 6696.93976069 9336.39180005 10794.4689865 13492.2474892 14562.8527007 17175.6485072 22649.9538495 28279.5613727 22136.2876386 22733.3677226 22675.274507 23217.6140991 16912.6222479 17297.0823824 8061.71500549 3733.70184144 2198.13869268 1725.55529577 1266.63990428 943.127586267 892.915812713 1507.98124405 2127.12727059 2181.8906791 2440.79064525 3556.77543878 4205.76844968 4597.19282051 4630.47713025 5024.89940738 3303.3782192 2179.571959 850.079266989 449.198456575 646.635479837 929.681287139 1005.74042971 3839.59170716 6571.23111915 7170.39292936 6808.49170127 3829.10155154 2808.88932158 1621.98614504 1031.26789553 494.061480695 1681.62551831 2856.58208967 4501.24805094 5620.30691414 7204.98055622 8054.38996679 8302.58390771 9405.47364394 9173.06373851 9262.74936981 9385.7724161 8109.68727476 6991.43002459 6226.09300003 4650.62882325 3166.81227256 1071.05886438 1073.00033968 665.572224917 608.989167948 328.198329586 452.387258315 444.22507062 324.203465497 304.087990895 193.32287108 116.098984593 108.273695618 190.159857003 281.384131043 726.218713073 1393.27725905 2492.32532382 3512.8564432 4452.23696127 5364.18026311 5889.54941054 6261.28623317 6457.65914018 5241.10496827 3991.46799946 2927.32765598 2615.30010384 1866.67003812 1478.46661699 1038.6460872 624.598789089 279.666174757 251.029054574 196.330829783 132.507227534 83.9176267647 56.7718018303 30.8863554882 18.4815643842 26.1243348815 17.3364365278 23.4799265747 32.4312637066
761.062696946 907.986165521 1050.02300609 1190.24798108 1200.2329424 1480.35002122 1858.53385719 2488.94287842 2698.0368658 2538.90890321 2378.42117448 1576.62393464 1582.52209785 1017.06110718 733.275812872 549.231693731 738.277990694 1130.90872039 2334.49058422 4615.37670497 6480.85589176 7120.02863489 5441.79364604 3225.90222911 2129.01172058 911.109120256 372.825012207 298.07591789 321.574797341 400.040099912 579.107916785 926.156826694 1559.93092071 2283.34886707 2532.83650822 2317.18626367 2102.19738906 1783.66616763 1405.14305417 1152.56470097 871.185504013 712.341211428 583.754840254 593.418782388 596.196018074 716.556361696 757.813422176 950.454418047 1507.4050759 1408.31479855 1448.39714104 1519.61369628 1418.55672063 1369.45141083 1339.33789667 945.302174442 706.859386807 580.160225373 434.391640496 246.337756145 180.544044591 180.340423104 175.601182268 97.4614465527 209.887591743 353.680879529 661.439058711 851.622589585 1503.02645875 3247.35008414 3035.26415205 1647.14587101 1835.54461522 369.334781052 378.739161679 252.751351747 114.198953499 72.6285546397 136.091289796 360.922007958 623.927035991 842.583614529 1099.05214686 1112.00078654 956.503101323 900.759860008 719.32826741 409.088725995 585.71006474 581.705045385 600.317921151 811.677510886 867.801121513 968.376454806 868.280379387 779.641907987 658.509595396 816.519190674 646.948399516 1496.98402522 3283.58638286 5257.75737521 7151.33488568 6924.29301969 5691.50508014 3571.57184004 2146.23935434 1260.19631899 563.55881035 484.130967428 783.184476659 1068.80366726 1780.13300834 3478.7848632 4296.48980656 5097.12147527 7281.64623837 10895.4088011 14055.5931228 15892.9475086 16635.5710442 20007.6820916 22472.5952392 16955.5466284 14555.3107348 16444.4797686 16548.8205428 12782.6339624 9502.5108295 6929.17727353 4261.02950218 2377.19068249 1915.42957707 1627.29333436 984.993647136 881.38960289 1307.23997679 1592.03864439 1621.84364717 1681.64835924 1801.15814607 2124.94179285 2731.38179081 3524.20690206 2743.14788975 2111.06309127 1276.49910268 342.255147526 226.051296734 190.097779859 692.478045244 1899.6086776 3033.61147868 4493.65159014 4061.70133083 3066.09422277 1874.99475736 1303.13718311 951.344017837 984.618008321 1488.14377961 2150.07330114 3542.44623039 5885.76421011 7981.1958029 9281.18158242 11138.8454093 7702.87331322 7814.78840757 7767.84363028 8700.89349462 13466.3186994 9818.62060358 8484.7815867 7985.03538986 5567.64481529 4287.50151879 3724.37630178 1870.31199541 1548.77536853 1011.72044728 795.221547222 748.972276157 676.474269199 580.186645731 405.450723295 242.822535703 204.239770239 147.997826989 165.422230086 217.190017546 386.735869274 707.325054843 735.640518276 2158.2049756 2926.19277647 3447.10403719 3965.97786815 4121.96615887 4040.02935503 3728.39427362 3215.73606116 2343.77690517 1861.54326852 1671.53733147 1244.59318903 746.258975059 487.956949724 351.218130411 203.300979065 137.851927635 69.7093682987 57.0732130536 45.775337488 32.7077743711 32.7570381113 36.5597617687 34.2976365906 27.9904385843 30.3510996317
603.5922904 580.73465015 606.687117934 750.047809631 699.624601473 807.793198051 790.546398275 1247.26891502 1613.4321837 1570.44298483 1434.73444692 1185.5895778 779.544258891 573.533487172 401.548706332 367.561373138 598.423504241 1286.36536304 2038.68372148 3247.87072705 4558.97623536 4860.04584684 4857.57848551 3755.98973188 1675.67109795 721.524028962 333.219420443 159.051691875 127.843605952 212.592465965 315.211026105 665.996082374 935.358641132 1039.57471638 1101.49087111 1104.56763841 1390.99086681 1320.09212879 1072.98305077 1040.11051109 902.009424873 827.398130406 700.723085766 629.856259517 640.183332068 663.326110823 1002.28850965 1093.13194512 1002.69208761 1413.72917528 1476.5819376 1152.23762149 1142.6423272 1196.48634855 1058.75830603 1026.03854723 918.836869647 638.92239195 519.080929288 430.360393075 354.399381098 316.747755015 311.604269988 346.716771674 449.898382657 532.536588488 677.976086264 1220.77091151 2288.47143215 3492.2494093 6933.19081925 7415.07014686 3968.24978054 3198.82647927 1207.11185234 125.794025716 124.893807049 136.380185828 164.201131127 307.417245455 565.453661976 1015.97101578 1215.38072446 1292.55354521 1196.86994938 726.710528064 786.605041608 584.960625685 395.460149359 399.169779536 314.088149064 443.022355529 676.691917226 799.93038288 935.060609751 983.003730725 929.486082029 1004.43889108 1150.17606723 1461.9994281 2575.82055232 4238.35060506 7334.14638987 6596.13522906 6427.22103723 5736.88832495 2452.67125731 1051.24867245 396.333681021 572.133107761 296.153578296 1341.9074096 2156.15927349 3105.65048545 3772.74859997 5222.68779054 6805.76621629 9444.77280793 16740.1849561 16875.9219667 16748.5317361 18647.3190199 16326.5425408 7861.9765524 8637.56922121 7212.40645655 7836.18655643 7392.18342849 6605.98258155 5865.88303427 4827.92475031 2864.61310175 1836.88030442 1663.24579083 1774.82087434 1690.88968257 1002.72541086 1214.43111315 1237.09093235 1366.48963005 1250.9094385 1589.49878699 1523.73497217 1914.85193607 2147.03231471 1295.86331775 593.78230179 288.294917839 241.634757645 520.649983059 984.473140432 1985.32442744 2620.56899273 2992.13922936 2821.67095051 2214.7320497 1254.31282235 735.828757511 468.502739703 864.570353804 1316.08165982 2312.69512672 3458.21315537 3953.03628871 6592.69133724 7068.39023243 6757.58832174 6193.79496317 6837.17732033 6574.56297113 7031.13388886 7732.20457004 10682.1028269 9527.67525309 4688.6531027 3583.52514501 3072.00878093 2260.18631591 2028.29683681 1333.69201404 1115.06811889 1028.56295684 787.554339919 777.993747448 656.605729382 472.609613714 363.994665888 233.185885909 199.460090589 147.084852323 217.045420224 342.905810357 481.135443536 896.042811401 1202.17014426 1430.89138647 2538.73681997 2663.94063174 3206.17126227 2607.67921636 1964.62427962 1719.84100403 1188.19047421 926.149503566 841.747298389 635.135709583 574.224043652 396.813335603 313.930615268 139.74023924 87.6757588643 59.3802579876 36.9937998935 43.5371304478 27.6285362708 54.2802837587 54.5654344149 55.1045268739 37.9793954544 40.8598173561
344.1560659 217.833943912 294.509296213 329.349513145 322.881115104 495.95495874 518.08823653 524.348255878 689.679831031 1127.15055727 1187.85014926 1095.08973962 597.284469558 265.93270077 190.083832763 162.952651164 292.912525436 265.876961228 1162.31010617 2022.36861087 3157.51853213 3036.65678676 3148.73634219 1880.48606085 918.72999119 36.4879875296 123.213504288 48.8795293314 95.4400934012 104.929846627 331.666969471 555.372878425 426.320599086 532.097354098 452.366381376 297.952246121 420.307982218 545.754879123 679.111001777 829.191171845 1033.53028643 865.691163761 718.755933404 631.676352123 539.286167075 506.905188993 478.726799668 505.047407203 594.484820636 572.939566164 605.081981921 705.20168306 790.244675528 895.968948681 924.680198323 831.434282649 798.246648695 714.348762636 663.485463692 526.763196119 460.726272756 415.643266198 396.312157654 421.208301787 612.073624006 731.701125863 795.02761875 1168.542556 1285.79877623 1278.73270374 1732.58234804 2971.41437681 4174.04242457 2389.11754566 1422.29663771 911.69302951 347.478836004 188.429110807 172.83365868 294.850891826 693.667830531 1108.75747842 1581.53638854 2048.2462537 1889.37800445 1635.40236227 1283.01239402 874.442458454 470.015840478 382.168435734 527.783531354 469.925318223 535.415411784 862.068932725 1014.22109472 1083.52581134 1062.84951957 1228.92776042 1306.86640289 1458.16599285 2194.80246146 2927.87871011 3692.39887189 5035.56606549 5297.4596142 3017.33553581 1080.86223782 833.829054293 730.628622074 934.01385444 1588.59041312 1934.24018302 1996.93897424 2310.14547302 2292.15307745 3845.38749824 6694.35073666 8494.19465496 8533.33525286 9586.20954067 16338.39791 7517.3010007 5597.94292681 4356.24902477 4292.84885214 4741.13784036 4781.56302919 4714.58100471 4959.5021639 3293.27978591 2396.24583955 1524.65750367 1465.40639353 2386.97637563 2330.72907117 3075.3080423 2707.3357083 2359.43836187 1959.98711504 1475.90943923 808.438470368 446.046984789 696.087811039 1029.11141431 1536.5408893 1244.14352814 838.112474169 252.714946744 193.861440208 504.054615996 1259.19824489 1751.5684389 2317.56199899 2122.47555209 1802.74405029 1021.85712657 397.125041418 340.693810923 654.32646675 732.834539388 1383.53522163 2172.23233134 2919.13733446 2703.00714041 2692.24750544 2425.46655322 1827.6455213 2283.16427476 2112.52517024 1845.9548587 2861.79658641 2547.1874509 2313.7466462 1951.07536071 1098.07705101 708.49463377 864.176406623 798.399937516 737.333766863 678.46641153 708.308240177 597.775872021 625.894023798 808.73815142 800.633745587 671.230559794 530.634411384 409.976999058 422.331701972 253.438442996 355.668865513 351.672497754 396.690203617 511.321992301 590.968011391 924.509269039 1226.76102567 1197.76484989 1240.44960271 1004.52995568 775.445317357 519.495644043 482.349557765 411.409750835 355.891455824 325.48943085 244.133653149 197.699502135 124.4279817 103.802085487 90.5832116235 85.9296303401 77.1334854992 78.7625273497 75.1775081228 64.919666341 88.9319056725 84.3214854225 65.1996606675 89.1519247851
232.343308795 196.461739877 184.483622674 155.869733523 162.271727707 196.138621418 188.003275718 281.453650248 355.654836919 650.383220094 1150.591179 1191.86413542 806.472284916 425.642177163 231.77973963 317.95841575 433.83726158 1025.37260664 1504.71400792 1556.91752991 1423.6935927 1382.86939221 1209.03100437 829.307436749 711.089255432 778.776269892 368.946908715 219.313181841 281.159063885 507.804656349 2212.2316887 2884.49201438 2050.82961032 1024.43834993 508.028070227 297.070146826 184.51270743 252.300009008 460.67600285 571.859025424 642.685338495 638.925339047 701.223238467 644.527054655 521.742822118 340.927903133 304.330817792 284.592802175 260.423868852 321.293223363 299.009989719 293.276970509 319.828646188 493.84120775 580.36082711 703.276811638 547.792756012 482.468784862 604.893344925 652.451610972 595.196753932 481.124129377 338.566485299 334.143471788 554.611537952 598.200492737 668.130371149 230.993485703 332.887881718 447.865759413 117.050459859 262.086337348 622.39779798 641.42164 665.125272805 626.33738835 587.854963956 480.551494845 300.374211331 218.006642643 290.672132844 1082.23575372 1975.60777349 2384.99576743 2499.30807805 2051.67520861 1393.57995385 1133.32228394 1034.37604074 937.166196164 933.051098702 633.141139946 619.937656292 920.976660303 1182.21355897 1355.12531974 1407.44490911 1494.79770821 1637.4740945 1648.35792395 1582.80489095 1537.19739944 2085.41132804 2940.09525473 3174.79746612 2308.20255176 1461.35981095 771.080177163 668.721784066 1030.56496182 1684.70269642 1920.37350126 2420.48836999 1556.58884394 794.219889813 651.594433663 2941.8468641 2645.84755073 2431.70617135 2232.35635389 777.930508211 542.996395363 597.161969059 1077.66206064 2258.68601025 2021.28187856 2622.10320796 3066.10048063 2079.26456975 1693.67689471 1054.34642141 752.800760879 705.743224226 1131.25721831 2302.41794156 2799.87551546 4091.63061966 3828.74614456 2211.05286641 1030.5321031 529.960205195 542.430066176 413.208707035 629.984523133 1111.85945785 1546.32093688 948.423391754 251.841656658 484.458981649 1349.82344639 2553.50615286 2910.20147707 1554.29197067 1147.29378759 497.283798355 530.206483614 591.545609803 779.434510502 928.30450434 1043.55369955 1276.33534529 1723.69402994 1221.14754217 679.994679233 1117.45156986 1012.3199644 549.764352084 466.812505544 336.908922671 381.765175105 525.043938907 655.425459442 856.670458114 755.194004049 545.079483367 410.838247964 445.145701552 510.356256154 529.340058291 566.224501817 632.958931975 608.950934873 518.096943819 426.913745077 652.601874715 904.408086039 770.717556457 1183.79098365 876.68424601 736.465778103 355.485846294 356.150591929 466.187543033 416.888819088 318.954193451 341.432849288 506.034470983 631.307426892 675.274027507 392.561223241 287.629872819 174.244941904 149.479884338 172.680775682 204.611920097 189.898497693 95.6204451991 75.5562073809 62.4836182567 114.384961489 118.391117787 141.562205199 131.59567301 88.8452022848 138.511556009 245.343533506 99.6399562739 87.48610526 112.936569877 92.5106274538
137.610848828 175.388088656 181.973959434 176.954477598 193.697346997 112.351964439 156.388018822 169.502401243 175.241190579 252.864103823 944.495387026 1549.63080008 927.207906095 436.562429247 330.284848528 437.277848964 885.255408043 1208.82369423 2952.90999743 2938.0536693 1593.189871 482.614151155 134.026222994 475.662455565 1269.08295635 1276.53791938 1140.94486354 379.042994381 847.819879035 1529.76234785 3689.59094805 5042.72934852 7154.88262129 4239.14600449 1239.17659761 399.598537202 288.184393991 334.397511996 316.735656817 403.937140649 399.919288896 522.344711242 833.540472643 968.226707712 770.23015875 482.610866876 597.160930989 372.964285796 662.525315845 599.710241038 193.623617319 240.977782016 185.670333254 193.141545151 310.344683256 418.987384352 387.903308981 300.759230644 417.113073681 549.343702053 561.088238752 363.167636614 298.572241184 250.297245122 248.342072676 356.506924213 364.832776181 671.95951055 1120.36903479 593.804781252 469.966981618 462.649045247 832.653710059 587.637194009 155.962349894 327.064643498 757.403950071 752.778329528 409.676986746 259.928652842 584.260134618 847.078749853 1083.58865816 1506.8312408 1418.57438233 984.576382071 681.177963879 728.110350198 1081.0478307 1423.37735209 1343.04570309 1018.42488088 638.932380674 979.836365431 1368.37796952 1218.70813346 1591.70947359 2162.98453011 2166.25543722 1731.84156838 592.922263509 347.87044786 1088.32788099 1497.15958763 1231.00258613 1161.39881137 761.276159489 670.860887504 927.58687444 1075.92424474 1060.25688292 1022.68294186 594.059039438 825.614250649 1437.47024028 2314.32686047 1980.77470765 712.152815984 2950.0629522 3171.78686406 2804.78225404 2025.02272485 634.345166883 2917.97328317 1490.01590658 4639.372077 3478.4809581 1293.84956286 1254.32639014 1103.64666116 764.867340609 856.846079024 996.662550267 712.619400662 897.018091882 1315.21669945 2045.45616241 2375.01980142 2332.98272732 2872.47400342 1858.31761065 821.398402816 371.244584489 371.225784035 1074.23982071 1285.24143139 995.164256066 406.611998298 494.075747901 2358.89345179 3586.51788017 2463.75901784 1554.52286752 662.529938022 626.803994226 719.071804746 744.746051759 985.526899951 1061.69445709 758.816848482 830.463285266 1089.32100227 1943.25996671 1749.51227536 801.037494504 1494.03566782 490.933570321 536.478182202 508.909904766 456.757712187 314.476774047 386.535806701 770.098192367 1065.03547829 640.979446446 525.0758705 677.566172227 489.851368412 702.233980403 660.026660069 797.185177362 727.532556524 413.463684391 443.103043325 587.93781576 1718.1756345 2196.25178351 2542.86364965 1456.34216135 1206.24722118 968.101503374 723.404919955 523.950939953 435.578139924 200.534240941 98.3939250877 193.915597861 413.87543628 286.17704046 164.998342129 83.5446032516 85.1584010145 117.613083747 191.781804254 199.771281017 157.99642879 96.0111633191 80.505004626 97.9090655207 118.053045023 224.53574868 282.798424519 270.948622422 3763.51602544 218.949011596 162.284657249 335.390673091 271.599615103 232.334391418 181.592881368
166.995852696 162.895428614 173.9371103 182.2349484 218.049677552 260.45127438 431.154653753 485.93177824 229.585612061 355.599903516 946.195737806 1623.8224449 1500.17522798 387.569628953 340.776443018 1194.24470748 1445.84326324 1645.19519716 2644.67152425 3431.64687789 2047.71439848 590.349713116 545.970411554 489.372736638 1737.19522583 3582.49547401 2017.19203922 1186.32422116 1127.09157105 2766.42853911 6458.71668456 9580.70697087 11039.0560259 4751.75617137 1752.79758946 747.369814047 548.011413354 594.251473547 578.402701527 338.983339763 324.310769568 580.298390313 1009.83523823 1457.89024801 880.997826389 868.454096024 1290.33160909 1843.35557387 2075.76801361 1695.08422163 1292.52116178 453.467640902 222.4652954 149.837004401 337.817564692 392.936620847 445.533011681 425.564082206 201.750868002 248.302251987 383.451544844 250.787741108 147.762055026 216.705402082 261.139929564 175.006513882 436.146819914 1014.24063176 2849.17105756 1626.66520819 1416.59465123 1331.41429627 892.533389712 743.462965722 438.998411675 364.079818254 862.166637593 801.487194933 503.058121938 395.244179516 704.359497017 636.546639933 784.160824735 645.461292584 647.604916626 735.728256676 777.962320296 789.618359527 926.442309523 756.016648752 2480.33286227 1211.36135039 662.540499591 862.135369459 1238.93518446 486.414734414 878.539745984 1504.62069829 2172.23634883 1314.6552725 684.049640831 361.982145609 808.84239621 662.045718525 465.65180311 743.122275594 727.092485663 596.792664643 1228.26244806 1371.28058282 996.776168988 741.9848516 1129.34474063 1090.73173504 3307.25036884 3979.242169 2113.63336868 3344.72744599 4780.62919676 7879.11652646 7481.24695982 5873.8416223 5349.98349157 4590.43862415 11819.4297335 6790.67502072 6163.57418559 2314.50789057 1437.96680299 1293.62836826 712.52783188 877.575643132 1170.91287934 952.554041009 1240.21283024 681.653062162 1328.33261319 1084.29879433 1503.44371098 2313.39021966 2103.20547595 1808.37278803 805.829288049 1121.75534558 664.692679526 1351.53053241 1049.70573054 332.182046906 625.980203945 3290.528568 3644.96883018 2583.66667498 1576.08125319 1585.55079425 1353.21265228 1098.23474269 807.270262969 1220.10702369 1387.76513738 395.085398482 309.648488386 2905.96989142 3365.9341864 5103.74587789 3821.63847675 3792.65246369 4430.26367564 1579.77241439 1578.37910114 1588.36925478 1307.3822003 513.448984689 618.587196528 819.023874694 696.346404955 877.659322435 1323.78505044 1470.38543887 953.665363679 613.99809791 742.600185239 868.477275736 465.461146868 859.489928981 1009.2522445 2039.52920957 2952.60931412 1546.97661239 1408.53870825 1392.47769857 1650.25884753 769.434391385 585.903937128 702.07509785 328.465084478 127.697280638 239.522011438 352.747509674 237.988702969 153.688067259 215.781619465 159.810728058 241.885640335 352.227546992 382.330812366 217.875300442 116.861234931 110.626955204 119.422735388 101.898461101 225.335054726 390.444923628 10323.9175708 22484.1262305 7463.93519379 2332.97656655 665.56688931 347.388451149 264.114292029 229.140873204
182.42070626 168.446341133 178.394816566 203.445940232 230.945041487 363.592291697 497.000652405 706.153439455 1237.29500084 589.197162777 869.254603372 1323.38832137 1026.87287284 453.722731105 754.543811641 930.563285156 546.987788919 615.619577679 838.501908528 893.879537131 643.612239007 998.901291835 2657.94232145 1318.76638121 374.719705868 685.920708672 1053.79257138 776.21575448 507.018635717 522.86303343 1240.96693301 604.97416348 650.968592688 771.778965712 521.748862205 441.912822909 371.019406051 307.844990431 363.249161431 557.210461882 785.615668727 721.270489542 420.973189505 535.091263297 361.514331431 228.155242711 535.813648303 323.093187233 465.360963912 377.727356008 315.254893253 350.138825462 262.498650992 311.106421422 303.231692014 348.563154619 371.120911278 348.368685603 171.937383832 192.314476595 280.201745893 259.15812308 234.233657277 860.304906229 1082.85277972 539.121997699 277.895661686 598.744810292 524.35341874 359.655819505 502.144613049 397.08490916 566.557269995 722.71734222 412.091838583 366.060159792 424.152376376 516.637657728 787.276417442 586.627717033 953.690464561 901.454315315 693.764062692 546.75717045 1004.00275364 1111.73476669 813.465517511 1164.97425268 1144.81325258 555.151096347 654.648737683 926.556969952 892.557370208 584.555619982 482.347258377 136.338715701 491.715410248 751.741753238 931.436342638 797.72426894 937.481345326 683.591362863 588.831893011 594.38833767 347.478628685 889.671825318 501.567629622 1934.97018681 2618.80587508 1569.15786874 1462.50448844 1741.34088331 1368.26252095 1626.70742315 1672.30903811 1041.98686741 1214.45683386 1143.55586718 1067.0420128 401.675183984 1258.61271299 1361.72932841 636.972399135 1084.9742794 1383.37979026 1154.31983464 1571.94644377 1338.29308874 1154.2262342 2474.17966062 2016.86836881 816.376711805 853.899168886 569.440248905 724.439168742 1253.12586474 2198.36189547 1345.22477908 538.345355008 738.626712843 678.493243576 522.222060605 1295.10804404 1543.72881827 2790.55144773 1199.05921876 355.558479007 438.777430315 726.14672819 824.739160575 945.054105058 700.032276033 889.911771886 1164.73204464 872.101577754 1149.04301086 1507.38681997 1079.37616791 1343.81315279 1019.97971708 1244.69866416 1259.89423447 965.331348405 1370.75188793 905.401971651 1137.74742747 956.166013741 429.54085202 1001.57338512 1220.10203339 885.883504187 577.39229525 682.758268569 534.544863268 316.757205845 534.18009025 811.164883943 718.768915982 690.457245117 590.599378039 602.417593931 586.518082688 983.225282182 1974.22292169 1036.21642594 1017.54918949 612.369266086 450.300438261 254.717129293 253.385799511 367.320314127 180.394188569 256.249864923 575.833752137 672.850334383 424.948253144 578.400771743 392.544261999 227.049196043 357.54418318 485.716670892 403.361455595 193.331634703 186.879230837 265.009435013 318.298683772 173.295803813 169.515921036 134.324626309 62.8863491843 33.1521997957 3703.32568049 95104.8119156 51049.7787774 20113.7829254 5227.11955845 2283.41491128 566.072585252 417.530454492 278.328777892
