DSAA
220 79
-53.7467606931 1725.25421543
-634.934377137 -0.975714143942
6.06000918918 112691.974008
17.8115412056 17.4506365665 16.9089249623 16.3761655127 15.8451406229 14.1680335717 13.6895265576 13.1706267675 12.5959234312 11.9569200955 11.2594622172 10.5311386506 9.2906332618 8.8036432567 8.46384456991 8.33163255755 8.43918041279 8.77902774667 9.26470454777 9.91167282348 10.6046524915 11.2767932846 11.8783850384 12.3799206607 12.7705299542 13.053949233 13.2435893471 13.3575439412 13.275021856 13.2863100614 13.2613690376 13.1979188119 16.051617716 15.8151968014 15.4318058395 14.8718346033 14.1265398172 13.2235841464 12.2382276914 11.2925803209 10.5365741755 9.37358320859 9.39246819684 11.2789579458 10.2674092931 11.055152604 15.4056395686 17.0387707093 18.5629616965 19.8904717142 20.9751517913 24.6399492239 19.5603254903 20.0316268292 20.3724701873 20.6087856779 20.7733627019 20.8232063543 20.7982259005 20.6828875848 20.4502025032 22.5246363981 21.9079976348 21.0476580304 19.9493506899 18.6629506449 17.2912365502 15.9872273956 15.0594687091 14.1982170556 14.1282184611 14.6212823483 15.5979241546 16.8934583284 18.3041506631 19.63838725 20.7539229283 21.5735421953 22.0820816041 22.308125114 22.2908384467 22.1295667275 21.9757652457 21.4738041931 21.3053832626 21.0804348513 20.7452306187 20.2257858156 19.4433617212 18.3340085443 16.8527626741 15.0712748806 12.970995306 11.1409354475 9.63230088207 8.7799533738 8.67695782471 9.17255746869 9.99012147885 10.7112608323 10.2137877781 12.2437978164 12.5502514788 12.6432580381 12.7807801625 12.7092598597 12.6097932861 10.6719071941 10.5929453231 10.4773240331 10.2962923889 10.0299860904 9.73207859094 9.32931213167 8.95593781785 8.70677205297 8.65515398733 8.75530850997 8.99486433929 9.2352632074 9.40323537555 9.48176028925 9.49014759899 9.45122150282 9.36940469332 9.32895789094 9.08729269023 8.73585072516 8.31353849014 7.92844861195 7.71879779451 7.77079101662 8.01543912916 8.36558960596 8.69171946138 8.68272574727 8.77994609729 8.81437829657 9.23162185752 9.24708991321 9.26933447591 9.28736917022 9.27286240341 9.19022405707 9.00814236741 8.45547655166 8.11678463678 7.74182218372 7.4041267952 7.1811293538 7.12188526683 7.34302491343 7.66670467196 8.09240809332 8.54734243134 8.97652714814 8.80645641248 9.03701342773 9.20856207715 9.32711471425 9.40218395877 9.44398635392 10.3761589865 10.4141937065 10.4313326524 10.4251738757 10.3891316609 10.3140068996 10.1449710544 9.95850769755 9.55431875507 9.28492010495 9.70615204152 9.31563065636 8.94305265934 8.56899537452 8.364689116 8.26678132471 8.30988512618 8.4679186666 8.12161985744 8.34287139799 8.57175622512 8.7846058542 9.05983352107 9.21680142838 9.33194545426 8.53810873368 8.582204686 8.60628893428 8.69561454316 8.6843918949 8.57751682805 8.53581663005 8.46760083056 8.36785465792 8.23210322864 8.05764116351 7.84497938418 7.59947290553 7.33291989749 7.30788900927 7.00741041261 6.77302983415 6.50194844606 6.4943499016 6.57951473801 6.74214691554 6.95552550363 7.19047856591 7.42309081289 7.63840735121 7.8302867841 7.99908613497 8.14883326951 8.2848588683 8.21125452663 8.32741317021 8.44187497643 9.26320575171
17.4775211881 17.0820707091 16.525648986 15.988066516 15.4625963793 14.9357430212 13.3866179602 12.8809636999 12.3076416199 11.6480582671 10.8999805038 10.0890340407 9.27664489618 8.2682773776 7.85317484389 7.6834132254 7.80283564955 8.20190334073 8.78529716519 9.53276217618 10.3214233766 11.070848845 11.7241087855 12.2501930533 12.6410316967 12.9060658928 13.0661516908 13.1475402056 13.0476273704 13.0432248211 13.0169536341 12.9663844654 12.8757875529 15.5072216849 15.1483105758 14.5790425094 13.7742418441 12.7543749764 11.6031743648 10.4700522628 9.54673422149 9.01791897148 8.643887286 9.96334709156 11.2164249335 12.8884161321 14.7372990115 16.5774172101 18.2577084848 19.6823360102 20.8068331393 24.3772074475 19.3822888505 19.804133186 20.0901273681 22.7475569304 22.9158498354 23.0282552404 20.4397093211 20.3529518158 20.152001799 22.1412059247 21.5096668484 20.5729487894 19.3208431718 17.8002071082 16.1301458603 14.5029723908 13.2476539509 12.2771419874 12.1671529428 12.7822171354 14.0156466907 15.6422634139 17.3873125194 19.0000560553 20.3033853216 21.21081406 24.3366053735 24.5675339279 24.5029177803 21.5190451359 21.3088196269 20.8292063607 20.7184163608 20.6094503884 20.43179667 20.0861989707 19.4661671911 18.4829858483 17.0748782901 15.301486079 13.1500248008 11.2298303478 9.62175407582 8.70427766842 8.67993335054 9.17345303096 10.0475647652 10.9964005416 11.7802203192 12.2931659319 12.5132704653 12.4990084242 12.5369598538 12.3803523578 12.2432542773 12.1565622614 10.4701889284 10.3993751586 10.2535210132 9.99575813686 9.66672610404 9.20467415235 8.7581285191 8.45337197843 8.39512258996 8.62803751909 8.87355646074 9.16237889766 9.34000588791 9.40112660028 9.39181312673 9.35718187567 9.30899613707 9.31713327954 9.13895469302 8.83771152434 8.44370477783 8.06790640871 7.87880163299 7.94022283703 8.14140103866 8.47513721065 8.76623212648 8.70008742662 8.73999377078 9.0775339653 9.04618743785 9.04398672699 9.08430687064 9.14551403689 9.1829250338 9.14468645538 8.98651718403 8.44192149274 8.07127357896 7.64643194759 7.25734073868 7.000759817 6.94884282956 7.12593918482 7.50251271219 7.98645607663 8.49088905639 8.95328254208 8.80729804472 9.03781698104 9.19902846212 9.30086889793 9.35708929635 10.2506042129 10.2677727733 10.2977855477 10.3153226012 10.316024083 10.2896729765 10.2223424425 10.057323922 9.86072320928 9.59300086457 9.87785617263 9.43819496435 8.96586054582 8.50868362208 8.07564811765 7.82217129789 7.71305783153 7.77759762683 7.98829772174 8.30454425226 8.09522982162 8.3784744201 8.71238975375 8.94094868728 9.11609558306 9.2392296589 8.47768506082 8.52174883222 8.62427760402 8.63331373837 8.54621722903 8.53391203721 8.50072581695 8.44042649938 8.34596572341 8.21072509105 8.02996191489 7.80250672904 7.53276335437 7.23288932701 7.13262749858 6.78118100512 6.50315765035 6.27533987103 6.26562768021 6.36945725705 6.56580241279 6.81827441359 7.08846643271 7.34680688741 7.57692116034 7.77435857881 7.94263630956 8.08907415382 8.22164295857 8.1550786848 8.27179805314 9.0378833885 9.18877446703
17.120716719 16.6840930261 16.1089121198 15.5662481272 15.0517510277 14.5521701147 14.0435271857 12.6225065337 12.0826102861 11.4375948405 10.673195831 9.80916053461 8.91231125329 7.89366272073 7.4100348056 7.20574903039 7.33673442464 7.79067163606 8.4926632147 9.29491138684 10.1613208216 10.967298802 11.6498963124 12.1773911415 12.5450113906 12.7684398353 12.876897506 12.9062865132 12.8923447647 12.7465965356 12.7195908966 12.6918239772 12.6429645273 15.2048492063 14.9198355991 14.3953170249 13.5851745305 12.4983295192 11.223429779 9.93514415104 8.86671992025 8.24669081748 8.30756238057 9.0616711278 10.4779544889 12.3471257757 14.3910342101 16.3899873095 18.1751678552 19.6446811263 20.7568472349 24.1926610316 24.8024193128 19.55403387 19.7528470303 22.1782874994 22.2905742851 22.3891827726 22.4732415826 22.5075550243 22.4248048798 21.7961749817 21.207824309 20.2492441743 18.8881375045 17.1632805878 15.2073925773 13.3381006013 11.6631173782 10.6259493104 10.3993840499 11.1420016544 12.6454172995 14.614040081 16.6924519285 18.5653681215 20.0199869989 20.9626765122 23.9038968326 23.9698432144 23.7016676915 23.276238364 20.433056626 19.9585535099 19.9139195307 19.9602118238 20.0047388677 19.9156178798 19.5533951113 18.8040695453 17.5921087941 15.9698468126 13.9141653472 12.0776001245 10.5255660462 9.63630820339 9.66189639947 10.0763378654 10.5024757854 11.3769311433 12.0709668284 12.4388244237 12.5037041462 12.4717332404 12.2047745047 11.9207278412 11.7272804102 11.6722433308 10.2946293388 10.3049126844 10.2349828219 10.02718116 9.7124939804 9.23549365532 8.75704861557 8.42424647954 8.36493056723 8.61185520644 9.02887204267 9.16894984682 9.30328697646 9.30068828663 9.24192535554 9.20140011308 9.28069406078 9.28591923618 9.21850741078 9.02646103781 8.72785997776 8.42214096036 8.31632474396 8.38807797515 8.63360898982 8.70645058776 8.9042034586 8.97427724518 9.0010441362 8.87895572387 8.77556428306 8.75626104605 8.83286670849 8.96504029151 9.0842162355 9.11928377548 9.014299953 8.49942492561 8.12844257628 7.68667174068 7.274223331 7.02946002937 6.94162170482 7.13074375115 7.52975994361 8.03638142438 8.55535382123 9.01931460428 9.39150592418 9.06825845296 9.20235392299 9.27300443541 9.89409580598 10.1276445341 10.1249964767 10.1462579654 10.1684199979 10.1842070731 10.1784117427 10.9200771192 10.8156463072 9.78458793205 10.1364463425 9.71855024177 9.21064781878 8.65250620945 8.10343541935 7.60191056697 7.29273087706 7.16983911329 7.2585867725 7.52890066118 7.92593519828 7.87365649336 8.21285947835 8.58866265844 8.84305235594 9.02862008564 9.15097779516 8.41437300545 8.45349688232 8.54811242545 8.55892397329 8.48470914391 8.48303056392 8.46325813388 8.41705098671 8.334965189 8.20799044078 8.02920771801 7.79566158966 7.5106036561 7.45068663152 7.03333479236 6.63866694827 6.32185612303 6.11704493798 6.10527086948 6.2263778209 6.45323146413 6.73907726227 7.03602438595 7.3094400917 7.54275623154 7.7345953101 7.89277875668 8.02861856833 8.15294344664 8.09171341766 8.79572949718 8.94861993438 9.10710198291
16.7359016178 16.2472280914 15.6442801155 15.0910129448 14.5881315951 14.1255403382 13.6785790409 12.3749028544 11.9088824957 11.3274213773 10.6003906982 9.73711568101 8.8053914786 7.93372170094 7.234338172 7.00781123097 7.14830349377 7.64084541924 8.39815774187 9.25319273781 10.1614103194 10.9885660749 11.6672188797 12.1650331166 12.4799185067 12.6332626074 12.6628573836 12.6155811588 12.539385077 16.6557051154 12.3410052204 12.3467357066 12.3619844818 14.8803909761 14.7313829495 14.3235948395 13.5871580107 12.5164689289 11.2006960609 9.83295609734 8.6791711794 8.00305802206 7.995372309 8.80830333389 10.3300920631 12.3207292041 14.4737035601 16.5461405719 18.3561276697 19.7969014635 20.8286697092 24.0744871148 24.4964998403 19.2565515638 19.3272079923 21.4670014096 21.500019874 21.5812785772 21.714620288 21.8571017411 21.9211150782 21.4755403665 21.0120115082 20.1160631413 18.7288550853 16.8771629614 14.7035269438 12.5447913164 10.6033007005 9.38178562737 9.15981429482 10.0167731936 11.7593604517 14.0225976158 16.3732852109 18.4354830485 19.963801403 23.1668977116 23.5391827982 23.3301674225 22.7474549323 22.0281156448 21.3969637847 18.7768083725 18.8034889521 19.0496289521 19.3908990614 19.6501789632 19.646271676 19.2386288918 20.2028674601 17.0090293202 15.1932446421 13.6061104329 12.256330565 11.479171637 11.4860199403 11.4435141803 11.3068842364 11.9984405817 14.1756414822 12.6559621986 12.5042432384 12.2561767173 11.7622182022 11.2973369488 11.0190850265 11.0061275077 11.2119037824 10.1753668454 10.2286935669 10.1203023091 9.87766618346 9.4494202499 9.00401173749 8.69014368749 8.66249641981 8.87938207041 9.23019018014 9.49223704154 9.27360458612 9.15253278903 9.00638787064 8.94722582651 9.06792301461 9.1981125014 9.28145627465 9.24101071326 9.08084196411 9.03625600438 8.96607954408 8.98251922888 9.1321517809 9.31255436907 9.06713454725 8.99455490621 8.86246469342 8.59907447962 8.40565761318 8.37456143914 8.51268526177 8.74860214197 8.98010412087 9.11531906123 9.09125279341 8.88122117726 8.2982339833 7.88355002109 7.48739036947 7.31470422855 7.22515179291 7.40149171502 7.7804322903 8.26176998808 8.7500348998 9.17632137611 9.50246430464 9.12279956685 9.78268056341 9.8048377689 9.7764167621 10.4122131348 9.92943419096 9.94242610856 9.97602090301 10.0186726092 10.0483687207 10.7925450074 10.7247463794 10.5405074068 10.0709735641 9.62130259028 9.05485864897 8.41704089819 7.77875682272 7.20610358611 6.84002585346 6.70173013703 6.81479612958 7.14540976628 7.62272128618 8.15838500258 8.15433472858 8.50524223615 8.77381971356 8.95668635275 9.06507684678 9.24102878144 9.26087617261 8.45360771003 8.46479787423 8.40557151157 8.41860110795 8.41838199779 8.3938988572 8.33289898568 8.22382951772 8.05771358286 7.83009471002 7.88326727195 7.47639634286 7.04001519559 6.62101963786 6.28051001504 6.07306336214 6.06000918918 6.19240561473 6.4379518712 6.74117127488 7.04657088448 7.31628827829 7.53518165979 7.70625317083 7.84252440803 7.95969394971 8.07131655395 8.53856887766 8.68674641757 8.84638189886 9.01573595557
16.3202188496 15.6097099118 15.1173788284 14.5402609096 14.041432884 13.6181005772 13.2490831067 12.8904945518 11.7527728497 11.2939144373 10.6745525112 9.88890823148 8.99965895939 8.14191325241 7.49333594431 7.17742929043 7.32295412322 7.82548428794 8.59270069601 9.49205639681 10.3422716817 11.1441466683 11.7780812264 12.2102309259 12.4392586519 12.4904720649 12.4095797569 12.2555655248 12.0915852854 15.6906545392 15.6462536632 11.8974303787 12.0015328189 14.4927519483 14.5500640175 14.342749441 13.7766951334 12.831289825 11.5921460564 10.2598934691 9.11562267664 8.43982141775 8.54510497753 9.37110662786 10.9076831641 12.9066097976 15.0479542917 17.0806238614 18.8149501932 20.139182591 21.0123182984 23.9999277667 24.1524875481 23.9877673749 23.8897016947 20.5579840492 20.4793959038 20.5348858769 20.7373165599 21.0360816071 21.3195108408 21.1470154308 20.9114852377 20.1910844378 18.8993816562 17.050450988 14.7932886247 12.4887228625 10.3933902632 9.06171065509 8.82909918359 9.76132235268 11.6527111008 14.0874747326 16.5759604678 18.6975444532 20.1810838299 23.1831719616 23.2474227857 22.6392901626 21.6141677344 20.4775009011 19.5357397595 18.8432678538 17.3091358621 17.80654667 18.5298463704 19.2359265355 19.6877162993 21.7065003396 21.2050470152 20.1551238063 16.8070161324 15.5721870335 14.5063499755 13.8792845154 13.8472752591 14.3663195906 13.7956307798 14.507861041 14.8734064493 14.8011394824 12.5209540547 12.014259002 11.2387627142 10.5366558152 10.1378006349 10.1717192356 10.5785331619 11.1290047355 10.2257670202 10.3109572703 10.1368193221 9.8114441129 9.45144815418 9.19008631439 9.21855512143 9.3548555809 9.55933562893 9.63833071861 9.47979307371 9.00633691565 8.72603494722 8.6276856538 8.77262796778 9.05431848754 9.31201224778 9.43932151853 9.6373178023 9.55453073762 9.58358317535 9.58574614567 9.64200677455 9.67767318573 9.23463606631 9.08211750963 8.70048401408 8.27625295192 7.9806658338 7.94515774732 8.16830969911 8.53317484061 8.89522311421 9.14381194276 9.2161159729 9.09309791851 8.56486203332 8.2157379036 8.14527514376 7.8505190008 7.76575806079 7.90950849724 8.23106996466 8.64326591797 9.05829903618 9.40924249283 9.65682891757 9.75192264608 9.76999358804 9.70943500626 10.2265866376 10.1325961281 9.65906522458 9.66590326934 9.72098433103 9.80649293559 10.5714865519 10.6570026808 10.6504465279 10.5098856639 10.067297292 9.60807872181 9.00485673239 8.3080187993 7.59875041215 6.9646751644 6.55013102066 6.39723602486 6.53022251877 6.91085093065 7.45306909947 8.05045768582 8.10837734081 8.47481578867 8.73839354783 8.89948034364 9.08870099121 9.10942531143 9.09997038182 8.33074234491 8.34070349596 8.29937822552 8.33238631853 8.35935009397 8.36573862067 8.33593802451 8.25575037782 8.1144921032 7.90687197051 7.99129560156 7.59825437013 7.17030442626 6.75516486207 6.41527352768 6.17835875208 6.1656164832 6.29856528514 6.5420872392 6.83642155441 7.12278644097 7.36306964549 7.54528392091 7.67782360189 7.77949002088 7.87046188451 8.27124023353 8.40312848346 8.55573121388 8.72716439629 8.91269305316
15.875827641 15.0909725125 14.5181055393 13.8942707922 13.3805151543 12.9866551862 12.7008805652 12.4810657037 12.253344626 11.2821082885 10.847759458 10.2288647555 9.47571220944 8.71887750958 8.13575609926 7.88828934757 7.87696415788 8.35608660724 9.08129360644 9.92523480642 10.697798377 11.4258736001 11.9738453773 12.3048174695 12.4153529592 12.3318384793 12.1063567997 11.8108535534 11.5273971112 14.4808855947 14.4092870959 14.6194719499 15.0459223177 13.9973073024 14.3322770802 14.409790847 14.1128757457 13.4079121645 12.3741093704 11.2073123899 10.1824973486 9.57419986597 9.97293379118 10.7639264235 12.2174884496 14.1025663631 16.1037629503 17.9778490146 19.5329159078 20.6514771464 21.2869944614 23.9417128454 23.7387914261 47.3940640311 22.7265663054 39.7064633864 19.1622405186 19.1760654308 19.4663360355 19.9746648286 20.559575443 21.0210440281 20.8726075717 20.4591220436 19.4112612107 17.7336817652 27.9152011805 21.2640308356 11.2603844093 9.93645643709 9.71516518861 10.6289201116 12.5286277767 14.9506845139 17.3864436875 19.3965607844 22.8298756023 23.4086785131 23.0463459256 21.9213930063 20.3271867723 18.6415651298 17.2740245687 16.4387315437 15.4124248976 16.2189439409 17.4171365692 18.6674395138 19.658028525 22.1996304778 22.2511231929 21.7304836933 18.5532832262 17.6971231468 16.9248449738 16.4412814732 16.3539008219 16.6198753934 15.2855951974 15.6480646368 15.6492461174 15.2259281435 14.3275048572 11.838949222 10.762520053 9.79213090572 9.24726702736 9.32550286625 9.95017543272 10.8045483823 11.5300329849 10.4878745413 10.4545291312 10.2544719159 9.9967399753 9.95674599826 9.87437019821 9.90492028797 9.9357341402 9.81498641508 9.45566880927 8.92488291268 8.41520648867 8.28474239253 8.5061377324 8.93583209276 9.35693383377 9.6355959981 10.0014166767 10.0308001053 10.1480480933 10.1424094109 10.1244038025 10.0401471157 9.8125164344 9.13974114367 8.60744655098 8.0367213704 7.64530799204 7.60925885889 7.91828325586 8.40481331479 8.88343962326 9.2320010482 9.39457689528 9.36307810966 8.89867374836 9.07893240764 8.76664323383 8.53712103225 8.4646075694 8.56870368971 8.81366261655 9.13033537203 9.44348677374 9.691177029 9.83391321243 9.82166724507 9.73082253784 9.56441867445 9.93173007557 9.75113712722 9.29187597781 9.29657362161 9.38691291602 9.53578502605 10.3254090089 10.5087169554 10.5914748344 10.5225720477 10.2676369034 9.69540199624 9.08908801251 8.36935184747 7.62488518543 6.95437559318 6.5191728037 6.34865465512 6.49172485645 6.89851995201 7.47222009892 8.09345234939 8.15064393803 8.50460481822 8.73682879659 8.85171688178 8.97954983376 8.94582528917 8.89256781995 8.16693421928 8.74880218311 8.15479822649 8.21471088364 8.27833223174 8.32633167432 8.33892804101 8.29914554946 8.1950820857 8.45312556916 8.16506542535 7.81041073132 7.41921691014 7.0376479653 6.7245210809 6.43496680118 6.42367351911 6.54368200693 6.7599572412 7.01429804408 7.25019188568 7.43272823956 7.5547204607 7.63083722048 7.68625259948 8.0045110543 8.10113681924 8.23210924341 8.39665480273 8.58809063734 8.7974069192
15.4132005905 14.5302108848 13.8470186487 13.1438674414 12.5832845097 12.1938864412 11.9807527349 11.9103501426 11.9033997976 11.2136847129 11.0348466562 10.6664087816 10.1387055939 9.56655402503 9.1133327945 8.93022434805 9.10013110685 9.16732173143 9.80961764679 10.55071789 11.7981600397 11.8102524365 12.2388851702 12.4400028106 12.4051232044 12.1582896093 11.7555317902 11.2820254829 10.8429271328 13.0155225008 12.8929663922 13.2109387226 13.8926527343 14.7514929112 14.0449122076 14.4784394756 14.5322375852 14.1632525016 13.4430632179 12.5527564957 11.7435481315 11.2652501438 12.0995117838 12.8259492736 14.1245094219 15.8002910328 17.5576450697 19.1751453232 20.4641480818 21.3013093511 21.6305772267 23.8817561137 47.1599046257 44.5750860182 41.6153201104 35.3724652046 17.5021704145 17.4491588964 17.8432178977 18.6171802738 19.5904462526 20.5081591796 20.849637353 20.8748618354 20.22172519 37.3299629828 31.8358868713 25.8936431367 20.6867131515 12.0208341629 11.8412714661 12.6339764569 14.391589583 16.6068090241 18.7934067638 22.5423644243 23.7193118679 23.8637781925 22.9911409024 21.2711244412 19.0173298114 16.6755817114 14.7764144836 13.7320587638 13.983664451 14.4089623714 16.1649750667 18.034052623 21.4059326387 22.6904326147 23.2953761994 23.2904577857 22.8399710375 19.7820844023 19.2680162821 18.900167942 18.7522598086 18.7890288087 19.2077015965 16.8157629552 16.5083049778 15.7987554056 14.6250282609 13.0298937931 10.5697876322 9.37093805093 8.69722750586 8.80749872231 9.6045996076 10.6944539664 11.6585317089 10.7246975926 10.8176476245 10.7329745476 10.5659193759 10.636351944 10.5317187518 10.4621657735 10.3436696967 10.067801649 9.57605004644 8.93899287815 8.39758484424 8.21579692468 8.47415664265 8.99057780764 9.51153374791 10.1269066261 10.3789636829 10.4852758046 10.6709485333 10.66127233 10.5932345925 10.4287581249 10.1093200439 9.32786096173 8.71408776998 8.0641124655 7.61733010388 7.57725811821 7.92968953377 8.47708656873 9.0138793347 9.41757589312 9.64117587586 9.68468397735 9.85007631781 9.64343872487 9.43426501117 9.27328206397 9.21752829093 9.28484702864 9.45157968894 9.66557902941 9.86507447314 9.99463066126 10.0154409193 9.87692267722 9.65583325884 9.88446371461 9.54063031051 9.25407102548 8.81437022854 8.82277142487 8.96566306138 9.68972087362 10.0367968105 10.3475848294 10.5478647182 10.5787532775 10.4029351726 9.88938401048 9.32080069151 8.62449179979 7.89284906845 7.25930855489 6.7989991596 6.61507034136 6.7540525414 7.15250946659 7.71026008388 8.30354718333 8.28567502051 8.59266242582 9.44325570484 9.47427825001 8.84525296096 8.73539542302 8.62192339621 8.46080344823 8.45377335686 7.96020080793 8.05613895877 8.16810645451 8.27005953413 8.33690465097 8.34868996205 8.76987535478 8.62075915959 8.38909345736 8.09175405059 7.75849858086 7.43195412305 7.16350851602 6.80492719686 6.79355479204 6.88740930631 7.05378998035 7.24070665949 7.39844036943 7.49813083815 7.53891665192 7.54301319986 7.76078336365 7.79334122923 7.87747321241 8.01768347405 8.20620724417 8.42922382528 8.67207857049
14.9545134482 13.9491889892 13.123409913 12.3017865202 11.6518193544 11.2274552733 11.0594266458 11.1311099271 11.3622347576 11.6183806368 11.1428066317 11.0869007638 10.8509731459 10.5260903271 10.2530337581 10.1657752298 10.3426745065 10.1444196187 10.6862495119 11.8291156399 12.4812052022 12.2680282867 12.5582966572 12.6133571017 12.4175245449 11.989130675 11.3849006021 10.7022801797 12.1156260749 11.3623407237 11.1617792422 11.5937334769 12.5654893877 13.8364180327 13.6974226578 14.5308094039 14.983049263 15.0059791196 14.6638822415 14.1177160688 13.5855111808 13.2824106297 14.6342318695 15.3724657853 16.4935923633 17.8287954603 19.2843004996 20.5860329189 21.5536299237 22.0590871777 22.0344025422 23.8302243903 45.3901490089 41.4184540683 37.071206076 30.3127328773 28.0334200129 15.3600619015 15.8700314788 16.9644066911 18.4093741729 19.8798671464 21.043833889 21.3867261149 21.2527137039 41.364994447 37.1463164981 32.3434090193 28.0416856114 15.0571036044 14.9451784682 28.2572178113 17.0458525248 18.9095076317 20.701040819 24.2362501408 24.9382509525 24.5961341986 23.1962966221 20.8820319993 17.9654705793 14.9434464553 12.4685083829 11.1682960409 11.5046457937 12.7136740962 15.0563660981 17.5504977173 21.4309566453 23.2717736641 24.3660619439 24.8079475857 24.765225973 24.4319434078 21.4301227246 21.1470107462 20.9437084993 20.7966982751 20.9719896899 20.5964796365 17.4851406482 16.5982465921 15.2836765902 13.566772996 10.9207022287 9.62243145459 8.89154540936 9.00492437928 9.85006031711 11.0105465665 12.0645504271 12.8321784471 11.2415030703 11.2407050579 12.7840307662 11.3028333599 11.1772256954 11.0343204953 10.8187639652 10.4631846731 9.93975295751 9.31947100071 8.82805051479 8.66203401569 8.97031590404 9.58281170324 10.0711453021 10.5309926412 10.8156251421 11.1149503743 11.1831313022 11.1696062313 11.0753252314 10.875374909 10.5293580399 10.0861887075 9.11041537863 8.48466347251 8.04930796808 7.99670858481 8.31700982739 8.82645762443 9.33447223771 9.7296391624 9.97088301855 10.0591550428 10.6443743017 10.2199526037 10.0976434137 9.99613740337 9.95670058262 9.99330490302 10.089811673 10.2069371331 10.2943621256 10.302922951 10.1947830381 9.91900787558 9.55190592684 9.57533589266 9.06687660746 8.65475404955 8.23704968204 8.25615633017 8.78955692642 9.2220314117 9.72134542005 10.1852027779 10.5259319292 10.679472526 10.6090720447 10.1844698365 9.69295810155 9.06590896116 8.43065981832 7.81972653418 7.39113449905 7.20428014456 7.32658867876 7.66295932812 8.15486786559 8.66636422235 9.14060623274 9.40749723803 9.48366908055 9.38664101201 8.67550131786 8.46702774091 8.27575670425 8.08753362099 8.07563230124 7.70750736609 7.85107926266 8.02530761472 8.19476699966 8.32760485858 8.40072248117 8.89249077941 8.80969831137 8.64388736884 8.41365914245 8.1478710805 7.88426871567 7.66497628542 7.22864042398 7.21214327583 7.26926436167 7.37067676128 7.47245344339 7.53352666258 7.53243004623 7.47590787132 7.58234297617 7.51401435429 7.5109323456 7.59347934621 7.75848207943 7.98727054516 8.25607095767 8.54333119533
14.536051508 13.3892514133 12.3932494897 11.4151739333 10.630562192 10.1246366487 9.96278262208 10.1541315743 10.621656021 11.2073587444 11.7264760743 11.4061702696 11.4963391631 11.4524387405 11.3901598807 11.4246934517 11.6288344044 12.1660755865 11.6206948511 12.7317004215 13.2255188989 13.573670629 12.9257045196 12.8346582036 12.4790357036 11.8689833305 11.0582893583 10.1538438181 10.739971427 9.71747279157 9.41894496416 9.96507710804 11.2413301695 12.9392755564 14.6812418309 14.6054648764 15.4592600548 15.8821000648 15.9320954031 15.748787359 15.5151370474 17.1672754415 17.4012019338 18.01396394 18.9580207619 40.3137177646 21.1617088824 22.13111952 22.7588278703 22.9145117017 24.9148606576 48.0250621005 43.7164356166 38.2491382265 32.3506370873 27.020553432 21.7240877115 20.7921050163 13.6742789609 15.1334685203 17.1135635455 19.2026066687 43.2376577764 46.281648236 47.1551643348 45.9765640355 43.2688022158 39.8337613744 36.6218101723 34.5149610346 33.9173785534 37.8804402603 41.3148393334 23.6447389543 25.2479768229 26.2895314203 26.4961235624 25.6898858902 23.8311475132 21.031007087 17.5831014206 14.0070481334 11.0462754207 9.50604347324 9.90819680851 12.1046505922 15.3381576304 18.8219040146 21.8386768309 24.0856831547 25.5382070352 26.3128550784 26.5762886266 26.4998024117 23.3985013479 23.1715493044 22.9211639739 22.6377975601 22.6360753481 22.0613991906 21.2092798009 17.6615368469 16.3636284673 14.7234691359 12.9101706734 10.7148459767 10.0115866386 10.0809497038 10.8158581074 11.8522676959 12.8250914553 13.5829676769 13.9550792884 13.7839628551 13.6812864625 11.9733319412 11.8347526308 11.6514503473 11.3936460935 11.0290913681 10.5571916387 10.1127519325 9.69958218673 9.58521834511 9.83860979128 10.3340483476 10.6869807296 11.081385496 11.3328944331 11.6413472161 11.7053925828 11.6855335901 11.5844509679 11.3886686632 11.1755645955 10.7171701902 10.1408544801 9.27266417953 8.90561733567 8.83224460959 9.05396795705 9.43897545783 9.84168250561 10.1706234177 10.3873730707 11.1249100874 11.1872022309 10.7971949561 10.7388269684 10.682036024 10.6547286592 10.6660075394 10.7033340934 10.7358005211 10.7214531899 11.7492411954 11.461336143 10.9797549385 10.2153908507 9.25686458997 8.5676713173 8.01556878641 7.86321832574 7.65203022127 8.17179524488 8.75349306946 9.42240084874 10.0523245141 10.5439619335 10.831565027 10.8823979484 10.5678006936 10.1823655494 9.65885002576 9.12997957503 8.6009526898 8.22474469918 8.02963661097 8.11862872428 8.40451285189 8.80084328568 9.19907163524 9.4840708865 9.60653070476 9.53315834835 9.28240277646 8.47096708628 8.14334497872 7.85708642835 7.63378261729 7.61762508305 7.39941593899 7.60401885439 7.85548078652 8.10569208846 8.31456854922 8.94043644249 9.02337979565 9.01036340684 8.91255822224 8.75010980958 8.55040378006 8.34577443442 8.16912992971 7.6534379502 7.62511755024 7.63893524892 7.66894576996 7.67868043066 7.63499917707 7.52342936786 7.53249062887 7.33470776415 7.19312588487 7.16086831266 7.25700586271 7.46606717878 7.75346545555 8.08244982003 8.4238032669
14.208093794 12.9128225421 11.6534568945 10.5743545019 9.62115053819 8.9942256405 8.80062948407 9.08231763535 9.76827218866 10.674381101 11.5716853007 11.6137996588 12.030819944 12.2722117141 12.4301305822 12.6021358056 12.8549157849 13.3949339623 13.8368155618 13.6474395273 13.9998533348 14.2010248411 13.3466012015 13.1266876436 12.632724783 11.8661495733 10.8749663858 9.77092667576 9.69990845913 8.42461822657 8.02994369525 8.67914492623 10.232516926 12.3109416602 14.4705860439 16.3575352072 16.0105337773 16.7950544649 17.2067084183 17.3640200041 17.4169078702 19.6849968181 20.0372307397 20.6277952467 21.4277546617 45.8165189406 48.4088923285 50.4927033837 24.0640183563 23.8858755509 51.9805098571 48.1360888536 42.5595566095 35.6513203361 28.2043341848 21.4099546481 15.7952289762 14.5006630887 11.5720559953 13.4115225833 15.9416389499 18.6541155608 43.213319947 47.9501074213 50.4772847016 50.9030397889 49.739797962 47.7032700169 45.5998199442 44.1516170657 43.5943213009 47.9747578402 50.5596715969 27.0410885103 58.4744329512 28.665593079 28.4283873588 27.2487247784 25.0757544688 21.9979391156 18.2861403168 14.4523851131 11.2667739222 9.59937655324 10.038519437 12.4252829005 15.9141417124 19.6367357446 22.8429535653 25.2555264278 26.8803407982 27.8444059613 28.3010981652 28.3928190187 28.2378745443 25.0016808008 24.7079550511 24.7241284373 24.1926104673 23.5058806598 22.6115520114 18.9447312418 17.7988765803 16.3971541464 14.8709296261 13.5173763962 11.8871355729 11.8654900349 12.376768329 13.155214125 13.9235970925 14.5692473136 14.9001684515 14.7124008047 14.6233516713 12.6720855428 12.5287310254 12.3321634573 12.072393639 11.7430073787 11.3618414457 11.0798725662 10.8080423022 10.7547032017 10.9463755531 11.2945242608 11.662300301 11.7451413655 11.9168151458 12.1984872125 12.2386107137 12.2090235781 12.1132798553 11.9474722431 11.8075514344 11.4733868755 11.0708311852 10.2785503926 10.0009942645 9.90177310564 9.99786858155 10.2215194183 10.482439879 10.7132490491 10.8777417083 11.664002074 11.7513048076 11.7748076237 11.3574485838 11.3303707763 11.3099066995 11.300247487 11.289939009 11.2530095959 12.4032477715 12.1559504098 11.7263147546 11.085179629 10.1492966647 9.01938378273 8.15455586393 7.56069956676 7.16209204757 7.24214106968 7.65326835323 8.38313383118 9.21518413238 10.0014517523 10.6348114869 11.0513235981 11.2244295968 11.027026578 10.7610974359 10.357799248 9.9522167374 9.51837371806 9.20153376062 8.99521414098 9.04071574253 9.23376628193 9.50062866076 9.74817257208 9.87127093545 9.83124719621 9.59422182774 9.17756718695 8.25417545544 7.79379640534 7.39942234314 7.13299605071 7.11341843447 7.06004823355 7.33799994502 7.67917500608 8.01952552285 8.74497697133 9.00827306841 9.16510858932 9.21924180011 9.1851783741 9.08429669522 8.94218815905 8.78601332279 8.11910845753 8.04985133992 8.00447830288 7.97336227045 7.93339673816 7.85380685803 7.7072612412 7.66844080719 7.35400610358 7.04510402077 6.82949218531 6.77587078228 6.90123742228 7.17245125758 7.53365877542 7.93269772037 8.33289241199
15.3878391136 13.6783029693 11.1796032006 9.91045341503 8.78299700965 8.02075749671 7.77382411481 8.11849678275 8.98971682611 10.1768383682 11.408835036 12.4710641627 12.4887031836 12.9914707427 13.357184096 13.6675917369 13.9828080947 14.5465470715 14.9217673865 15.2641655614 14.792678431 14.8751027117 14.7369088376 17.3493279981 12.9285558066 12.0579311089 10.9490707907 9.71344690356 9.34888655584 7.90865715648 7.45253876641 8.17533830469 9.91737108159 12.2491376067 14.6870178153 16.8657021907 18.5930163552 17.7918743681 18.5020895901 18.9494717041 19.2535927999 22.0645951385 22.5368439446 23.1295170561 48.8904638064 51.0933936625 53.0802343254 54.4784836921 54.8956886624 53.991361712 53.7663758438 49.0401490198 42.4653418095 34.4057196282 25.6848457966 17.644721708 11.9650555276 9.99084009957 12.3705230281 12.2524377273 15.2636393925 36.0420414927 44.0440206478 50.2244651143 54.2081940958 56.0826297243 56.3331540874 55.5796731871 54.4908147653 53.648278858 83.5244023537 58.0008452698 59.8867440538 64.5602727876 65.9391015081 66.0344205963 30.7802716053 29.3589911512 27.0552174542 23.9531691643 20.3076060273 16.5990314899 13.5480977876 11.9336409223 12.3745008287 14.6616029158 17.9661142355 21.4915010331 24.5125732131 26.8052805273 28.3971097767 29.4055187514 29.95204321 30.1377820305 30.0424556033 26.6689916311 26.3261446142 26.2438230518 25.6076237297 24.8509550607 23.9701477311 22.9525191834 19.4021757798 18.3230590043 17.1575028279 16.4143446326 14.1475289899 14.0139435915 14.2718889591 14.7554890706 15.2736840552 15.7536406404 15.989070965 16.463367655 15.6305583445 13.416120753 13.2724111776 13.0781139144 12.8358195314 12.5545502544 12.3810296696 12.1130384504 11.9491249486 11.9376195424 12.0724314962 12.2864481728 12.4968279542 12.9450237166 12.5223943541 12.7578602749 12.7654675253 12.724217456 12.6375821188 12.5091523377 12.4453506854 12.2378375763 12.0032101315 11.7592249825 11.1235920575 10.9982424056 10.9796109686 11.0546973758 11.6915520431 11.86481834 12.0037559425 12.236122828 12.3294949143 13.3093198884 11.958573495 11.9491237022 11.9313378305 11.9051806296 11.8591251423 13.1494609822 12.9534882758 12.6108574748 12.0757846796 11.8883881132 10.8160787121 8.98134107269 8.29766532646 7.29350945933 6.78318081943 6.87126311913 7.39779470242 8.24094250454 9.19537524864 10.0988629133 10.8415802943 11.3635790174 11.6443180421 11.5565744494 11.4077102871 11.1937316218 10.8394711296 10.4978911123 10.235967347 10.0138645562 10.0099626623 10.1046104364 10.2368782383 10.3294607948 10.2879765318 10.0863797078 9.69015062364 9.1143025727 8.07631662748 7.48427239751 6.97973376444 6.66472355881 6.64214338851 6.8184244998 7.10195796133 7.53618469202 8.31410541132 8.76344617673 9.10398779571 9.32650665207 9.43910494308 9.45939705777 9.40957592096 9.31334749801 9.19340903676 8.47687196346 8.4106149821 8.34663474581 8.27437562939 8.17300211709 8.01572114347 7.99424467119 7.6287748455 7.19784107346 6.78328803658 6.49772911494 6.42947996935 6.59345668865 6.93494085072 7.3735162696 7.84122009145 8.29543715858
15.4141559284 13.5870574251 11.7484968043 9.57501767186 8.30846996001 7.43506467652 7.13994286247 7.52635308414 8.53235456121 9.92625371173 11.4074478397 12.7362026409 13.799322526 13.6662157428 14.2066233121 14.6401017792 15.0195018471 15.6201754787 15.9554252589 16.2242943046 16.3774451979 15.604584989 15.3897408189 18.0968133846 17.0900269688 12.5058912793 11.3713894349 10.1108888575 9.96152987346 8.50783010932 8.05437966478 8.80353538923 10.5918252501 12.9842368753 15.5025865943 17.7967063992 19.6878664863 21.1348246395 19.8575449347 20.5290755235 23.7156529941 24.3059803268 24.8896757412 25.5018032837 41.6576888283 56.0972947065 57.6419931532 58.5312641474 58.4205521556 56.9887903609 56.3349378259 51.0853608869 43.9615629352 35.2877368246 25.8791767668 17.1455883166 10.9278722112 8.89230028862 11.4948315239 17.9402562919 27.5589558856 37.3708663292 46.3054462239 53.4889330673 58.5770740863 61.613211608 63.0359502436 63.36161038 63.1311888886 62.8071119032 98.6960878423 99.6807886516 72.1486322973 73.3205592162 73.7929880484 73.0681760684 70.7390416114 32.056260658 29.7931982623 26.8875315922 23.5839622265 20.3138298217 17.6885164918 16.2691290889 16.6588896358 18.5653233263 22.6567089265 25.8061368654 26.6805473183 28.5997998738 29.9882753018 30.9331248861 31.5027787267 31.7403851447 31.6762682003 31.3380427146 28.2162013564 27.5831709317 26.8260453151 25.9803653054 25.0946512488 24.2053266882 20.909051273 20.1628040095 19.3566667821 19.0067102958 18.4726178609 16.2053059855 16.2514442404 16.4801886224 17.3496985235 17.0753117017 17.1942280319 17.6551823808 17.5509664343 14.2131849115 14.0692265456 13.8813052722 13.6573698289 13.4124096566 13.3035073525 13.0972914452 12.9776783714 12.9635246137 13.034473383 13.1379106987 13.4640645592 13.5550377254 13.6243045864 13.2770576356 13.2593944939 13.2087327585 13.1276395021 13.1306089282 13.0104463965 12.8940494078 12.7818210195 12.6618648304 12.533059233 12.3942739952 12.3344813769 12.3497927156 12.4221465842 12.517575681 12.6038414591 12.8208690034 13.8865374788 14.0040172605 14.0787305447 12.5469115259 12.5298077358 12.492451901 13.9296732268 13.7891818235 13.5404309602 13.1414401043 12.549586677 12.3376167199 11.2044637938 9.8726300161 8.54907422577 7.4843597682 6.94027624936 7.01852482214 7.55975888146 8.44651669713 9.45006160282 10.4057907692 11.2062144943 11.7954592155 12.1564960928 13.4346521107 12.1121562072 12.0100609881 11.7556825191 11.4932451616 11.2753692393 11.0328841341 10.9777222099 10.9774841036 10.9829814623 10.9316460995 10.7393697697 10.39431049 9.86201306959 9.15514666488 8.01170447494 7.3118648607 6.71504638922 6.35394470157 6.32844609877 6.58617020557 6.96927682631 7.4827087262 8.32811021912 8.84908156556 9.24816814984 9.52006754625 9.6767633512 9.73813715224 9.72653584783 9.66372626054 9.56876428037 8.80752425881 8.74144998376 8.6614376415 8.55685888632 8.4089855644 8.45256044382 8.11131982417 7.66518460311 7.14817877714 6.6525860029 6.31196193958 6.23354606375 6.43131965489 6.83068600639 7.32936109605 7.84684275207 8.33718125865
15.7490968983 13.8714680501 11.9686252399 10.1501101144 8.58876850032 7.44838257764 7.1353529689 7.54634802537 8.61912883215 10.1144899069 11.7248568816 13.2048197404 14.4319301792 14.3641037368 15.0299968391 15.5575032051 15.9912223639 16.6332618084 16.9484890693 17.1727927358 17.9308699989 20.1989696695 16.1482869887 17.598386703 18.0833565832 16.72507216 12.1724446043 11.005053627 11.594133745 10.2949067864 9.91703458592 10.6423006629 12.3240138417 14.5739914476 16.9680892403 19.1969374729 21.1007721902 22.636360667 23.8319232701 24.7603846555 25.6945884081 26.4378190024 27.1190212134 32.0052063551 45.5122069593 60.8489222434 62.1158029008 62.6847107537 62.2617257911 63.4736651371 59.9970384133 54.4865608535 47.3712338484 38.7799157352 29.485507103 20.8567999909 14.7150718128 12.4805173695 15.2511500729 21.4784209763 31.4356668881 41.4156889512 50.6467901721 58.3055788865 95.6632609356 102.64282561 69.9480334481 71.1088234282 71.5549285542 112.34353 113.170182583 113.919572634 114.561031355 82.1812839174 82.0283752135 80.766184634 78.1148050793 73.9342601813 68.2824263745 30.6320532556 27.8051851094 25.0990154725 22.9868633476 21.7653281007 22.0032614147 24.7555456446 26.8480220043 28.9709793393 47.4795487358 30.3310613438 31.4367645842 32.2902680767 32.8840372291 33.1838869946 33.1576683376 32.7924373127 29.5208531353 28.7379704162 27.7977802279 26.7771367988 25.7840147003 24.9210433349 24.2412503004 21.5874627534 21.5491560336 21.1335319564 20.7972951598 20.6261175721 18.1428730765 18.1984456855 18.960184921 19.1049272363 19.1739952858 18.9190877997 18.7639853959 18.5079815886 14.9180098812 14.7332617566 17.1666202362 16.6274687502 14.1847093961 13.9703872708 13.8149700017 13.7297211928 13.702589085 13.7051466811 13.9036123197 13.9524852939 14.0176221577 13.7155737596 13.6979227065 13.9802336706 13.8673524924 13.5571856466 13.4433038983 13.352829883 13.2918956263 13.2414453616 13.1640147934 13.0868259944 13.0356026648 13.0322037408 13.0719595951 13.1330741591 13.1909610869 13.4011354501 14.5576000451 14.6848623061 14.771264095 14.8189557644 13.1134818269 14.6896548304 14.6067103851 14.4452062122 14.1755088085 13.7619584829 14.2928890111 13.0168903792 11.9217769937 10.6370237786 9.36091149096 8.3283819763 7.78901755844 7.88546801819 8.21393532764 9.05857267016 10.0244367061 10.9573587797 11.7561894741 12.3677952163 13.9919252854 14.2284367761 12.8740996915 12.8609361885 12.6863803988 12.485542053 12.298849699 12.0325163357 11.9276064104 11.8418263494 11.7363901829 11.5471521449 11.2438877163 10.7860389037 10.1555366454 8.87797872457 8.13643024335 7.37712236369 6.85530424678 6.33780625511 6.31005149814 6.59608650705 7.12808128949 7.82524575026 8.47567713476 9.0317331527 9.45973607525 9.75757909926 9.93951102268 10.0261220727 10.0389195207 9.9975417661 9.91807829172 9.11802558394 9.05211043346 8.96176744999 8.83721393918 8.96477045787 8.68883220182 8.3139468226 7.83463054075 7.28399410551 6.75549942009 6.3900923365 6.304478309 6.51347062103 6.93314947719 7.45086689709 7.98098342588 8.47711475744
16.4187849148 14.5713969822 12.7014290023 10.9184056366 9.39403336599 8.3522142278 7.88436286548 8.30265750477 9.36492130394 10.8432312064 12.4495394761 13.9534300837 15.2342877454 16.2664509167 15.8692159 16.4538355962 16.9242463446 17.6052649457 17.9137499242 18.1170292281 18.9021442455 21.3160415068 20.9823970389 18.6555231783 19.3448499108 18.1795319127 16.7496461436 12.3314315526 14.0490759997 13.0297862707 12.7833374479 13.4505740627 14.9154601165 16.8730416384 18.9875236047 21.0092940229 22.8029207759 24.3220905054 25.5750008216 26.6091990423 27.630603668 28.4906590005 33.8808410243 34.5573730852 49.1929029379 49.8991408201 66.5280004234 85.9714931493 84.8096020656 82.0920467412 64.3828649595 59.2346685061 52.6712983496 44.8471582279 36.4659500788 28.7508565951 23.3167328837 21.6541770148 23.4517830682 29.7527774123 38.5092143061 47.8640529292 56.7003194899 94.5541643243 104.605944495 112.3646734 118.070083885 122.118336373 124.952559599 125.995717583 127.101473785 131.235098219 131.126345469 91.1752199075 90.6396961053 89.074389564 86.3049082016 82.274291828 77.090504812 71.0640432173 32.5754632188 30.3613618545 28.6356353624 27.4555010827 27.3661660311 29.6796405971 30.6311799056 31.5997349728 49.2335889975 51.1261664846 53.3785385755 33.2819894963 33.9972833842 34.4410806423 34.5066418763 34.1353233501 33.6730434024 29.7358116451 28.5185546237 27.1834184729 25.906967501 24.888806011 24.2772607462 24.0761476899 22.6416777333 22.6064788801 22.5676156501 22.5594665375 22.6099863218 22.6515354443 20.5434535991 20.5851053325 20.56634317 20.2329041824 20.0236143014 19.7271284913 19.3175947363 18.8270367629 18.2801494653 17.6879587862 15.020138428 14.7300109383 14.4563114533 14.2169534728 14.0304899701 14.024491342 13.9966014854 14.0874269181 14.2388960326 14.3768688149 14.4051225541 14.3643255703 14.2376967564 13.8946646307 13.7284273213 13.5848757783 13.494868609 13.4636474839 13.4616969937 13.4791036448 13.511482982 13.5635203976 13.6305394683 13.6989833773 14.440299156 15.0392036646 15.213493379 15.3476573857 15.4411452159 15.4938634318 17.2018147262 17.1792821607 15.280142063 15.1179984622 16.2829416286 15.7892217357 15.1195596611 15.0670793435 13.9175374692 11.7990032281 10.6737781129 9.75447335403 9.25375980083 9.32586703209 9.86744165735 10.0502566199 10.9054589688 11.7514271694 13.659688467 14.3552849091 14.8391035567 15.1170697865 15.3025244571 13.7481066049 13.631646275 13.4743694883 13.3066610102 14.2685257322 14.1339520897 12.7048133177 12.5080613344 13.5599981604 11.8223874077 11.288398724 10.6044214065 9.24913655755 8.49967350481 7.74322583616 7.32024397198 6.75560813765 6.67655444911 6.92244940802 7.44985879317 8.14615821252 8.78368388776 9.32822525356 9.74908305089 10.0455225988 10.2316331719 10.326711788 10.3502178292 10.3193122857 10.2475474064 9.41497064282 9.35073740289 9.25704359008 9.46675213475 9.2621042848 8.98506784901 8.61910994318 8.16058626625 7.63927614521 7.139221524 6.78951598203 6.69995250936 6.88723828368 7.27474313388 7.75709094631 8.25333896766 8.71928104476
17.409671758 15.6705627766 13.9268849304 12.283722309 10.8997686706 9.97445807698 9.69527318388 9.75309145 10.7337682983 12.0892845488 13.572863253 14.9857410213 16.2187652646 17.2407087583 18.0657614344 17.3470897739 17.8342556425 18.5484329041 18.8586606897 19.0590961967 19.8962439736 22.4902697938 22.2109527561 21.6764374617 24.6634511482 19.8876875483 18.7886132953 17.6251795135 16.9663334359 16.2766122197 16.1838268437 16.7812763705 17.986034792 19.5863353598 21.3464920309 23.0854244292 24.6966915534 26.1328944451 32.0643434925 33.3248693088 29.3325377997 33.3737980989 36.2994094028 37.0120221307 52.734792057 53.4134010176 91.4714186458 91.548970596 90.4485170936 87.9539602955 90.6410675751 84.5823625017 76.8669770025 52.9113071551 46.0111384055 39.7775755795 35.4945987881 34.3268492463 35.0833125527 40.5568613349 48.2006070261 56.4306485774 64.4153798569 104.841503674 114.746533555 122.828365967 129.166887812 133.981793428 137.548480061 139.31132574 141.44807706 144.814136582 144.392297857 143.027820428 99.6042170123 97.907389154 95.1452730272 91.3162578369 86.5477299576 81.1154465407 75.4366873914 35.6470728329 64.5168602694 60.8119727032 33.9351287053 33.496994196 33.1722002601 48.304423366 48.2538809676 49.3781439728 51.7694248797 54.986200161 34.7482929276 35.4974302601 35.7603345596 35.8134095648 34.822058832 33.2560946897 29.0763187857 27.2787948631 25.5198764905 24.1320368514 23.426934768 23.4978813835 22.9936449708 23.4380416449 23.8180535098 24.098430478 30.1988706245 25.1038712595 22.0711494903 22.0549557918 21.9731532434 21.5759199513 21.3146069171 20.9768546919 20.5286462232 20.0041288874 19.4138175011 18.7530397332 15.8509834569 15.4378000398 14.9843701363 14.5229698779 14.118580332 13.9031416487 13.850298589 14.0454529905 14.3513548356 14.623587884 14.7408351106 14.7303019468 14.5838133643 14.1804606953 13.9185703121 13.6629144285 13.4844490762 13.4383075706 13.517907033 13.6686175036 13.8356800092 13.9913143574 14.1238526302 14.2263150056 15.0343058746 15.6671089918 15.848065746 15.9875269027 16.0858959092 17.8821456688 17.9327280117 17.9100576402 17.8049869576 17.3758865278 17.0487160184 16.6048940048 16.9348522834 16.1654742718 15.2378737651 14.1944354191 12.309881158 11.5535350765 11.1157932186 11.1643483593 11.5705043437 11.3267312736 12.0317817009 13.9512395305 14.7239147186 15.3536853262 15.8137750107 48.9853831942 50.2101954292 16.3091328368 14.5986259683 14.4685459829 15.5501051037 15.3968986535 15.2223957366 15.0118768429 14.8082189172 14.4204245784 12.6370651842 12.0585431362 11.218541305 9.80995012317 9.10447607485 8.93631404405 8.21929203272 7.57585770644 7.5476915656 7.56275952259 8.09494616585 8.67830447908 9.24727476288 9.73472975268 10.1134058115 10.3820067441 10.5521193874 10.639888865 10.6616117852 10.6315842967 10.5610344255 9.70230361811 10.5294697272 9.92111903102 9.77636251424 9.58425001779 9.33284582117 9.01126221822 8.6184135517 8.1788187942 7.75879448057 7.45992795022 7.37072701127 7.50950003051 7.820546633 8.22109102047 8.64365924818 9.04862216101
18.668992526 17.0972313047 15.5478410546 14.1167108638 12.9398525646 12.1782654679 11.9732372989 12.3806062243 12.5568169954 13.7169280791 14.9950498977 16.2336386862 17.3421908116 18.2890015669 19.0773381424 19.7238223586 18.7223125271 19.4640854554 19.7823388872 19.9938446663 20.9010672112 23.6952530327 23.4980431757 23.09025208 26.5774559395 25.6913212578 20.941884121 20.1591297859 19.9602744965 19.5754145371 19.6210503076 20.1487765831 21.1041717609 22.3585341583 23.7687669037 25.2201216649 26.6363130791 32.6914820207 34.1535881912 35.4485123677 36.5680965254 37.6931818979 38.6265251291 39.3859089624 56.1560673585 95.7946130804 96.9257622226 97.1415011665 96.276954466 94.1884276145 113.589339202 93.0017766009 86.8044073084 79.7840834747 56.8213948726 52.2683682989 49.2913159378 48.7014186842 48.3409711295 53.1351234061 59.3071590804 66.2542047269 92.8351160974 100.81522793 125.703949554 133.837831294 140.541569618 145.88002863 149.986140625 153.003822213 154.591893633 158.121542663 157.522946618 155.881347035 108.882813037 107.167758722 104.473595559 100.825343695 96.3399907608 91.2298318015 85.7799429231 80.2892840839 74.1291445265 68.9811756649 64.1706100327 35.8486923368 34.0418508174 45.5316379375 43.7994432164 44.5600103074 47.8003147336 52.5718031366 57.5594627306 61.6121659869 63.8285673955 63.8460221937 36.0729302456 54.6585151614 34.2436912634 27.3446028115 24.9845473305 23.0827319555 22.1617475761 22.4532765634 22.8811902058 23.8740452064 24.7473141157 30.8515644561 32.0444862039 32.8469271969 30.8663104393 31.1401822284 23.377032469 22.9300435077 22.6206732367 22.2445176084 21.7626542983 21.2130435123 20.5910981494 19.8755213555 19.0389057581 16.2093465403 15.561535058 14.8642851915 14.3312041987 13.8581756273 13.7850143873 14.0750637113 14.5190551031 14.9113441602 15.1070733392 15.1234100648 14.9573013635 14.4876113045 14.1306911962 13.7629754462 13.4924931322 13.4368913622 13.7203238211 13.837715356 14.1364256649 14.3979020828 14.5998806051 15.7218621065 15.9295266708 16.2691679587 16.4540850117 18.2443101441 18.4356701453 18.5641584126 18.6212710589 18.5994020724 18.4931716917 18.0854667511 17.782830178 18.3322911508 17.836554076 17.2490646883 16.5681242522 15.8154610574 15.0599520672 13.4675767897 13.1124977385 13.1563804548 13.4432942834 13.948458529 14.6055159136 15.2976620773 15.9438267574 16.4891915236 51.2563195199 53.2477690649 54.5973063467 17.4126047452 53.9097804193 53.3265627539 52.6350115357 16.5250442244 16.3173977048 16.0581950147 15.7920975685 15.3495535339 14.7975589769 12.8082802264 12.1263358228 11.3719622155 10.4148766649 10.0378942167 9.43651164053 9.07809644097 8.66634341739 8.94995920617 8.89974093486 9.36985213497 9.83007544278 10.2267028261 10.5364521225 10.7563913437 10.8941818168 10.9616611957 10.9712675004 10.9341800666 11.0819103193 10.9654265231 10.8214343138 10.2152676508 10.0831459215 9.91481590959 9.70449510133 9.44701297846 9.1433217365 8.81091758178 8.49473801173 8.2635233299 8.17962833254 8.26189705576 8.47929716318 8.77740692792 9.10668197151 10.081101438
20.1154900956 18.7409773741 17.415937663 16.2229739461 15.2701606732 14.6755483901 14.5329650741 14.8686416518 15.6163909022 15.5229619191 16.5555738769 17.5761912112 18.5170799629 19.3506365857 20.0727662761 20.6880527377 19.5752615415 20.3426450854 20.6756626126 21.7852259569 21.8983846924 21.8831245917 24.7957674958 24.5193967783 28.4677704518 27.87598479 27.182083278 26.4928000598 25.7844656061 22.5554815358 22.6893700589 23.1413400718 23.8816034894 24.8474742701 25.9704883591 27.1905363421 33.1220483388 34.6558884919 36.1205098124 37.4673695528 38.6620598249 43.2070301061 40.8657005871 41.6840089414 65.1956460473 100.826600803 102.162201692 102.625949581 102.100617631 126.050651038 122.260158811 117.193605713 96.723273064 91.4849461285 86.3652156 82.1165943266 62.6738432856 62.6381752059 64.5914714775 83.0567820323 70.4776372396 96.7278736747 104.212299933 111.316597389 136.948559357 145.076526669 152.035929428 157.769574739 162.299596249 253.947535041 171.595341016 171.224184779 170.542614834 168.743244604 165.780171463 116.76397025 114.15737104 110.637165511 106.290150414 101.251893687 95.6754241602 89.6745220486 82.4378897904 99.8658797567 69.5279285966 36.9646542338 33.4134863293 39.7376177013 36.2327054635 37.0150501821 41.867877303 49.0308852588 56.3887701878 62.3389823269 65.8536700769 66.5539678728 64.3824349061 57.081367967 35.3287208624 31.3238594053 26.9995208412 23.3143874155 21.4418799711 21.8701906568 23.5364573261 25.5768914597 30.2436058945 32.3629584543 33.8091392407 34.7268495189 32.6853440987 32.9524220521 32.9935940431 32.396297559 32.0220425627 31.2984797509 30.4110772846 22.4530201461 21.8303165171 21.1037082196 20.2264883199 17.1819542567 16.3793004205 15.4965409931 14.8466814556 14.269749633 14.1568712234 14.452352957 14.9251087203 15.3508382518 15.5715354005 15.594158071 15.4135122188 14.8948319987 14.4881930934 14.0675979697 13.9950768409 13.8591468091 14.1584944895 14.751806565 14.5401829622 14.8626517635 15.1032154204 16.2966721328 16.49837599 16.8330531861 18.5696478199 18.8364498401 19.0506771787 19.1975901626 19.26351404 19.2393207347 19.1228507707 18.8619047443 19.3557527997 18.9844961464 18.5825993076 18.1593708199 17.7130761221 17.244526836 16.7797737288 15.2674119989 15.0200267992 15.0962247945 15.3129375015 15.8186653025 16.3284821039 16.8818822753 17.27285504 53.2783884241 55.7916943243 57.7688814478 59.1778476483 60.033648999 58.5800116092 58.0742682755 57.3471073655 17.6675728645 17.4326362513 17.2174152281 16.8223284402 16.3453533682 15.7769646284 15.1152836708 13.0088447872 12.3259405094 11.8979564735 11.2912337126 10.8053849372 10.5133150845 10.8397406218 11.0362648638 9.8040354548 10.1428707584 10.476517019 10.7659917465 10.9925229877 11.1515202961 11.2464769221 11.284702548 11.2746796571 11.2244876609 11.3564525891 11.2346634203 11.0886865551 10.4917994435 10.3729433846 10.2297255626 10.0621243306 9.86997743969 9.65516971952 9.42734428818 9.21123443658 9.04676328307 8.97380531427 9.01048808085 9.14542000354 9.72133046339 10.219260821 10.5440509588
21.65628266 20.4782004291 19.3693152668 18.3965110145 17.6395553938 17.1772507943 17.0638004601 17.3038408238 17.8427142296 18.5834541987 19.4219898669 18.8656163715 19.6290684374 20.3405533356 20.9913377094 21.5753293675 22.0847850039 21.1661386299 21.5234006319 22.710919837 22.8668994649 22.9071211505 26.0582201771 25.9025757946 25.6147239863 29.8645759257 29.4107082197 28.9521219476 28.4309375868 28.2090199398 25.1087686744 25.4569494304 26.0117964537 26.7635150539 31.9031922408 33.2572484733 34.7624425274 36.3323689858 37.8806037932 39.3333735093 43.9532726846 45.3148964664 69.1771905334 67.3235373669 68.4804199493 105.473355238 107.080755448 107.856562811 107.710326878 133.531245442 130.460971961 126.31932166 105.675612961 101.711348842 97.9973312685 95.1092895934 93.6058915677 93.9151982617 96.0143236154 96.3051892695 101.832010057 108.163836354 114.895754256 121.497334799 147.924918757 156.189599542 163.44582775 169.555353616 267.079580993 271.68061897 274.328060435 277.767441382 183.43843071 181.55709216 178.486719203 174.22693837 124.10198396 120.65863788 116.339349338 111.207774918 105.305231714 98.5976583233 118.879246671 106.795024527 92.2858207164 59.9082420733 42.5041220681 33.0922453462 27.7564624457 28.8081216802 35.7439308178 45.7403668481 55.7445861621 68.5090901746 74.2595440714 76.3263012075 68.308044706 60.9010138743 37.3652356653 33.1529555303 28.6020630456 24.7311520647 22.7906096615 23.5355103582 24.5102348957 26.7307809317 31.9423397248 34.1452401627 35.5949746807 36.4799360072 34.3633940548 34.6140834808 34.6372920449 34.1939017201 33.6072097016 32.8240559095 31.8742970248 29.382146677 23.1263064208 22.4530496231 21.6217033761 18.9309837926 18.0131105541 16.5906895049 15.9395627928 15.2973213145 15.0996996503 15.2862428592 18.3648176482 19.3660670657 20.0253033672 16.1850851118 15.994934433 16.356971947 15.9347732896 15.3436962219 14.9058541163 14.7927955724 15.0545116742 15.5741190711 16.1590308915 16.6673610981 16.603729248 16.8447837046 17.8393209625 18.0637544195 19.040738993 19.3462685333 19.601843532 19.7800323308 19.8587760464 19.8254072731 19.6796559495 19.3804324093 19.8028362126 19.4132328599 19.0484462425 18.7405457102 18.4938328621 18.2907834303 18.1164484202 17.9824641102 16.7743431965 16.8508274894 17.0657017519 17.5113564435 17.9248352967 18.3744076832 55.2952282931 58.1081000509 60.5368693303 62.4905610677 63.9237938747 64.8291489115 64.9936255886 64.6344797481 63.9314075589 62.7670985905 61.0867328772 59.0401905146 17.8987930318 17.3988007071 16.8230039575 16.1773781837 13.9547347747 14.6683978585 13.0711582972 12.5635764377 12.1626997062 11.9105936051 12.2965687075 12.3822712157 11.8267069648 10.9174840198 11.1275460572 11.3106264892 11.4524798705 11.547398214 11.5953573997 11.5997506819 11.5656190262 11.7136412239 11.608010612 11.477898213 11.3266952754 10.7423420164 10.6308470618 10.504405676 10.3682081871 10.2267706675 10.0828957079 9.93955786644 9.80556008663 9.69964235129 9.64530469414 9.65831803702 10.1201660158 10.284542698 10.7297603842 10.9817328928
23.2038469181 22.1964495559 21.2662685385 20.4639475152 19.8441419215 19.4546168217 19.3216042915 19.4378835847 19.7624347914 20.2350973833 20.7982250729 21.4113457896 20.5540910131 21.1620595139 21.7614437813 22.3349895384 22.8617041655 21.9123425946 22.307622138 23.5791900307 23.7854586988 23.883070449 27.2470011546 27.1929680012 27.016842839 31.5799677576 31.2465655072 30.8601064389 30.4850285005 30.7034229983 30.5326796727 26.8996031552 27.2769526507 31.6903910491 32.7810265152 34.2075147983 35.8663738869 37.6314698141 39.3819277201 41.0201531148 45.7851931941 69.637245465 71.9002494412 73.7115921334 71.5360896038 109.640625893 111.561556274 112.683796644 112.915887963 140.350764304 137.759382277 134.103780595 129.701401181 109.5067209 106.313555694 103.906234375 102.787281633 103.341383046 105.516940952 105.546108959 117.244215647 117.331188494 124.090102269 130.788862959 158.170598826 166.869896589 267.38832595 276.638066622 283.763395306 288.760413354 396.832795944 295.120458853 302.522191123 299.828192922 191.108321296 186.761659547 134.24176455 130.843889339 126.495118431 121.207985387 114.951001954 107.598384633 165.659660433 146.834711323 99.3368708407 78.4005338859 41.4121129121 29.4111207847 22.5715406397 23.9225492667 32.657809191 44.9846428195 77.6057349051 71.4836500187 78.4434964174 81.3418757979 80.2892687659 72.9240009846 65.511975003 36.5675672964 32.3362077134 28.7992577206 27.0335365388 27.6394630336 30.2259626141 31.8102442444 34.3687424275 36.1854031005 37.3123219486 37.9798778799 39.1818261073 39.3934749814 42.5785254034 47.9971971139 41.0275485095 40.2744818652 39.1758966082 30.6373260345 29.852197199 28.9970768299 28.0331063465 20.5842235875 19.684479086 18.5357096781 17.5462042861 16.830121327 19.5476333359 19.7977599648 20.426654621 21.0902358875 21.5190186396 21.5666858123 18.0369407189 17.2763502606 16.9583225805 16.4839737646 16.1430129168 16.0529513903 16.2379886439 16.6044036757 17.0023766189 17.3225022921 17.4994575583 17.6304754891 18.1362873947 18.9833390237 19.36992547 19.7543090025 20.0846944105 20.3157179947 20.4143894291 20.3627015349 21.0478689847 20.5255549141 20.0416393136 19.5467240117 19.1306552416 18.8655724551 18.7754169812 18.8281529561 18.9638696971 19.1372826026 18.810805831 18.3632952216 18.7650253314 19.10094267 19.4801529763 57.2193983817 60.2510473675 63.0186754239 65.4146159915 67.3593359623 68.8046702777 69.7310003943 69.8758488767 69.4668822851 68.6742131738 67.3728420974 65.5172429818 63.27063547 19.095522182 18.5790086724 17.9129607862 17.2727488303 16.597480413 15.8193433991 15.1781023206 13.7441238174 13.3779593923 13.652170383 13.5137090608 13.4969943246 12.7522854541 11.6266246275 11.7316329079 11.8226960815 11.8892115294 11.9248853824 11.9273029916 11.8971788262 12.0490735816 11.9530718466 11.8334761288 11.6926998566 11.0579399518 10.9610624936 10.8460955533 10.7203462303 10.5939352399 10.477271394 10.3768223021 10.2928068269 10.2231340893 10.171026298 10.4976924856 10.5378491806 10.6233993867 10.9820170808 11.1645843006 11.366888359
24.6883417153 23.8105990584 23.0053696821 22.3078699944 21.7522236677 21.3640046951 21.1526003223 21.1078791018 21.205238632 21.4180626835 21.7297385056 22.1360670992 22.6363890435 22.2372460403 22.8812658824 23.5453276242 24.1893875784 24.7755789727 25.2739778495 24.3734582904 24.6355765804 24.7892613157 28.333110036 28.3600721156 28.259937155 33.0001289664 32.679013471 32.2159039743 31.6501453496 31.5194053362 30.9439495895 30.615663455 30.728941834 31.3712597814 32.6138402421 34.3481049136 36.3888374267 38.5378539066 40.6274894419 42.5382461803 68.9082892293 71.8807175445 74.3166714387 76.2540327863 102.287898273 119.376320489 115.465954542 116.96485389 147.323953615 146.313036181 143.919617806 140.231054369 135.521992975 114.321697468 110.570420243 107.560377918 121.519367975 121.358888861 108.909247205 113.652169432 122.274192421 123.543701496 131.296345996 138.845121817 196.668595038 206.770972746 281.99691436 292.006468935 299.705446356 305.112471329 417.958836169 311.714230905 319.512533252 316.790735536 257.545966032 253.409003182 247.619313284 194.599935688 188.806740753 131.345196722 124.832300823 194.6350456 178.270243269 158.613795987 108.253070224 86.2405958918 60.9535235525 32.7800564673 27.4205583091 29.6276972365 44.2455823254 64.3565700954 84.2663828791 77.0503157513 84.5302386619 87.9462971839 87.4890300144 80.6772161199 74.2262305303 66.0730787282 57.637575708 34.8540890715 33.3519658117 33.6543152974 35.4024402755 37.5316385732 37.1485077003 38.1216514339 38.6094918709 39.5702146843 39.8823826552 40.1970450856 46.4784697383 49.2107252066 49.1211780162 41.4997341614 40.2006491156 38.5902258675 30.8251509405 30.0375026813 29.2957514762 26.9252642781 26.130013409 20.4943599597 23.864848179 22.9758982093 22.5164662632 22.5037630729 22.7800377034 23.1140003176 23.3019677352 23.2188288232 24.3174470714 23.1877890325 18.1622084567 17.7930393345 17.5230549887 17.4206672792 17.4847179614 17.6358248918 17.7643611414 17.8084416009 17.7615058271 17.7612557781 19.1240814967 19.5833973365 20.1652368037 20.7533733477 21.2461804021 21.5704953531 21.6802668754 20.8713482108 21.4234366709 20.8861889824 20.0730690859 19.3654594865 18.7881861346 18.4808752477 18.5089007634 18.8282729732 19.3200605207 19.8656607363 19.8596084704 19.6463984306 20.1800789714 20.5892907925 58.6135597478 61.9974910025 65.1346965196 67.9506602856 70.3707481496 72.3325651901 73.7923109797 74.7258604627 74.8260183273 76.4400815357 75.4173527237 71.9815494323 69.9431046448 67.4900792371 64.6529970881 19.7106926661 19.108765518 18.4559291869 17.5805158695 16.890253758 16.2357562034 15.3489831964 14.9260673678 14.5974204342 14.382564328 14.2749885784 13.4452781295 13.504023221 12.2489817146 12.2725642515 12.2812821093 12.2685251566 13.6497994742 13.5773405235 12.2789574439 12.1636173996 12.0297799735 11.8778133773 11.2560542224 11.1474592819 11.0162518251 10.8705351707 10.7250969064 10.5994772976 10.5107362522 10.4638809588 10.450005385 10.7552901407 10.8160868108 10.8942795899 11.2077149648 11.3515133336 11.5124231207 11.6866402242
26.0633628198 25.2690526903 24.5312205289 23.8708609475 23.3055493947 22.8454042777 22.4909282359 22.2357289003 22.0753343286 22.0182612782 22.0903803414 22.3251596566 22.7428810358 22.3879544065 23.0927427271 23.8542749784 24.6075118709 25.2964619595 25.882059587 26.3434846794 25.4025825203 25.6081519573 29.2947253197 29.3862919008 29.336641687 34.1490680212 33.7659047301 33.1135745097 32.2003558485 31.5065340938 30.3192851325 29.4331538502 29.2146529564 29.8814044157 31.4722623419 33.7609944126 36.4188909854 39.1381379487 41.6921459584 63.8147148275 70.659233051 73.8485009837 76.3963100521 78.4051239237 104.794168221 121.937231313 148.616173239 151.211650914 152.059692455 151.367469032 148.943814285 144.728553187 138.891552188 131.902752625 110.555652155 120.915012155 116.443323514 115.599640346 118.990436244 113.718496419 122.594237718 132.805210341 136.41489389 192.212163118 205.30449239 216.686885115 295.600284646 306.495612615 314.806987991 432.900215618 437.600304721 439.12448924 335.581334224 332.846480862 270.826180234 266.717862351 260.910555155 253.375088528 200.998603032 193.528307175 222.370616169 207.962926028 191.855505524 173.055604731 150.820736793 101.385058622 78.0058968999 70.5799465858 47.2916450775 48.7458356462 61.2395745387 78.9632070037 96.9759253556 85.635531004 92.8015841485 96.2896888519 96.2585981084 90.0032986924 84.6066847063 77.808529682 70.8131735764 64.9623879765 40.5071997879 40.3028114914 40.9173010986 41.5277251011 41.6528753917 39.3202214993 39.4260050208 39.2978485851 39.6615177292 45.5971016651 48.9240220194 50.089260497 50.279886153 49.3209175729 40.9445585623 38.8591068355 36.6757233856 30.9288732058 30.304721946 29.944777859 27.9504901756 27.403115381 26.4385806665 25.7903554201 25.3680980249 25.2133523637 25.2472484352 25.3266589249 26.874124016 26.7400195943 26.3491225175 25.446426404 24.6898202429 19.1863655135 18.9357490747 18.7655546292 18.6523576968 18.5238623925 18.3049527767 17.9930965192 18.270731776 18.2676023042 18.5495878151 19.2101488236 20.0594560066 20.9014354599 21.5921443632 22.0418949836 22.1992314572 31.2908913011 21.7918450913 28.9875315311 26.3987007267 18.9531174022 18.109332339 17.6802914505 17.7990609706 18.4100068444 19.3135608341 20.2954739413 21.9220639207 22.8750825006 21.4887269794 58.8436146628 62.9088021548 66.6096934204 69.9434905509 72.8792529537 75.3727369005 77.3793337613 78.862670092 79.7986398063 81.8412051469 81.2445011398 80.1024157491 78.440594874 74.5353884511 71.8590206427 68.7768031888 20.8726333326 20.2363842812 19.5422614526 18.9297806762 17.8560310071 17.1169512031 16.1378741068 16.6938279013 16.1840857515 14.8364053367 14.6469470136 14.7574132114 13.9269980502 12.6517148511 12.640494331 13.9641635455 13.9673967823 13.9148315724 13.8089602977 13.6593400197 12.3398832718 12.1931752453 12.032493302 11.4916222992 11.3077138546 11.1502383702 10.9645159488 10.7686232272 10.5956305186 10.4850452749 10.6208540405 10.7008851409 10.8377938565 10.9841493256 11.307835469 11.4666081266 11.6205383799 11.7765199087 11.9383546491
27.3057053663 26.5518513066 25.8299978366 25.1477681519 24.5083901483 23.9097716601 23.3470061 22.8205957923 22.3499402727 21.9853439008 21.8057268468 21.8928414344 22.2908645797 22.9777784168 22.9714817444 23.9171207028 24.8480133349 25.6852387537 26.3817102496 26.9200529488 27.3045739805 26.323454414 30.1106030089 30.2583218189 30.2515381389 30.0679278094 34.6168602266 33.730274852 33.7362857333 30.9920750582 29.0347833993 27.4531809116 26.8484879829 27.6052139089 29.710025139 32.7577082531 36.2170743468 39.6379977033 60.2936688454 65.2407078268 72.2696174361 75.5438449025 78.0696904138 80.0435081955 106.419555019 108.834000331 150.701462215 154.023041379 156.06190055 155.603693673 153.080323901 147.996864872 140.33600106 130.517428826 122.243478116 111.527179624 103.994790076 101.907739475 106.383254801 118.227920693 118.673668804 197.267629174 254.633752708 197.561488833 212.974901195 225.897157952 308.271606383 320.053782557 328.944143274 450.437877103 455.505889743 457.224729337 455.671784103 347.776180359 342.695367565 279.121558616 273.30227247 265.686873673 253.616079471 245.606053331 234.360344323 221.19399182 205.172940323 190.768568034 171.843424809 150.945497602 128.774055315 107.597194912 96.1116667498 96.9195302897 86.9804748223 100.411800599 114.762183807 97.0101916342 103.195471628 106.335399914 106.475334456 103.954290523 96.093655087 90.3555961554 84.3389031945 78.9487972061 74.7656577115 71.6848327818 45.9386588799 49.4744574211 47.2183376121 42.9337799659 38.0119073364 37.5209451059 41.9651588645 44.2648032836 48.6392577237 50.7593429811 51.4250176352 50.3982846197 47.7689868914 38.7517442234 35.7478762453 32.9618637205 29.8172237924 29.7888544429 28.8470443499 28.8788887849 28.4906054836 28.2098283572 27.9636897015 27.8111390941 27.7312099586 29.2664413906 29.198817633 28.965950238 28.5413353638 27.6371675577 26.9085276003 26.127293939 25.3360201146 20.0691435239 19.7297475195 19.2684841328 19.4473277225 18.4568243771 17.6102602491 17.3595516571 17.7550287067 18.7170698732 19.9177635249 21.0686646615 21.9881313416 22.5790270048 22.7916013561 32.1965928157 31.5693158928 29.0980131101 25.7982762791 22.19789219 19.141603802 16.7837659872 16.973280798 17.8837629914 19.2211352557 21.1606370812 22.6616766725 23.953928589 57.3760558548 62.5262519052 67.0839012482 71.1300698712 74.7020110126 77.8001350337 80.4021879126 82.4770114665 83.9947459972 86.9044481788 86.7413414422 86.0466988408 84.7715804014 82.9420394896 78.8058736492 75.8824375022 72.5269338533 68.7773474219 21.4972155213 20.7305361264 19.8968801437 18.7262792796 17.4539354495 17.8295201518 16.973637832 16.2307033864 15.6751586996 15.3742720106 14.6766552198 14.845596889 14.253623625 14.3777008647 14.2004007553 14.2053134103 14.1320572611 13.991505352 13.8033196338 12.4745255819 12.317107619 11.7506490352 11.6480004016 11.4532683841 11.2687868576 11.0326061728 10.7625465969 10.5079879486 10.419860598 10.4015136074 10.5718530867 10.8255744137 11.0689825869 11.4507135241 11.6428313923 11.808240772 11.9648104725 12.1234629749
28.4108675581 27.6636820551 26.9195071808 26.1728870073 25.4129157406 24.6248864453 23.7970995139 22.9354524935 22.0848476412 21.3471388772 20.8742828108 20.8191866894 21.2601163794 22.151603808 25.1161508744 23.7581789342 24.9404444692 25.9678788268 26.7887298042 27.3969461438 27.8164393972 32.5982938356 32.8942535621 30.9532385272 31.004904875 30.8553677687 35.3639435196 35.9640419986 33.8510896795 31.0934592715 27.7478832264 25.4509684379 24.462389081 25.3470428375 28.0347562165 31.9122878934 47.2492680458 54.8763449979 61.4952814823 66.8335406843 73.809252302 76.9174552425 79.1923115985 80.9595992879 106.816336906 109.456190571 151.125195908 155.505933658 158.615371766 159.213461053 156.791081002 150.798931875 140.943765853 130.30648517 113.97148444 98.0286664557 86.2299298352 82.3561675855 88.305322631 137.17940056 171.171734386 191.451785332 254.190337007 287.080886307 314.695567471 234.730484199 320.107149654 332.576372949 456.878210925 465.893546378 471.330994547 473.250610873 471.69652412 361.296196646 356.072624519 290.370705953 284.560672292 276.893895879 264.7342992 256.439147052 244.92301375 231.500822391 218.342847164 202.716282478 187.485846385 172.886463519 159.087943998 145.128452141 138.050688107 138.493787201 146.436795655 125.09609374 135.553795808 144.56632892 115.337498575 117.857710905 117.920016458 115.747458428 108.275180191 103.165501494 97.5850752729 92.0772676292 92.6652075634 87.1769327045 80.940284911 72.7066164369 46.9210033247 40.7889877897 37.0559408429 36.1830062686 38.2794081839 42.2210501055 48.111558815 51.5250319564 52.8453823132 51.8115152414 48.551647707 43.5644026334 37.8765353987 32.8602012355 29.527114149 29.9671565923 32.1308396044 33.1967549418 34.6241965403 35.6234930581 30.3246226445 30.2924026099 31.8174700768 31.7749238478 31.6138179505 31.3051234993 30.83894522 29.9072868426 29.157890438 28.318773984 27.3861043334 26.3087419129 22.0351916402 21.0533547108 19.7549485617 18.5203120805 17.1631867987 16.6556485286 17.1880490753 18.4512557833 19.983800763 21.4161387128 22.539376343 23.2555443857 33.7444694834 33.4858903598 32.6727682894 29.8551065399 26.052706703 21.8539689749 18.2473374837 16.383948005 16.9704318939 19.7678143814 23.8109637862 28.0765135709 23.6104614816 66.0534403693 74.261615595 66.317282614 71.2709914843 75.6246106384 79.4338202218 82.7117062709 85.444260427 127.617941624 91.0721648237 131.946129444 91.6378570419 90.8364827823 89.4160695071 87.404579761 83.0389722233 79.8514760908 76.203806366 72.1281643262 67.648827177 21.8123508211 20.8572897895 20.9246032426 20.3084818149 18.1381515065 16.9566844037 15.8878242977 15.0710767524 14.6447583333 14.2083923076 14.5266442587 15.0841940532 14.4730851001 14.3756343439 14.4003555067 14.3080173822 14.1234268769 13.8822446926 13.6224045725 12.3890414124 11.878546848 11.7840440672 11.5948182635 11.3986923942 11.1233365013 10.9867573981 10.5339463234 10.2290703637 10.2149429321 10.4704302005 10.8288893531 11.2873319875 11.5632011628 11.7637912178 11.9263326644 12.0804664667 12.241621934
43.3310405089 28.6241993319 27.8367158321 27.005253572 26.103757782 25.1018605312 23.9755801917 22.7295574752 21.4310437666 20.2418786964 19.4127442883 19.2022366189 19.7417098321 20.9476774199 22.5621915753 26.2592629178 24.9556758256 26.1963040573 27.1316697278 27.7778610483 28.1914316077 32.8959599315 33.2076526064 33.4170757108 38.8686450583 38.8710678998 38.3173613704 36.7425580664 34.4089683563 31.204594751 27.6088656236 24.6356813782 23.2380136347 24.2487210368 27.4220351874 38.9811674049 47.9621409235 56.3582231344 63.3819482595 68.7424419636 75.2703604097 77.8226734495 79.5038314353 80.8163305265 105.46249752 108.376812704 149.339521364 155.324583416 165.414988383 167.388226913 160.66703394 154.173277334 145.311442515 127.631152268 106.127735305 84.3536620975 67.655592994 61.6840086989 82.8794675156 114.622615641 156.842585057 201.107335249 272.513250175 293.317117479 323.568955726 347.19813004 331.043781715 376.627846065 469.257500352 478.734433933 484.613692001 486.787487739 485.19348199 479.943527065 367.584679484 300.111715714 294.353756961 395.820016405 376.087130943 359.075208299 253.650544086 312.330833006 224.22585568 208.074420051 194.40458853 184.581575893 177.979528657 174.235911834 173.343103372 173.919582004 180.427701253 189.603487955 199.209294679 171.78275365 176.879037614 179.023871321 130.298529563 128.213746568 120.876173061 144.944080348 138.448182989 137.83615425 129.47991672 119.771613755 107.556650206 75.1136769143 46.9153596733 38.7529577863 33.0940098855 31.7695829306 35.8436105342 43.0554009753 50.358316104 52.9158710119 54.934499513 53.975828344 50.2356631237 44.3051323073 37.3703783258 31.3357197016 28.0904544507 29.065608737 31.6394911889 35.2799037914 38.1686521971 37.915395247 40.2539262163 40.866015702 34.3657133988 34.2994913704 34.0785801908 33.7077909221 33.1946405503 42.9301546793 31.4341127516 41.1338857086 39.6131196623 37.6366946046 31.7948137226 29.0791677813 25.4902484639 21.7945846266 17.4222624349 16.8470380031 17.4289292102 18.8416748077 20.5434614427 22.1242970456 23.3594230136 24.1483955415 44.8559768945 44.1362156677 34.4658018495 31.5724970773 27.6563248253 23.3253638034 19.5975983204 17.6666243833 18.2836094344 21.2204026824 25.4766950906 29.9658458746 34.5816649243 70.1286327206 78.5116454899 84.1289106991 75.5245897691 95.222875386 122.501113057 127.352844939 131.251323772 134.170851656 137.747806329 138.305217199 137.861815633 95.596827742 94.0194381696 91.8116806613 174.01199733 83.7548854945 79.8072050405 75.4056930317 70.5607162113 24.4123550134 23.0979772417 22.431723077 20.8339846426 19.1093293776 16.8181739948 15.3498694054 14.2091733796 13.6322794765 13.5220214383 14.0736657967 14.8846760441 15.5985100982 16.0622088284 14.5769178152 14.4562207078 14.2072889235 13.8861583284 13.5542185631 12.6806085345 11.9557290702 11.886386211 11.7823259665 11.5576533237 11.591242032 11.1344868233 10.6432444584 10.3023983647 10.284636165 10.568466303 11.1120762695 11.421427961 11.6680103024 11.8309776626 11.9671282194 12.114853167 12.7888829605
44.549020132 42.8648590266 35.3383569635 33.9096338529 26.6804178088 25.4786511956 24.063538674 22.4282326911 20.6532154659 18.9614596332 17.7233173767 17.3387818052 18.0153500824 19.618424972 21.7462919144 25.7585559427 28.2199144397 30.1744027382 27.445494521 28.0597227906 28.3919017497 32.8666114359 33.1477839722 33.4348055946 38.8714970381 39.2437114025 39.0833361735 38.0472713919 35.7242432536 32.5300709643 29.0643548832 25.7842777115 24.3547969073 25.5644085951 32.9506704812 41.4990115884 50.7806770115 59.2967992585 66.1484747415 90.7356441781 94.9362817851 77.9869031674 78.6042874866 99.5866147081 101.642205663 104.941669694 144.637424289 158.268070805 165.543519736 169.988424333 169.809791428 162.205834637 149.01324006 128.69534415 103.033083556 76.3410197945 60.5884355011 48.5921498955 62.9639092848 100.929496768 151.27352735 202.730646789 278.683711201 382.54091851 424.424199792 356.668255401 374.326534447 385.184583195 478.081102964 488.168395047 494.767136575 497.373693852 495.690322203 489.848216989 376.635281141 427.986755781 416.650427209 403.030842055 383.842173234 366.540054554 343.73220941 314.220579953 283.767494551 251.55812901 226.306082349 180.149024612 179.833405955 185.220387607 192.980448578 220.113389012 231.836795655 222.935771323 231.494791696 238.11651584 194.650985826 195.653344397 194.056363844 178.45935071 201.969970967 196.135444984 187.596951647 152.473571055 142.980528066 131.395392638 116.588864207 97.4876910914 60.2315993632 43.7083022739 31.4618489896 29.8813386126 34.8590181916 43.4781562656 52.0888573693 58.2707977284 60.9823312038 57.3134434564 53.4138621181 47.1765765103 39.738592165 33.3592132609 29.899824093 30.86128311 35.2317945291 40.6982420183 45.388155186 52.0748906264 54.9706249165 43.7903634329 44.0204564079 52.7602492462 52.7645819791 52.344773825 62.67355086 61.5532175522 45.4651311283 44.2377496996 42.6641149977 42.0756268814 39.2668949271 35.6060786143 28.7389751725 24.8089516207 21.6278553999 20.4230572232 21.5264664596 24.478319768 21.7832472356 31.333959081 33.8782474659 46.820225534 47.9890000362 47.3393342147 37.0529104129 34.3797832489 30.7768207653 26.8308734725 23.4708770964 21.754019589 28.105476398 36.1390161981 29.0144925778 33.6973356995 66.8415789947 75.1923588415 83.1773397705 121.559958037 94.6286831108 99.8375256446 128.307215888 133.398744699 137.485629268 140.521544228 143.936395616 144.431275538 143.857844687 100.301858011 98.5556496993 186.150268285 181.015889705 157.220052714 83.3180881585 78.6120425768 73.4530466725 25.7009175476 24.8802687444 23.389005319 21.530843221 19.4626489303 16.8306690148 14.9516894888 13.4945442368 12.7456573203 12.9249311618 13.644338956 14.7063640016 15.6460720146 16.23355901 16.4033346705 16.1951194482 15.7013941573 14.2154526713 13.509433663 12.8524071498 12.7017304973 12.1728638032 12.1676822021 12.0817081045 12.5851362325 11.4663527135 11.0400327332 10.8276084149 10.7975064841 11.0603605066 11.4134379147 11.6771678833 12.1121808659 12.1323754197 12.2496078432 12.4397404289 12.7003769374
45.5743527144 43.8416776655 42.0038734561 34.6391887168 32.9174913416 30.8730588461 24.2624192068 22.3107849948 20.120971635 17.9667759527 16.3378149147 15.786842825 16.607753405 18.610572497 21.2371483457 25.5895708242 28.3878574354 30.4708702534 31.7890276844 28.2226175573 28.3518314688 32.3686584948 32.5396926918 32.9099358891 33.4510322787 39.253073165 39.7966882482 39.4761488954 37.8495791678 35.2239925801 32.3467129526 29.4999613746 28.3352711239 33.7710778375 38.997062847 47.1147049485 55.8766714173 63.7604229619 69.7686278719 93.1410865286 95.1491590445 94.8540204719 93.5873963586 93.15460226 94.5231141501 98.4104552602 141.057531835 152.981986563 164.314095142 172.523120402 175.338620796 169.625964329 157.095649265 181.201863089 140.854543527 97.7224597193 63.2365437863 50.2627504965 65.9829834519 116.300072993 179.05700936 215.753717832 293.14062198 396.399429294 434.391426503 462.180208009 483.809522318 500.258536291 481.780980371 493.084559321 501.115823461 504.587187937 502.751346047 495.777615989 541.924144195 429.990634789 418.852445217 445.274492064 429.62772043 408.561451607 379.253386376 316.391008313 274.35685134 230.860110071 195.703311687 179.725203898 165.343725866 181.414457028 215.684531263 237.098515699 254.637539354 268.424811882 253.80846244 258.784693317 249.212926218 250.936233846 249.835914427 274.739415385 267.751025279 212.573679343 203.865402034 166.260706622 156.244458937 144.001404644 128.525127884 108.890223176 85.4593551964 51.6761463737 36.89519786 38.2737761703 45.8057284213 59.0589695931 56.875419784 63.0206594583 65.7677065906 64.9410088551 58.9884821319 52.909351824 45.8931505637 39.7016071312 36.4283664106 37.0373764145 40.6377158341 45.3031782338 49.3632456526 62.6045481912 60.5494174773 62.3544592964 63.3986589846 56.2880231532 56.2505195015 55.7645179146 66.6754281011 65.4394951939 63.6829661676 47.1778882709 47.140150493 45.1556586291 42.6785558297 39.5588910243 32.8839228052 29.6527759407 27.0439865628 25.991435555 26.6445339315 28.9508353748 31.8985668099 45.029194082 49.0697483943 50.866433932 51.9460423168 51.4024651724 40.4227930388 38.1879082867 35.1987896822 31.9867478558 41.3074036625 38.7377336052 39.6974039146 48.0466958775 71.8079393251 83.9957279713 73.4005884872 108.332219194 118.484726275 155.030845169 135.142633192 143.112648643 133.700955076 139.102120552 143.425974784 162.440994659 149.825588587 150.256916814 149.547110621 147.73437696 197.156690254 193.072715377 187.51162089 162.541160621 157.138402053 83.1602750647 76.3041243827 71.7060938006 65.7206080424 24.6316910478 22.5807919566 55.2511717332 42.4526481672 29.4288818928 13.3969198411 12.5245437548 12.7461916447 13.8480709932 14.8706708586 15.9337221798 16.5624305284 16.6880502022 16.3593777422 15.6798884542 14.0359116048 13.1742289839 12.4804228016 12.2946412568 12.5409877871 12.8093592102 12.993595111 12.9290697253 12.6199822019 11.7948926195 11.5505794631 11.4994552825 11.6193233435 11.7654225329 12.0866189676 12.0124835724 11.8807402579 11.9436290382 12.1729583902 12.5202991466
46.3973884642 44.6295979199 42.7761976636 40.7625862314 33.5978496602 31.5260467488 28.9777068785 25.8863953391 20.2298158093 17.8002228275 15.9295913848 15.2809243155 16.2097133978 18.4845360128 21.4337881342 26.0454091923 28.9725834343 30.9826715441 32.0214865454 32.2396511328 31.9470983109 31.2169997826 31.1540594348 31.603573105 38.4901025 40.3206627435 41.8883203681 42.5886600889 42.0400152642 39.1095282492 37.2397855968 35.2594177076 41.6229547787 43.8464445166 49.2011641621 55.252070863 62.8625271184 69.4829967806 74.0422503362 95.4857168101 94.4159460012 90.6763802527 86.0658382369 83.0527146098 83.4623363535 88.2544647364 127.959424308 144.964746083 161.799993359 175.167212791 182.396104437 184.669516995 229.211928817 202.224992672 185.166673317 138.387726691 101.391155109 82.4690741872 106.339930927 151.713260919 211.58531467 270.963310505 315.898633707 413.634625754 442.620202477 462.192238881 477.867241736 492.366546204 507.286679875 522.051568884 503.010743296 508.224321416 559.121328383 550.406257782 538.158631214 519.427599368 501.480041984 438.67038474 427.352381785 410.687333491 443.649387083 414.604864763 267.731466797 210.627434775 162.05238713 140.392223557 148.046487985 171.651496895 217.430969172 249.902348288 273.944138441 290.234571906 273.697257242 277.199934442 266.480022667 299.540277191 298.683985713 295.041859064 283.888111853 227.514499961 218.525266126 215.752866159 169.093779469 157.399788722 143.172868628 125.652322822 105.16313428 71.2020576685 60.2418061313 57.3378039935 62.8587939174 73.3025255672 84.1326258967 92.0853621841 72.420529464 87.4231711867 82.942506157 60.5326431014 54.5196987248 49.2528427438 46.3075970943 46.3142349336 57.5513784546 51.5937280269 64.5477278485 67.6423587087 64.419114368 65.7234816692 66.5481588937 66.9485619414 71.4968691223 70.9662459617 86.567125487 84.78603956 82.0922118584 78.7633367639 49.6580809461 47.9356728581 45.9996963409 43.724372705 41.0646985348 35.3441983935 33.4652524601 32.6425084273 40.3669469041 43.3133307538 47.0534290189 50.9670849235 54.2994846048 56.5941257019 56.6846128825 57.3974644666 55.5963442804 52.6323394103 48.9850824135 57.5012724513 53.7632669545 51.9170198635 73.6456116351 78.6798910777 107.114475515 94.4307727278 128.011907951 138.441352602 122.268083752 158.436775396 138.720691045 147.112923325 154.744239298 160.491238227 164.961127432 168.004537732 155.327400595 155.687053465 154.835584772 207.890171366 246.177242435 199.402618936 193.354973323 167.180229866 161.429652533 154.644567742 80.4231885586 138.731867683 68.2146124079 80.9278399327 24.1267789168 60.2694175151 47.8070193926 35.0256206304 14.3808793519 18.8572437435 13.6338321259 14.6815714312 15.7832540601 16.8835305284 17.5064558037 17.5619998811 17.0836326858 16.1632201969 14.9347691164 13.0738713098 12.0611905857 11.8458529622 12.0608766667 12.5989069407 13.0742221595 13.264412592 13.179783467 12.4132792039 12.2504029565 12.163083303 12.1263085288 12.3372130626 12.0766948408 11.6506053654 11.3914160014 11.4335936438 11.7768678383 12.2800028964
46.9792410415 45.1771083755 43.3462558001 41.4250443273 39.2988620108 32.4159729578 30.0539671844 27.1328292638 23.7434177894 20.3265254126 17.0120425235 16.3926433807 17.3540894145 19.6578942361 22.6163770996 27.3034568343 30.0636152225 31.745382898 32.2566633108 31.7576539697 31.1598614394 29.9773526213 29.432333795 29.9381649321 35.675436951 38.7325895658 41.7761841375 44.0235179303 45.0244716044 44.778457183 48.3886543823 46.5229475376 53.2010505622 55.6405730245 60.3488165208 66.5222604658 71.079722971 76.0768530129 98.3464742638 97.7496337196 92.9076707801 84.8433384677 75.91165265 70.8598762785 83.5763571462 93.1273798721 111.697484209 135.085477971 158.727428088 178.419143999 200.396661815 204.209326903 288.369834851 264.645651537 230.418937906 193.355414411 164.646979452 155.838812127 187.919644837 232.201389513 315.200143391 376.423736905 419.741154452 448.568721895 462.69958444 451.688324581 459.141410416 471.586885389 489.302371123 550.90280542 571.645224667 555.658424305 554.555816985 544.280659099 521.609052183 497.342078006 477.445354111 421.754419677 488.733773307 476.708677502 449.866946611 475.147775032 348.722510929 250.732013289 148.434622233 121.862047912 144.725294528 178.534786759 225.766798292 265.999213661 293.985176014 310.826906992 327.569495757 330.606626226 330.254535475 312.10682678 311.008830163 307.473229416 304.156380576 294.048089146 238.07074649 226.811349538 214.465269728 201.294180308 186.892397722 170.418953555 131.543414178 116.367220881 104.20560696 82.6690839972 85.5868822356 92.3024649716 117.675452287 125.288833037 128.703266392 127.308129277 108.914056611 102.172195601 77.0833675801 71.9267132731 68.8645994466 68.0796302293 69.5371140908 71.8211995595 73.5275866131 71.8220215944 67.2779220462 67.9601670419 82.7574871719 80.3578365116 90.2095382299 97.6298716879 89.9576953822 87.8129718161 84.420349252 80.2727625855 64.413032012 49.8207963502 48.4536859791 47.1465376659 52.1064838614 40.7983779597 39.7259749639 39.2517381271 49.1720931221 51.5451910402 54.4441984494 57.5170414377 60.184843516 76.5839123674 91.6403803324 77.4775317752 75.4662415759 72.259142855 81.7912478656 79.7401859153 76.0276452254 90.4622839149 90.9038597358 116.111132246 120.292069914 125.366050656 131.453554689 139.067106046 148.738306844 160.170701919 170.503452846 149.881696489 191.835678602 199.804105835 169.785105014 248.220775406 160.31396566 160.578790075 159.585612863 213.728325068 252.092677156 205.006683225 198.386309939 170.922573823 164.645944985 157.442359116 150.632613023 141.299682066 70.6410061987 85.3415955847 77.8131938204 67.6879489132 56.86812205 45.7126994387 36.4347108503 31.4806566404 15.7166036178 16.3678202504 17.075256917 17.9092107716 18.3089706698 18.1783366229 17.5312471136 16.4372408656 15.0093062477 12.9649865689 12.0174757681 11.5162781836 11.8127736997 12.5557845595 13.2436665713 13.6166766804 13.6920342962 12.9524803617 12.8349418535 13.0824411562 12.8829675626 12.5394904662 11.9708230505 11.2293326553 10.7582146946 10.8280949048 11.3638269163 12.0745908781
47.2531697114 45.3831191341 43.5763456258 41.8065234076 39.9832256167 37.9419109772 35.7820240844 29.1186293191 26.310051157 23.4516393177 21.2785680055 20.6014163678 20.0481833979 22.1331663083 24.7825365489 29.3383706779 31.6475956224 32.7679452834 32.5322581492 31.5256122852 29.2190375257 26.9967088519 25.8433454953 26.431349416 32.3880325376 37.0780466584 41.9775755478 46.0496366588 53.8215955346 55.3509440291 55.81853165 69.3848083707 70.8097982219 73.79561372 78.3603662458 83.8103133919 86.8790760564 90.290828228 104.304573831 100.462227284 91.6306061352 78.8338654361 66.0587712989 55.3847486857 59.4491865449 71.0621805885 95.1424417937 125.930893814 164.398578147 225.997912206 249.291782749 260.835074476 321.475754458 308.809936956 286.849982818 262.314027289 244.0564871 266.110209528 302.81656159 340.781953499 386.362169113 427.968422635 454.251536159 457.345178912 450.176387715 438.83537956 455.011319123 432.502620539 488.144989529 523.828267098 555.803830312 573.714291976 571.40369646 529.531573249 495.685547212 486.759144824 460.525279914 452.473158776 458.268014441 466.713992011 544.584642002 504.761466232 385.78517037 291.296965033 203.423900891 162.793576273 177.820226909 251.890376702 333.251887081 291.16747959 317.595733327 337.757970093 341.562344415 340.134592052 319.119235916 319.325510015 318.87885525 316.400392528 313.336952257 302.638348302 246.610515916 233.955372693 220.980151221 209.013251993 198.358589993 188.115431601 179.614398919 168.454437215 152.415360832 125.617911174 127.732630498 132.997985544 139.038258177 143.604463613 145.221077052 143.310094981 150.166877669 118.523151069 112.179860629 106.221069063 83.5149653065 98.5868594548 80.3805696754 79.2405163741 77.6640428153 74.7762743916 79.2513692339 80.1095390614 82.2286971863 95.1484344414 98.3319532324 99.9027553536 99.198130134 90.1436494847 86.8954159857 81.0463490912 75.2241284465 60.7407368372 59.1827990242 59.006113866 59.543755003 56.5145538521 56.8801163025 67.2356573681 69.7165321166 85.015417327 89.5241671408 93.968776467 97.7712723566 99.1651367483 100.032225564 84.6456260868 82.9781688065 80.3250303776 92.5789775202 91.9072999938 88.5468463385 131.560538354 129.086740842 127.101682506 125.459736864 124.871716498 126.789451912 132.556663586 142.561537179 155.76464626 169.011388062 182.715514643 194.10620224 202.977283616 209.208566378 253.120079935 258.420504346 164.704091184 163.585984029 260.692684576 256.783020469 283.105280587 276.748956149 173.55842831 254.578905751 159.553029344 150.546899146 141.643723912 133.765943937 125.134165574 115.749381559 103.949275819 91.3509263913 59.4659825232 52.1073608465 47.9606514539 47.961205271 18.8743317272 18.7860790942 19.243818247 19.3527368038 19.0165355854 18.2318462388 17.0506176027 15.7082132742 14.0647976348 12.4611360232 12.0142386966 12.1812328958 12.9306154595 13.6317059414 14.043401645 14.1793284638 13.4225371053 13.765620001 13.5717052731 13.2658059995 12.7687488428 11.9959981853 11.0118933417 10.3661142779 10.4782535579 11.1904694445 12.0647184873
67.0298316207 45.1092984039 43.2599732773 41.6273363142 40.1752953489 39.0673850082 37.4398153079 35.4152923062 32.9758550668 30.4646717594 28.5775898172 29.3773042415 30.8084479521 29.0469551763 31.7742202576 39.0970589471 40.5282875217 40.819562418 39.0046658403 35.2183148261 27.2390683413 23.7830759567 21.8858061787 23.8807997029 28.2171361503 34.6437661286 41.4478575085 52.6373453501 57.2947812399 60.721288305 62.913537298 81.431405994 83.3018055736 86.7613218216 90.9674738109 95.3962958303 99.0774406079 122.280345947 126.638780575 110.745827064 97.1654421684 79.6372034087 65.126153789 46.046130871 41.4041529518 55.4252996699 87.5473583127 127.085578329 194.186252262 234.947764084 265.22233607 283.9353143 365.494274691 357.670885915 348.305267635 336.27359367 328.066061059 364.980764917 404.868194066 431.118920463 458.612468412 477.550512549 479.401206098 456.435743377 422.157613758 387.262507524 384.730792443 396.699358172 462.170114231 488.117815989 538.087516149 722.98105327 565.428516168 537.500329658 483.245236591 425.415289741 385.793655799 380.359441335 489.381406343 544.924337013 555.044201748 549.22597478 496.416109065 378.794039526 307.700724857 283.59297772 306.827155588 332.206805037 398.775655173 451.349169727 479.464555311 354.548218825 349.103500074 340.442051082 317.942997882 318.373927818 320.578840751 321.205709405 319.592826716 308.338917701 290.934348662 235.93712124 220.146408324 207.658833075 200.097830908 196.447611939 212.066535649 193.296686908 182.13382751 181.226791239 173.897350671 157.920340451 161.171073782 163.31768374 163.333307173 173.773798724 169.295861847 135.328151629 129.718083249 123.903514003 118.379522824 112.636698778 106.749465986 83.8776968414 78.3845645973 72.4381529715 74.3303059634 75.063216926 78.6756699354 92.9043972403 98.5662699592 101.757380151 101.516186554 97.6114851242 86.8333544406 78.436085641 69.9411384035 63.6760648788 54.9034591292 56.3556903631 59.4974312043 69.1080810956 73.0708411735 87.8176975299 91.9321778019 95.2081130053 99.5698130619 103.542049716 106.804754699 107.996805362 108.641522191 107.964153576 90.5566928711 88.2058899139 105.977378827 102.740622399 129.324934586 123.75179454 138.154689017 130.212970512 121.580305885 114.593487113 112.544607747 117.7793552 130.190642317 147.361495496 166.123382806 181.984212815 268.670279616 285.854850923 298.144639055 306.426692419 263.102443932 265.840941527 266.920067673 263.697414754 260.029397713 286.069762413 278.961095888 267.51931734 252.370030929 312.673523118 219.3200901 138.678892812 131.273439433 125.447068131 120.137838415 113.245175859 105.568886925 73.546248937 68.4287721501 65.1774002027 64.4653948356 21.4511788833 20.7321217734 20.7983965592 20.6120327325 20.0854745579 19.2082171186 18.2099952905 16.7718029245 15.3152730373 13.9331761837 13.4631823063 13.452653732 14.0838197838 14.6878656379 15.0719646835 14.9686252137 15.422227964 14.2148587719 13.9915622589 13.6481222447 13.1351573352 12.3779178232 11.3988365012 10.7397541753 10.8342583045 11.5335595925 12.393604967
65.7289972956 61.4181357169 57.6623197268 48.2367713043 46.7495745245 45.808804692 38.3944867473 37.6964200463 36.6943181316 35.5367821088 34.6791988213 36.5979704724 37.9183629442 40.2345635531 42.907216905 45.0904448627 48.8243237905 43.0063247958 40.1777504288 35.1561714238 28.7073661091 22.6840374904 19.2031053788 20.2081789055 25.5704531376 33.5319152709 46.3788268547 54.9437192799 61.2452449292 73.7249513956 77.4670275988 91.9330222777 94.9475442906 98.9681375259 103.096569203 106.921855336 109.645849678 132.983359729 136.208323481 125.991799343 108.940707265 86.0710551838 67.5354948085 44.645054665 38.4927433802 54.8985324261 89.5448214696 133.12869052 205.444917398 250.859330691 286.231854548 310.904033311 406.422930457 415.995996595 410.710743997 419.225953423 454.728663152 458.917547141 469.12214213 516.138482951 526.991496131 523.525890998 531.716397159 477.394478083 382.012004742 317.469343894 303.783675259 318.721801651 385.863875896 584.339581189 558.583386607 715.490078186 713.030416967 634.492923428 440.920720737 352.366431795 290.49369742 324.272177226 394.378485802 500.038119343 588.690322071 627.686439166 717.994134986 513.494648478 465.612139153 441.716414131 455.912160437 497.074766019 544.234612823 531.856752246 514.696082439 366.040142021 345.915480719 326.264950989 302.643543624 305.411003114 314.131469468 321.603224405 323.75526977 312.396835084 290.575030806 261.994766642 210.386553034 194.322140313 188.617775691 205.573906642 216.099857972 225.827020976 204.030273117 196.842336344 200.461030607 203.93195193 183.068348744 183.552250298 182.294870033 193.266900287 188.694415995 152.229717947 146.66051515 140.264671814 145.947170301 137.04284146 125.96561568 96.5810903182 82.7786150897 72.3119962333 64.3452355357 65.6317615954 78.2072264152 88.8785569401 98.2581120742 103.805772834 104.339834931 99.6298848794 86.8173023592 75.1035924331 62.8563704066 53.7660882613 51.1971404052 51.1549488538 64.0576631931 73.6212477566 87.0534939599 94.3616089389 98.7796254781 104.109905434 108.679666063 112.515504222 115.50077476 117.474242705 151.160895384 151.9160778 134.488447312 132.223430197 128.671775733 123.92299027 140.19852523 132.164233199 142.397370893 127.364149758 110.436579044 96.0228580021 89.9940865539 96.0322493022 113.097689011 136.531662871 161.076335116 243.207976365 268.505519808 286.237722273 297.370319408 303.779226421 294.275147538 296.365031322 265.539359083 265.673573293 330.875689897 415.256940262 403.451635472 349.308981916 325.043074836 297.245954894 269.120810536 187.787485917 123.122640865 120.157095686 173.005798076 173.460901621 116.515921667 86.9797417438 84.3893993544 81.2184891407 80.1272390756 79.2717264772 24.0891119429 23.8890316565 22.0586148009 21.372929945 20.8858364141 19.45937287 18.1688175393 16.9337132057 15.6545330392 14.7509582703 14.8078305504 15.0639870369 15.3300442381 15.5271805866 15.8351888155 15.8023856099 15.5980991937 15.2359000823 14.3689132878 13.908828609 13.330905541 12.6360604005 12.1079403314 12.1491333985 12.7257922578 13.5142870154
63.7257767967 58.5336516051 54.0492489991 44.9643143429 43.6977023815 43.6376928718 43.4571264623 44.5697501942 39.4435520485 39.7802615633 40.0694476293 43.1687351944 44.6030023795 46.5030743056 48.442634008 49.7932032475 52.9566256158 51.2303728303 46.9780722898 37.0802758431 30.1883643043 23.2703810676 19.397770889 20.5057492766 26.4493200475 35.2421275334 49.3480525343 58.9151021525 73.9164032758 80.4993676852 85.4095949511 101.929977907 107.010694459 110.589306484 114.888970999 118.539888252 131.158622883 145.140949295 148.640359163 138.461701431 121.918339923 99.91328127 87.4365139906 64.1347117529 59.1553010794 76.1095168018 109.929290217 176.401561611 228.718594984 275.205157357 313.153684329 342.008306267 449.870526986 468.262397796 483.39235905 489.949643901 538.584608142 545.709676009 553.440483366 558.22147537 593.010853621 571.734597892 556.548549806 505.584464761 385.015219965 268.679710283 202.627661871 225.489908082 327.50389912 535.347416137 682.141890212 764.851846164 725.962420073 645.380292256 491.922558075 291.032106379 219.163645926 206.141421921 309.363214857 466.516739583 605.895591384 807.094629296 839.760755731 789.648000207 619.323919719 605.82828125 611.281813469 726.690836227 748.251521176 700.62781606 568.20528619 521.986662945 348.31962366 310.381349618 267.965150844 276.830021666 298.368088245 398.568066079 327.682640455 317.315301838 290.061034999 238.432648363 202.461272123 176.21338582 175.177296882 192.160185911 210.770750786 233.349724619 219.421899516 218.114262631 223.741597273 227.441438969 229.496469363 229.800454804 215.911282132 212.81137277 207.901384327 201.747400785 192.820749826 201.297459204 189.790119409 148.147827197 132.132613802 111.63563677 79.2604627322 61.4383071933 51.5533427486 56.1252815911 68.7987673355 84.9219487273 98.7438957084 107.030728104 108.565460269 103.241291899 88.4522456083 73.4959797883 57.4041984427 45.2391240809 42.6044434627 51.0424832271 66.5122619238 81.2595688882 90.8979065746 100.299783171 106.026035445 112.074361025 116.940969312 120.805670379 123.673708958 158.240314958 160.50812172 161.341001025 161.636621894 158.915537081 154.601001323 169.204995958 149.802755714 139.338093533 145.15341359 122.891868079 97.2391501264 74.9158925646 64.9429125644 72.7158538182 95.9456227938 127.004063036 205.652554266 242.803360513 270.00339919 286.518442679 294.473575298 297.177997195 285.865784468 286.9650969 338.000128543 407.615496001 411.730531368 410.552832119 399.193370335 376.050808376 314.064789075 276.506422992 239.24205791 209.646160669 108.000434249 151.151463785 159.611631007 170.913910145 180.025355657 97.0784569768 97.288132268 96.6626868863 94.4488977939 92.4508324194 90.5107326742 25.863598949 25.2453317606 24.4874611583 23.3956562419 21.1380640174 19.9317198753 18.044038901 17.2470251683 16.0659320597 15.8155399132 15.6628976191 15.6206213312 15.890542063 16.0425403238 16.0671638693 15.8511437862 14.9423526827 14.5096758129 14.117990354 13.8392970378 13.611166574 13.4453153152 13.5135820113 13.8730785349 14.4052458802
61.1981445352 54.6765645908 48.905362784 39.9285431928 38.5045755347 39.1880975651 41.6067621296 43.923158088 47.0606423793 49.662105812 51.7678349762 48.7547422199 50.5630489 52.3784667004 53.9443934868 54.8250460524 57.8252125606 55.8897857983 51.702900732 45.2662515161 37.6593210743 28.7878110393 26.4588851033 28.0118709432 35.108463608 45.4505801404 55.5192846907 72.0297842958 81.0425107035 88.1423445325 93.7157889176 111.718235961 117.624350442 121.853361798 126.530822479 130.406670111 143.859946937 143.938570869 164.048282697 155.722001934 142.155453174 145.825789972 122.582715635 103.871189362 101.636276344 117.686096547 149.128866327 215.187384665 263.256181919 307.622746907 345.806214338 377.072157318 495.326261292 520.557638047 542.95250629 556.756632439 616.482924635 626.484595637 633.326883731 731.938374075 717.687799469 679.604218674 641.274210265 525.290225588 377.184829334 231.618898495 147.530397984 172.496603392 299.502790924 533.828918482 706.976446411 804.558463676 807.172094946 681.52757757 523.089531716 329.677070763 184.742632306 171.444993121 296.241389605 485.944892183 764.765924132 901.921551519 970.19689985 948.005719175 945.416335632 760.809610856 871.778238892 871.194515317 858.876177662 769.693628479 698.987129493 508.713407088 397.446435815 251.295388273 226.984633215 248.552107219 331.886650359 389.233395041 334.617717223 326.780274592 294.706053705 234.072217366 184.958478708 149.982790706 142.690164864 170.542507909 213.514100459 240.122620217 254.737350985 237.535634221 245.083315359 249.25331202 250.91109262 250.430148764 262.825132607 258.774622832 252.248152426 264.063756599 210.182509153 219.971371711 206.781376208 160.263360784 140.546739773 114.805761377 84.1884609537 55.6491352634 42.7159636516 46.8774378749 63.747359402 84.6209652833 102.162621163 112.72242632 115.196503715 115.543455439 93.6571101111 76.8319364564 62.4286386017 45.6206391021 41.1769883656 50.9514185101 68.7150057845 90.1084553965 106.880738881 106.660889276 112.929712077 119.313567591 124.38219508 128.329443828 162.907031584 166.527442275 168.724726108 170.596384499 169.518292588 167.093823797 163.101840678 178.801521324 197.745751439 183.656826719 161.357560826 130.417450873 94.1196935555 62.7479558247 48.4320993255 57.9959813909 86.8356640186 155.580566647 207.580218364 301.921482928 274.347521205 286.552299322 288.16466644 284.410524709 281.685725494 336.77473513 371.915200827 387.897323668 402.139663641 405.320175432 396.268706602 370.398324814 302.339581195 253.326442166 202.816590166 162.238237584 142.452672274 118.767744167 137.196352011 161.127672864 182.316922924 167.76778204 108.318584288 109.386619177 108.957445666 106.617687843 103.308685699 98.8476892821 27.9793794944 27.0144407358 25.0865483733 22.6865614577 21.4852463659 19.4940973815 18.5311038411 16.9500606998 16.2236024799 15.5585223745 15.2373707338 15.5542646927 15.9964634322 16.2353938491 16.0386957551 15.0090555963 14.3412907689 13.8127382569 13.7283018613 13.9775792471 14.2548613579 14.5163886183 14.8383407769 15.2319110405
58.601682957 50.3374556975 42.6902735687 33.4290105267 31.3770931458 32.6361822211 36.8285855936 41.663493307 47.2705109952 52.0494471385 55.8538275164 58.9025151955 55.8674800811 57.882865688 59.4101697552 65.8561411196 65.608889569 63.7428183648 66.4653432337 59.8402567324 47.2025103428 41.4319017294 39.1212669282 40.8588222295 47.0829573839 56.0458168524 71.3832458877 81.4469153571 89.7364172665 96.7246449777 102.496727367 121.45368489 135.852848049 141.628934997 138.12174774 154.195396735 157.240272606 185.858051593 189.756852723 183.560019529 173.805864775 161.086299279 167.694828574 158.163762207 156.685931436 171.324541578 202.528669683 269.103339358 315.227370044 357.064333893 395.160969755 510.617316919 547.533228015 601.270691673 674.657707016 684.090938827 701.254568748 714.666664346 811.996542146 811.506606708 794.851952357 753.729575764 713.098596669 593.696211105 441.281848914 290.830200203 203.666099761 249.592031161 405.62169239 608.666404122 783.18953156 883.312702665 891.218806094 806.047185592 704.298613506 492.001242827 331.560430725 320.335163051 473.700532862 592.9408165 889.406041133 1032.52047328 1232.50293641 1274.0863766 1117.00172428 1244.41719289 1026.15996496 1006.19352724 967.254158678 924.106638551 739.651313426 509.812742338 354.204179581 219.184807542 162.869424526 220.798774483 306.795381303 391.212952685 435.889131491 438.529620344 327.000447425 266.993039463 193.378323832 145.602529548 137.219899787 171.032483032 222.229662487 271.213832649 273.158289895 290.599333436 299.979351517 269.883814332 271.069321259 287.277379208 327.363088912 323.845650371 317.767228457 309.037349729 326.750007572 238.642276839 224.930325421 175.222432346 154.236652071 154.893906208 111.850928685 61.6571282072 47.4744037129 55.9997216128 82.5079777174 92.0389672815 110.800325488 122.189476027 125.153982506 126.53859445 113.910601972 96.1370655141 75.3991453937 59.4764441806 55.1453626691 67.401318984 86.3030178129 100.426383882 115.57885249 127.70832311 136.053904326 142.62827841 147.898439652 151.867198795 186.388004865 173.442614576 202.357716002 176.624661577 175.575650991 173.543916759 170.291340006 187.699497087 208.625661595 195.54908904 173.165920081 140.886325869 102.596883229 68.673037247 53.4141414202 64.5945552111 112.314291907 168.591143852 267.378834035 316.50605973 342.702108265 285.626293344 332.776512657 263.36126315 252.274429648 297.579943002 333.797986899 360.055401913 386.18860766 400.428822976 397.947470958 370.389922196 319.62387115 234.120804739 167.907801043 113.40173505 87.5339713629 97.9452124251 112.185880772 149.485733795 182.950802023 177.346378309 189.271598847 121.494307935 121.670741463 118.148612391 113.836974135 108.177733037 101.340564677 28.8837676909 27.7079826437 26.4115517144 23.8373452949 20.8847435002 19.63201183 17.5601136557 16.1672243303 14.7635869586 14.1437099367 14.6880001073 15.7609201647 16.4071968546 16.2792852309 15.0664312938 13.9905238152 13.0722736325 13.0774520575 13.8698853633 14.6414819994 15.1547107894 15.9594023038 16.3731356455
56.7162261914 46.5330129483 36.6395223708 28.6860063208 23.529083553 25.210633218 31.297185855 39.6456293664 46.979121327 53.8807514534 69.1012286606 74.0857968795 77.8740479788 69.4581041344 76.4356764256 71.6370721749 71.7608786297 70.6133057836 75.6089365352 70.9775779919 65.74060895 55.5637084509 54.967074871 57.008837777 62.1867717522 69.3563551427 83.838314453 92.2153890131 105.733837798 112.269600902 134.318461653 141.829624504 148.776299696 162.157513606 180.004611538 176.173449934 180.027192481 182.380476683 208.723488204 206.458441976 202.161321398 196.242884165 190.425810962 212.011984687 222.38096396 232.070686927 286.66629131 319.341526481 355.772065034 397.281204671 433.541102248 566.415699488 604.577943297 648.201367879 729.056841925 756.409201135 767.190041683 785.299079597 889.863772897 893.174559191 881.212680402 847.00976471 818.451398235 715.729220413 585.348474559 525.566272361 384.580466222 462.447609234 592.710583843 763.234984992 913.832056537 1004.00481226 1017.65450879 954.525497924 1038.77974225 853.051506418 634.715664456 633.082346681 754.448468395 937.369926718 1255.6190515 1406.0161799 1409.86933541 1453.97688921 1422.57833548 1418.67472563 1398.0524392 1136.46678628 1106.48548086 1022.23364955 813.036502353 627.214019656 375.225518051 228.190819964 158.382244681 219.273782724 385.115795654 433.916631357 494.294862133 496.239100581 451.111335702 372.234464036 273.482537786 209.950813531 179.733942033 210.475975599 257.334541109 297.510177579 324.66049489 310.846556566 318.907352799 322.445088289 331.473941239 345.88254147 344.538844733 340.767426094 334.547433135 354.874507926 344.83725334 302.198154537 286.192039118 241.670960678 217.166304035 184.523897515 149.557861081 112.069808726 85.4504705425 88.0932210176 110.335437541 138.434710601 162.362513628 265.173260082 290.053386932 275.962616968 251.452951778 115.903473593 98.641154502 85.6161124032 86.9740938506 93.874347435 114.647284478 125.486353988 136.769451213 133.604536673 140.270251476 146.494618476 152.139836408 185.795240511 190.948927864 193.693186318 206.361322996 205.818912031 178.921581522 177.321234271 175.357365904 195.243136498 219.908608984 210.994048262 192.769445046 164.669897933 143.854980586 108.63274093 93.0098105785 104.919310717 155.35986191 242.918402886 322.181713651 363.843755193 406.936829813 393.926553626 359.120446972 273.393515225 243.215015424 241.60007685 281.183018335 341.731490503 387.215319732 418.687355692 403.451928267 378.822119881 323.590864518 244.922301365 149.010492575 81.5904864613 49.5032525245 64.0837623088 115.658732523 180.536214953 188.934320817 235.488297461 204.870542131 211.451009154 133.242020798 130.54447369 124.124897139 117.356303259 109.406410315 30.8570274159 29.6264067953 28.273132682 26.7827559758 24.5418403929 21.548758253 18.3481217255 16.2889391969 14.213826644 12.9522595932 13.9454789636 15.741401638 16.7968387974 16.7548117804 15.410659116 14.0576779085 12.8312472914 12.8592871292 14.0035309755 15.3077643552 15.9640304481 16.4162062578 16.8399576918
61.5846999635 44.7606493618 32.8403047127 22.8338380395 17.5399475893 19.5329984186 29.3616961327 42.0277314496 54.49143887 64.8881808461 72.916348709 78.9481096244 83.4452222433 86.7311352217 88.9507731535 83.7986397077 78.192588021 87.1729915383 85.3609874743 82.7485833511 79.9283272358 74.7857183154 75.5624866506 73.8260938532 78.1450920349 83.6296934952 97.9241545759 109.599099409 116.055859074 121.765381945 127.435049723 151.200101585 163.374429093 179.55553539 187.873931212 196.019630078 201.394702194 205.756696563 227.364837243 228.929018679 229.652084374 229.68223282 229.943644257 265.597491237 272.435986657 285.354209073 336.09122289 364.238523284 396.77544892 436.12499869 480.317728488 605.467539505 656.093039729 692.051227512 725.247854934 811.030792623 840.062293731 852.615021559 874.606362927 976.179308987 974.754375157 955.482271677 948.90688429 876.444480152 783.908972316 800.978934379 744.668479648 756.807870651 848.961956068 972.427670497 1087.84633374 1161.9663292 1180.74435471 1322.47223415 1343.17182112 1217.80881503 1145.61756388 1013.04729947 1096.32920518 1367.03898973 1503.78682442 1610.64515813 1681.52632549 1776.218471 1824.09675635 1578.54298197 1550.48649 1265.60716303 1231.46861911 1143.46031474 1037.8105342 852.23774276 625.711893872 420.608453099 338.436635583 417.280790514 554.12770173 592.585531782 553.868376679 554.125458405 514.826954458 463.208346227 387.999786442 314.434156198 303.49657319 325.896081594 305.243662531 329.893272799 346.556896695 329.913262006 335.617360817 337.973248746 347.269460114 360.381077483 358.695017864 354.813127169 348.662120824 369.903376724 360.183505077 334.241051988 304.957735812 262.910785512 276.561196924 247.909009295 196.080934763 168.371016661 151.587061535 220.286553992 240.458584109 282.810008222 322.226597693 349.27172654 328.037305077 322.89611489 298.186206472 269.110303544 237.999000616 222.052919899 210.401893507 131.309245753 137.331224073 142.5662742 190.417288052 135.11862415 140.25871708 147.035167164 154.125379519 188.024257321 193.937040483 207.845316133 207.488146609 204.919945546 209.225621449 209.761142585 176.726723373 203.615607569 229.916673124 228.348721185 218.203187382 223.077106162 193.763716874 167.829422735 187.755064383 166.774289471 228.512583632 325.272844888 372.499350824 397.417994442 421.576641134 383.866049073 320.192095365 250.564159777 178.633107045 170.641322582 228.386385259 295.697387681 366.148453147 467.734763621 468.78379566 448.076202982 386.929117323 264.385399292 161.903836541 88.5637168516 53.3756435126 69.2758804281 125.389433562 195.450056478 204.251896601 255.097679632 278.77285037 228.301982712 209.015251101 141.373860878 135.341160465 126.855139984 117.813102148 34.4921912488 33.201414558 31.756653227 29.1178004838 26.4073634201 24.6067643529 22.098995735 18.14746307 15.2786731443 13.8211656964 14.7809487244 16.6262143767 17.6661669021 17.6169158986 16.2836308639 15.0921945261 14.0696204171 14.2285630077 15.1326369822 15.8157704933 16.1695064063 16.5696746906 17.0808551736
66.5305824578 51.8915508735 36.7883472939 23.810417266 17.1315537477 20.1774814561 29.8653093094 43.8206871442 57.3837697677 68.631478799 77.3303745285 83.9031189169 88.8391893979 92.4976252428 95.0856734932 96.697759235 97.4348896456 95.3841917533 94.901546799 94.0083883895 93.1590004478 89.3918781922 90.6138620149 96.1521456056 100.372478823 105.566030082 110.339140466 120.565335117 125.812289134 130.830256309 136.249397346 167.139155241 181.894264764 189.033451172 198.015182443 207.12339408 213.782760123 219.970807046 252.133096807 257.191100639 253.970971249 258.412630198 262.884260703 300.353766934 308.689395765 328.633402237 342.073616999 399.614073693 444.47145913 479.060932302 514.392752434 556.083530566 693.643779456 732.09450024 768.620161873 860.150636754 894.243818483 926.081039931 945.770114103 1057.31433382 1070.05891953 1070.18900418 1094.63745793 1058.69945528 1003.28894138 1078.28372212 1050.32158073 1068.9441769 1150.74147745 1242.59998795 1287.0630858 1346.45685344 1570.82599302 1555.91407508 1641.77585537 1570.1500696 1539.55879908 1554.60408391 1614.68537333 1658.55988743 1736.97140905 1803.00355816 1850.68829219 1968.58540813 1974.17001442 1955.07968457 1815.9642558 1761.90027414 1582.39493678 1303.48185506 1191.55793848 1049.27185013 886.205809751 732.03880437 657.753105927 688.390315414 763.681205147 848.124737003 636.485204254 629.07088234 593.174875641 555.03077133 495.70323699 435.322339215 414.773258491 350.746220848 358.554182892 364.919715753 359.850317603 343.522385506 348.075491332 357.224821867 370.993619883 371.120697183 368.996351609 365.214297055 359.546581914 381.570890337 372.01168433 346.643038027 333.054147232 315.877100436 299.969780384 283.053329473 271.607231837 225.401197834 214.159429319 313.54063892 337.449980874 351.371329044 380.498649295 400.960037181 373.241085433 410.85326237 348.913913204 325.813894199 311.49603226 288.064056752 270.700203128 257.622668231 153.130628783 189.382440461 180.050822661 169.780330235 178.435556231 143.076410028 211.670703973 188.759338547 195.879891618 208.876723555 205.285914851 198.583141291 198.422145688 198.314961501 203.990562302 202.897549314 211.554202112 277.245886632 277.119386293 267.366693865 306.444965675 288.338718293 282.00233405 293.252203036 365.411854488 403.472125049 432.545260088 439.128642218 439.231601989 381.050646644 287.117482352 186.193166988 106.267857893 105.919398776 162.462297164 283.805323319 393.807600822 476.785682542 495.784460955 487.350015737 435.527587947 346.825791851 250.663950667 145.809327538 121.889969916 125.141802192 175.371850107 238.261138856 262.751679684 282.775087994 303.012081775 311.499923554 224.247371135 220.26427233 145.282809196 136.441250636 124.790417464 36.6463248353 35.3206080258 33.8457352439 31.5318958893 29.8348785822 27.9667294864 25.7450516263 22.2246463001 19.7338107772 17.8880376329 18.3042101966 19.0203473538 19.5905883217 18.7276625459 18.1027637115 17.1897430059 16.4376530371 16.2009925661 16.1840459881 16.0253023211 15.9102880989 16.5351249054 17.4732609382
72.7668136796 58.8936314972 44.6953612425 32.6300558713 26.5877121133 29.6547947081 37.4787683179 50.6144573178 63.3796970858 74.08474065 82.5310801426 89.0740794795 94.1236321014 97.9908786578 100.877140215 102.906437938 104.067031166 105.234226369 103.643109517 104.034026245 104.592851857 101.872330285 104.121456755 108.936340825 113.465039226 117.481606997 125.855791483 129.771164895 133.880221768 146.102437193 151.604136633 174.748308028 189.955588592 197.521980362 207.042803259 216.955013702 224.722186516 232.484758872 266.116486403 273.527482948 280.571671041 287.20513394 293.341279177 298.608973352 329.164027157 349.039153819 400.856538 435.245680583 470.391084678 507.669064435 545.264940679 589.185504998 727.143702741 767.742730512 807.040216004 903.046508722 941.714137983 979.72457742 1017.15387335 1142.6304062 1160.09952465 1191.46291844 1227.92630321 1216.28686464 1192.41531583 1307.63273052 1304.79423404 1328.75527701 1399.45236979 1469.2067233 1539.15364026 1588.84728426 1786.26202181 1934.75921144 1915.99791527 1888.98886201 1852.41554237 1853.12020919 1873.38347225 1872.02184594 1910.3118572 1952.4181874 2120.84758804 2098.1745105 2101.01537278 2078.49571776 1934.64768766 1878.28054711 1795.87443627 1605.68530267 1341.99245498 1245.340046 1145.68884818 1047.2638952 983.347723154 971.675811691 979.789054874 1009.20340577 868.482522257 844.775333318 696.885033111 646.819593842 572.983657069 528.935786394 492.74102484 460.779467 378.088143607 364.955447825 363.29949792 377.72845413 383.15810767 390.680277621 378.328065832 377.007227057 373.963890058 370.677798612 366.46537973 389.606516415 374.731758836 353.778457057 337.38419448 321.880155777 308.868714444 309.247912603 305.537492416 301.63151799 378.949060812 393.519256613 414.932841868 432.918138786 456.906092014 474.091216376 472.416446775 466.399402134 476.504979772 454.209238156 370.235227282 344.403069899 317.901280643 288.078728231 206.544629475 177.710859898 151.941131008 142.946375064 151.033729195 192.468341111 205.311311367 189.324792059 209.082773291 208.940855376 199.695213953 185.539245622 173.203056498 175.229961026 184.993075929 203.941627765 280.913926987 305.27565274 319.63164155 323.661576247 376.487492507 372.943570857 374.671933349 385.625285102 462.147288378 486.155891761 499.641042695 490.772563489 476.939157096 399.226958352 282.33386467 156.502504112 68.4465496554 60.7156958048 152.316624016 271.261772944 404.521777825 541.705485429 600.114373856 544.649033806 506.9580445 433.206797945 354.6358435 272.623626168 239.905803826 249.794332059 293.351629994 303.975283128 361.446516717 316.531407559 328.903496837 331.657151324 326.654641751 232.293341268 153.590653692 143.584881224 132.428231573 120.572666017 37.5814146111 36.0877727793 33.7874049217 32.1042736768 30.4126136604 28.8436806285 27.3963203849 25.4140194988 24.0805130384 22.7916497371 21.6300010049 21.4157043656 20.2137494156 19.6803786035 19.8868071447 19.1046180946 18.0047163429 16.8971223087 15.2734888883 14.8078639142 16.026438401 17.5124119905
136.80104338 70.1905603248 58.4835668012 48.9824646455 44.5614510322 47.2202711569 50.6314761048 61.1735198748 71.6092480878 80.6833496284 88.1758395682 94.2599480044 99.1695914439 103.099413242 106.192668797 108.55607598 110.012217809 111.79386031 118.224204858 119.407887311 113.902677488 111.900748422 114.805405493 119.684473244 128.199852273 130.731865211 133.16394514 142.017421699 146.879132261 152.515987406 158.534583109 171.790820562 197.039895341 204.940114774 211.241478336 225.21481917 233.810493035 242.808167525 277.015660011 285.943396376 294.154867324 301.164482676 306.780049158 311.018852466 336.712810663 359.194027044 412.838983774 452.096515972 489.911939901 532.318129473 573.480086941 619.989876095 756.397175889 798.606135722 839.969125371 881.235885987 981.087071049 1024.30296572 1069.67503233 1201.28924463 1247.49727501 1282.69314182 1333.60298998 1342.68912836 1339.27727661 1468.30763388 1491.81051929 1608.3046989 1670.22557933 1847.35339166 1918.88454078 1974.63316276 2193.95055313 2164.69179964 2155.47388154 2129.72488288 2076.26792641 2037.93950873 2005.6834594 1968.71689708 1988.54879443 2139.44197678 2203.0428433 2196.26388601 2201.44189831 2177.09741774 2033.34031564 1976.2292891 1890.38618778 1726.34103883 1452.2607062 1379.99955499 1323.35532807 1270.8264847 1226.24241134 1199.09531949 1169.63967236 1162.22542021 1147.08759479 1105.82170141 918.634817542 733.781298997 656.821739684 603.436087886 546.072869756 481.13651702 374.053751004 341.151298726 337.0492737 361.854753438 391.547094743 406.950895983 381.381609239 376.058530763 370.830727314 368.942721163 417.082236179 416.979503935 406.148431246 373.400379495 344.855235732 309.021856563 300.770396033 305.227866413 318.515051204 331.720434724 430.907625718 457.020027524 482.119725911 498.015713065 518.440416985 532.293500538 664.267866033 652.434102547 664.472632585 516.13239681 488.726974588 393.509834443 356.981844699 368.080983815 208.657318921 159.066018464 114.687079721 114.158713189 124.720958724 172.400613602 219.444679241 215.184277842 277.712740112 209.666568949 191.978030427 166.178191567 158.137767847 150.201489907 171.016161092 208.428142194 273.631504076 315.987343714 346.505256936 365.316787426 440.788062876 450.387173669 460.094721957 549.242589785 568.747657809 570.499851798 573.789728538 555.661209897 537.248549519 447.987551449 362.513467529 214.217966899 109.518353031 102.647646139 197.664208417 351.707753315 488.461701337 603.435982809 669.798038895 620.155763645 597.018660205 540.210518697 482.009607218 446.867088441 417.271949787 383.572437003 406.70392601 436.893226663 420.532445783 351.154878939 352.081334829 347.001083293 337.351716791 241.497400964 231.226218413 149.769418618 137.515312427 124.542585587 40.0198585491 38.5299402732 36.1993494152 34.3723867302 32.5743795024 31.2787631553 30.2000796812 29.6571737319 28.3788751514 26.2271353343 25.2026689766 25.0063539805 22.9576107995 22.3280024543 21.6177810721 20.8543008738 19.5082472878 17.9229726351 15.653897867 14.9889126782 16.4505986741 18.0943950884
155.89264341 136.730638642 74.8331826382 68.1121325973 65.1787878829 66.9262926117 72.522915936 72.4680945552 80.0855290709 87.1927302685 93.5241969349 99.0216571105 103.705290925 107.632796013 110.87327434 113.493780857 115.125030665 117.318193797 124.318977022 125.922973502 127.464701912 129.034304156 122.628953098 127.10178396 132.380687021 138.068225644 140.425552317 145.135415833 150.949619034 157.66485871 164.690177066 178.622554587 203.231266457 211.252617937 217.658958556 231.631269277 240.729582165 250.628400096 284.805219971 294.693560578 303.064008894 308.824630425 315.513375689 315.628108182 331.060495886 350.748570634 383.634107928 458.351162385 516.034282624 566.821880189 600.499560297 651.876429496 689.248440839 824.455992861 867.014723832 909.913348064 1010.97064708 1057.43492877 1108.82198335 1251.56993653 1307.83190992 1353.27001584 1409.82648309 1428.27823921 1434.67216128 1499.81955177 1616.3957053 1765.2945742 2010.06647619 2103.73091844 2112.61431022 2171.05707527 2400.58439035 2572.24005766 2555.4556911 2500.67977402 2353.00891429 2121.66335982 2008.03005295 1927.20288496 2009.55432707 2123.92858499 2242.35640402 2266.25055114 2272.74343445 2242.90081967 2104.89400578 2052.46487224 1963.46413446 1782.82171023 1631.43672854 1502.88274596 1416.55766871 1372.37899211 1367.39426946 1369.31821194 1371.19734772 1349.69223287 1316.61756049 1105.12380733 1007.54503018 833.435715724 734.33805308 670.914111686 594.547727807 501.287026237 369.65717907 318.592309055 314.759434276 352.108209736 393.214051945 409.562597543 391.318509691 393.616150891 384.120658249 390.2485971 405.763523721 416.106195913 409.095193766 372.079624876 330.107217547 288.129174463 311.54590231 283.62246993 316.577681081 447.94091781 506.503597113 509.051172282 540.909424741 933.772658359 987.315247029 1009.51560213 727.472800092 800.666035364 786.820432423 711.042034615 676.6332872 522.310650289 472.131196426 404.352537875 317.589212826 206.020091997 105.820267306 73.9665742369 124.437274291 178.143081705 225.299848936 287.806324203 287.48508648 272.146311251 207.043175304 173.082193578 123.104560941 106.510273915 137.305415108 199.554075494 268.709678268 328.736178294 373.909075476 418.575410357 500.130399693 520.984756146 538.289318691 639.351551248 658.036158741 656.259438746 655.654736776 635.820542768 654.006701377 601.930523049 480.622319435 351.118969435 259.346484978 262.547487275 344.404739233 478.430720936 616.039139706 699.857318421 764.054458082 768.106822015 701.61570426 658.744980747 669.725668322 627.282196809 574.062117918 564.601609282 518.817750386 521.124261385 474.785058458 379.541633296 366.002853216 351.719100332 352.167522663 259.883772852 236.392023774 170.756867908 141.422201302 127.206988581 113.159363941 55.4526234023 51.4434368181 37.0409136026 34.6758885179 32.6115284075 31.7335180159 31.6411020341 30.6817859893 29.392238931 27.3997072697 26.4448417187 25.6591648212 23.7605839865 23.0730200238 22.3819877285 21.3127582259 20.2679038532 18.5802633711 17.7364679601 18.3707880994 19.5485219868
182.51303652 166.036550307 151.398577211 89.4808785592 82.7937018119 83.0878860356 85.6729720064 81.3469043942 86.6377430525 92.2267709597 97.7382081016 102.857731136 107.413296011 111.37025273 114.753650351 117.591027649 119.917202212 126.965681539 129.022252027 130.790467817 132.32113793 133.552848088 134.325536451 136.301386532 137.016948936 136.988935297 140.334281127 146.047017046 153.637290386 162.038605589 170.450835906 185.137867117 192.089195476 216.420051085 222.527393596 230.413767759 245.213280905 259.705853004 270.832638193 300.457055881 308.650419048 317.260289628 313.531948668 311.500270325 315.415254708 352.174294307 407.445020021 466.385751725 533.537687348 589.939753432 639.122813202 679.095432629 716.26166352 845.113915729 888.012471342 931.351004007 1043.49338144 1086.72849067 1137.97679237 1201.71408893 1338.17947814 1400.95892774 1470.52027103 1469.72330392 1506.40478613 1554.71265027 1772.36060139 2025.92007447 2163.33922902 2277.03976209 2294.52092501 2358.52886888 2594.61773219 2765.26213038 2742.4947222 2663.83553618 2510.01877966 2258.36815786 1969.93479976 1800.88461343 1885.35266006 2069.8571566 2269.62585598 2320.78065829 2308.88099861 2256.29070783 2131.59278543 2101.10756897 2045.5108992 1903.97927017 1659.27687143 1432.92453715 1343.41812076 1410.08788922 1467.39352797 1484.45395828 1479.67510089 1453.21640762 1411.12468557 1192.01036058 1084.13645338 926.502588867 865.927951976 792.878933791 677.845155916 552.458767829 439.583946586 346.359601285 335.398465941 372.936037423 415.77950983 443.416359574 407.753445668 366.682440196 344.05354214 357.554902149 394.787344957 416.164332893 428.228543653 378.946400459 431.8988032 303.065732839 245.252486721 266.66032312 375.855887251 670.199740753 543.031904404 597.015107546 1000.44037363 1361.7348868 1068.76888326 1089.83098622 1225.52529136 862.395951669 848.299300393 785.159499191 749.879404971 571.339864718 519.026202456 545.081569965 362.285112991 297.405245541 170.355310109 127.097979573 188.541585136 206.186169633 270.579183963 310.53937256 319.840844305 310.833619701 254.41452893 160.620925847 95.8720896834 72.7267425195 117.653604163 205.790703664 298.051063087 375.913535555 434.828539446 461.369778607 557.263215914 587.150767415 718.204236506 722.23153209 743.16660521 835.967000587 822.094965927 804.58143605 764.190973786 738.604743876 649.520137249 555.418398546 488.623524348 505.57815665 563.479972238 661.653396676 766.254717724 853.160226118 880.871826483 883.143637598 881.525769462 846.786661356 813.638526034 812.113701625 719.552958608 696.046939066 617.632050093 590.535843241 553.733598233 472.276013818 362.600686595 348.888972302 334.917118171 255.169210097 251.441116799 173.745019236 160.665779112 143.833700701 127.121068565 111.620040371 54.4499134315 50.2654058075 36.6528404974 33.8040794598 32.0397426203 31.9034703086 31.5326917189 30.4484048193 28.3923722937 27.3737176971 26.6019277831 25.5093175384 24.767391158 23.9434587226 23.2590692387 22.8027357546 21.9464808776 21.1235213774 21.1478836185 21.6101728444
199.490374548 184.732610275 171.259322265 159.795136651 101.187537089 99.3083933309 99.261567906 101.277593347 89.6198137963 94.7191215241 100.196553326 105.392782044 110.023201486 114.096500948 117.67283281 120.739146314 123.261036642 130.214398389 132.366354633 134.206179319 135.688565364 136.531836997 143.955150301 138.999653363 134.906708911 135.062532139 140.755704761 150.737932346 156.15781491 166.459350197 182.7076346 191.637280111 198.825847997 220.304327785 225.594308722 232.755340607 251.008584948 261.859365782 274.05881087 309.03518399 319.833487651 319.911522908 313.936702277 306.486164322 312.579627817 350.781441637 414.988431505 492.830045815 563.653318516 624.38646768 666.672686286 707.80684966 740.743502172 917.816129641 962.034807243 1004.56999734 1044.99191212 1084.94784844 1135.00222067 1270.4023241 1350.40623609 1462.81747253 1485.78452656 1477.63711024 1500.62567795 1581.83216634 1836.94446835 2143.32711337 2313.01640544 2443.07889402 2540.32752242 2538.10848205 2777.07730192 2946.63084302 2927.14129244 2840.96953645 2656.13813197 2336.1945011 1955.08246445 1707.83803727 1819.47061504 2218.12606348 2447.25647103 2473.41885565 2372.86512257 2246.50359747 2202.58536067 2315.37122288 2173.46458892 1982.92781126 1717.39223115 1404.86109591 1310.8536996 1428.33959173 1560.52246201 1564.54451109 1563.35848536 1531.94685858 1483.54435926 1276.95486195 1172.57436297 997.07486792 939.620034554 844.148105855 762.374816275 659.992363716 557.948968976 436.369290882 414.199369165 439.113122041 458.67349538 466.202301924 402.467975422 326.876919256 289.397078928 316.749672588 379.46126847 430.677536796 454.068391216 425.782558009 483.364732018 350.660699958 299.198924589 379.689435562 559.777504301 736.697425503 873.809642838 645.454873797 1372.36753951 1444.02081465 1139.84565246 1292.804507 1297.12600667 917.57442134 902.627394985 837.729371183 799.775301155 750.838124791 684.548205423 610.423532994 527.937846647 417.502659771 323.488306323 284.284270577 322.519196577 343.200859655 347.46296564 381.716515783 350.57243798 337.518511745 255.702513136 189.496854178 130.324202035 104.963477702 152.095916216 242.493487234 356.229801359 413.829422192 491.360791967 539.789303502 646.98189235 796.947562203 882.861369506 912.450398042 935.011381945 1015.73100183 1026.11203466 909.870153104 887.139305894 892.413400506 839.723171949 783.853047465 787.158613198 772.650546692 806.734698852 868.575392794 938.516596337 1029.18011268 1075.86311284 1099.67867114 1080.89066797 1065.64955343 994.11044734 958.505513885 928.661047072 813.522176409 766.05342622 646.051366201 573.149039737 498.509315553 377.18271901 336.089534655 326.161998489 339.283791804 246.536156223 242.486536177 224.967950998 141.249439628 121.594125437 105.630623549 57.8212811649 54.4652024046 49.3428942296 36.428041496 33.8984982878 32.6764298466 32.1593745549 31.0691318013 28.857853584 27.7331406081 27.0064639184 26.2862727182 25.6235047198 24.5737975331 23.5162465282 23.400893992 23.535168325 23.1772021588 22.8319650775 22.9772360336
245.458233402 198.59036662 184.206852044 170.090842565 156.406486403 101.053178819 97.4704046958 97.4164465288 101.572814713 94.182941374 100.735017832 106.508421593 111.336640062 115.582836258 119.462538616 122.848801374 132.595603928 132.131408635 134.2284263 136.17479433 142.846424897 149.030383948 145.436933074 139.470949312 134.267201225 134.259159292 141.268250092 152.851266405 165.075286952 178.362522907 190.405294796 198.215585013 205.209739184 227.398642597 234.403685983 241.171753985 250.807267332 263.14322836 278.448220407 313.69407677 327.459328368 326.112793444 321.741626626 316.963699417 330.154650545 377.208548806 443.500351453 523.889506097 595.93146988 655.724736874 697.176506785 732.770885575 876.066055888 921.31684258 962.212991879 1002.93222594 1040.72277887 1070.8112006 1112.83666807 1233.60997942 1386.37117061 1459.57580571 1488.59378698 1491.77105107 1528.53388866 1736.01914081 1946.42992856 2289.82094292 2476.29771566 2609.8819451 2704.63955143 2777.70587752 3031.35213042 3089.65157315 3114.51066042 3049.51775535 2887.01894381 2690.95785492 2306.4618564 2024.71060202 2120.41319214 2465.86819417 2724.2824373 2613.53331425 2351.75963808 2039.84269587 1981.79336899 2186.86116772 2361.65031209 2224.39700568 1923.11599789 1638.32762338 1537.21326938 1578.80643398 1677.72065412 1723.0522483 1626.21808639 1582.64977027 1530.18703103 1330.03050491 1225.82628016 1056.05348301 1005.22764287 924.657689532 857.301117428 770.858122787 688.62096675 556.764687961 526.775476922 513.706015175 507.844933021 498.884655863 418.921356645 331.091427897 283.172591208 317.039645816 392.948239879 455.389890306 488.310847764 677.706718112 601.177709693 505.964072592 616.198657042 712.617786221 917.327175456 1121.96234761 1280.33963097 1376.90235685 1428.54396537 1501.67470067 1560.92499397 1350.26534728 1354.1873206 1335.62278187 1329.74804523 1269.4000864 837.968748862 783.823162391 720.433127234 663.136865129 613.477533866 548.85280221 497.122586109 468.614618776 409.631521196 446.585973724 411.60860658 431.973814087 445.12342423 414.29207627 366.549570548 300.80396809 227.5255605 213.018163482 251.961092912 323.962964491 422.466143662 496.162154982 541.442358893 589.668619778 817.515703971 861.177766557 895.780956693 986.388847613 1013.44348231 1101.79258815 1120.82630802 1123.59341155 1011.22009942 1044.47026663 1023.96457118 1000.15054909 1030.83076693 1018.22064671 1035.44070584 1070.36051007 1113.36553283 1186.18754046 1219.31839971 1305.48059066 1216.12667179 1201.18696084 1173.91681949 1096.58823906 1059.73098349 1004.28620964 851.320075267 695.445836789 581.764596049 460.808339773 349.216917951 246.841786483 244.147240887 286.092440427 274.019204876 286.194619585 223.724019901 188.478538622 177.225279983 113.456013448 59.9884628974 58.3526541612 54.9683501041 50.1073526916 36.92058148 34.9615071143 33.9011683939 31.9223153075 30.3737488227 27.5305153608 26.4845096669 26.567089314 26.412335201 25.6995018846 24.3599241922 23.9004082302 24.2011617973 24.1846296617 24.1472041192 24.3976830956
256.537817062 238.832373 192.046597436 173.942544186 153.57074531 116.470814821 87.6094717916 85.5177740752 91.8508090979 102.83144753 112.854539963 106.350884257 143.415794321 149.695042115 125.326650375 129.693855378 132.698530921 134.37086963 138.543585058 140.747302743 143.229312005 150.843868763 149.104620455 144.466007562 140.109940187 140.482228968 149.564522609 163.439246681 178.436263335 188.114023903 196.56854804 209.956442598 215.316218049 218.225979783 229.708396423 235.502772129 245.867741516 263.004597068 278.029753989 313.798100904 332.042960198 334.765743515 336.662073661 339.280761358 369.176567785 404.677101952 469.25352575 565.490972535 635.36835514 692.671147575 729.055401001 755.532190952 812.448333113 912.666587078 961.836224672 1001.32417171 1024.00267865 1038.53868371 1066.56358165 1131.89628937 1343.62392475 1447.6246317 1506.5413703 1542.66732381 1703.95164427 1884.76595066 2205.17183897 2576.8344991 2656.30571664 2776.37120466 2854.37696298 3030.00957883 3259.60255793 3245.33259227 3287.79786249 3366.29594504 3265.79006652 3090.18700518 2866.58781689 2681.241238 2723.01140433 2908.42680731 3029.04514573 2837.9368733 2367.33255414 1814.56811443 1715.98343638 2108.38271425 2479.07150942 2488.69033524 2257.94956072 2056.73062426 1952.65262574 1987.79306856 1888.00861604 1813.13240758 1648.59127315 1588.33787567 1418.0525546 1365.39089121 1278.43275674 1096.43362391 1051.81384839 994.209269588 943.808452352 879.042835903 804.791191098 741.32762236 620.122357865 587.17779208 566.811329318 542.146543648 483.157842539 409.979930035 369.102936619 400.519521499 461.213318322 517.875864145 788.67814395 791.710701071 757.769394807 708.922318893 980.057832837 1043.34443058 1155.32174256 1253.10308332 1324.9018292 1399.53684324 1472.66832544 1523.99388008 1706.15525654 1389.21948108 1391.68551559 1371.28856386 1363.78417768 1296.99765032 861.594160832 790.982505769 717.423188873 676.038813027 652.139622464 636.814220588 628.443980569 617.279932362 528.313212787 544.93387783 477.914515663 487.238955433 498.634793761 512.644122516 476.137060179 401.500062152 347.471221173 347.068837338 375.420334147 422.381716768 498.168039067 555.825793308 595.302520766 737.855352605 875.552184621 922.196893668 1048.39535405 1053.92429384 1194.53352783 1179.50373733 1206.79388835 1220.60809397 1228.16996751 1213.255822 1184.04902163 1183.05062086 1227.24623091 1219.18932495 1228.71061328 1249.49864546 1308.67787719 1339.3704499 1363.39323379 1442.46233912 1442.47469562 1334.99302337 1357.79834852 1317.97057011 1263.23635934 1167.08061247 1021.02473981 885.783001521 652.904885967 473.71547177 278.399178112 149.613961604 147.217953682 228.668614607 312.384956036 290.891413414 272.254574776 218.161168982 150.513360126 84.1987663416 68.2376100937 59.9428698564 59.0755098803 56.1637135015 52.023456943 37.6638680337 36.1492011857 34.4271209868 31.5885981558 28.3807354984 26.0623183711 26.8455776078 27.5237244205 27.0155636346 26.0150002809 25.4121605956 24.8987236981 23.9570475716 23.6940955187 24.4068207344
400.29033708 343.878585127 231.793527533 205.846681269 172.614308404 132.793225645 96.6666925062 74.5741308146 90.3326100427 116.161989307 134.301705855 141.169641413 134.408961341 141.154278924 150.62434182 128.831738952 131.787770488 132.136993127 159.95397606 165.67829352 170.904736559 151.929306835 154.087309452 152.992693111 151.288817601 152.669018735 162.445907053 174.779036616 187.711550278 195.29378836 205.668109467 216.914822831 217.876099167 224.677693538 226.332014463 230.18509096 241.919809438 258.667328758 275.660479904 291.86695443 334.995666049 344.141989538 353.327846491 364.917059649 390.117655119 423.815804716 513.662257633 580.510912944 674.812979099 731.430386083 764.395055348 778.189145002 814.741112474 898.4025626 949.637201394 991.141470038 1008.61572034 1005.20037203 1017.15443175 1118.58806272 1248.18754507 1431.86262255 1532.01070597 1615.63387233 1930.34682981 2148.01495417 2392.19506014 2749.70628382 2912.21479041 3001.82321728 3064.18005178 3287.41191525 3353.99153581 3441.19082582 3482.29249503 3480.15673599 3481.93280632 3531.86720502 3549.55682727 3352.91691708 3363.76437226 3422.20829978 3538.40770809 3279.21835607 2715.63853091 2092.22213667 1991.50201348 2469.04656578 2773.5533791 2815.68225406 2739.24897996 2488.05693366 2387.49009436 2292.1553924 2044.89022186 1868.4798813 1654.11640787 1575.98878201 1417.62320226 1374.02670911 1294.37198105 1127.59428097 1079.01776054 1057.34415131 1031.28934052 947.395534878 883.174859691 825.159693235 700.854634602 653.631983437 631.572422312 617.824300399 581.902518393 545.85168201 518.61166367 529.88534963 567.891769477 590.847750311 905.773889397 925.091302903 923.69107084 1010.02298435 1299.01235217 1319.81525576 1320.33018045 1287.60171751 1252.1475154 1285.93385584 1474.65648747 1606.52320029 1706.13363212 1405.76790272 1399.48348277 1376.17773446 1374.29820641 1310.65509069 1196.769704 1012.76882986 825.186481215 617.378248145 619.540060883 670.51763141 703.34768887 717.12463033 619.671480683 627.160261768 570.028048647 572.929302017 586.67918625 571.580266275 548.517408023 523.442749439 501.920513935 455.547091642 475.16356839 561.842866518 607.152671688 699.733437715 832.57854716 904.121292966 930.783849243 979.768929596 1110.51147451 1146.41709191 1259.4000542 1246.7493218 1280.57626865 1302.38841141 1320.38264476 1317.2295416 1386.49327106 1390.13211251 1428.25721805 1367.04578565 1378.87337448 1398.91212363 1486.83169871 1483.90744737 1565.27484089 1576.36263927 1575.09835999 1558.09185851 1492.01995292 1449.81617808 1390.71862986 1286.55288775 1176.78303164 1020.16491124 772.140257269 486.001920054 236.759122437 82.6874979732 98.3381314339 208.973120384 321.165392569 311.534215089 290.346355667 226.600593222 144.356623729 76.0104147367 59.952027763 72.4562936523 62.2968511334 61.1657593554 57.6069264916 54.2668309163 37.9552331466 36.0322237132 33.9519171449 31.1679325838 28.7624890882 28.8977678048 29.563204673 29.2350527928 28.4607567526 27.4572829867 25.9083111742 23.375834051 22.9645015399 24.3528406819
401.570985112 344.679256231 314.122810453 208.578185729 171.629962549 122.234031632 72.634111254 54.9366248494 76.9267960273 111.762186598 129.6836258 128.08920651 120.660759268 129.63447257 146.443563879 159.296631055 160.637592123 151.149270246 145.830216748 148.65713652 161.222159011 151.434524778 158.943074085 162.432614782 174.840185079 177.536415817 184.739042338 187.677414717 192.672353584 202.764045067 211.152481371 220.135261293 220.627507665 221.612973474 217.999610785 224.457397029 239.626136225 256.194658551 274.807956707 292.013349629 313.737845925 353.306560476 367.571408821 384.593770968 407.157365682 452.932311616 503.676801937 612.754803651 679.713482834 763.524058139 798.239209531 803.612427971 815.434171033 839.086222217 884.176039036 983.450877025 1001.01406975 990.14367471 999.681604752 1092.36373514 1233.00747588 1433.54572826 1561.01422448 1680.73404928 1924.28378862 2409.71987348 2644.1850407 2882.88283526 3019.14205974 3067.52551051 3101.83764009 3319.33534774 3471.28775533 3572.04698923 3497.15319332 3468.30039324 3682.30200784 3916.32215449 4168.79875291 4237.61238387 4125.56162321 4076.07853088 4034.00251785 3826.92613598 3440.71069704 3094.55967217 2991.74741967 3225.18810084 3342.99614873 3387.01325542 3219.57444545 2909.52089763 2740.23733125 2547.48916887 2155.26852077 1814.04243897 1487.2553008 1363.11145294 1388.39294161 1411.42123333 1333.95085098 1144.24238433 1068.28433678 1057.13814771 1044.08576091 985.973979847 926.94969398 788.751239227 754.448753129 731.683349857 694.245009813 719.961128077 694.304621173 676.831899406 661.290792988 659.979153002 674.779318265 981.755770054 1023.85524437 1068.11843841 1087.43916805 1424.48018338 1552.61183083 1507.50301683 1388.63941616 1194.5428904 1021.42757222 1030.82272848 1291.23205538 1564.8028826 1699.0910737 1704.53375007 1418.55866937 1388.85483788 1384.03352581 1325.72399633 1194.73731462 1361.12248074 671.844484763 487.461132968 545.619681185 682.484708077 778.334637439 822.63165421 836.192285877 718.91745886 716.450585736 619.662417418 632.875742446 620.952400761 604.386728376 585.987306412 541.669446812 541.439608263 576.700818329 593.371359677 638.483164198 732.30550029 870.841432362 947.817441629 982.794881077 1033.46582528 1166.21931711 1279.59623137 1313.09092752 1309.95143373 1340.11077512 1366.74269863 1389.59051677 1466.19808999 1469.52738384 1457.29183387 1492.65180962 1458.28773346 1486.54102594 1571.99534088 1610.78616972 1611.24308599 1631.01131465 1706.84651512 1705.00823722 1688.30364458 1625.19874684 1582.54402961 1523.75522602 1420.7753574 1314.01596238 1160.78040914 920.690789834 647.73422984 347.300802343 178.216516775 180.900353515 304.341122912 424.594537322 356.871863257 329.239985565 262.628023333 180.658606327 114.479507965 85.1640500919 84.1659658176 66.6845589612 66.361130493 62.5921123435 58.8053307633 54.7995131064 38.3349169181 36.3054393204 34.6371088502 33.3793987041 32.5110947264 31.6352946619 30.8863092174 29.9988686094 28.9819611352 27.5841779346 25.520576313 24.8192394667 25.9773427066
393.949827872 360.113312876 312.212124454 282.971041982 184.218883554 138.586111639 90.3681328075 73.1539569431 104.519738423 120.842209758 129.048584246 112.142657944 98.0155407137 111.479943038 138.996738728 157.852510193 156.151809844 144.468457622 122.086101466 128.723999443 148.515954206 150.695227204 163.997393343 185.54161424 190.451283569 194.650304649 198.493048013 208.74309666 202.170092814 210.139083786 221.370963819 226.464450423 224.157990511 219.982134432 218.40859036 226.095669802 242.655295567 258.447706771 276.655931622 293.514722389 322.346912124 358.164326713 375.591153717 395.995141535 424.597354138 469.357419343 516.894369693 616.545232634 688.320343118 772.9773001 814.407759549 815.438180202 812.260662075 829.430162519 872.177782422 976.003880979 1003.73201551 1006.75882466 1041.57959968 1130.67025917 1314.25461144 1463.52791212 1604.44019452 1845.60929155 2012.62572127 2507.89987989 2722.82476137 2945.2029538 3062.30867677 3082.62662785 3153.06645223 3425.93609423 3620.83037766 3625.24456701 3448.52534175 3362.9705735 3670.72703605 4222.18613908 4575.60922702 4751.89918508 4830.7956315 4811.24464065 4580.95531987 4469.36361683 4293.85921122 4217.4593716 4155.17248213 4132.26401752 3958.41672619 3871.21257338 3721.06799269 3404.30892341 3194.58487209 2931.97708937 2324.85522788 1863.88588979 1376.79509783 1258.04812536 1400.91343747 1486.76929923 1384.07453204 1234.57778361 1086.17679622 1065.55086561 1057.52672627 1010.36850538 949.613705233 908.865292564 803.829601345 786.214025594 766.268925623 779.844688552 785.139598106 777.664264185 768.661359334 763.751823916 770.562139134 1095.94359254 1170.68399904 1225.02820726 1625.38232835 1777.4322793 1759.05441353 1660.19943042 1430.06769952 1064.44153646 730.726749192 728.547196239 1115.83291227 1969.1935363 1747.80546022 1665.58131686 1471.74157328 1382.14245934 1783.29015313 1948.12892717 1829.16211518 1407.49325055 780.902430853 436.614244447 521.771632812 700.630365588 820.802946551 868.559367697 878.748540815 761.956401372 755.968598824 674.677061555 667.565356029 657.016958153 642.982064228 623.808463384 571.912896978 575.511939544 562.049958322 585.410455643 637.477697524 809.68562888 905.393141016 989.880685301 1135.92369595 1197.78836269 1214.23976021 1320.77002884 1353.7011079 1467.46063985 1384.13840255 1505.98055338 1511.13570465 1494.87928014 1481.44248041 1465.18855092 1495.19544863 1548.10964261 1594.44532803 1665.71069522 1693.99899385 1733.77555109 1757.97214844 1835.38018577 1826.33719964 1816.59459663 1753.88544569 1716.34431226 1661.81393708 1568.60408384 1479.44263456 1350.8613891 1144.34597204 908.345227731 660.973016914 462.244564335 440.471914571 480.447145303 546.587626964 496.991480323 391.580777047 325.618969374 252.582868129 195.978702321 173.32213503 107.020454053 111.224147293 74.165089442 70.2644301552 65.9390502785 58.1475422139 52.5175162732 38.4626203991 36.5196000278 35.6392263137 34.7545008144 33.4629950539 32.0964659614 31.1683554171 30.2430556331 29.5804217956 28.7373296167 27.9380110661 28.0117493991
372.913677863 336.132587377 296.96058138 285.53764008 266.077254946 178.1445497 147.556684459 136.776028746 168.087623948 191.236875556 176.929891249 108.358542184 89.1918324619 106.830579328 141.936748002 176.230045813 169.423579644 138.699214925 105.422575283 112.264489811 149.46518725 164.739162932 185.815485509 218.507624944 226.947590917 214.967525078 213.215983649 227.079719205 228.999718054 233.673864634 231.003358663 231.802776721 229.773708036 226.45996449 227.331789886 238.891327442 256.344734983 271.237788649 281.665354429 296.777160439 322.245252294 331.836153795 378.090607882 400.122753383 425.314012625 454.476665038 510.11091098 603.143530385 666.831940125 733.460502751 784.212582243 795.272878905 780.83605711 816.302252949 855.80347765 907.87598909 1006.49188808 1036.0836849 1127.36052532 1210.95478284 1325.84038279 1504.59876025 1630.87733156 1760.73895934 2026.63823704 2348.41383426 2722.75588288 2910.38437537 3048.65812521 3088.14026089 3211.21130578 3519.73166698 3737.40348697 3842.56241237 3682.06961339 3627.72126875 4012.03091976 4661.43530734 5069.85350216 5269.1716716 5414.21442682 5420.82116751 5283.18431421 5221.34042371 5012.59202643 5118.37433698 5130.82287493 4920.0239358 4523.63209222 4257.25204694 4043.9826045 3839.45257581 3484.86359831 3069.73465974 2747.25356022 2194.71014891 1696.30553559 1482.36101812 1589.40475716 1578.24344 1496.994887 1317.22435548 1144.0863678 1088.51541756 1056.79700279 1010.70821337 937.582936925 840.612847212 823.285225773 811.343825493 819.423447953 820.551072669 833.343823069 834.652202504 831.377182557 835.60711897 850.816362566 1203.30899181 1281.49451346 1362.56741985 1807.82228183 1981.48684797 1969.40473674 1856.89309039 1582.70236653 1130.72893452 717.168619127 762.774320648 1422.31396137 2145.65970558 2325.5370942 1952.52995828 1115.76298655 951.666018947 1534.70904449 2327.34831004 2026.63591623 1715.7116606 1186.84497087 804.766476518 951.597878611 806.126692458 881.858009677 895.232475407 890.236898446 784.170543688 778.030538897 696.610720337 686.757155462 677.095936301 667.024765473 648.91661757 588.552793586 572.289969672 514.01380639 537.491066893 681.275897971 831.504790737 1024.27371155 1119.37371292 1189.33300777 1250.10413799 1278.37090097 1369.56478654 1444.42098468 1471.24941998 1501.70701222 1528.40213277 1589.89411577 1553.98595915 1470.826473 1442.93168278 1470.81478805 1576.63475164 1647.74431732 1754.28467348 1809.24002349 1860.40046474 1887.75308496 1895.57364013 1864.21413123 1901.7540349 1877.80509787 1844.45756527 1800.38654598 1721.68653016 1660.87065409 1571.76360601 1421.99001236 1243.86528735 1042.60360594 832.629264085 760.666326797 706.860918455 780.264473871 675.172596965 475.690731909 407.845922355 333.779299882 277.668494986 195.81484539 133.070054209 125.837555217 82.3225316061 79.3679473347 74.7131087806 63.7254673319 57.6694670096 43.0001796747 38.3430339873 35.7994092921 35.6630833649 35.0599728697 32.9526575767 32.3355507058 31.1983280294 30.1541160662 30.0403691634 29.7321655574 29.6142554865
360.379111444 306.777965121 253.941875718 266.469287548 283.25756078 283.080672978 209.404018959 205.314720767 231.454245189 235.691658417 215.020118494 170.680876519 122.283703567 140.425775474 174.827780814 195.625743239 187.874755518 160.176080696 128.361633371 136.255998575 169.157094266 207.044337507 240.496624474 235.05439083 243.725086882 229.085871923 235.041246804 238.866994094 242.325227601 250.603377078 246.186136022 239.471327641 239.14378176 238.087020608 243.998425241 257.189099176 271.905200406 281.186558832 286.623102348 298.754095551 321.856928871 329.341387781 344.081972611 393.59523742 417.739132329 441.650563118 490.089656438 524.644677582 615.158097456 667.256178113 708.510331186 720.600521138 741.028162744 752.658811623 833.469614911 881.376842028 1003.18343243 1060.9118688 1207.77826421 1297.68025957 1398.20865969 1489.84100862 1577.00756834 1767.45033355 2014.9570176 2307.51752698 2647.11727296 2822.04622975 2980.06923981 3106.673505 3426.07958196 3694.35605365 4034.22389755 4160.50844815 4271.74768737 4412.01005461 4784.45096368 5393.67487959 5708.89880745 5825.05482752 5902.54902467 5905.38860375 5775.73396637 5691.30863357 5637.50952832 5702.1976564 5793.10875794 5454.09650346 4867.85748592 4522.59495442 4296.15743365 4083.3024567 3753.33548786 3409.22112369 3214.87221353 2802.20885405 2354.35650699 1979.81825956 1886.47253001 1815.42992126 1600.23940557 1408.81312867 1186.85932947 1115.72725171 1042.58488856 975.872684329 862.761515524 844.58166584 834.100162391 825.679157695 836.388680725 844.743052301 846.865468357 848.376824699 858.183537834 888.099676093 1187.62605743 1291.3808797 1392.91406857 1493.01291455 1953.93379404 2142.75583916 2160.03808985 2095.41728611 1893.20674291 1537.71365633 1207.5899586 1503.74985139 2032.79555205 3074.39136855 3119.35929966 1915.02793013 1098.17531945 613.996233951 1372.93138428 2545.55703185 2854.83221152 2227.0477243 1899.22729567 1667.04571499 1474.83909687 1517.75303196 1445.41758289 868.2544921 848.857569201 780.452051158 783.104905376 702.463262214 684.057728179 674.508273648 675.60615965 670.715948629 667.872454073 620.885163172 546.8903245 583.133561527 730.879640003 956.527854981 1073.03189779 1144.84664732 1198.74162042 1257.76828998 1347.11010039 1432.78784265 1427.28281905 1445.93615056 1486.91223072 1536.59036388 1610.75071546 1581.31949629 1502.50570893 1449.79188756 1489.21987947 1620.8695035 1787.38704419 1865.8853307 1944.35781294 2001.2748341 2025.24429554 2026.82170261 2041.16885156 2024.9425313 2000.41001013 1966.66078053 1927.33971711 1862.2222481 1827.47604723 1774.88257081 1706.97746063 1581.06944418 1408.06874065 1241.6365708 1137.28248884 985.895845701 961.619048617 900.751478752 665.874972793 491.285284073 416.282772313 348.052045416 231.781815336 189.851299247 122.311816524 81.6519294226 80.9183683678 77.3260925584 69.6776939171 59.121671557 54.8301078068 42.8180595967 39.1204033905 37.2610769751 34.9616735956 32.1472269222 32.4181076892 31.9317062333 30.7474187732 30.8686060898 31.1387117224 31.1048239475
338.347666382 222.370991586 194.562509428 218.350349816 280.471965011 319.860189813 332.089658048 260.053984604 347.293400532 341.078305289 342.878082498 262.818636736 242.092739078 260.082543173 215.689149553 228.677980178 233.666737007 212.147817554 193.877937498 199.878908685 226.974097264 259.465493493 243.69064678 254.568537501 260.840139747 262.350846265 264.318535696 249.546758906 251.924494504 255.767191891 248.125550823 250.746321382 250.921185885 252.671764502 260.33739249 265.34987183 285.408971458 291.168097582 298.428696274 307.087231723 306.689205115 325.322137935 338.036368921 353.408166449 372.347377375 423.145786767 448.252126439 486.038233165 554.427222476 587.784368096 619.299448409 639.40084893 652.828401278 672.094172111 795.048180026 850.826549022 920.296402289 1074.8784232 1179.95015857 1382.17198719 1479.76469855 1541.15342471 1598.68240238 1750.60676488 1990.4643454 2101.94775326 2503.66363626 2669.06292706 2879.56455997 3205.92210004 3568.46943519 4024.35152799 4299.69358374 4650.34788264 4894.74511822 5235.81081578 5845.1385205 6275.09335168 6448.01066075 6417.80833693 6340.09703491 6367.21295965 6296.97537319 6144.40152013 5908.01887303 5836.67978016 5916.85863556 5563.47264393 4954.42117886 4659.69410855 4494.81080423 4280.49276373 3949.8954217 3742.82952941 3727.19785799 3512.13737376 2990.46432288 2450.08807474 2174.51115364 1978.1402389 1707.64412532 1465.40340096 1214.29873003 1116.68708059 1026.18314307 938.625730457 850.637423248 847.93956041 839.307425418 823.081084107 844.939655468 853.98477298 852.222831002 857.348089454 886.256965008 940.75264932 1277.03544243 1391.96359784 1496.65489249 1601.46063183 2051.34506082 2256.48497767 2308.97769284 2336.81029007 2296.1401984 2701.15749379 2604.27235683 2657.69966439 2972.2323888 3894.66395176 3750.26509965 2914.78202684 1723.74129379 1250.61364829 2057.56266001 3111.12966889 3465.42013354 2826.04389136 2617.2549565 2393.70704102 2184.53903973 1700.16009822 1331.15781272 753.575429282 741.3092119 751.783927148 790.674917897 751.487328123 649.703302005 636.362298803 693.715362029 727.831334804 787.736571218 722.831480789 690.796482907 742.41879556 859.533374357 1050.03301668 1133.43008878 1144.28281434 1180.25610674 1276.20419386 1349.45001303 1411.47309226 1388.25063191 1385.41325128 1453.37468948 1528.74057344 1591.05371322 1639.1771289 1594.47488663 1564.27264877 1592.10182365 1747.2457087 1922.64033822 1990.08823131 2099.27151276 2154.67433581 2164.0341462 2153.44545845 2163.97080348 2148.37042866 2124.51723817 2087.15159434 2077.95021766 1979.2535278 1966.52803453 2050.50719619 1955.56062851 1956.71400165 1818.61094428 1676.29734876 1555.92124188 1284.28732622 1133.49999955 1044.15271619 868.157360444 685.462073991 487.39268927 399.830639614 257.106992634 181.881638453 98.0104506431 84.7739477283 79.3183001568 80.1244515582 70.0169314661 58.6365793464 56.3060434743 50.4287431499 42.9968710598 39.9757282389 36.8331047326 33.892721769 33.2896441624 33.2062562587 32.3782545088 31.7807300212 31.222626678 31.3282648643
299.789584161 160.217351065 105.970572532 194.013536135 330.698661017 424.155058743 468.660781072 396.550707587 398.477897415 391.867999554 408.770918534 338.287554693 340.350206226 343.041049369 360.189014807 283.418519302 281.892500565 273.36602072 267.735003563 272.341024374 285.058602015 301.350101389 271.064205881 275.394230304 277.660436236 276.275387453 276.266867692 258.963317557 258.236411816 264.015239996 266.404600611 262.344569974 265.898587457 274.900137807 278.760280359 281.944310501 286.891783058 297.725865334 301.945281388 307.501395751 303.978092003 320.095457639 330.478344151 343.298416692 357.974273342 372.909143499 417.097065081 441.119772137 496.977911743 515.426651068 540.422557634 566.275130004 586.724153646 614.216806598 708.386965989 810.65920439 892.283990812 1005.01851623 1222.84010558 1469.92133398 1583.10866001 1603.75302975 1616.1448913 1783.29460003 1969.64178693 2050.14205829 2186.40374993 2446.89872052 2853.33345022 3351.39040322 3685.10392744 4187.62051563 4658.38332509 4992.70595064 5490.89192618 5932.50712662 6535.34276324 7123.58865443 7203.47247904 6850.04434485 6670.40656173 6843.66769812 7006.53198009 6797.99482909 6266.34654339 5811.74698186 5675.68218742 5401.11205544 4876.59871974 4739.23722579 4685.3338688 4441.40642829 3947.57017316 3942.75345962 4140.31306203 3954.13605066 3370.87503297 2730.51795672 2356.31827199 2069.59756567 1737.5587203 1549.68074661 1230.03777125 1116.85527855 1015.51415566 922.841410295 852.962339655 847.8051344 832.502860421 822.807194502 826.775382623 863.697350738 869.283180165 899.30792091 967.272570127 1257.77997351 1375.71541819 1468.85651295 1569.24051986 1678.26356876 2110.63400771 2172.79649206 2321.94895098 2455.96568853 2634.11385021 3439.23521964 3657.98915303 3806.07091398 4009.32139105 4910.78055464 4760.92057007 4172.26661146 3449.27842513 3174.23209296 3590.20827423 4184.85973977 4270.21685779 4246.72555897 3266.59088672 2974.30076964 2591.7791376 1954.11016442 1275.46578413 607.793396047 606.666466251 802.855202384 882.554830924 725.38859812 599.359233054 572.146124583 652.667557604 795.522646661 853.327310367 836.742369985 848.983418249 915.767846645 1056.61842275 1124.50438389 1146.65872314 1110.08068311 1149.87957134 1275.68690365 1401.94856726 1424.25031242 1321.05507662 1280.11092453 1385.37085952 1527.01565497 1636.08119872 1728.18502601 1730.13782568 1738.56657939 1761.3574593 1886.44640099 2077.3694733 2177.48552884 2293.86218754 2327.54597329 2302.9463567 2267.15695918 2264.68141029 2260.28614765 2246.32203917 2204.21512004 2174.75104366 2246.76283847 2156.67436197 2141.73283758 2149.00131224 2102.91103393 1988.17934903 1863.54222964 1748.21961148 1650.4919665 1350.08351596 1185.7953516 988.793702819 875.150170203 675.188016623 456.043205294 295.426280983 191.550055234 83.0377259315 64.2538383264 100.311646066 86.5303312239 74.6640397119 59.9891926506 57.1244443095 53.0969641399 45.8052812233 43.1140264258 40.521310443 38.1769799533 37.3856162471 37.4725961972 36.0498181679 32.3098262817 30.3972540564 31.2167567441
335.84351548 194.33918599 134.308216516 242.488836592 398.29359928 454.27378987 501.879461257 522.764297487 427.19324618 411.889705007 427.54702584 375.136467199 395.900120996 406.651777566 423.049905595 442.293276528 435.434980596 327.316948381 326.196023955 328.354832842 331.529111169 338.202350779 339.953669808 294.673940594 290.502596943 288.181238957 285.104179586 265.188431444 264.601856595 266.935421437 273.983378623 271.85675769 285.441623414 292.16358664 295.978663806 303.158875509 297.532202774 286.215174601 304.07571491 306.937470755 300.721283285 314.111656013 322.145425037 332.476008429 344.705861044 355.667848741 382.594453489 414.443442729 425.292207791 460.036650956 477.094478274 503.979998755 533.203587523 564.282459068 603.720695824 717.952502359 806.690210224 968.041229904 1168.20917537 1455.02038882 1686.60414761 1659.67408575 1609.84606615 1771.68570172 1909.35120692 2016.726162 2023.89900683 2217.45623782 2737.57891447 3365.73614871 3918.1892384 4298.51669888 4841.7045663 5384.66300947 5749.40450909 6193.78513877 6852.34875486 7455.15294806 7508.97977624 7085.80108823 6966.42738978 7097.22320517 7509.8330391 7250.26838767 6491.02736242 5869.82256864 5475.91389614 5063.56327406 4750.36902084 4762.09679881 4762.70016269 4458.72883651 4029.00157973 3927.22792971 4137.05651057 3966.3384966 3377.40159144 2779.99336656 2367.68171291 2092.74693298 1741.85837233 1419.14628529 1215.55329594 1097.77140946 1001.50903497 870.704166829 849.853536757 848.964485805 833.933237352 814.37172472 819.927814854 865.921315143 902.889132824 966.46207624 1242.52351173 1378.10711451 1460.14429044 1513.20240051 1600.91695061 1741.3727659 2128.71787948 2089.07646478 2101.41486998 2347.64152586 3359.49291042 4013.08517907 4552.6220814 5679.34111179 5989.96173807 6058.71821587 5949.51322906 5584.05189034 5208.33622495 5047.77124462 5131.05832359 5857.63724695 5782.35402136 4968.75996254 5400.6827733 4183.20936796 3140.37709575 2279.83620287 1548.35594349 900.262240084 739.125359786 950.897911565 995.505057997 856.92878413 611.029017544 549.746564023 711.699269083 833.472857425 921.632531468 970.924492842 1003.4393508 1050.98123063 1173.87028315 1252.1084902 1194.85250271 1114.51169967 1158.36236354 1309.92588287 1460.25420729 1438.34338057 1314.37431612 1260.49193575 1396.68582211 1595.87593675 1739.43155083 1863.56087011 1869.72801379 1880.26233416 1922.64305202 2048.50776304 2246.01218424 2382.08081422 2520.61753041 2524.425805 2474.29795829 2386.07162057 2353.08963153 2377.7910437 2384.48523421 2333.2928106 2367.91738516 2303.49396675 2197.23939697 2168.08312614 2175.60958072 2149.57096657 2067.22937622 1976.60411636 1883.7594078 1795.06968834 1925.13943054 1522.16852529 1403.40334478 981.997197217 769.532305095 638.141597316 448.734188487 317.121550493 191.561003883 112.975476091 133.15657004 137.211432572 88.3633099578 73.5068847241 66.6048021921 53.7140299562 51.1343576844 44.9320044171 41.5677556347 39.5603633079 39.8782503133 39.0292873838 37.1748888747 34.4221260941 31.3221376088 31.8104638211
537.982747884 364.539022393 326.085274788 388.195249636 461.094462112 503.85603519 507.946686102 538.541923748 519.387480172 388.138078384 371.754327302 359.980614452 416.38304826 451.308494791 489.069554583 495.821344044 486.287484155 462.436535044 430.709416759 385.667075306 355.225213521 353.33016858 356.425115782 353.063583788 301.839250527 295.468884335 291.086840983 257.281562206 268.857457094 271.117417585 279.193596426 279.149826933 295.007035666 305.6739633 309.892451425 312.782828759 307.500198155 295.348299388 283.952616234 280.496504384 301.232154809 304.413966809 313.736125551 321.641147881 326.641700849 340.337707773 358.857099479 385.453464269 415.030935745 427.391978335 440.890846158 465.342378827 492.311692137 519.823260718 554.483253683 656.143433784 733.777089973 843.7998084 1103.70253551 1393.74307965 1636.1304118 1612.94883542 1571.66078185 1750.45873827 1903.81579231 2042.21493522 2005.81553519 2190.81650558 2772.8846504 3455.92441668 4032.98224505 4442.26158606 4967.81588552 5521.36397151 5865.84756235 6325.03730434 6686.19235125 7118.35677996 7202.3684812 6957.72074623 6870.31589857 7012.72814737 7306.62553326 7059.80210711 6425.38895853 5793.14518689 5333.13626854 4901.72564694 4684.2625281 4560.29790343 4504.69001124 4271.81137248 3878.11199284 3653.78515722 3655.97456319 3448.11715639 2942.54308857 2613.35143695 2290.41196316 1914.76716159 1552.21969224 1309.6657056 1173.80203161 1066.88961782 966.890248796 843.379092342 837.464864301 820.338622192 822.192209317 805.399165432 814.947109408 822.355538669 893.117641023 976.478582295 1126.77093878 1443.94950932 1500.32988967 1516.76953685 1625.28890409 2058.4196901 2155.75802686 2003.51123652 1784.14486023 2165.77843361 3521.69919816 4591.94398583 5420.0275424 6760.73350718 7113.14852879 7189.5778421 7085.35642032 6689.49160928 6255.15941529 5979.03139116 6381.69427964 6625.17617827 6515.34621137 6374.24114641 5972.37860606 4680.68631348 3916.82626142 3320.16634234 2669.24721958 1757.75523415 1618.92725203 1702.2283425 1141.95507245 1007.98553885 801.025501161 770.119244046 873.20692636 945.299390726 1027.76109386 1095.27973892 1144.69391598 1268.51030224 1334.23015247 1342.90741705 1310.64432334 1271.62757463 1318.72193682 1456.55135289 1569.43188118 1563.26828148 1478.62161581 1472.19667342 1574.6720853 1745.54765015 1859.10891306 1985.56664589 2026.18833116 2004.00659278 2039.1096679 2157.17772911 2352.06593635 2564.90745578 2719.6869451 2698.75336838 2556.60109781 2469.31154819 2432.60601215 2518.72609463 2565.60075228 2493.94794717 2457.86824534 2340.19031608 2214.9109276 2248.41037734 2214.11615993 2151.29026777 2112.35962806 2052.337659 1987.22199262 1914.46190557 2057.46176634 1879.26754321 1535.63569468 1386.71841143 1132.54156386 726.922258594 567.213442177 463.114449896 374.490659251 287.134638395 213.210543697 174.294587046 106.49009055 88.6416724663 74.4984856439 58.3849685229 47.0491588829 49.1096830398 45.3619764148 40.3315482783 41.081936615 39.4914805383 37.2953127974 36.9658476646 35.869908535 36.2429829306
732.832381268 634.511825672 530.386465895 505.765520662 453.044934468 423.759094521 494.872983064 546.390436943 526.037968242 386.676929519 268.755708887 316.445754467 485.772509897 488.408840951 531.163727289 540.232552616 591.877299818 544.857746821 463.584606535 370.185065502 357.961823592 360.80880657 358.578760065 356.81806214 306.056340621 299.346038069 266.059198999 261.899667906 270.610648875 272.539059281 271.089020913 281.180387765 299.28222315 314.658843508 324.573775209 324.302780631 311.700545696 299.715423723 289.15480438 285.385761025 296.615518496 293.104583799 298.839026389 301.138742585 308.080202419 318.651519916 337.297169461 372.318942948 407.942378217 422.161934364 427.566970599 442.974080962 462.925581917 482.587199703 507.91348315 555.74499898 648.806267082 709.265012792 817.460503835 1080.00915106 1300.88356127 1409.72095556 1443.9641313 1673.1643736 1878.41145972 2106.72863814 2240.73179539 2463.01716764 3073.94817102 3517.87389348 4175.53485877 4532.81478007 4884.75818495 5425.57412583 5917.90617766 6256.80813189 6460.36561823 6646.67391462 6757.56706398 6732.15161133 6706.55517637 6678.47522619 6638.66578549 6427.89531983 6022.18032296 5657.11274102 5038.85123249 4747.16618073 4465.29609054 4266.56421387 4162.86627917 3864.04713436 3515.7281509 3316.46821507 3020.60712748 2763.24307773 2543.1951513 2400.16054709 2158.24985585 1817.37420382 1491.16821427 1264.5453613 1138.61155388 1031.56128292 906.098901959 784.690746191 773.42250234 788.063317961 773.866083359 772.502389149 779.951257063 789.265501594 870.810157222 939.492057014 1101.88408749 1434.92421965 1498.48659319 1523.69623671 1650.72411697 2134.47564086 2289.84733779 2179.06417418 1993.52056672 2513.7026627 4182.48355779 5458.17040481 6391.56445985 7811.23398293 8219.0180435 8327.05175618 8165.57059886 7480.25034163 6476.74410248 5728.88120668 6154.73691044 6944.96782269 7027.42917511 7412.33312669 6352.50876034 5675.20935531 4152.23699702 3594.99760894 3256.3674927 3022.62214771 2839.34087425 1443.88435575 1341.49159084 1207.84735591 1065.5493451 1021.44933206 1046.39118994 1041.23607617 1103.15549909 1166.91090994 1222.69380738 1337.5051488 1368.89731727 1422.99321823 1444.14991887 1473.04726823 1550.50021829 1650.99135733 1740.19141351 1767.46998218 1761.54992915 1822.07153571 1912.05451269 1974.28531035 2034.47028136 2055.07529589 2108.72302015 2036.45586428 2105.48322328 2172.75475429 2331.90478787 2572.98038999 2728.88351189 2709.66258821 2551.60372892 2465.92487894 2479.63898824 2649.52397391 2747.59059606 2641.35361539 2507.43304085 2344.13419519 2251.71141562 2342.29740085 2318.04056683 2322.25469668 2533.31404919 2338.83662244 2311.04062305 2018.41835972 2349.99554179 2272.33337713 1936.1519119 1508.72022356 1301.38055941 858.065533425 676.948570127 581.41130527 502.405218549 413.468806384 287.108625342 237.954535968 195.547561056 124.002124737 83.7310861499 61.7004995755 47.4033196089 52.5057927621 51.9844348133 45.4643310821 43.4020120197 38.7802524954 35.1904705105 38.4800332602 39.6000193516 38.3694560206
918.366097911 830.220944128 674.336130382 556.512930635 368.52258035 263.232915041 409.657469949 598.466823084 582.593398139 433.587175579 303.602274102 388.139614508 548.836509127 606.310254044 604.017908832 628.258801975 631.906150199 649.959641333 485.030430321 371.398243318 365.081141334 391.858964413 361.038658255 350.508021113 341.650574399 291.634424594 278.946215757 259.527633376 266.963051419 277.212652752 283.119239033 291.055556909 298.252880988 313.482204924 328.06647395 326.350758577 308.535068988 292.058973943 290.495403395 288.805657254 288.226162987 274.181995806 297.125800803 294.168492442 299.959380407 306.400405274 312.312524158 345.767721475 378.928209716 393.118087869 381.340802187 408.50036859 442.955511543 457.75415878 471.334885591 507.020917042 577.309272384 590.573113276 596.672466766 765.532338229 969.906746215 1113.10272635 1295.71786723 1601.44441351 1801.11762076 2295.88123754 2532.3360088 2878.60860891 3314.32949052 3671.72446753 4193.69298496 4591.60444621 4922.77631031 5409.99388278 5893.05500908 6284.44438428 6375.82609246 6441.48716664 6540.36544495 6610.5642649 6581.5118804 6418.47274482 6259.78436578 6055.35962029 5854.17168135 5306.66290229 4952.96839256 4655.29853629 4258.00888494 4140.66635009 4020.86925378 3611.95026571 3344.0622627 2899.5253329 2656.947836 2404.81856004 2339.94113327 2222.63443915 2007.64954787 1613.83629529 1412.12542861 1213.513648 1102.09715153 998.262366436 826.982956431 744.427427852 747.252655735 765.486545136 743.60206955 718.281308804 721.914520715 738.94990507 786.353879978 838.555331076 955.811661929 1318.38999391 1439.40225522 1529.499904 1684.68307094 2254.45632553 2543.31315037 2770.25372987 2982.71444151 4228.06910206 5631.10860796 6780.59588148 7459.65965659 8842.19462162 9280.5379968 9526.27477261 9326.77966518 8442.98845937 7060.54483112 5465.85190972 6047.51325541 7334.92304059 7344.5331675 7383.25312256 6532.93747438 5898.24206413 4058.81714468 3474.73153855 3468.98985077 3851.51017414 3243.60598636 2361.31143121 1539.90691717 1389.72554762 1199.77341051 1124.72113615 1108.01677354 1091.64821008 1154.71893374 1215.30324847 1332.80823825 1379.0169538 1390.43639486 1417.56953679 1491.26716826 1671.9794729 1803.75506423 1904.39726395 1961.98726055 2005.68804805 2060.24246887 2164.14071951 2252.66965918 2257.17037842 2242.75907876 2198.25462569 2205.83044056 2104.738041 2151.12961836 2164.96574874 2262.41048425 2414.13755273 2527.18453721 2515.96747456 2423.30009916 2367.17517996 2447.77354662 2652.0774923 2770.41149634 2682.92922062 2507.28367909 2354.10472381 2281.4946818 2239.97744322 2426.90907077 2438.36814528 2635.00632043 2577.90529547 2513.7690639 2443.88639233 2405.58904076 2353.23578399 2033.74074279 1925.34464073 1486.60315581 1125.61199968 689.790303903 552.238717198 544.548347932 521.710616639 423.061014131 327.915793325 224.942090434 146.385029857 100.936228724 84.9559397957 68.6836307564 65.8294162172 61.8129772307 51.9515150721 47.9513493296 43.4078117186 40.5625628339 42.356595337 43.5683654462 43.7602382254
1144.16194986 1020.67429937 910.119307227 729.392589517 421.131257186 292.294277797 466.481656267 699.003587797 735.846237855 659.652238488 590.409064432 638.621969444 697.793493357 652.508593889 548.657194806 619.807550533 749.291640804 727.647638278 564.911166808 428.048384422 411.22374626 411.741676227 393.426298152 331.652808388 290.79792856 286.653864413 280.139834748 257.123435295 260.334537426 268.156735132 275.531576285 284.150777193 367.740922459 302.290084669 314.234250059 314.756561979 301.695211518 288.016329803 285.504373216 295.154715802 294.557901464 280.371358338 270.340931111 282.197391817 290.648286398 303.435224399 300.1009473 304.488159214 328.348701855 340.859416433 342.594605016 352.168967388 418.577346771 452.463698463 453.172507277 455.488229599 502.027121046 535.568442783 526.218956076 612.772588057 764.163583264 903.695660584 1073.64016653 1392.82135081 1707.35540982 2165.13484111 2595.45146868 3236.50956879 3729.52419515 3861.09552377 4163.06083326 4531.16158666 4858.11695938 5175.70936358 5656.85219581 6245.60802092 6359.9829474 6393.62697267 6529.43808024 6581.68891433 6487.41857094 6263.32393561 6073.1836722 5983.1148775 5904.12348717 5249.60643376 4984.24386439 4805.6492948 4320.6091199 4031.68390851 3741.06095275 3257.6797814 2873.01438062 2727.75839989 2512.92640002 2344.90572333 2288.85230767 2042.3150589 1681.80470165 1424.20330495 1309.38806417 1145.69175484 1080.27746188 971.413870752 859.049185722 785.335334627 757.576872503 746.487949148 684.815918803 659.967016901 667.943373822 685.064361677 675.802645654 706.266786907 765.10584408 881.713682272 1306.34681345 1472.5944989 1702.12187489 2377.84610037 2829.23514071 3329.3383024 4789.03602664 6053.00476137 7578.33099491 8513.0958293 8746.99644329 9671.96241935 10344.7861065 10874.5932995 10892.9328264 10594.0854609 8919.49633448 7518.08011538 7764.172033 8346.20000067 7386.69141644 6344.01963672 6282.60070763 6334.13930366 4467.93085355 2811.94270616 3063.40283817 3985.85878618 4066.11098786 3223.20072058 2339.20402952 1502.34724311 1232.35931016 1062.75482689 1052.20050272 1187.41341368 1198.43263428 1246.81424192 1344.15724905 1439.06474662 1384.47622899 1288.20207546 1462.36591279 1770.98781072 1997.58548322 2124.10843126 2262.52245544 2348.08143438 2424.0460432 2405.40107335 2536.42628076 2562.5851959 2459.92859208 2299.12669828 2213.04555205 2140.69695157 2142.92813181 2155.91603057 2171.26487494 2224.98537587 2215.90022944 2233.59544774 2241.19809781 2234.06636249 2307.99914691 2461.42389816 2595.03466221 2533.26882239 2418.70653895 2285.09153239 2286.63234008 2266.45353975 2520.15848004 2524.41499925 2695.81672532 2522.55291162 2350.42477529 2358.69859975 2440.31638871 2442.35441724 2290.50376126 2104.60056815 1816.164619 1433.81201772 879.197052592 571.615912516 583.979581739 559.752169702 513.113045387 439.141488315 298.067930644 170.203995934 141.330979453 122.683228532 108.825433102 84.6217132647 72.1602948649 63.7040839846 53.2364378833 50.7133384787 50.4022424317 48.7067695473 47.1137297725 43.7498752194
1498.5518243 1306.25493282 1040.98058342 937.260514867 785.246455821 768.30314138 758.159220941 928.878495671 1056.25707295 1045.52514561 1011.81846262 968.106030767 821.883062714 531.391988081 445.572081169 655.47731105 811.465951066 829.661355326 761.541790698 603.361983234 472.991740516 423.888278579 360.280478713 293.016516142 278.613724482 280.861978096 275.723167714 311.973480075 256.055629581 255.52843243 265.506426906 355.933095929 372.52823525 374.114554259 294.220224994 375.884790257 289.352424228 282.338140487 287.092155392 302.43123155 312.841996235 295.709803075 271.407799139 268.638222312 293.558351865 310.741419809 288.36619939 262.332288015 255.664687393 273.137493397 285.492135396 301.63636031 380.098970711 436.369122791 435.047449269 413.900738418 435.01004548 483.725338696 517.129515887 580.064377249 652.53927391 757.052392049 928.313996726 1248.49081445 1481.25800018 1842.14017857 2496.47564121 3333.83027943 3935.01886651 3982.41934673 4024.71220068 4555.62383072 4903.25511506 4991.20602478 5385.9399431 5869.99696077 6260.21691144 6457.67919256 6711.25889025 6692.93508821 6587.8908297 6459.13135226 6169.29724026 5872.50358425 5603.26634181 5074.17323548 5061.57558234 4958.82497784 4181.81670717 3678.07360554 3214.43607655 2825.19048557 2760.39463309 2638.34113695 2445.11421343 2230.05944893 2062.26817133 1663.2077381 1354.53512928 1311.44983793 1235.56206054 1110.03651763 1073.74191971 1025.1533214 912.769267166 819.528238559 776.105507601 695.70712517 623.35470702 581.779505947 613.580585506 642.637921829 613.350632298 583.284960672 606.484450615 708.435108259 1160.2076117 1379.03039726 1642.6960248 2005.48636389 2970.60285129 3753.50393245 5627.3482449 7424.57918599 9514.72231777 10395.7797599 9924.01682667 10339.0400192 11212.7014964 12179.5789467 12510.8811067 12303.5760448 11411.7807216 10655.6263937 10446.6944166 10292.765466 7522.02969129 4601.07311464 5201.17714583 7048.39663896 6026.35040587 4335.03625934 4067.80875093 4404.4856079 4005.66026414 2439.66891398 2331.35447691 2177.78603212 1332.60779204 1092.28897239 1077.92600713 1235.84057313 1189.63149635 1186.20992694 1307.17252707 1468.13487132 1423.29898589 1284.4772225 1543.38453242 2009.36368441 2306.90736174 2419.10127635 2485.96372852 2558.76030061 2589.6916729 2658.47441089 2796.40991501 2827.78961929 2614.60374795 2382.72610791 2233.93953482 2211.18193282 2231.10620624 2197.43665752 2116.68492481 1980.08209526 1964.35497533 1919.07333804 1955.06946439 1966.93607263 2006.98213358 2151.2906592 2332.76491846 2318.71803514 2228.97103399 2203.60747159 2257.0219899 2550.28519874 2514.07847377 2854.12527668 2753.01015016 2496.31119416 2201.28233254 2229.4107112 2473.95412775 2673.95826379 2221.9277973 1965.6016044 1945.78306906 1835.53166562 1157.63074779 870.264105254 806.00827515 616.001500864 534.89967248 427.538821659 304.002978132 196.979011991 154.360420297 126.285391305 121.23916793 98.2985038891 81.8264940991 69.0613810984 60.2877381241 55.279044398 54.3223334929 51.9229418116 48.8901945394 47.0098337762
1701.13217823 1440.35557987 1232.71532467 1196.17368189 1291.64725797 1373.41194194 1509.84590525 1638.74915606 1685.19067432 1690.26941378 1433.30656901 1323.24917385 1092.74433438 722.412478913 629.204388254 866.936008597 941.646824685 952.105125961 890.903397641 708.829525891 521.664375593 433.02939299 327.888039232 263.436735446 269.926907969 279.336751687 317.413417185 298.33330778 265.345423892 248.193596867 253.910315482 350.005839509 438.76797069 392.904306039 396.547918954 395.206432256 273.391185758 273.312585426 282.636858341 301.246523405 320.597733894 299.777674992 263.195264454 251.62257194 263.790820508 275.7759153 253.592045697 225.428143951 213.08531567 225.962759565 226.71210963 249.413742213 277.239893677 310.405928903 343.919646946 353.251221963 371.561907944 396.635305649 405.516069166 422.980446688 521.466749118 618.446946698 789.282676849 933.744893983 1280.48852194 1584.94987952 2163.54696058 2818.41040617 3503.50106679 3713.65903996 3948.82490214 4405.76235338 4843.17723202 4985.81263074 5304.84655658 5678.85421641 6006.86195284 6533.2396338 7112.66623935 6946.74726847 6629.68688757 6862.07577156 6496.92563583 5713.20460653 5056.15722692 4684.74160764 4346.21980037 4025.65133714 3507.31051505 3075.44019274 2765.71070239 2690.60847177 2677.44465531 2498.72124447 2297.42837535 2018.43473325 1698.42419891 1437.6259288 1244.94646968 1250.76958177 1196.35373175 1049.46428526 1069.47057489 1018.14369327 905.450099596 836.963416318 781.054613968 712.125869388 598.834834076 541.744141464 591.345684318 624.487825501 585.912445004 535.226856017 550.002733125 618.881145945 1021.75701703 1262.08501737 1531.60477376 1879.65583282 2863.58032176 3700.12802136 5784.06541737 7908.84269189 10504.7884856 11560.0890137 10768.5374062 10588.4113249 11607.3575848 12815.103388 13163.2531015 13249.3243624 13423.1925242 13423.206904 13314.2327167 13101.8995218 10619.4146941 7034.93350851 7211.93525642 8833.14150487 8268.49823139 7057.73423234 5832.46783402 4983.96969722 3484.52937795 1904.77500336 2077.37593586 2316.7561094 2050.86792082 1349.48746096 1318.81865732 1351.03529614 1219.99958597 1079.49847535 1274.96419618 1562.03789989 1699.90502876 1768.62092134 2107.82834412 2538.58810393 2677.44976089 2674.94346377 2707.44694212 2744.82241183 2749.99287203 2722.65955359 2845.72103661 2878.10111947 2642.0674612 2358.08606169 2241.76665599 2303.56785642 2399.02902432 2310.05335069 2076.44845576 1901.08560486 1718.99975269 1670.69758443 1690.78839394 1690.65649842 1748.8514993 1823.51814957 1938.72174315 2136.27682594 2101.41389232 2127.67384325 2179.31300909 2490.79021151 2572.97361865 2868.35009092 2889.77835225 2683.67788665 2416.97361096 2493.11605103 2946.7962296 2797.83730517 2287.97056389 1754.89272344 1813.47475812 2132.09642978 1893.38131508 1673.93374547 1227.40485062 871.045406924 535.440614279 366.81740458 264.240431192 252.448008206 181.86518218 141.890667649 126.108389363 110.758673401 91.2561029312 75.1439610132 68.5066051518 57.8689236414 54.7762102714 52.65502953 49.7093345813 48.7671090997
1728.37252627 1290.13107473 911.753464953 1060.24314841 1456.56075042 1774.08990531 1978.89724882 2085.62965225 2202.10737953 2193.02116945 2102.6865882 1871.97873191 1494.03416268 1391.84274437 1195.80633941 1209.64309994 1116.70002283 1066.19050429 984.114467728 880.54636484 567.263506414 475.413669747 362.566731665 281.324362144 298.841864286 280.26109195 320.673056363 296.800688424 258.56425158 252.794576582 294.772307495 398.696708295 458.821230135 411.55322738 418.176361906 414.170049957 396.811639958 262.012264315 261.997546852 275.132223459 285.730753544 263.833219259 238.208950202 215.07895038 207.024468959 201.643041715 191.763533538 170.269162669 165.666106797 163.718006058 181.658999034 194.305069717 191.483586731 190.285362137 214.655939899 238.754274202 291.897396326 310.861668117 318.554995088 291.921648296 343.675458483 449.189787452 647.811471995 777.502401304 914.94061291 1195.86386072 1524.60953028 2007.36025668 2695.88146585 3215.23548339 3602.4345805 4168.99209726 4648.96872041 4968.07811076 5281.27953028 5471.80504241 5788.15705334 6198.3014993 6830.56426646 6643.80724654 6387.87133363 6850.07690415 6381.15117477 5305.31874556 4562.44637436 3954.62024254 3221.52707017 2648.86356199 2635.98726547 2466.84942207 2201.69621589 2182.41983053 2173.56978654 2092.24276799 1929.46845476 1661.72745764 1474.0239995 1284.39902873 1199.0359502 1155.29078688 1082.98636694 1013.47777711 999.162871305 948.008949232 862.259196968 825.605928326 783.749995139 719.809609753 660.396737814 615.964647714 640.441772356 640.944922617 593.815496657 546.451394283 541.651189448 567.732370591 920.646161003 1122.32881501 1335.95259908 1660.58267222 2512.95449929 3215.63897067 4330.68320008 6888.12224316 9217.10146828 10375.1196064 9785.23691984 10287.2783602 11424.3776338 12622.481427 13454.9802215 14542.1350051 15675.4027798 16053.8595761 16421.8947536 17576.9603616 17177.7244804 14684.7298451 12948.0126221 12250.3844628 11420.7452259 8932.02794778 8004.20108156 6112.43622922 3404.12666228 1580.92731461 1988.3380766 2481.72588543 2442.07945754 1646.29689488 1547.44503278 1496.25247647 1361.7520671 1249.476217 1463.67476455 1755.06713827 1964.30783044 2233.2097663 2696.97301536 3166.64143752 3079.66853029 2894.7961584 2892.12615137 3018.15814131 2969.01600558 2773.32624079 2715.96518541 2680.56740083 2511.67323897 2252.37077614 2186.37169194 2316.2901451 2510.99501711 2342.11062749 1999.05934699 1654.1273103 1456.23246626 1381.16573626 1261.76726021 1371.79380744 1436.41783912 1606.37268852 1735.62106802 1989.56039601 2046.13958246 2079.69207885 2315.11950397 2513.99860794 2640.79962538 2946.3456637 3060.76192231 3220.78215321 3077.58778001 3104.02946666 3474.38846608 3350.03730628 2743.70182247 2056.5576561 2153.00649324 2463.3996281 2545.61752005 2152.22522936 1839.90491214 1291.75701977 746.333864456 343.511196745 235.414972768 267.022783843 258.960890035 174.192609323 139.112116049 113.732103762 79.1040458429 76.5618768934 71.4109516462 60.8073896086 55.4976062506 49.8562265181 44.7704899242 45.7760264281
1895.10104497 1390.64768902 905.350708306 1128.86632589 1832.13630661 2162.63588145 2621.72216372 2692.09940435 2642.5761166 2632.48548508 2530.32081913 2514.2667306 1987.311511 1742.58027944 1679.76108745 1482.26145751 1263.5666351 1146.69106889 1035.85779403 921.900540217 613.93412319 537.644789339 450.016530199 384.65306408 357.624870413 354.47973883 332.025510449 318.45559483 333.01457683 322.627975254 374.00539202 432.205902066 593.635714463 626.17970356 541.345140472 426.452540433 400.912891125 250.060117564 241.346624828 236.977338325 236.181209462 217.722001622 192.599761565 180.546610949 160.044328979 148.24748642 125.891472143 118.896201229 126.468880151 130.553562401 132.215983862 136.777770636 141.382977842 121.880998789 150.742584467 182.469281373 198.050069939 216.319793877 275.943088232 258.968727212 270.066486161 394.241701875 505.497303734 547.528015446 709.200742485 884.944887315 836.012960598 1249.27796137 1872.21277381 2383.17556402 3187.7646427 3654.07915161 4510.26496846 5194.56360762 5538.11053301 5497.29970785 5775.22981261 6014.85363914 5977.04599869 5873.27500082 5694.89872211 5483.14854312 4934.86883194 4375.93389033 3885.83920808 3427.10619154 2744.80596763 2171.45225793 2301.04064895 2177.23621819 1904.35580024 1881.2057014 1801.12420494 1621.36107443 1364.42909147 1203.17716878 1026.54906589 989.75277996 1007.58262124 1005.58181067 952.850247442 945.590706993 921.679561369 858.101358001 798.801042189 798.401854925 776.043944698 732.355678891 748.865066734 683.719934475 660.705433537 636.087094261 604.172421659 536.267926688 493.850601164 474.052534238 478.297296491 912.176928178 1107.27507503 1354.61387054 1675.59461408 2449.06137616 2979.99782148 4634.52401272 6332.58393642 7706.41616949 8127.06561822 9506.55160215 10729.3263521 12279.4917409 14387.9900661 17912.5351526 19552.4599985 18786.157295 18933.6268822 22690.3146029 25689.9600536 22905.8089779 18346.6378606 16151.7577719 14373.8788461 11720.6189786 9840.9804224 7681.64363338 5377.21508734 3228.5129764 2893.26504944 3037.35338883 2867.15806725 1827.77466171 1662.28573235 1738.13072897 1694.93800212 1661.93338941 1756.19423302 1953.82561187 2191.85645446 2458.96741662 2871.21865962 3331.85148041 3201.19666439 2965.32057408 3111.90960022 3403.03577002 3279.3139156 2906.07524806 2583.71036916 2415.40751659 2259.88345995 2045.84295218 1997.58199631 2070.61162187 2196.48924976 1998.18226078 1621.41563963 1358.55013376 1204.12608358 1042.83238194 1025.46592601 1128.68910135 1204.00379949 1353.74629506 1564.36680634 1999.28368696 2079.92554429 2027.58886965 2287.39090793 2510.50737592 2705.22606985 2917.42439675 3058.50648644 3479.3566062 3929.03039449 4040.97436898 4350.41312756 4242.42769003 3808.30550277 3403.66218139 3154.72560795 3303.2077033 3333.46564221 2921.43202077 2569.26614479 2157.46116928 1154.19322162 647.588485204 472.817888056 458.365946745 317.358631919 251.393247588 156.558396937 122.541437562 95.0354624013 77.6128367004 70.9966986373 61.206252149 55.6314957185 49.0952237378 43.2714462484 44.3296788821
2281.53618408 1965.93802198 1732.4159066 1966.93165247 2477.30458176 2781.89938286 3038.33064561 3174.27002573 3399.38674915 3268.88845134 3235.35519111 2945.9800715 2372.95537581 1733.86322103 1708.04056593 1740.3772954 1303.22055744 1142.25565265 1040.68011824 920.689194946 711.48792667 585.557192515 518.057644303 418.770828974 398.028831405 377.418534302 371.421314034 427.960142551 485.710827602 404.973016665 509.29500164 562.33270476 625.50808436 658.589173988 571.381231627 522.228886893 409.779467807 356.719908365 221.193774264 205.640629047 194.54547862 177.032726981 162.636520524 143.857323519 121.95791841 106.894425432 93.1880629328 86.0348692934 99.2971674045 107.573336185 102.672221002 102.87026721 121.487126929 123.765661088 135.646711677 158.099201169 160.698157969 176.380890107 220.988569884 248.552184025 268.456750638 335.065865223 387.45039266 458.72070078 595.410088137 669.211402255 603.496431974 892.774372117 1488.13287311 1928.97871829 2597.10162073 3079.77376395 3913.49804254 5304.30109676 6028.03441474 5299.58309527 5751.32964293 6270.91515579 5550.65815036 5126.15208584 4866.36706449 4379.56012811 3718.32305067 3591.24908824 3433.05490491 2916.73337953 2676.21356704 2432.05401896 2187.14637809 1883.75684925 1703.62038854 1539.14200555 1234.09326257 1112.17675451 941.171578867 884.4801034 749.847799607 696.208874033 711.194999556 798.361017171 850.819299809 868.305550307 829.875459216 828.141963959 757.690107354 827.701269346 815.367821069 728.056893105 748.306315147 722.32226413 693.833827926 636.879663485 587.390386785 493.605299132 437.437264948 406.044896448 427.586679686 712.259545149 879.620981749 1039.94030792 1251.59817505 1415.85076244 1591.07034938 1845.36808849 3693.15130789 5224.80548578 6280.08936097 7310.61069483 9569.57960426 11641.2753506 15483.8965813 22592.3748026 25430.0621771 20972.7281247 20554.2271167 25378.9860523 30667.617537 26932.4884268 21507.4652255 19011.9460849 16899.7798676 15013.3959334 11928.931228 9485.74431327 7428.18169538 5673.04467733 5142.8519432 3709.7492441 3186.15883298 2717.16934521 1785.41968255 1749.69062201 1843.0443631 1886.65633577 1931.43204652 2067.29869975 2317.55368765 2482.36633021 2695.22905818 3019.56824145 3072.46846266 3048.42267432 3232.35264431 3545.24855724 3402.1588697 2820.61504262 2451.0471092 2123.48063102 1946.10785366 1762.3575832 1610.57440569 1592.78677866 1534.56457679 1231.98101396 1003.27403517 992.997931007 832.202446214 802.097152367 791.93397417 813.276012703 953.092100623 1034.19770378 1383.0794897 1927.43167747 2091.95995408 1989.74320859 2213.81696181 2541.05384807 2740.46231729 2737.44537985 3047.28807139 3692.58533079 4449.71225012 5037.83494902 5181.66972427 5093.36956183 4787.3050112 4400.85353535 4137.21306675 3805.43715468 3746.7302875 3568.94476144 2978.91519547 2457.80796329 1753.01277309 949.472740657 785.032731415 643.753894711 575.700065108 301.115197858 181.200108244 135.478192295 104.487097413 72.393729963 65.9576647413 63.9598711141 58.770000027 50.9046132728 47.8672560663 46.3475052697
2652.41492901 2644.2972349 2631.90045022 2786.98696935 3036.65453589 3279.86708391 3703.06039618 4030.00498847 4178.89233764 3986.13102349 3937.70889343 3728.87805048 3083.77266777 2303.64047098 1962.75465232 1821.19357347 1353.22931859 1022.42248226 1004.71474833 809.204606935 669.341634771 608.687717693 543.902910794 440.720709147 338.450796333 415.124531084 390.758129318 493.934581413 567.978011783 522.513183623 494.934259627 532.405717971 708.8259864 679.445261918 721.334265553 655.304690006 488.893391799 415.448649503 303.278969615 193.439492336 179.483331184 158.525497248 139.24818823 121.734463781 102.728364781 92.8624332326 85.4476012488 84.5046211561 81.5553149914 88.9758638959 83.439232388 87.2977431651 100.719548402 120.409850976 130.086605813 145.643978828 144.410505833 152.508732084 183.342985918 216.477368136 253.356221494 337.215721993 398.4148328 422.536482863 515.517352696 650.563528929 691.767235554 862.144602089 1267.16684607 1660.4743434 2033.14828423 2594.18546095 2980.98844129 3623.49064566 4416.58898494 4478.4184674 4755.15096662 5038.8707614 4683.47943284 4460.58261932 4156.45286913 3880.46955639 3412.972132 3319.91403782 3065.79466913 2732.68221196 2647.07328493 2300.11699652 1770.73388017 1519.4051089 1208.31525654 670.652110119 612.482624292 718.053997228 679.647547395 608.982029552 541.054228063 428.302892329 495.442811152 615.387462592 755.077201886 787.845159835 900.258766877 882.594464962 845.754150098 891.281121763 875.14648261 821.747349593 821.936658208 817.163015775 773.223387213 610.951811565 552.586076963 475.335050358 417.755839008 386.575592737 402.056596222 617.246110419 604.215400156 674.887110888 910.63983831 1014.6392429 851.518428037 855.157133903 2221.4170251 3638.70944152 4704.10928065 5615.02350258 7695.41608177 9580.87567008 13171.3562126 21136.8977384 25033.2025021 19829.417351 18468.0358413 22556.1761521 25981.2143571 24846.2120072 22856.8819108 20936.3801 19233.0956713 16740.3057627 14413.9085233 11085.9468209 7898.40886382 6441.16358863 5593.81023228 4168.82810543 3295.56986089 2686.96595683 1769.45626674 1706.16957691 1820.79810504 1930.59119878 1944.29484004 2404.04460477 2568.76379661 2484.17348623 2565.42534451 2834.17234526 2937.85376019 2923.44092849 2953.37964542 3039.19478949 2926.30021746 2623.77867891 2293.17050412 1810.81929368 1904.63827934 1682.11115484 1486.07029939 1069.08827314 856.724892144 572.372713833 494.858130088 519.89852525 523.506198399 488.622534066 574.102041604 593.23768148 548.230668788 629.614803469 876.195566815 1435.0721922 1690.11696517 1765.05079596 2155.22833673 2460.44613449 2856.55649247 2879.19091507 3307.35365455 4163.24808992 5041.92896107 5724.59489728 5950.35827282 6240.8197362 5900.36948611 5232.21822051 4098.99637613 3857.49007895 4133.09897293 3789.2804407 3171.25167212 2726.18161787 1652.76116672 1208.31059855 934.71842408 837.461597086 667.88908859 355.488606954 253.491715806 151.432357122 104.218386389 61.9821220101 58.9860331205 62.4311549102 52.8852294766 50.0116132199 48.8932122701 47.7617997994
2972.14509405 3024.36556845 3046.7076044 3031.11041922 2914.8970909 3258.56066946 3932.98542906 4443.51616704 4515.56567452 4426.52978767 4237.29956098 4145.68789034 3768.16698481 3159.06461188 2374.71558167 1900.29344732 1240.92199268 855.713278154 1009.0128882 860.949957918 662.732873742 608.457252403 548.146153356 440.768481633 405.542655058 409.507215951 428.664783632 509.707515543 581.437723579 497.424645922 353.841654002 438.382441135 663.00840208 835.842707753 846.158182188 654.993491424 575.542237795 492.0458962 362.311258942 187.319810697 172.338096202 139.387845507 115.701353515 107.750118833 89.4110723182 80.219276079 79.1529759699 77.5557724059 75.324587069 71.6812198578 80.1292073365 80.6938118391 84.9089801569 98.2527160955 106.735240499 124.605344822 133.512897451 135.821137004 149.030089196 185.353008206 218.221152405 250.525798856 324.395067294 346.739093002 381.579150575 506.816915026 622.757680573 885.07627338 1115.4820512 1367.01058575 1561.53783683 1791.47108006 2367.46019368 2332.62742022 2832.98560865 3184.47430462 3706.91956769 4005.47904153 4342.04251205 4157.49524517 3991.89854931 3948.90302463 3412.06495327 2992.86913828 2747.59903847 2547.3298362 2246.56638094 1776.7788301 1432.324978 1118.4091811 885.799972984 508.7763078 494.590650337 501.748791235 394.031741361 429.19229618 424.139566037 424.309031122 479.027005515 565.336343424 652.443679158 844.133404032 1064.88898056 1061.66848682 1101.21021173 1170.89670956 1163.97139033 929.56389389 873.386920973 851.053000141 792.446409475 611.478916271 543.554974258 487.788656818 405.103218692 393.194461958 563.879795135 841.042630079 500.278310047 578.212699645 1054.75586427 1868.19907417 1361.4537895 1129.09130505 1910.38138477 2687.63182054 3399.88440864 4105.86861228 4839.29403517 6482.08707678 7110.92013416 9625.53228676 13606.5675046 14017.0204847 14639.6024278 17889.6760805 21148.3130479 24143.3868696 25348.3139118 23032.9754031 20667.9677241 20012.166286 17873.8713939 12921.8752646 7864.22265213 6166.73968139 5919.7080998 4040.26293488 2965.90428784 1880.88215582 1669.54876755 1568.70008287 1638.55593525 2019.90795572 2243.89581973 2562.07884724 2746.76443511 2585.31333862 2708.00992891 3451.59389783 3123.22992604 2985.37026487 2569.63878754 2326.13854861 2169.40522155 2026.20851135 1862.46492313 1497.43450107 1876.00356773 1667.01031163 1241.89810123 755.054230503 608.864048757 219.475903266 156.956580732 254.626833607 320.227804797 278.615628416 276.922869256 297.347605364 258.628229384 265.086927118 363.262098502 784.498619176 1125.01836539 1340.93584861 1916.22054236 2391.0135117 3045.0888766 3641.88935821 4353.67152019 5067.47562258 5718.65923074 6414.70326039 6722.48882892 7098.60039554 6814.96699975 5790.03117823 3714.77976206 3637.34862926 4484.35921502 3790.95356416 3244.31087631 2777.76234526 1978.20738398 1034.41656858 856.86304413 878.330362879 684.899789183 360.746522823 208.301435377 164.512498478 123.556402017 74.4121678782 67.1505727017 62.5280734141 52.5137635961 49.5850365006 47.3715517938 45.510859132
3084.66066734 3081.71264583 3240.88328035 3256.61446755 3220.70845467 3665.39153202 4433.70709521 4492.31353451 4382.86687359 4681.09870681 4423.46132097 4195.05994892 3983.75107849 3609.62787985 2972.02980155 2212.28228786 1743.36144826 1360.21289451 1303.2980566 910.613551492 699.845547957 579.291080004 495.127958775 435.346310287 366.008669779 431.444928125 417.243194626 419.406113249 634.415195189 527.513776763 262.97913246 361.402818122 738.64043382 797.037098389 738.387378626 710.447522659 562.663882484 439.348322565 446.054702106 248.326041772 216.749590575 123.017308031 94.7942690643 93.0710175574 80.8470778712 78.4341035351 71.2498822989 63.819316519 59.5208806307 60.1569053426 58.4320845044 56.1301869085 62.6236770496 70.6142370531 83.9370703604 87.1542313044 88.3262458708 93.8457143567 114.91630899 129.164268158 163.304670658 170.314016861 182.518281906 257.538063071 317.087503516 389.977213296 567.066419124 856.62058154 1317.22114759 1203.7631687 1491.07613633 1620.62850112 1879.49960318 2301.99013402 2480.88158352 2634.04597703 2887.55550386 3134.72989594 3607.90521253 3446.92000178 3834.19794833 3993.81725636 2957.322193 2647.83772406 2042.69084823 1742.81962237 1326.6358137 1034.69461102 951.427803111 701.765309441 670.670329328 557.673873648 512.192527814 420.274457326 342.158759536 380.054629526 398.205777385 432.638727745 502.152775842 594.791934485 638.061328706 826.366563795 1028.62402988 941.600811162 1154.08511672 1369.27546468 1376.64425899 1166.27444963 872.053897682 859.016922365 771.845650307 626.894581076 559.869660347 501.043399311 666.807236854 655.58510746 1108.85020452 976.598938563 578.74687549 688.486472147 2030.72552584 2223.84842951 2213.92064017 2174.08810326 1781.90497971 2369.03182412 2226.31584848 2681.61521775 3021.1174239 3096.13742562 2413.69385666 1434.81780058 6061.69606076 8546.50726045 9755.75829435 12987.5141789 17566.0375778 25243.8816271 27889.322755 23813.4459986 22728.1152819 25068.7190331 23071.8662838 16241.981733 10162.8166351 7244.26239995 5708.53062856 3757.74195169 2124.7421643 1765.3078952 1633.26418405 1404.76505555 1534.28169972 2049.97759655 2458.87064466 2999.51216342 3275.08502354 3314.5018664 3474.87379374 3634.25237819 3533.68848384 2902.1871662 2442.53768678 1750.26186913 1549.14080837 1635.17022478 1635.65427546 1401.47795814 1649.39348554 1828.41034563 1038.39706166 791.965271243 554.380910345 200.008074758 133.982708038 216.607067442 210.419634297 162.193134886 128.653375223 177.5834424 193.771891476 131.376715061 144.113617923 367.952427163 797.200821624 1049.33228473 1393.74642609 2150.44831658 3081.01677418 4118.59575356 5615.97995661 6237.21410062 6500.3729837 7064.96259332 7505.59218427 8039.27203803 8125.76011494 7600.09129287 5853.50747269 5151.61742432 5038.54566189 3972.06248633 2535.24117046 2668.60152365 2297.34586707 1386.10468284 1139.13076126 920.777934054 637.567053514 326.699985474 231.513451049 166.449642159 151.927514072 117.317466145 83.2198201452 66.0176627281 55.0226581415 46.4100765839 40.936315711 40.4713458784
3014.21821242 2883.32556249 3170.06071626 3577.56188989 3986.92463944 4389.2204995 4987.61647708 4891.82530839 4744.60729132 5063.61283069 4965.70950527 4495.42459982 4097.91031184 3733.54883703 3225.23386616 2526.01816407 2365.44968439 1859.53986104 1253.49402035 947.100203917 710.039111148 522.991982242 305.934263105 303.7762191 448.707431132 482.888763546 441.409709982 465.131009373 561.273570281 648.430702908 678.858451566 829.163860715 1071.29179901 754.764877749 453.408492223 813.851862363 507.35598847 377.455800045 501.532502342 298.546778421 240.029720644 161.367509942 97.4639273951 87.5323610387 76.982347206 66.2046782314 56.0466600968 53.2711657072 50.8174683177 50.4337529151 39.4269450748 31.2279035661 48.3758350176 63.7369283462 66.5643785278 70.0542804479 48.8452885275 60.2054732043 92.1217519123 105.399510498 121.464607825 113.300831118 96.5222886588 182.789452917 260.161322736 315.492663825 433.599520035 566.426565753 821.158426372 942.575601151 1190.95808158 1481.41906838 1555.11456994 1773.92176761 2220.23323332 2544.68777675 2523.76874126 2703.45491732 2595.41876091 2730.45266983 2753.48830813 2501.56571931 2245.53299033 2026.76207756 1681.17940565 1367.192588 732.717156939 628.91555618 727.4151602 456.255202494 485.555577124 523.633535358 409.792497648 332.239649144 315.652166602 319.191425693 334.6060635 405.493762541 487.109744357 672.842936545 611.155749577 1048.55280353 1266.69012819 1159.79590624 1525.03132908 1767.70133115 1621.60278278 1418.9939444 1121.81572616 888.03968175 748.846372854 602.192682228 562.981716745 658.280628458 703.001821689 1148.58376836 1737.72818044 1593.13559258 1404.73274707 1447.19588568 2633.22068438 3434.63175408 3882.04334045 3517.32447178 1797.67313274 793.564745249 1446.89058047 2259.51038368 1348.01120637 1533.15310838 1846.92707222 1878.78863642 3767.01388493 4587.27249855 5971.54449477 8185.47474097 11347.9359734 18569.2973857 22164.4639849 20955.7905755 23226.1469836 28797.0978491 26357.6607584 17998.0721835 11946.6693131 8331.69708093 5388.0003137 3168.49513623 1626.43911552 1651.53829597 1823.01038813 1766.46024336 1958.40489898 2410.14524637 3138.11328419 3639.8040344 3847.89530661 3495.214969 3396.98183872 3695.20001613 3486.63179088 2920.25473578 2429.3889722 1668.33106758 1423.37047369 1546.20008607 1578.7689105 1336.6180197 1691.91815255 1499.14424947 1179.58318429 628.286188139 1002.26264595 628.768952692 385.363758417 229.917585479 186.795098602 85.4337991386 80.4341852174 148.445522353 175.070315242 166.416525531 175.756190193 229.283447425 365.138729489 781.285017162 1099.73259375 1801.16890423 2485.66442788 4084.46468366 6190.01035828 6773.34990419 6683.48928713 7752.48565096 8462.24700863 8439.8514707 8926.32899902 8861.16349939 7931.42415116 7252.44024986 6000.39708896 4532.25552746 2469.49486421 2811.69584473 2824.28912184 2146.14564448 1491.28924439 899.67499025 481.831527407 275.132175101 234.996993892 180.738750406 158.352311743 128.526558442 91.2531600845 66.8710034114 48.3172854293 39.8889282755 31.6736677532 34.88652025
3036.05915294 2781.48333009 3299.91499885 4067.05414586 4496.67231914 5113.70924326 5915.45191473 6283.0589555 6277.34102901 6037.39235699 5713.58770443 5022.04501041 4189.86006198 3532.36522595 3393.37282921 2740.42724114 2591.32171227 1875.14409761 1184.14050051 838.976697902 670.705189086 439.585304531 76.8822325399 226.064615361 404.848765208 353.132719044 455.442970575 375.402682418 245.838363436 815.644796293 1252.78036491 1604.41464441 1729.2991179 1280.92629638 896.957176313 1128.77320967 1010.2876536 633.933782411 571.313717569 423.624393133 259.483599018 108.607286631 82.395760705 78.3497694044 68.212898269 52.5807590246 31.6203769735 40.0454064957 44.5795707766 44.9533698881 39.0610108863 31.2366928667 50.41594205 53.5357021988 54.7522593906 65.5232809197 53.0012988825 60.3610093091 75.2383849621 77.7907966907 97.1022409953 108.50984398 107.190600359 148.969773679 206.710018868 239.277321026 278.79307631 309.469283867 428.979100287 540.313991686 726.336083092 816.704886312 921.097564811 1172.53871974 1363.21796635 1651.82263215 1792.15454005 1884.93913103 1765.54529787 1870.58923479 1835.12710064 1662.03996731 1723.17500514 1605.63851216 1486.38904412 1287.98600561 933.063193896 750.906501138 697.595113971 504.102261001 472.478756131 386.797411312 309.475205264 223.218947273 177.399881532 221.518392568 277.456469497 344.244757761 644.323972278 847.15396793 835.436711832 1299.95022835 1699.05497011 1870.41362162 2029.40811659 1910.58519814 1781.82374447 1703.43062767 1427.46148969 1185.61930302 738.402625655 600.041218951 703.920994316 746.937205788 872.074684174 1406.64863922 2043.45429682 1633.50297702 1186.72055218 1443.6680924 3728.97998851 4467.9555908 4614.5854772 4445.07311058 2106.9949929 291.140416116 1476.61844355 1844.24748151 272.061730344 995.676704412 1897.76300692 1750.69719961 1778.95413814 1730.39344158 3615.9874534 3502.04424819 4468.95156594 10166.58036 14450.0682597 17058.713885 20061.6645454 23574.6747112 21705.5265284 16704.4083647 12180.7268987 7808.10066614 5292.3406127 3474.2077305 2198.56826217 1554.12827486 1794.12058367 2068.09488109 2325.47215921 2171.31610059 3325.72572828 3761.50239322 4004.38809655 3997.86617757 3931.55720931 3748.78573494 2971.75758775 3030.38103847 2594.3168057 2108.29811856 1729.83694837 1603.49199466 935.305712832 977.088773545 1636.45255325 1403.23959926 713.251752734 703.756754818 1124.34175315 925.649673622 880.971171403 452.906402753 159.153743263 120.293827123 112.833087668 119.32224077 120.638146171 168.566763135 173.355442608 167.344970278 185.166380247 456.407022715 736.654388202 988.817436094 1684.01787563 2778.00581539 4678.08877134 5796.67604442 6537.11994062 7930.91409869 8768.8406705 8536.89512728 8831.91057658 8999.94650495 8950.22141593 8456.29870671 7319.50563312 6083.90587517 5080.94327194 4359.10092439 3720.45282897 2747.50189324 1555.41248034 955.580031119 489.173063454 264.767043831 266.339537905 193.508195617 146.724075528 99.9997192692 73.4608332128 57.8556436028 45.0960444986 39.4086798314 34.3811960683 34.9314673613
3328.50438075 3551.79326341 4224.11959824 4468.44194251 4936.67671163 5579.2248846 6702.39514789 8260.02826333 8248.40729741 7231.65032417 6615.00460925 5848.30196084 5191.45820815 4260.04061035 3590.69716519 2782.58604695 1938.9625637 1038.9666079 826.862594902 809.724647345 566.785818325 581.733234185 518.634131763 458.296346155 336.525657288 78.6053653241 462.179875438 396.604966002 312.12982706 1081.73735966 1633.67855481 2234.53980401 2618.02923423 2683.38064951 2447.31118075 2009.98200243 1503.47559335 805.671104769 433.598288864 386.571756382 251.523776401 160.77499693 57.4208699966 79.0389586181 60.344909049 51.2589717368 32.4434084685 42.657501384 33.0055059104 33.18626163 85.5138468102 99.1899093667 101.706989252 57.9367086907 35.7891779573 98.9225309631 82.0498944853 87.4742649271 79.3412556663 60.6726410175 83.8433555038 105.64255439 134.714067743 163.357367597 178.919538757 199.588647335 223.220944248 278.878170336 310.762008235 373.38058962 439.697466903 508.674412448 615.647850047 722.891683151 848.797682515 906.482841722 1163.91390655 1297.30539128 1327.00954887 1445.95652214 1527.11074612 1543.5944901 1454.26736139 1402.41303198 1337.50440264 1270.54791719 1132.18719504 954.929968367 758.875479568 565.346138756 327.943021464 223.064609317 248.000491016 116.397759311 73.5115983503 163.328601874 242.728350636 290.357392695 537.359931358 789.595882695 1267.67618238 1811.47617303 2561.05534663 2619.48621023 2638.54241053 2314.91657598 2121.73918311 1979.93787951 1622.52947213 1260.89925313 931.618059858 745.189538348 512.487104892 598.368527044 943.489968263 1958.94719269 2069.1424948 1630.53736856 212.755602904 1839.44452908 3988.29816363 4791.71574091 5567.10542709 4617.69453905 4275.9002438 3602.3540245 3267.03124425 2946.33117467 1180.29169974 1272.19611299 1605.9713722 1243.41193915 1340.83934742 1521.84778524 2137.35525553 2427.30269397 3250.50623215 6986.52927354 10221.976182 13287.0859565 15291.1569382 17086.7668752 16803.970265 14443.5645802 11286.2494385 7559.46391857 5034.50858052 3146.23734149 1242.11980014 1320.41149235 1466.24059016 1954.1545294 2211.87646716 1839.77542184 3459.81753086 3098.57496747 3762.10947223 5322.79922992 5158.31894841 4343.13592273 3308.71724338 3219.00167255 2868.00973097 2575.94184479 1810.52553508 1736.35828188 482.792667901 544.447292373 1846.94743873 1664.33135159 287.407724349 821.818845669 1661.11405976 1566.46342608 1155.30375471 711.489555194 342.235579379 247.971973332 129.960224348 131.786381745 133.136161959 113.982517413 108.192868551 116.956070284 124.403861819 154.785450393 388.515863955 568.984085538 691.591078247 1013.75283641 2580.01109719 4430.05071721 5951.03196616 7323.90108275 8019.79814349 8545.06203863 8993.49460181 9729.71040078 10387.8443795 9275.99038912 8354.07633491 7160.95221059 6906.33577671 5718.12668172 3881.78642693 2916.68727053 1660.41874757 1000.54895413 595.281940448 355.820088002 275.709165236 177.381624276 133.565946701 71.9487292195 46.8859256155 50.5090237193 40.7320834766 37.438026741 35.8983688373 34.4453606225
3299.77390454 3898.54573003 5050.630455 4856.30932897 5202.95101677 5932.83477285 6973.50266462 9552.71028167 9453.6527598 7981.10986881 7638.00291025 6806.22461978 7181.97083862 6049.28218036 3792.77282964 2352.91500853 1579.9640425 533.219724822 724.583536061 776.082092803 287.131319571 980.036636313 1133.58930286 1089.21646647 629.055596863 459.609341378 708.914413237 846.013119363 1250.93966442 1804.58647729 2130.53732164 2699.51833126 3234.54797202 3693.32412153 3464.42841023 2864.18653723 1985.00205087 1261.41751972 375.647990226 442.393140147 190.817111298 186.329052851 128.055158591 88.7507066345 38.9013947939 51.4353361625 76.4256360804 98.8938835086 71.4117560477 96.496184082 206.719968083 243.047843171 227.283759837 173.69161119 133.604287254 153.566706841 176.389245059 129.646495951 102.29223854 96.4065273647 100.695753605 113.276216533 122.286255801 134.394358236 153.406084568 167.796602586 168.41250518 192.71654912 263.542205734 281.290120559 352.208042473 396.10635324 453.942443827 571.144113202 621.602814333 770.027358009 897.481103313 942.979304052 1058.82873304 1288.38827523 1141.27007011 1242.36203432 1223.66669997 1286.66496059 1190.93070984 1192.03203305 1098.45000017 943.556871002 817.683196469 599.55594387 290.831249285 116.412267987 271.533798883 196.767333804 150.178813406 164.721510336 171.660252651 461.338144262 291.101368781 238.025377936 1481.84549762 2573.44502498 3353.10061622 3731.82031187 3643.8649556 3436.54423487 3313.74505595 2373.79847661 1594.99032142 1145.19640286 578.436482928 486.18244752 280.757310249 244.729671746 1295.15851081 1144.66730559 1542.65242117 2716.49289334 2590.70947202 3898.34937096 2995.98731335 3408.14500513 5716.69775861 2188.58657511 4419.52886014 7506.99279497 6006.06618983 4837.19823559 2105.96647076 854.120770424 849.773884247 640.702940067 299.585937698 777.336795322 1861.70047869 2361.36999736 3039.81559412 4636.75329573 6928.68508012 9757.941301 13035.0395355 16955.7521129 16937.3173201 12732.5216167 9505.23517279 6838.45230585 4603.20670122 1931.62210427 426.66349436 982.118245016 1281.07807035 1376.23632069 2454.21823161 3302.02525021 4731.70274779 4803.3953669 6086.08241885 7403.00195403 6634.57123548 5800.21930445 5315.63499705 4547.66331394 3051.71281174 2625.31842079 2563.86025964 2134.1073248 1850.33731849 1882.77270571 3168.22131292 3161.36354096 2316.1691602 2367.067232 2481.74473036 2183.61765177 1513.59196151 807.219655552 616.975964513 276.37192451 126.574011272 126.116766846 122.286022824 102.207299347 104.383558171 123.53098215 137.536196257 166.082281272 179.572189521 396.136610665 504.068635419 666.803636173 1793.59608562 2896.17680496 4753.10701203 6790.78386306 8437.77152532 8495.59455451 9158.84832889 9748.6473123 10421.7518244 9329.38447133 9625.14045128 7512.19050787 6743.84541237 5314.77933007 3585.94655107 2601.10559731 1585.72471457 893.583575435 370.552608393 305.403907863 252.357685554 169.627776211 130.009225792 72.2969448954 50.1662286162 46.3906627744 39.8226315421 36.37867612 31.0834824822 29.3056739862
3007.00981574 3244.52051156 4164.39709018 4385.82661544 5151.6126372 6602.40764753 6288.26833585 7500.10000875 7831.65738483 8434.88605869 9805.10750457 7392.32288351 7032.79004651 5564.69533082 3202.34415516 2140.4774624 1666.86806705 1254.05868548 1196.74694729 1389.99470826 1219.24816932 1640.08576884 1976.92959544 1748.76686399 1092.03538948 1063.3899934 1026.62583384 1154.05922238 1609.79953498 2360.2697589 2482.69858388 3220.68275235 3473.21939388 3774.57907516 3616.41170508 3186.1143515 2523.54523136 1965.59244803 1288.96508766 691.572054476 345.544336347 258.85191729 200.809165195 152.78170421 100.202587016 107.279656016 188.791014056 212.081091366 228.744404633 244.641121582 308.02370716 350.441475648 339.85674889 227.693841532 226.222059242 253.510815832 222.065442599 173.643535761 155.967460973 108.612142424 110.709360499 110.987481923 111.443503903 107.748949694 123.519119373 133.646794364 129.240758886 144.402810471 146.602259649 195.422767801 204.252237456 238.67435337 281.983112156 288.883780657 308.662118777 375.533173431 361.76033499 499.870774799 617.269316502 771.844876948 801.759928656 928.694581001 1025.65877788 1052.81855891 1110.19300215 1077.4438401 1058.30109189 977.551386329 901.491773994 777.914084074 667.91630465 478.672978316 431.613298711 353.305102947 245.181897835 69.5927625518 96.7911266855 532.775145174 474.03530295 633.853530972 1931.48333526 3225.86488716 4562.59084323 5132.97354422 5120.80787132 4240.96840833 3753.77961237 2551.75819006 1078.03938247 595.256780343 507.114680327 496.491591065 702.833430394 1140.74953172 1938.62112933 1060.84243624 958.837127739 5076.77530383 6464.80436618 7567.82779083 2889.69458755 3841.31382284 8328.8491807 3565.17747073 7383.61009886 11978.0219996 11160.5213891 7342.43219943 4264.87437405 975.753508026 1186.29300522 907.855039992 438.933018733 639.428294562 1000.29133048 1446.20148559 2085.08231718 2768.61278609 5536.10497842 7233.51649023 10671.6691567 15916.3344183 15883.3488383 10856.7619363 8355.30547388 6141.15451488 3622.77006315 2562.17214387 1086.86635658 1379.38271486 1340.56741738 457.967255094 2454.97871502 4532.55964952 6480.74349029 8675.59440697 12654.26523 10278.1407082 8555.82917164 6916.76744901 6616.03617239 4876.57901797 2599.25740559 2271.60671051 2456.41959488 2304.37807135 2655.69417835 4030.99376827 4957.26241991 5071.0517618 4402.47341864 3198.31036404 2666.16092248 2765.97587964 2234.92426827 1320.58154391 760.919270911 478.911401192 220.283613007 231.931340183 79.0270792682 114.76636394 71.1255396291 168.874409985 156.857492866 170.975167885 171.675715305 235.174017601 334.0316177 780.7447785 1469.49692834 2141.34032718 3417.7670782 4789.07325699 7976.73996274 8248.05039592 9832.43699447 9850.69724 9024.75551429 8378.64388395 8042.88076366 6736.46921476 5306.05493034 3172.84469533 2788.03399002 2087.02576361 1399.33418423 878.209411907 408.202548517 282.665931119 237.127801432 145.580420717 97.0564861882 71.4583903047 58.6731523429 44.9428706597 37.744538338 28.7087337803 19.3950244653 21.6138332307
2791.70259328 2810.09522588 3064.36864365 3458.28759325 4216.20830283 5323.9820284 4979.37371811 5247.33239411 5981.95845766 7336.40657156 8792.68515114 6459.08725892 4942.63081443 3353.26183573 2322.61545343 2016.45131956 1677.37910034 1469.12034156 1632.20941328 1929.86746073 1533.55139243 2106.907584 2556.56422212 2080.62706582 1547.05197356 1149.92011344 1154.75869851 1142.75358154 1471.2225925 1948.84266248 2481.95738316 3370.76748374 3545.19633009 3837.98270576 3724.0426953 3242.21242896 2814.98847733 2115.20654091 1447.51829966 793.292264056 443.547314465 206.213695856 233.719361911 198.967450484 123.432114025 159.381255737 272.544258633 350.723823065 281.855923923 128.982148469 370.478534334 354.79669847 378.445835545 267.228635528 256.339447665 349.554772539 335.302716335 287.204652416 193.898837875 137.239132541 127.670478776 108.117545723 104.548523598 113.181033886 115.12945598 119.716101869 144.386353607 154.262030093 170.866371223 147.487790135 152.125544633 161.703730776 168.907118078 122.268003965 170.992407223 166.82115961 202.246210923 281.474293729 382.678436542 540.954025554 695.427996733 850.090063663 941.049240243 1013.85850232 1058.21957473 1051.63860277 1063.11737367 964.26837927 921.177402716 960.125673165 1075.45244048 769.753649411 615.957816596 518.549788988 391.145997515 279.634838075 318.534769412 712.437153668 1015.39341688 1804.06372777 2343.37785406 4005.39194229 5977.07049987 6687.99973389 7754.27558428 5623.27014026 3499.81113197 1787.27619642 199.312912391 546.258404968 260.990378638 324.619930875 1085.16331466 1981.93873862 3266.71904018 4609.81243441 5668.33659791 7575.91644608 10866.4953049 13267.8920183 13632.4489252 13980.092601 15457.8223593 17820.0269103 21637.2952603 19211.6234277 15283.8350228 10629.534064 6183.4749547 3017.8974412 2322.81589175 1522.97785488 400.689589541 429.942303961 673.420972415 932.589155816 1727.41637127 2715.42995614 4632.69952149 5429.01917058 7115.64835427 9875.85224385 10095.0605964 8635.62621077 8147.12674692 5372.81700513 3684.44196562 3197.13694107 1840.87430039 1516.20000841 1834.12436193 2590.5499915 3857.50264475 5735.60368903 7515.27222929 9642.56532133 12704.1143329 9911.39349148 10679.5097394 7351.21630707 4520.56347612 1706.48958495 1270.08720859 1707.72821041 2207.01584734 1029.37424083 2137.01636966 5677.46450041 6894.99450086 7048.52476514 6239.63336669 3043.18481552 1113.96719652 2784.80059536 1599.6534176 1307.30844224 345.881351058 897.160119996 588.031238307 375.931596583 210.821839524 194.818831542 177.075030651 187.773294291 194.251985445 157.974141359 150.497151632 212.764038878 294.284419782 581.018056916 1296.59124208 1479.46102931 2157.19489332 2194.15009646 4548.38236646 6264.34788209 7882.82394056 8639.47154771 8095.78760088 7532.93021949 6485.14977297 5987.91422323 4740.90820402 3467.75940044 2584.07958261 1434.88299856 1288.85534047 852.469183346 621.599991321 333.636643695 161.328281559 105.713950868 101.998132436 69.9499438777 58.1767425732 43.0829852579 30.9287195241 25.6192286102 20.5873849101 22.6195698605
2141.75506892 1969.07355659 1892.55496869 2192.96564174 2745.60908463 2661.10473572 3111.38907716 3677.82978645 4127.05250051 4652.34004714 4309.79465543 3871.65250426 3105.44699594 2284.51205446 1857.58168249 1606.82676409 1384.41282952 1259.41700759 1701.99691019 1837.15731388 2612.51283646 2835.428039 2424.65876723 2114.48286373 2016.78837668 1406.40813363 1197.93513947 1163.51299636 1331.34650636 1374.45730769 2073.61284412 3325.92611245 4190.98316881 4195.07612206 4473.13916756 4164.31715121 3017.56569362 1768.47137848 743.641843745 701.467442936 542.057036736 388.21590811 202.412816223 220.722765204 236.856653246 282.202181532 258.379214961 347.283133005 378.322073298 557.021925259 632.58376961 246.573512591 582.675083555 623.662817252 479.872071325 263.968631521 326.131381543 292.555080447 189.742896969 208.873027928 165.032268809 130.632576415 119.90958541 136.37255074 134.155624879 144.533833877 189.271371604 175.187742379 185.17825262 410.849786489 340.59391485 246.21754097 158.001092126 148.337768093 120.153396048 106.546249467 145.525762903 209.617671716 277.272305708 364.158294119 639.10931433 832.071256848 919.62823802 1025.10329789 1049.46242757 1001.76757789 947.157152951 979.45354726 912.588813177 889.757549437 980.208680872 838.082791688 733.658186445 639.02268475 516.632257942 401.833398824 501.560935636 662.775691437 1233.59696141 1920.35102493 1869.2490687 4611.07588134 8145.65505619 7439.08614269 8149.41766659 5403.32873887 2894.04782875 1355.52766142 807.136737072 578.694968308 511.53115745 694.588652249 1490.3492428 2677.51745633 4400.0608852 7263.70707792 10147.8661167 10480.0985091 13395.2363191 16192.740724 19394.4928939 20379.3079564 23263.2461476 25907.6727007 33975.9287099 24590.8684052 19281.0466295 14975.0936749 11252.8411515 3935.51021138 3273.32135863 1447.82795878 1310.35072356 832.690402655 452.295743804 605.382361706 1460.48187651 2174.07594907 3672.37187862 4449.98020638 4704.76624268 5485.38461362 6069.49889819 6875.6816533 7167.50509199 4810.08243962 3049.78476138 2311.30799903 1338.84615868 1363.51107963 1804.44765373 3102.73497679 4017.06859474 7707.52548303 8472.93037778 11498.3949907 8113.84963561 6333.17045422 4551.63468053 3031.83031646 2141.56588611 1620.09843272 1728.10659206 709.962612833 2630.48610002 4075.27027456 6000.66246685 7990.67614032 8733.34214558 9028.52710272 8804.86839073 6897.90156843 4821.18256799 3937.08723974 1312.61807579 2009.42167059 1460.02021287 1127.46398854 945.271934231 581.352250532 319.242852658 359.21841882 232.269936129 205.4031923 168.268197137 181.012271501 127.326997168 142.330133035 199.988854202 283.047076717 619.942243522 1224.38265607 1919.25036206 2594.58558155 3666.37651853 4657.11919146 5898.01468796 8533.57995155 7695.8970472 8509.94465265 6305.2596793 4999.60288371 4806.23267123 3431.83939426 2257.30192641 1443.90632526 1204.1877702 776.088717745 455.416459822 298.210073275 176.051656116 128.70359079 91.4574950331 62.6794542573 43.3496842211 28.4976427755 26.1088047908 20.4571418567 23.3473345791 27.5428033303
1405.63604389 1333.37040796 1322.20168675 1595.24157283 1718.8460508 2163.14311321 2320.51977205 2689.85853364 2927.06574455 2999.06119861 3140.4435113 2719.86589578 2044.52759442 1224.52029834 996.060395909 912.428668873 1053.60310485 1411.18901409 2225.77867662 3194.25660697 4621.0863299 5369.4019824 4368.18517593 3120.7660657 2434.16420177 1460.78810896 843.394405241 782.696739909 720.753017595 721.984673532 1438.40108389 2338.27190132 4184.48962606 5411.82989508 4977.34898333 5343.91657616 2885.28482547 1807.79729216 1226.04777898 928.165294857 737.090293568 619.921304772 463.175777693 420.84232857 447.265373388 418.501760991 388.504866312 551.861010143 737.555658797 986.939852145 1084.95027299 1219.18369076 1161.83076849 1063.97641946 885.53333825 569.905697908 419.585627872 379.625294943 308.163551479 217.166951619 197.595364501 155.19189377 116.728077493 157.56491605 177.756312601 210.886349247 275.541000184 521.647535222 663.501654093 620.995740388 641.653238872 691.578543463 417.763065478 388.347566255 237.37720445 71.4763138039 83.9053416817 109.798410424 254.842433649 389.58833632 589.827393801 844.520178296 1021.97331081 1064.71221153 1062.00900804 978.332759178 852.850446301 745.626336552 746.096811686 715.926449458 771.094444787 950.953480716 842.581831836 827.684164981 585.775584542 421.703565706 612.566332821 681.66200611 969.364153142 1742.63400168 3056.21240212 5296.94186675 7872.88499713 6924.83582313 5493.8161996 2534.43752681 1801.57981923 676.261307591 655.543151201 630.214268343 851.999154946 1044.63918183 1602.58944417 3034.52842097 4601.09288069 6877.38036892 9812.46667109 11320.7916648 15011.9905744 15940.5054615 19279.1660094 25764.453179 32894.2855512 24903.6723478 25467.2270647 23819.8994472 23921.7116727 16979.2191436 17182.4190564 7928.69705684 3606.02443324 2062.96217453 1669.49056807 1261.06937247 941.348224568 906.92711678 1362.94063279 1877.15830462 1942.37378367 2289.03170647 3026.1609455 3586.42975065 4135.35378694 4375.76999489 4353.28226682 2950.84178473 1925.55373999 731.803220066 411.744064898 613.90204228 908.286580077 977.146041718 3736.21265624 6380.43491751 6981.11418086 6621.64764999 3731.47330927 2794.57095784 1641.74215285 1058.99400328 508.015794108 1720.96574627 2843.21910674 4448.17656465 5552.74514729 7175.90128419 8185.7441331 8660.62574965 9839.5228709 9517.21996049 9653.70964596 9381.29462231 7880.1188051 6619.11051648 5755.65347196 4304.97216906 2956.83440774 1004.74570519 1032.03302791 644.891276343 626.571343722 324.532969338 482.966282632 477.301556778 345.253950812 323.624101118 206.885334742 123.618070834 115.531784955 193.057664486 272.869999435 669.17322504 1267.74090377 2257.28626831 3167.64306621 3982.21402062 4736.0648452 5133.80527469 5406.1943311 5535.94402368 4536.80576548 3476.5105865 2622.40426828 2309.24989884 1664.44828392 1330.65366273 933.271497819 565.41476088 259.424311024 232.982879396 184.541644013 126.253934891 81.4578106083 56.7128916162 31.3159971588 18.8501644072 27.6249033766 17.810645686 24.7773172016 35.2684573265
784.117904081 928.931499429 1072.15344209 1213.68621667 1224.21021987 1492.09921404 1881.71646428 2516.54293217 2733.01297354 2577.97772816 2407.95818332 1612.286642 1615.30114069 1033.57261357 736.586609943 540.765240114 727.175483538 1115.13051438 2348.19409714 4798.56555644 6946.37390891 7917.51929933 6149.19557621 3825.07067564 2655.73690711 1179.8065684 513.691816747 404.769691084 422.78840609 496.459114965 688.606232175 1079.69620631 1791.88496382 2608.51533363 2875.33110372 2563.59445651 2293.24094676 1902.40717149 1453.36331292 1163.16216789 854.777622135 683.838341962 555.021527639 570.499708294 579.009077022 696.247044241 743.489164017 935.991315474 1482.43055391 1384.0020131 1421.46154779 1485.98082622 1393.52427912 1348.34493359 1317.73954939 950.474710766 721.233856542 597.155725755 447.37001184 262.913164515 196.072569352 191.657823197 182.60161155 118.581873825 231.208920882 399.235150043 700.591100593 805.732629957 1270.92958707 2497.52864807 2241.53847936 1179.00432331 1303.73986908 305.809142301 316.968846533 229.548291094 122.423592658 80.380008934 142.075156374 359.869490151 616.18732966 830.216586274 1096.93008516 1113.09742975 963.358393584 901.356697452 714.428173016 417.793963717 568.690844624 555.252214074 561.276322546 732.313696585 803.461314045 851.763867475 868.41679311 801.454907434 545.59544382 754.664024317 532.881665987 1344.90412845 2946.28853497 4685.06544786 6438.56794659 6151.27164565 5100.29134878 3305.04071895 2042.94486304 1226.51240066 619.542203467 541.948770155 841.230755852 1150.47480432 1858.2299252 3619.65458155 4382.67956866 5236.4498611 7258.16952335 10855.5283589 14013.3297884 15899.5282326 16987.5643145 21228.0038458 24950.2586685 18237.2787008 15461.1546733 17044.8319534 16894.7973789 12863.9895631 9383.30525422 6838.01993115 4203.13522862 2424.33266459 1954.37670284 1686.36770767 1041.43056852 948.166112135 1373.2374228 1581.29621974 1643.08931653 1851.99462916 1917.06924125 2329.03004879 2998.46958323 4024.04177349 2806.28084799 2041.00880046 1204.02111447 329.732228808 214.351321528 187.021783183 679.77189038 1842.41683042 2908.06610037 4274.54719115 3873.18806666 2906.00175972 1756.35761334 1230.65466183 908.387002984 998.900577473 1533.28682766 2218.84969816 3554.3182991 5817.50661707 7826.71585598 9120.75725475 10990.7579368 7780.30565821 7991.39296781 7923.74517867 8691.76442399 13163.0994264 9406.07893902 7958.09538988 7314.46536112 5137.3722355 3990.53135934 3512.68847927 1862.05595482 1614.30394608 1094.2187265 888.324145725 839.229494449 745.269828124 639.015897086 433.396020104 263.458281023 220.267763924 163.820277505 179.973983547 233.695568116 386.292563378 681.798700206 727.042813767 1996.80921912 2711.36913695 3164.10084418 3685.00468057 3746.42421858 3667.60246671 3366.40069776 2927.83076059 2125.53608247 1692.24554616 1519.21835369 1135.388127 683.660733884 448.02394752 325.47954552 191.434936742 131.423989206 69.0536313076 57.9299983824 47.8724151357 35.1682882486 35.8588678825 40.5308637778 37.9666529318 30.6658708372 33.3797966376
628.377234003 601.179153059 623.572783318 766.329598284 714.668813225 823.310586016 807.951258241 1271.84144372 1651.40713716 1622.6832337 1485.93116198 1224.20272391 800.30993462 582.620322324 402.155857375 363.015716076 585.731487343 1254.67067907 2010.16876135 3204.01195193 4573.43946855 5120.28795825 5501.83706241 4299.69004909 1970.65267295 928.730088135 427.427841204 207.690258448 160.557722321 245.312735723 358.606853254 750.474774666 1046.43796496 1156.34122842 1206.98973508 1191.60521243 1500.30489964 1397.82344984 1108.21638771 1053.22812244 899.109796985 811.594660767 683.722029875 607.293011924 620.722349237 653.29548663 987.480421512 1077.30326028 988.769970204 1389.57917168 1450.57124691 1135.40166521 1131.57426974 1187.8255071 1067.79429197 1052.40637739 946.241936967 655.359537735 535.333681674 436.034630375 348.743418899 307.721659477 298.680306056 332.98932161 453.254912831 600.518551833 775.552441956 1321.8377559 2099.04769647 2716.87582592 4751.81230803 4933.68669989 2739.35023634 2321.33360562 958.042693868 127.507236837 134.211195919 141.408229458 162.290616605 294.752781957 543.501322636 990.084339228 1199.04617876 1288.80120143 1197.72989479 729.572289469 784.991672692 585.851760201 405.067627105 405.620006149 337.776660243 462.417043525 726.073161284 908.296022433 1056.44073779 1125.37142831 1036.67526115 1054.21050087 1187.38919407 1507.80579874 2500.15805972 4079.48394143 7192.21430008 6255.41622681 6050.91621924 5429.41494558 2374.69175525 1065.64970176 460.894287212 621.479384068 383.20704899 1366.09715737 2194.37942645 3188.90678101 3777.57980372 5036.8835825 6389.71101157 8758.80437589 15146.6963367 15375.5431103 15726.23386 17417.5299074 15401.5144094 7794.27774661 8693.88560455 6716.88586948 7501.64069489 7178.20615689 6476.56326963 5775.68349703 4793.71903154 2863.67982582 1861.92060646 1766.41874369 1773.56868219 1707.74435717 1127.68141585 1308.7151674 1335.02745488 1444.47470395 1392.86877268 1802.15947481 1707.91203576 2104.58100942 2302.37389069 1385.39501565 634.5207461 307.274329134 251.838571203 528.158360424 995.094534464 1965.34296884 2551.09944211 2853.20344144 2594.26647754 2028.83754055 1170.04722019 718.359661971 475.714646238 900.767659003 1365.54150649 2348.81874914 3464.70448807 3882.67789191 6427.94916517 6917.05447803 6697.34317333 6202.58207476 6897.04300325 6612.91479246 7013.53657784 7539.29012833 10138.3849226 8935.24226577 4371.53472418 3320.07882635 2861.36465277 2216.55723784 2059.91538619 1434.04104498 1245.11906588 1166.72507976 861.629304457 834.818814094 670.144034769 489.452058271 375.700168346 246.889982545 214.257492693 164.283353734 230.45504601 351.754234069 479.066897965 865.675078716 1162.91791033 1379.35448562 2396.01623558 2508.54750989 2999.11786026 2442.34777581 1829.24799121 1597.40462186 1106.72802722 864.636234061 783.968670957 591.044988134 531.459757966 369.041542166 292.736196585 133.345548429 86.5574841232 60.7214691595 38.9952093043 47.4010679184 29.8468139536 61.4208446734 61.9255605684 62.1399522974 42.3092199079 45.4982511158
358.577356812 227.858343696 305.025406705 338.283933496 330.538454671 506.816359193 532.452761959 541.763271474 722.628117258 1200.27493521 1254.27906916 1149.88366252 614.326555012 268.770454476 190.815613727 163.742216046 291.934880013 261.460456577 1136.35028714 1963.70205429 3041.50711423 2976.98341643 3072.57184692 1942.5856102 981.46332659 35.792473269 132.546164143 48.9781843667 94.829449551 104.392623292 339.176894977 576.04644099 448.42811692 561.343624354 475.712797268 304.571966062 435.095440423 556.358380679 696.2703395 843.944821844 1036.55294902 859.205995582 711.084397395 628.528902175 547.024857272 516.2781318 490.218534021 503.757048078 589.578843574 566.846293685 598.624843115 702.234513995 792.034319746 904.287887022 940.88480728 846.514670229 806.975136363 717.137869498 658.963640267 514.139057205 443.893183062 380.726109876 362.988143524 388.202287765 575.976033068 742.957910113 874.383483959 1325.75780899 1349.24778627 1139.75314708 1357.46329718 2050.23693774 2861.74604707 1795.37280949 1225.83278524 876.214022106 365.929014795 194.110836189 164.419628219 280.516781538 672.91072677 1080.38500564 1562.57905693 2028.92044662 1878.70956979 1618.30176066 1266.3894404 862.715126579 475.195810829 392.330942575 531.56405216 503.710940084 595.446728445 999.459027856 1250.55244903 1327.11903332 1279.48069866 1331.93483617 1388.51007973 1536.04767669 2316.35152956 3051.56956597 3636.13421255 4795.72474429 5010.26740843 2875.47568484 1132.96776666 872.609421936 748.393088447 923.616069734 1548.7759489 1881.2713367 1952.62251689 2244.74569803 2236.15171762 3561.52909121 6001.40890923 7544.79151032 7664.0996131 8641.07006492 14777.7749237 6895.39918636 5232.99082584 4096.77875023 4000.00494922 4388.5887146 4411.69744271 4374.4076239 4641.20594707 3212.26030084 2373.78773566 1519.52894844 1443.77436895 2259.54840825 2244.52525841 2949.65112473 2603.3031264 2277.41045203 1900.63395654 1465.4037517 828.408746726 453.810475244 748.816262858 1096.74466332 1631.83222763 1312.10473858 868.534153407 258.316206568 200.196793451 524.04027578 1295.49705786 1789.7109791 2290.38296237 2043.58691297 1708.98113536 963.867843538 384.765241205 338.349947885 691.984157343 778.33340589 1422.96062744 2176.06709882 2833.31362561 2599.30190358 2568.77698187 2358.38441825 1796.69164365 2280.21812331 2126.42690193 1863.83701574 2847.42724352 2485.27881712 2218.06046899 1852.49142847 1037.77046823 673.329407857 828.482585935 787.261588425 760.185955018 721.207566734 761.915059207 630.797517532 641.061956406 797.97056301 781.429056072 643.382996418 518.800163934 417.785397426 437.604329687 266.898773616 367.592526863 351.889846209 388.301799405 494.992220273 568.711308072 891.86810898 1185.95860249 1168.99337806 1209.29181917 979.538682624 743.228593116 508.058237503 469.197096586 400.639053959 345.240091821 313.112091645 236.853031831 188.749761148 119.113990543 100.253737457 89.8021658224 89.4899919085 83.6340659611 88.0266558421 86.4550175191 74.2560539428 101.083614827 95.2767979491 73.5309515031 100.703073889
243.474491921 205.724757498 191.8304573 161.598943442 166.117301939 199.081309994 192.269943665 292.834552535 373.798361002 681.923595838 1202.16020529 1216.6017302 803.510472232 415.325798434 227.582697649 317.772383057 438.218150078 1034.46915826 1512.49056415 1531.7134924 1404.42072476 1348.7305559 1172.19547091 797.266635348 697.270059501 780.216672667 366.599492158 212.61934085 271.801989827 500.324988656 2226.63064231 2931.05577336 2100.71959157 1045.53811945 509.080142217 291.528461765 178.544736769 253.207687066 480.057015271 598.561064071 670.650065911 640.907567099 700.826853725 654.038540965 532.533716471 347.111080922 308.086587977 286.596462132 259.552837834 318.903778297 295.781333255 291.738589512 320.22620548 500.38266029 589.711768752 712.957304344 551.649612812 479.622675847 592.05368753 633.882990614 578.014052888 463.988934022 322.634165625 313.136466395 447.368398058 522.890688359 667.463173428 256.071509525 349.176725264 432.989668242 119.485836718 225.194447068 486.862086811 518.381226617 606.052696742 721.482180928 684.167339739 476.582082472 284.037947081 206.547756367 283.565799332 1086.64432022 1967.25818374 2377.03429662 2491.92126539 2030.85492915 1367.18711524 1106.57292811 1009.96239247 909.701187816 905.639021748 620.220586372 627.352107419 949.381184867 1258.132067 1430.71373701 1456.39660105 1539.62295263 1661.76944594 1664.05540161 1640.73222256 1557.50702088 2025.96057828 2766.94584644 2965.54605429 2169.43045941 1380.68858603 741.230431252 630.853230139 984.446417668 1608.48119551 1844.56669204 2315.71244802 1515.58054813 790.019184981 665.981619916 2793.99511847 2473.71842374 2284.60336249 2086.87535511 727.023830739 544.965782722 608.266355774 1072.00286936 2177.90032574 1929.44406186 2489.18141674 2917.1858685 2033.86809696 1704.95930122 1066.4870666 748.134353482 688.860716759 1103.07695969 2208.33113306 2661.62490965 3801.13030468 3550.02874165 2112.32779197 994.680167552 511.985505472 549.755637175 423.545058184 654.987748216 1149.01889074 1526.04266238 942.84296314 247.141876633 493.923008962 1385.5587365 2632.50322987 3004.61639804 1566.67432896 1128.3315523 478.175533209 522.586375637 603.753495981 840.567344832 1007.14639019 1134.18778239 1338.09213909 1730.60071421 1222.92974566 694.678347187 1108.97171651 994.676577974 540.296071123 463.653099111 341.686290236 390.748007245 535.475325828 658.998209987 842.498409193 739.1253438 543.501218562 411.141412945 444.080423862 513.526752658 541.399218778 577.875001566 639.550198942 602.121566389 505.253599404 405.527112793 621.485216545 864.139101189 750.992250408 1188.97970386 903.250542139 761.131197943 363.622624738 359.546847465 462.067004737 408.822215765 309.020041012 331.950304228 496.743727824 629.065613168 674.64377184 394.544942414 289.18946792 174.191948137 148.451346946 172.097162848 204.606875627 190.582873847 98.0571033188 76.4163127895 61.8929896663 106.844866439 115.182096171 144.978133475 144.246874829 102.458388602 155.288992858 267.509949814 113.621212451 99.1908929402 127.528170232 104.66183335
148.38739036 184.310839115 189.153746498 182.737912427 196.820527869 112.24642006 157.216754992 171.23855059 178.503299248 260.848569767 970.819952955 1578.27796295 909.456838455 423.761209946 325.646538175 435.615843783 884.388961065 1227.00954749 2976.08333423 2974.18784003 1639.63545634 499.956423405 135.929047717 480.578023805 1295.80419179 1289.99292956 1148.48109863 364.775676615 838.576134448 1530.35157243 3714.15892861 5154.74651088 7222.05226346 4261.07358321 1224.28108348 391.401023222 284.324273438 335.979136482 328.139276586 416.419803464 405.70009008 520.564685417 837.124916039 976.173553597 776.321999483 478.281345833 598.802931252 374.150502501 667.487701069 604.651087562 191.567226788 240.567838567 186.04007522 195.037617069 315.687674706 423.130460949 388.627949916 298.146053874 407.831331598 537.043719683 555.149215975 371.226599865 306.544510364 249.003724903 236.334480208 286.635662802 261.162468448 548.518409594 884.336888446 519.905175065 503.666954269 523.541213909 842.224405484 595.437810359 174.132945026 358.848514918 770.935154901 724.551220374 377.417790313 238.006137096 593.73636665 872.608547607 1121.16184647 1560.01607909 1429.22903118 980.610372425 676.436769939 723.365444166 1060.35091838 1376.77595281 1299.87686641 999.997123324 620.039549181 939.437589761 1318.79152102 1198.74440465 1511.7037502 1922.68937969 2031.22465818 1700.04793085 602.737503183 350.870051581 1061.90930031 1439.87909203 1198.5530225 1126.68088905 710.002949436 625.596180335 924.862452776 1036.65651595 1011.39105651 1003.56797712 586.621824375 806.756051969 1394.41578059 2314.0388117 2088.52271211 797.099146274 2971.32693521 3142.45564567 2775.69237473 2023.59729225 682.799502117 2916.07037056 1477.26335053 4516.27696586 3405.98021801 1303.84426178 1292.81807944 1136.35768359 790.181017248 876.184694013 1019.64234075 717.414138678 906.739286997 1291.61351882 1951.34307201 2261.42960024 2266.41173181 2839.2123272 1883.33775478 840.619256429 378.450135385 379.313446788 1100.71039357 1315.5730699 1003.48939648 410.83434838 495.153262986 2371.2700987 3655.06918973 2445.90708429 1547.6967423 664.139113554 636.861050973 732.291134012 767.754884276 1011.58352074 1098.16730086 795.608997867 857.137491694 1082.75976087 1924.26177478 1779.6321013 823.566806769 1518.15616158 488.548461458 532.654678933 504.380843427 456.581889362 319.795142064 398.271734866 784.589146939 1091.89935043 652.269653032 533.447577523 683.068325372 490.532308613 702.690487718 653.938794443 775.272773047 690.058586543 396.486455342 431.794733438 574.230720905 1716.12579752 2174.6236069 2536.47617953 1490.1186339 1242.15748984 981.952903143 726.795510905 521.954475508 440.320961005 201.455016241 98.0807800014 196.241250442 420.082034338 292.070828164 167.631187423 83.8244961328 84.5992930052 116.934847464 193.333709899 203.838640081 162.688831948 100.803434966 82.3065850016 92.3916119836 105.593199061 200.181272816 285.345878094 309.869724185 5184.5321339 250.981245585 188.107069739 371.143246521 302.326079147 259.9665283 203.606994702
176.583170312 172.071236125 181.267594662 188.713304641 222.105528263 262.584666916 433.088803154 490.372295884 229.416947394 357.31494341 950.024818661 1611.5810642 1463.82936767 383.568965208 341.874944207 1187.08356369 1427.15367294 1629.38319431 2644.74392719 3416.28704742 2056.85442431 597.637027086 523.823204771 476.580981136 1770.50828953 3660.69918109 2054.37760225 1198.24752039 1145.31174785 2825.62016528 6487.43873817 9540.17599807 10931.3053753 4690.39300776 1737.58504976 743.571819411 548.541974083 592.833808411 578.344974414 338.991389286 320.046636771 581.336134775 1013.77795639 1458.61764501 873.271630898 864.870042258 1295.57526315 1858.62906489 2101.52482498 1716.77233584 1306.7186744 456.737788826 224.228449346 150.990342706 336.938863028 392.332410869 445.236577863 424.88778654 200.516980381 248.467887341 395.222710644 260.048895013 151.831602728 212.714533613 260.157480096 181.878687488 469.143299684 976.762590075 2170.37654987 1377.60783236 1432.11410141 1382.4598081 923.546532808 781.007801533 455.814603985 375.697565006 806.903336569 749.325681985 491.797991289 400.744678551 705.082362654 633.573175547 794.549703153 655.80469612 654.005377075 738.627089296 773.352400496 794.391951204 931.003924099 744.892279122 2474.17946388 1217.24243587 651.836502068 828.512024632 1184.49179874 485.415138265 847.680056869 1415.21192983 2021.22151359 1299.31470087 676.507974948 360.739323449 805.274943582 670.289096083 479.205543511 758.901739406 729.359502013 609.845397164 1299.23625578 1432.66331305 1011.14624237 744.746838796 1131.58729834 1071.02041162 3140.3746523 3802.60422113 2100.95698355 3334.17349988 4805.40184396 7840.42031427 7374.66792154 5749.37484765 5266.0644492 4496.33901232 11308.2529978 6492.22901335 6086.85642368 2316.70131094 1436.73441866 1319.24157672 717.714731456 896.889945556 1204.70967912 969.286544874 1265.07300628 680.085990495 1321.84408529 1086.48969587 1473.79834246 2293.77278744 2136.30906265 1870.22490025 803.7969449 1101.70454586 679.776171703 1383.96084214 1094.53360955 338.066396758 648.526586941 3252.2958297 3476.95686712 2510.66414887 1555.76278964 1589.30579108 1355.30712305 1112.88483344 804.570527308 1194.43902864 1367.53440846 384.827601617 293.422098236 2820.96269353 3278.26779269 5008.81688108 3852.87776445 3867.83428376 4527.16384666 1557.2294233 1552.30730425 1574.67658577 1301.40509648 507.778892316 609.77780954 811.986690311 701.871800557 886.036551294 1328.59013014 1471.06080979 958.135390385 611.186451051 739.821944464 878.45681685 479.418305132 857.788916038 1041.78607377 2060.03993479 2929.08932598 1522.07080768 1365.57304284 1349.91043416 1602.43304353 759.234096323 584.909315938 713.795111705 338.779701258 127.174081201 240.049469288 357.980080081 239.835843027 153.755853823 218.11105075 158.926105254 241.424195939 355.537900275 395.331211718 214.729560696 117.317527586 113.485369297 115.695630509 89.3366652824 199.981682752 426.723726003 13586.3992228 27317.575121 8341.88746676 2251.17639988 724.992818868 386.931357792 296.194747668 259.107452963
191.185689471 177.220745639 185.446548424 208.605062254 235.116604793 365.408359653 498.303414258 717.279908693 1251.05385497 591.987822483 865.401757946 1314.18059318 1028.09944238 455.221130255 761.108929051 946.611387955 549.285991361 617.382074731 835.808918742 891.724176822 649.408454349 955.480227537 2468.2861089 1291.16840125 371.205883173 695.207980725 1056.67664859 777.517963542 508.781193991 524.246596435 1238.04230572 603.250360204 645.928013527 769.662247489 527.553957093 445.577938571 373.444616691 311.080928055 364.207282002 555.677346051 784.240621018 733.094282208 419.545047144 534.307704596 361.007057346 228.256332399 534.65041553 324.065361942 466.536268332 377.386767999 314.158199208 348.813420854 260.334007049 306.763527042 301.682655431 351.821302219 374.573574644 350.004095212 170.645227095 193.328702846 277.593172421 251.223308912 216.418822843 744.053027081 921.520297759 499.880100032 275.474489639 592.099845366 499.551373072 332.154976794 505.959416678 416.827899677 576.636834756 733.713706782 402.072914144 356.403145266 403.394848489 508.139475959 779.403933364 586.38875265 943.2888468 895.217820317 690.055773655 547.497217328 1010.97007332 1125.95381773 812.820993225 1152.91716796 1129.20450903 557.781349424 660.24369246 932.794557379 890.456492443 581.147560028 489.581829242 138.174146338 499.435965152 756.647672598 937.074922019 804.057964498 902.46157273 660.595377946 585.915075546 599.573260393 346.941834957 882.590872858 501.502231754 2071.02535252 2878.38013516 1653.30963543 1500.3947855 1762.16514059 1367.09983204 1606.66506697 1633.39301978 1026.03919688 1201.02830827 1148.50117806 1070.08307267 404.733336016 1240.86811885 1341.42888341 634.055508089 1065.86522854 1359.91977162 1159.8741521 1565.97575231 1346.36037939 1161.65833013 2471.23968262 1943.04676974 814.441457488 853.494786508 567.103557303 717.884342955 1236.59264612 2233.52662155 1371.70374128 535.41979442 738.612972602 680.329465205 519.293284577 1272.27947829 1504.03114547 2662.99193926 1147.82712222 359.024237112 426.729608625 709.004832824 823.20143343 934.636466825 702.43809872 894.352808407 1168.04500063 877.528865766 1140.92842292 1474.55613044 1063.01869535 1326.94978792 1002.64301239 1277.97846105 1290.86706972 966.663151807 1363.25510212 915.244375857 1159.65063147 963.955766052 429.34639166 999.466795845 1220.47114669 886.000708485 580.138592431 689.46291146 536.905766131 316.420093738 533.418099181 810.281033812 718.514398662 689.125454523 592.228518166 606.874855281 587.30392944 969.465184844 1915.59324025 1014.69284098 1015.74343514 612.710585673 447.852279546 255.726410473 253.57476294 364.509450032 180.712569644 256.321070558 572.112550132 657.615380938 418.097056705 564.200501721 387.419402956 226.470236743 363.83510595 502.218396404 413.8577737 195.254916353 187.714975946 263.930481956 305.624991158 168.624029274 176.876365284 136.878082698 63.7425176658 32.0770548696 4394.80699091 112691.974008 49779.3360058 22214.5584292 5845.52889054 2167.6432143 617.452462793 456.639935984 310.696271364
