DSAA
220 79
-53.7994932458 1725.25055045
-633.666666667 -0.975556903113
0.2922575741 46033.4028288
3944.96901033 3995.14538144 4040.82364139 4073.4404608 4082.65664558 4063.17529774 4022.07290342 3975.32573487 3936.01385231 3909.07943986 3894.45593314 3893.58369889 3899.68683451 3916.4087014 3944.65541887 3986.1848533 4043.68486557 4119.70568396 4213.04131584 4312.54610953 4393.87059078 4429.60376515 4410.56210606 4353.92591291 4314.90652884 4274.695604 4254.66047731 4253.92455272 4249.02737828 4267.82864209 4292.3248796 4323.15469006 4364.87388083 4424.5988202 4509.53341612 4680.38871892 4810.86934947 4933.8304726 5058.44874765 5153.33467072 5191.13258251 5161.78490784 5091.52164927 4997.72500112 4902.39250084 4890.13347085 4843.08978223 4816.01303683 4806.53455701 4810.90658573 4825.34369601 4782.08937575 4779.738514 4803.13018162 4833.8188539 4874.29851699 4927.53259497 5032.23388741 5116.52510107 5216.15621902 5327.76403273 5444.87606052 5628.42647136 5716.8249472 5782.42045569 5818.75887499 5823.72444923 5799.98117834 5753.99987428 5745.93194778 5632.03727628 5697.3931923 5657.58771705 5627.16832899 5607.30490314 5598.23560651 5599.65486848 5767.27278654 5789.10869227 5818.26065347 5854.37883718 5775.12621882 6053.43767398 6062.62653757 6120.11218762 6185.14955333 6258.22417574 6457.1397929 6537.53733498 6625.29264532 6719.47699201 6818.03850563 6975.15535703 7058.74093118 7131.52708929 7188.14217817 7242.43263029 7255.55211704 7258.69563506 7259.24938896 7265.33143223 7283.40501841 7316.77496481 7365.41729977 7426.80576911 7663.40082516 7668.95874075 7747.19830756 7823.82225246 7899.04972362 7974.57307773 8073.96164227 8156.78941335 8435.03185029 8536.71291605 8648.00116594 8766.58515218 8887.55473704 9003.51987194 9105.50199333 9208.39021941 9253.40331001 9273.98900422 9282.51950968 9277.7515898 9275.54870377 9283.01808952 9303.39940443 9336.46108901 9379.84843494 9430.52504219 9485.82526272 9662.43864399 9726.82017451 9792.7093326 9938.4559734 10005.6774211 10076.2275868 10150.8063861 10230.0484937 10314.7907639 10529.2123253 10624.0120529 10730.0707382 10850.9509823 10989.9163187 11097.6354435 11277.8414031 11468.3865456 11651.7073608 11803.5388056 11899.4875392 11924.4816956 11879.4466287 11780.4638639 11687.8175101 11566.4088384 11455.382954 11364.1305818 11254.7282992 11201.1392598 11179.6808836 11150.5591131 11143.8053281 11146.4698344 11156.2881439 11172.4092867 11195.4087768 11335.2685775 11257.8280907 11308.5680567 11373.8704829 11452.7921175 11541.5040514 11632.996349 11717.6328793 11784.736656 11824.9675718 11832.7446488 11811.2056741 11755.7320861 11748.8108434 11670.7777527 11591.6689481 11517.9835178 11453.8618652 11401.1570021 11359.9316803 11426.2074184 11400.2542021 11381.1808228 11305.1693534 11298.2081924 11298.9157632 11299.3326248 11318.3593315 11351.6097677 11401.0885872 11467.7817969 11550.8691818 11646.8591785 11748.8527796 11846.3708268 11926.3537827 11961.286482 11971.4188731 11945.9703879 11873.6985871 11775.3102802 11664.5688641 11553.3642663 11449.5853575 11356.9120547 11275.7738385 11204.6543796 11141.233833 11083.1758974 11041.9789759 10989.2783111 10937.8287637
3928.46813988 3978.81891155 4024.81124476 4057.70612018 4066.66106582 4046.14764946 4004.44862664 3959.14650387 3922.93776942 3898.95563874 3885.9022842 3885.29777993 3890.48209223 3905.51049462 3931.19109098 3969.12509865 4022.45118952 4095.34902028 4189.06150169 4293.59592642 4381.87999762 4421.44167702 4401.41300823 4342.08542929 4275.86608393 4266.08175434 4252.4549038 4260.10229858 4264.15566401 4287.83078007 4311.98729547 4337.48509753 4371.08264512 4423.298394 4504.94253657 4650.14630536 4797.7461666 4951.92054551 5106.16733368 5215.04750301 5254.54644445 5223.16513002 5137.48866379 5027.54094704 4919.93895247 4831.6228924 4851.81769928 4828.17947867 4824.29126292 4834.67627164 4854.0996586 4815.11542138 4813.57282617 4835.64320089 4863.69870687 4901.51310618 4953.54302663 5057.55578882 5147.67846936 5258.00934148 5385.16284065 5521.57578902 5712.72406236 5817.92821266 5895.33885931 5936.08851512 5937.29048504 5902.72596445 5841.3376175 5767.32449164 5683.599984 5603.27227052 5674.56194156 5636.69831732 5611.44348975 5598.58536343 5597.37816287 5759.87621864 5780.45323278 5808.61782228 5721.58908973 5764.08156381 5991.48907265 6041.04865496 6097.9175431 6162.61602606 6235.82967048 6318.32360155 6516.63330064 6607.93325739 6707.47406778 6813.3516106 6974.78902279 7067.7388408 7149.31949021 7212.51917225 7260.72785799 7272.17601641 7270.80240902 7265.82584636 7267.49116566 7283.83489565 7318.72691852 7371.75178847 7439.36340635 7589.27612859 7687.30151397 7768.57990838 7845.80560046 7919.12887341 7990.68250453 8082.87765795 8161.01023148 8251.03272534 8528.33433092 8644.49264438 8771.59395734 8904.08183398 9033.07027238 9147.25345104 9235.21470242 9297.86581847 9314.61571682 9312.27900882 9299.50508364 9291.33141803 9296.50015249 9318.27043232 9355.27665228 9403.61093541 9458.85050304 9517.42231567 9687.10404033 9751.28228503 9816.05434459 9956.72481232 10022.5540517 10092.0005304 10165.6506397 10243.7795626 10326.7476974 10415.5524161 10622.1810727 10724.2456802 10841.9383486 10980.2093441 11092.1127868 11282.1874169 11489.0931151 11692.9489268 11864.3898158 11972.8420936 11999.1875839 11944.7557524 11829.8564991 11683.7623971 11581.7873511 11462.2500055 11331.4077899 11258.105689 11208.5813465 11099.0027257 11171.046707 11170.8362632 11178.4441999 11191.0383818 11207.7723153 11229.8280893 11251.9715781 11288.9149233 11342.0441351 11413.9608995 11504.5784425 11609.8918317 11721.3447225 11826.3584403 11910.4289095 11960.5705593 11968.9890083 11937.3972999 11866.6139514 11772.200336 11735.3246556 11640.8826431 11555.3334765 11483.26329 11426.1397742 11383.1253991 11444.9634025 11419.0449001 11340.6743084 11325.6883514 11316.373764 11313.8740447 11310.3910609 11326.3232309 11357.8820319 11408.070065 11478.809483 11569.9906884 11678.350814 11796.3705431 11911.7166559 11991.6859487 12061.5658942 12078.3464599 12037.0268948 11950.0762904 11833.476683 11705.462535 11580.9337514 11468.8210294 11372.2940746 11290.4618152 11220.3219477 11158.3033575 11114.0728352 11059.4277601 11005.8607146 10825.6568607
3865.05412539 3919.70036357 3984.88967886 4013.15254989 4019.71097611 4001.31133005 3966.84673848 3931.78394001 3905.24619156 3887.72806872 3877.41328757 3876.97253473 3880.81496001 3893.57580506 3915.55728189 3947.27454544 3991.15824191 4052.02874219 4133.32909106 4227.82205133 4310.61729303 4350.86820703 4338.10013252 4290.71598303 4238.75803099 4246.91574508 4247.83733792 4270.49180695 4288.99790957 4320.44245334 4343.78757488 4360.17541138 4379.50760843 4416.69620786 4486.51639908 4624.18601295 4773.39638389 4934.10582771 5098.17333067 5215.13309993 5257.86544733 5223.9511405 5132.67763855 5017.80130467 4908.72409696 4823.57058284 4851.59486125 4837.46210519 4844.12708232 4864.25509413 4833.41619659 4857.59344151 4856.45505023 4875.23559477 4897.69167735 4929.30726099 5008.12442654 5076.44112862 5169.46808886 5288.25726157 5429.58969475 5584.9108184 5786.29167381 5909.45007151 5999.74470838 6045.38750663 6042.52792626 5996.29647288 5894.49313368 5825.15805947 5725.07584981 5631.10741663 5549.71458688 5640.9834464 5611.38465072 5595.65819918 5591.96500633 5750.63357423 5650.46492139 5675.79879957 5709.48702062 5751.06106472 5755.61977462 6016.40400098 6071.82836457 6135.09468892 6207.05662328 6288.75864134 6486.23094852 6579.17270157 6682.07408353 6793.28399234 6959.57790108 7061.07581851 7151.14190803 7221.22919324 7269.30940341 7280.70721642 7276.73958769 7268.3138238 7267.64607735 7284.23219041 7322.4763453 7381.61132277 7457.11391989 7472.46108399 7713.81546864 7798.48584647 7875.98144434 7946.15897755 8011.51809869 8093.28515173 8163.07889028 8246.0943658 8348.12416767 8628.86428719 8761.88919286 8903.60317994 9043.77699056 9168.99140319 9265.25861583 9325.974704 9340.75180535 9330.68126199 9312.37748993 9301.2583212 9307.52553708 9334.12791184 9378.17583114 9433.860386 9495.1371772 9557.4452734 9719.66147214 9782.39231324 9844.57910246 9978.54443283 10042.0195367 10109.8494914 10182.4270524 10259.412206 10340.2867738 10425.1716245 10617.9203718 10712.2143265 10821.2961357 10892.7851643 11058.1851105 11247.3653867 11459.0778645 11672.31439 11854.3714831 11970.4533064 11998.7141119 11940.7812287 11819.6504935 11667.7879613 11563.7459401 11414.3591688 11316.3046326 11250.5802809 11125.8286771 11113.0930809 11112.4151359 11204.4145523 11218.569449 11234.1321658 11250.2721565 11268.978717 11285.0771737 11318.0264667 11370.0684069 11445.7758925 11546.3563284 11667.8999222 11800.283114 11927.5651522 12030.629401 12091.9600802 12092.7941922 12046.2853608 11970.3682 11854.7593821 11790.8107229 11681.0674516 11584.7222957 11506.6207108 11447.5274278 11405.3354644 11464.9214494 11440.7568304 11366.6723811 11350.6553802 11338.3429891 11331.1614737 11321.6101868 11331.699749 11358.3872041 11405.7604898 11476.7351413 11571.9849614 11688.6288094 11818.8081127 11926.1214127 12048.5312514 12126.3977097 12143.4238979 12095.7793205 11995.616666 11863.4069496 11721.9373817 11588.8761061 11473.6854329 11378.4298073 11300.3847888 11234.7280651 11176.510623 11133.8617379 10970.1060853 10910.1379316 10849.0848416
3817.59243456 3864.28986115 3904.02151797 3930.00268548 3955.42294862 3943.58164551 3923.2824496 3904.82578279 3891.58902436 3881.24421738 3872.52830544 3867.66543813 3872.14785859 3882.54718109 3901.07319607 3925.9989861 3957.63319238 4000.30766864 4059.39735849 4131.90075745 4199.38378471 4237.76165089 4237.91885404 4212.65440727 4185.55852095 4221.64937529 4244.23496245 4288.59566269 4328.16828522 4371.26886181 4393.53646543 4396.36690601 4394.36798869 4408.30460057 4416.14617089 4510.36306785 4714.07732732 4864.36239774 5023.23622505 5129.88130405 5178.6267501 5150.70867437 5068.03307316 4963.75909877 4867.34878378 4797.23367974 4760.34748502 4846.98662159 4869.98626131 4852.40707596 4885.41824921 4914.58369953 4913.02546092 4925.6216338 4938.38728225 4959.0777709 5025.80336261 5087.75290328 5179.21247603 5302.26879996 5453.96772691 5624.93390373 5798.89634879 5977.22930834 6079.89625818 6130.45326829 6123.96244275 6066.92888796 5955.1442695 5863.8828452 5749.78064078 5644.86634268 5555.88066915 5485.45994138 5606.32764226 5589.12639267 5582.97671164 5586.51442133 5638.58516899 5663.15671035 5695.95444226 5736.43678978 5737.94280834 5989.05430328 6042.20520529 6102.89195224 6172.07765582 6251.04088842 6445.63640402 6537.77300607 6641.29318522 6692.78357449 6925.22698302 7033.13889863 7130.07491337 7206.37483602 7261.39652136 7275.14331282 7271.98981542 7263.98485718 7264.67062542 7284.57388121 7328.57146839 7395.76479327 7417.00776355 7507.52981456 7602.62677183 7838.67686091 7916.63644915 7982.77903493 8055.49718115 8107.62220126 8164.98774917 8236.35544113 8329.29779551 8448.43026415 8734.81546388 8881.38979783 9028.44575879 9161.07626391 9263.59185674 9327.78716391 9342.8142668 9331.84527083 9313.29574692 9304.72682266 9317.28950474 9353.32217957 9408.19556286 9473.9854158 9542.83253674 9609.10383403 9762.50209307 9821.90758798 9879.36756509 10004.3697897 10064.2822045 10130.065104 10201.8649303 10278.4284975 10357.8461189 10438.7124492 10487.0888316 10698.1387741 10732.7948495 10848.7040275 10998.3829091 11173.3097135 11374.3601741 11580.9490283 11760.0014053 11876.1366192 11907.1516027 11854.4907233 11740.8953787 11598.5027496 11510.2130185 11369.0657837 11284.5153666 11149.7885243 11124.7282544 11130.2905562 11146.651553 11248.8224127 11271.4027753 11290.0334221 11303.8599034 11220.3019487 11232.5608071 11345.6154497 11391.3941668 11466.0764502 11572.5351863 11707.2276055 11858.5924316 12007.2370371 12129.0941571 12201.6566768 12207.8284051 12151.2980952 12052.8189314 11916.7375088 11829.4350685 11706.7390398 11602.7092535 11522.2262037 11465.0581617 11426.3775228 11487.7619694 11323.1531531 11399.7195979 11383.0337518 11366.9182913 11353.20344 11334.9158616 11335.7789618 11353.6674634 11393.7639574 11459.8812083 11553.3422882 11671.5998254 11769.3156238 11921.1474275 12052.0154632 12136.1673585 12153.8170755 12102.0264906 11993.8504177 11853.3584168 11706.8867435 11573.9715882 11463.8769371 11376.9982375 11308.3832429 11251.1944033 11199.1314627 11061.6114384 11002.8875006 10940.9132306 10876.1186926
3762.78591428 3802.06795959 3835.02511958 3857.6562143 3868.11880794 3869.62536443 3891.79757285 3892.22424571 3891.93023924 3885.89951763 3874.67551267 3864.71931669 3865.29474312 3873.96152322 3891.3534766 3912.21185053 3933.08584974 3956.69180935 3990.40129735 4036.58733323 4084.80003484 4118.57313764 4130.31376073 4127.48824381 4127.22743628 4147.18196129 4242.37575708 4313.72578339 4380.96932302 4440.50070765 4462.11025583 4447.15561103 4417.20928442 4367.04545079 4380.45381565 4445.37372861 4560.45070171 4752.3294438 4892.30950102 4978.78455379 5028.32727518 5013.39775363 4951.80661816 4872.26440236 4801.69734748 4757.93794525 4748.05196154 4861.35742303 4850.42238442 4910.58606174 4957.52343393 4973.97171374 4988.91592539 4991.27135921 4988.949151 4992.74508661 5041.35932266 5091.10980593 5175.11774282 5296.28455832 5451.79891141 5631.61596676 5817.76967077 6004.84446473 6116.92783865 6171.63274198 6163.00119755 6091.47434298 5996.0304619 5873.91766244 5751.13556736 5640.39805855 5548.41339437 5477.18556007 5425.82802063 5579.06504953 5571.5844486 5610.23046014 5625.52996854 5649.5222649 5681.4453689 5678.92854471 5718.97923624 5766.3998177 6009.72905351 6066.74104366 6131.62644398 6205.82913272 6394.92572962 6483.49392728 6509.55523276 6631.85136932 6763.06867661 6980.35092686 7081.56723085 7162.67662711 7231.64839914 7250.72199339 7252.91318927 7250.52906091 7257.4048261 7284.42889725 7336.87097634 7355.26755367 7445.76130583 7550.50209385 7659.2514829 7890.17645252 7969.6805277 8031.63248617 8091.21697703 8129.00636046 8169.71739183 8224.5284358 8302.96762354 8410.7336424 8548.14927778 8836.01731298 8983.86503154 9118.49674541 9223.92095731 9297.26414706 9318.6178678 9313.20462284 9302.03548831 9303.42284015 9328.71118973 9379.47193709 9449.36664615 9528.2610936 9606.24281584 9676.41130306 9818.58958544 9871.94243335 9921.58319977 10034.4740994 10089.1915769 10152.5105386 10224.3406786 10302.1979494 10382.1616053 10430.0643163 10503.0113437 10574.8163166 10706.7368732 10798.4538333 10922.2330527 11069.989698 11245.0391052 11428.7858572 11590.9243503 11699.274557 11733.577615 11694.4298008 11601.3191444 11482.6474009 11332.310791 11302.0907066 11159.1365948 11124.4641524 11124.62695 11154.824388 11193.8203462 11309.1442079 11342.4592399 11364.2535846 11373.5284666 11286.8826715 11282.8813499 11373.0971991 11405.7356757 11472.4646836 11577.9546943 11719.1437159 11883.2699939 12047.907786 12184.5709341 12266.2421747 12275.8147215 12211.2650973 12096.1958568 11944.5753379 11786.5600553 11712.6458896 11606.5317912 11529.2549031 11479.4344176 11449.3793984 11377.8968257 11368.6121354 11443.7164066 11426.7833247 11405.799681 11375.305646 11352.9653854 11340.6131846 11345.1962346 11372.9493232 11428.3499859 11513.0360349 11624.5229303 11712.7549251 11860.8441415 11989.5310033 12072.574714 12093.8594442 12041.6567922 11934.2833107 11797.3162165 11658.4662228 11537.6192018 11443.0063065 11372.908567 11319.890027 11275.0267446 11156.5687342 11103.7982658 11044.2754947 10978.3568864 10907.7222252
3705.27343381 3739.59295567 3769.99707395 3795.13584174 3815.98540096 3836.61573591 3861.08374119 3899.75905852 3910.4277418 3904.08060427 3884.44764043 3864.66315002 3859.44279077 3867.81807602 3888.50935283 3911.51890558 3927.52854078 3935.80153222 3945.44962897 3964.9445212 3991.8479532 4016.52837662 4033.33076318 4046.48891358 4068.37214719 4113.79472646 4236.21678825 4335.70879042 4433.60139185 4513.26696374 4535.68112156 4501.34334193 4420.70408675 4360.08553266 4339.23202922 4370.66892235 4451.28629561 4617.49564016 4697.97903678 4790.36130707 4838.96430018 4839.64432778 4805.3104039 4758.61867379 4722.47889291 4713.37064208 4738.43647114 4828.91192535 4905.68401946 4991.66640058 5028.04519233 5080.39595389 5089.76508255 5076.48898029 5052.31510675 5032.15776753 5055.86123784 5086.94821073 5156.81577622 5268.61906255 5419.28605148 5598.1501391 5786.28891526 5978.87337483 6094.83156596 6151.96308784 6140.78679845 6068.62837512 5972.23794645 5847.99827691 5724.72955814 5615.46732034 5526.59304896 5459.41375018 5412.27258203 5459.15779458 5451.80420884 5596.55970608 5611.93446166 5635.48334053 5666.53752341 5661.16410175 5699.5312656 5744.61833661 5975.40601386 6027.82459627 6087.0466843 6154.6005653 6232.4995576 6333.13624938 6435.83684458 6551.71811322 6677.55796644 6902.72725718 7005.56329209 7090.10466527 7149.08176122 7206.16041686 7218.3664011 7226.88675603 7244.78889424 7282.63208113 7345.98176997 7372.29175544 7478.07189002 7599.500829 7725.07140038 7841.73696212 8035.4307103 8094.1757477 8139.47790952 8160.31800887 8180.46892298 8214.10079584 8272.93874054 8363.60254798 8486.29499957 8634.44400276 8794.99955216 9044.41196206 9149.56158536 9237.0237964 9270.59607832 9277.73839634 9282.08082334 9301.14769494 9345.71854934 9416.59891786 9505.93309446 9601.26918227 9690.18319466 9764.02295929 9891.45862673 9934.97580383 9972.43390374 10068.8635217 10116.0687337 10176.3485898 10249.4842166 10331.4622586 10415.6513126 10466.9374739 10534.9115046 10592.6754037 10692.6074839 10754.6767394 10838.5469503 10955.6893341 11093.585625 11242.9849481 11378.4143333 11473.1111153 11509.9724666 11488.3721477 11422.9837246 11303.7052125 11181.5017875 11141.4210537 11100.7775001 11097.5155958 11129.3012364 11190.5131064 11258.3878431 11325.5569941 11437.3414548 11462.5583 11464.5826892 11371.464602 11343.8189804 11327.5128853 11414.0545069 11464.2807006 11559.5811693 11697.184061 11863.3831776 12033.6830617 12176.7779159 12262.8545265 12272.8980491 12204.8603302 12084.0753319 11926.573367 11765.3095099 11695.458965 11595.1572411 11528.3486289 11356.5065994 11347.3942821 11425.6985611 11429.1880586 11503.5109151 11486.7229902 11459.3890133 11416.970088 11378.8526807 11348.7266714 11335.1502883 11345.3658773 11384.2165448 11453.2248782 11487.238754 11615.0233429 11747.6094633 11863.05842 11937.238786 11964.6419809 11916.566696 11820.3064753 11700.4153839 11583.3194275 11487.4982471 11419.3067715 11374.4953288 11342.8558123 11250.3429606 11211.3064483 11160.337827 11097.0884754 11023.9142119 10944.3207293
3647.38070775 3679.03435906 3710.13444055 3741.40479004 3775.39954764 3815.91900421 3863.87279449 3910.08953379 3934.4734522 3927.29977337 3895.50065775 3863.15221141 3849.09027191 3861.48226075 3890.196558 3922.60830982 3941.47268229 3939.91964823 3927.89221233 3920.66981204 3924.0440437 3934.64804063 3949.07361806 3969.88395056 4006.0058759 4069.44585212 4212.8885665 4334.03128649 4456.07063153 4553.779872 4578.88200309 4523.77698552 4426.60758744 4336.84650582 4286.92078232 4288.0220213 4335.73492731 4448.0753399 4520.68067974 4595.09438888 4641.80182043 4657.22639272 4650.32238298 4638.21874572 4639.71678092 4669.65888015 4735.17799675 4864.86739778 4980.50678921 5072.92718079 5161.37139766 5218.51740048 5218.73831553 5138.50292751 5079.61163462 5022.75874363 5069.75575267 5076.01378039 5125.33980872 5220.32030892 5357.03437386 5524.15556329 5702.60111665 5895.3646807 6008.27403955 6056.39286966 6050.0286153 5983.47559486 5900.67344683 5784.56660478 5670.53038748 5571.13857881 5492.17025039 5434.24664709 5395.0806783 5444.34788576 5440.53182488 5583.06677931 5598.69834602 5621.78961501 5651.90415383 5643.75669423 5680.48425941 5723.29301741 5771.55621423 5987.74366114 6040.26898699 6099.63284509 6178.85584111 6258.06865405 6350.65192404 6456.79692117 6573.75955944 6695.43073837 6906.89668684 6994.21737059 7059.87127297 7144.18663401 7170.04057967 7193.40807654 7225.86903781 7277.15760644 7290.73896714 7387.53488605 7509.64844318 7649.37297833 7794.48550651 7929.35620103 8110.51667037 8168.39253273 8199.78648416 8202.18001432 8198.87424347 8207.75203514 8243.05216044 8312.20379971 8415.07358426 8544.59111306 8687.95164372 8828.46658262 9089.2773419 9156.89770049 9207.15754862 9232.4352237 9258.74204922 9301.76286352 9371.22049685 9467.2624655 9580.72113655 9696.5549355 9798.95696049 9876.51820075 9984.83830064 10013.5913455 10032.9782713 10107.1453632 10143.5485906 10199.7741382 10275.695269 10365.5479415 10459.2911963 10520.6007631 10588.7079296 10635.0587686 10628.5546576 10649.0801688 10774.7589068 10850.3350138 10945.4552999 11055.1721481 11159.351318 11236.9117018 11273.9890368 11268.8576417 11163.6095493 11103.4569971 11004.020954 11044.4914757 11039.3653673 11071.8946043 11140.4518498 11238.7348203 11342.2518135 11439.3224499 11559.6038704 11588.8556297 11522.6676622 11477.1680178 11417.8037734 11367.2558001 11418.0535525 11442.8708857 11517.8695048 11640.0790705 11795.0802669 11957.6353885 12095.9494551 12175.7585402 12186.9784204 12121.5727724 12008.8011285 11858.0999018 11706.4764757 11578.0781709 11439.6951886 11387.8352365 11376.433701 11394.0162695 11488.9547857 11510.1807087 11584.2395588 11567.8461324 11532.0666898 11474.0592148 11415.3426927 11362.3742108 11325.7049895 11313.5685993 11330.87474 11299.8267722 11383.0997453 11486.5218795 11595.2699569 11690.010544 11750.5446618 11786.2670496 11746.7683591 11670.4948465 11579.1536807 11495.8729921 11436.3249854 11404.2076451 11392.1324895 11333.5610237 11319.9867165 11288.1329663 11235.0085119 11163.1187392 11077.8654237 10985.2155903
3589.41349948 3619.22344644 3651.64131913 3688.75602629 3733.76507897 3789.59689189 3854.42454142 3914.82623983 3945.98076332 3930.64914419 3880.55490677 3852.0295114 3833.93423657 3849.25283954 3886.76356426 3930.74337741 3956.58162461 3950.2079338 3920.86985493 3889.70468873 3870.05784292 3864.20740811 3871.03442324 3892.20587777 3933.83982342 4004.81975881 4112.24058583 4276.29304771 4415.03388243 4519.71793233 4544.67260205 4486.64608251 4380.90674628 4278.89246735 4212.94731352 4193.3418856 4215.79315302 4218.08908405 4349.80435388 4409.27741756 4454.32253587 4482.36052442 4499.86008904 4519.92346017 4558.07602547 4627.78887106 4736.33244642 4909.3965572 5070.24326972 5205.69729849 5322.48616464 5356.43780204 5342.2292233 5272.08935523 5173.3877869 5075.80574768 5003.8945411 5058.20833184 5082.26117376 5154.61986135 5269.98192968 5416.367757 5575.24977883 5762.75987306 5866.52963695 5900.43405328 5899.06629101 5844.71339831 5788.03632942 5689.66374102 5594.02183407 5512.42370347 5449.73512896 5405.86214504 5377.98883837 5431.23266653 5431.81104166 5440.38945967 5586.99860431 5609.33001285 5598.71682747 5627.43721299 5662.6964766 5703.58201175 5750.32291345 5796.57188488 5993.71575289 6043.88704524 6111.34650014 6178.74365376 6259.1380837 6353.43600223 6459.5498277 6571.71111897 6749.88835744 6883.89141267 6957.126046 7069.96684805 7111.29097436 7151.26980616 7199.73569948 7200.74034427 7284.46935659 7395.82339417 7533.53966947 7691.20342567 7856.66040133 8012.13291984 8136.63678758 8228.53448667 8265.53878427 8249.89247511 8222.30333749 8204.98258079 8214.93545578 8260.35203361 8340.75192382 8448.80681383 8572.43882725 8697.06579919 8856.46368336 9068.32017916 9137.41754867 9183.80256924 9235.59663152 9306.34654521 9404.64138484 9530.19582559 9672.73834067 9814.2161228 9934.08428201 9970.14122884 10075.3192193 10080.0827504 10068.9956653 10148.2186065 10169.4456402 10219.845565 10299.6606582 10401.2939439 10510.7712674 10590.2571337 10665.7128251 10682.5830565 10685.465881 10668.255208 10654.5815733 10663.992171 10818.3318388 10887.5797099 10959.683029 11018.3385212 11052.409645 10979.3622341 10960.6860555 10933.3169643 10862.5832625 10859.4656474 10976.9317933 11046.9619441 11155.4697102 11295.730912 11441.39634 11575.1614062 11670.6716801 11694.5308335 11676.9554239 11601.520356 11502.8367956 11410.4826967 11350.6814785 11410.5269341 11456.5052745 11552.6725813 11684.1547811 11826.3321336 11949.199819 12014.8419006 12025.6424113 11968.5574019 11876.373892 11744.644428 11615.0312122 11467.4602655 11399.3003003 11378.9732825 11401.4807985 11453.5896914 11570.8868029 11615.3254753 11635.7439153 11673.6018996 11626.5291499 11548.3641456 11463.4567285 11382.2863253 11317.8823094 11279.4477656 11271.6671606 11209.9135486 11265.6181488 11341.0542592 11422.8196921 11494.7917039 11580.92793 11587.5086837 11560.3390088 11509.7624032 11454.0633233 11412.3728332 11396.9519246 11408.2433361 11389.0399101 11415.4599195 11419.3942481 11390.6043066 11328.9863726 11241.6104123 11138.2175943 11027.8451874
3530.93438512 3558.08244225 3589.90437837 3629.22949752 3679.27693592 3741.73885182 3812.41328432 3875.88926196 3907.89784074 3893.66666728 3845.89052505 3796.46839077 3782.64493821 3798.31334617 3864.41531713 3912.79355105 3942.17339155 3934.52523676 3896.31916183 3849.89699534 3813.12109478 3792.89510736 3790.46953865 3807.14727147 3846.61685009 3914.3630185 4014.42358284 4161.76507223 4296.66514273 4376.38433717 4407.65357133 4360.00172046 4267.18211131 4173.65626779 4108.3136948 4080.94655548 4038.11772642 4066.39489699 4187.51801924 4236.54329856 4280.94874314 4319.39444035 4357.12112877 4404.72487934 4475.54262222 4582.22269518 4687.73872943 4883.49141039 5141.74959069 5342.76875208 5492.18535974 5544.77648823 5513.7001236 5407.00570094 5263.4712949 5121.87794015 5011.07196313 5031.23723808 5028.2821921 5075.24796024 5165.23587198 5285.80523199 5419.55899381 5525.87030588 5651.75117436 5704.78302872 5709.94441538 5672.13753149 5649.40013606 5575.69074368 5505.32594445 5447.68419452 5406.33862022 5380.30112577 5366.17390874 5423.81729627 5428.86358792 5438.82467356 5578.27810089 5599.08738754 5585.57249435 5612.79943298 5646.84587455 5686.47665375 5729.9596864 5772.87162174 5817.0353692 5990.81554729 6045.58350615 6100.14136428 6167.27908926 6248.83380303 6343.52639267 6445.89835446 6548.36179615 6719.69748437 6799.38258787 6988.94913322 7045.62706723 7101.7779275 7165.56062306 7170.54553799 7267.52627629 7390.99605483 7541.18308041 7713.34736188 7896.22147804 8070.87458991 8212.27110356 8302.10307335 8321.34958371 8290.80777954 8241.56875256 8200.11469916 8186.09419032 8208.41833961 8266.47278235 8353.09155477 8457.351125 8566.98676741 8728.38626776 8815.42825319 9066.65195969 9134.37175057 9212.10141802 9311.52427285 9440.38327007 9598.35803614 9774.45085551 9902.89734751 10051.7004257 10145.1612194 10172.6981537 10199.162285 10154.1228033 10115.8715655 10190.5939996 10232.5303545 10316.0949841 10431.9351583 10542.8272652 10666.775369 10748.6318071 10783.0966478 10766.2483287 10711.9879871 10651.0297988 10609.4744624 10598.756017 10747.4402471 10788.834194 10828.1528794 10763.1535896 10773.5279805 10773.6653575 10720.2263718 10725.5346281 10756.463929 10911.2044819 11017.2969575 11165.7878424 11350.0487456 11542.0284603 11717.8846122 11841.677353 11878.2236808 11841.0969991 11731.1774329 11588.3942865 11450.3139867 11347.4739584 11368.2093096 11380.0813552 11443.4219936 11543.2721757 11656.7250239 11757.1132353 11802.7692875 11812.6760251 11767.4957322 11678.145413 11567.5888113 11500.7591843 11383.3223398 11351.2808399 11369.009124 11431.7284696 11524.9256448 11670.0770409 11743.2061401 11779.3794912 11802.6029623 11737.0600205 11637.2953684 11520.3837053 11406.0353074 11310.2118851 11242.9569159 11116.5580289 11115.0404088 11142.75553 11190.5481665 11246.6251803 11298.0732374 11384.4850527 11391.8526259 11379.59074 11357.11393 11339.6758159 11342.8516624 11375.7291785 11391.9240313 11468.4986888 11528.4434227 11547.833862 11516.1170731 11437.9497025 11327.2032038 11199.3928329 11067.0442988
3472.08575084 3494.7923954 3522.69269791 3558.93544582 3606.58015501 3666.30053791 3732.49844572 3790.31257113 3820.1295759 3812.16964987 3777.42217508 3740.68201366 3724.71135848 3750.2699295 3815.36820639 3856.95216198 3881.96641125 3873.65078277 3834.87648453 3783.99320938 3739.06669724 3709.84220696 3699.71245648 3709.95237367 3742.170696 3798.55048522 3879.95716212 4004.7129364 4078.29418048 4158.62046146 4186.66762845 4156.5392892 4090.84476069 4021.57317462 3971.1224254 3948.27399324 3896.24995138 3914.97960451 3947.74846292 4074.2848386 4119.1210551 4165.76034576 4219.04025777 4288.15623283 4385.1169905 4522.18600707 4661.66775746 4900.62948723 5202.0163628 5448.48247842 5624.152465 5700.81821829 5653.10835291 5510.9045035 5325.33418943 5143.97123978 4997.15533167 4989.99306246 4962.16287318 4984.62766623 5049.15886233 5143.28863793 5251.19461393 5327.71516766 5445.72682051 5494.69521485 5507.66880341 5488.62378132 5502.69096476 5457.47846448 5416.54587346 5386.90108613 5370.40724384 5364.81879729 5365.88716448 5427.03230995 5435.62022385 5445.28052264 5574.20097832 5557.68632688 5574.89080134 5600.15595174 5633.24308636 5672.56597773 5714.32243822 5755.74645155 5796.05177063 5769.15999052 5916.23391968 6027.58133794 6081.26165088 6150.06394921 6233.91103124 6326.60192597 6423.29399547 6602.74582055 6688.12695711 6905.61016981 6975.91755744 7046.08061757 7042.90879653 7129.46353855 7236.19594149 7367.43265036 7524.51779869 7704.31344494 7896.98039642 8083.75730808 8237.40215483 8329.72669043 8344.65197806 8305.40045505 8241.58207966 8182.57534785 8149.84531352 8152.91971686 8191.4559776 8258.99587995 8346.13706221 8442.93317937 8606.21744105 8697.54471315 8803.82347328 9082.29468741 9183.68159402 9309.80389655 9467.97884527 9658.34058469 9821.4203057 10040.1221492 10221.4720232 10329.4352911 10346.5455462 10322.5946524 10238.0848533 10162.3511298 10202.5462066 10233.0268328 10318.1028035 10446.8440077 10563.5610798 10719.5644963 10833.8812263 10876.4248155 10844.2085515 10757.1953298 10653.8247265 10567.0022301 10512.3349882 10489.3570941 10546.9855327 10561.4838268 10577.1969014 10590.5776912 10548.6858632 10561.8652079 10591.9535027 10650.4525238 10708.035703 10973.1718849 11157.0013076 11381.8374352 11618.4483415 11836.701022 11986.1211749 12038.9392207 11979.8329175 11838.2652988 11653.0812881 11472.1710046 11288.5612143 11196.6319716 11291.0979699 11319.9973003 11385.6376083 11467.5496982 11518.4567061 11566.8771206 11575.6981987 11543.5928116 11478.430103 11399.9496169 11330.8104538 11290.1053966 11297.2953133 11355.7074758 11461.340788 11648.2314058 11776.2379704 11882.2107327 11936.5577482 11943.7765064 11861.0094456 11730.5706299 11577.1600389 11426.5137389 11297.706131 11110.2961998 11045.3534788 11017.0566971 11018.9415478 11042.0857411 11076.2692509 11111.393695 11200.0881856 11210.7480529 11214.2739646 11219.3378785 11238.9555066 11286.1355201 11320.7974302 11440.5074032 11565.5885681 11659.9051183 11692.0156753 11651.0450034 11548.6088575 11407.8129303 11251.1573423 11094.6496934
3414.400466 3431.05164317 3451.86381286 3480.08964072 3518.94135271 3569.06607154 3625.10585223 3674.55982954 3703.05044965 3704.38807103 3686.10272577 3664.69731516 3656.01693085 3668.10862736 3709.20671479 3732.79159127 3783.61595804 3772.13997791 3735.56226897 3686.70341949 3640.85977957 3608.3986975 3593.90080005 3598.43357435 3621.68013862 3662.84855122 3687.63597791 3757.23139295 3845.41124887 3897.87913966 3919.4388552 3906.72150291 3872.11603742 3834.24480793 3807.29195205 3744.04192431 3745.47367704 3762.45063477 3790.92033424 3918.53953762 3964.29479176 4016.59833177 4080.26954763 4163.69014 4277.9600765 4373.14337285 4595.26202794 4862.78810262 5179.67066253 5457.89754469 5679.24892119 5765.26816656 5707.08421861 5541.27511696 5328.30382211 5121.51717584 4951.78316989 4837.47256704 4880.8159204 4883.10310208 4925.53824325 4996.2594536 5048.73044137 5130.71584589 5242.26763638 5289.33583443 5311.6374698 5312.46169528 5362.92092112 5347.90001578 5338.59304677 5339.4537042 5350.22505865 5366.87220546 5316.28827911 5327.73409602 5456.47241831 5462.93654289 5576.54243608 5554.36790159 5566.98918197 5589.39200837 5621.63478073 5661.96571471 5703.82204751 5746.36736812 5725.19921413 5765.43885143 5797.84543975 5966.26475262 6006.917824 6063.38635477 6136.00830136 6220.17842688 6311.12961631 6402.74814757 6585.20625424 6668.70123685 6904.35372216 6899.41918088 6981.96506668 7076.40612465 7188.24547661 7321.63424263 7478.41515449 7656.57704723 7847.81876237 8034.80135653 8190.76417562 8287.34861397 8303.70626233 8274.29480248 8206.58354129 8140.47709077 8097.69295632 8088.12795577 8112.17735931 8164.65541815 8237.98567456 8324.45839813 8489.26009364 8584.24235687 8704.05507288 8810.5474983 9143.44222099 9291.37108392 9473.91653985 9632.72489968 9887.60806965 10144.3293068 10359.0473622 10484.3211616 10493.9597856 10402.6030774 10302.387337 10190.5873301 10199.1637688 10216.2665231 10298.527326 10387.4589166 10563.2941431 10738.1392389 10868.3565297 10918.0962164 10877.0730179 10767.9947388 10634.6347036 10514.8029888 10427.2991506 10374.0700564 10406.8525591 10404.4831375 10411.9635802 10425.807431 10383.8324788 10410.6704671 10458.1897036 10536.220832 10612.4186843 10779.1575935 11002.880936 11366.1550333 11636.4112492 11866.6036185 12064.051459 12123.946447 12052.1117582 11883.8888754 11667.9231798 11422.9445313 11240.537542 11117.40484 11057.3445762 11186.2109756 11219.9670989 11272.1706059 11293.1573129 11327.4891326 11335.3868478 11315.7938328 11273.9392366 11226.7246248 11192.9777981 11189.5725 11234.3784386 11331.1996149 11477.1408326 11699.938579 11867.2165301 12006.3336527 12079.3020773 12061.3377829 11970.4451913 11807.7755509 11617.4089607 11431.473454 11189.1691163 11056.4679321 10966.4215373 10915.0066146 10895.0411839 10897.916899 10914.8165254 10937.9071256 11030.104345 11045.1773723 11063.2794711 11092.5165496 11144.3907502 11175.0484801 11311.3807292 11480.3757528 11651.615526 11778.6523759 11820.7964376 11766.6340581 11636.3359713 11463.7703299 11278.7033753 11100.0056702
3360.83013587 3371.21290411 3383.58646069 3401.10483989 3427.57562686 3464.82257563 3509.1197226 3550.66792328 3578.64613289 3588.21588151 3583.41158889 3574.15748123 3570.50035774 3577.72190209 3597.72001852 3611.53300301 3612.91731153 3592.59398309 3608.27342998 3562.06372048 3518.37193858 3486.74638159 3471.71512355 3473.40228885 3489.26503582 3515.6475275 3514.84168905 3506.88546508 3601.22031294 3625.59806739 3638.46178667 3639.71655078 3634.03800036 3628.17941609 3627.78606745 3578.67504522 3589.53323688 3609.5694168 3637.64199311 3672.71369432 3812.55691249 3867.5100714 3935.96043719 4025.60498892 4074.77589172 4243.42192107 4473.31180496 4694.33218377 5053.21411093 5359.55943041 5590.22159583 5685.239058 5628.90585715 5462.08638846 5247.13721385 5035.987163 4862.90931154 4741.49440291 4780.62656505 4769.51716391 4795.53840775 4848.14587993 4876.04916837 4868.66706233 4932.98456879 5098.80504796 5132.29418367 5153.84737199 5238.97947694 5254.97813295 5278.69410441 5312.02639066 5352.20646107 5330.89149249 5365.57350245 5385.42675213 5388.55366873 5378.48544359 5492.58435836 5556.35096293 5561.77480747 5579.84495578 5611.04146937 5651.84458845 5697.62960324 5684.11795818 5736.75090079 5778.00433755 5805.33499543 5858.95527418 5949.05507213 5993.65152546 6055.21251682 6130.59795754 6215.06085003 6303.09378148 6492.74795636 6580.81820384 6832.68486275 6825.7606472 6913.84517176 7011.61549368 7123.57782041 7253.25069332 7402.34351988 7569.36886665 7747.4049439 7921.4805487 8073.88606734 8163.58003763 8183.78065763 8187.75308013 8127.39887106 8065.76191645 8022.92923435 8008.70290666 8024.49808138 8066.79863624 8130.0344954 8208.60315011 8322.98297622 8471.41243563 8600.68568419 8719.46808886 8862.87321309 9134.40532501 9346.25048818 9616.08771517 9894.10500849 10176.6190191 10415.4972322 10555.0979253 10562.0696149 10451.4972055 10281.6391212 10184.6289484 10172.7158468 10177.3975955 10195.2863691 10331.1542977 10506.1491849 10683.052768 10816.926891 10867.7280991 10825.9914291 10711.360936 10567.3424431 10432.6189813 10327.6221341 10256.4310218 10272.8993352 10258.8665618 10260.099029 10209.6872945 10227.931203 10262.7926969 10320.4554987 10409.1508505 10492.7660476 10668.6406922 10901.4233822 11280.9299183 11514.966077 11804.3201522 12010.1210114 12081.4370178 12006.85841 11832.0030727 11581.6027323 11347.1308877 11150.7697729 11009.5668272 10926.4894236 10894.9735928 11049.415719 11076.6650059 11072.1578249 11094.7785505 11102.1756171 11093.6078301 11072.1939806 11052.5585385 11049.9177766 11078.9901338 11155.4401 11283.2844973 11460.6492511 11713.1634413 11911.1290023 12076.7920725 12164.9038722 12145.1275828 12030.0746084 11839.8959425 11619.1408806 11405.2472646 11138.0295749 10984.021853 10875.1464857 10806.2095583 10769.6024506 10757.1530051 10761.2604099 10775.823551 10871.6435191 10890.5511945 10919.9270563 10967.3318207 10976.9955933 11101.3685515 11271.5013919 11477.1095151 11683.7632278 11836.5512853 11886.2107321 11820.4986153 11667.4258205 11470.4252246 11265.0679444 11071.9110313
3314.84371439 3321.0734269 3326.82286688 3334.62918934 3348.68656168 3372.40668027 3404.29212949 3437.04088859 3462.11554479 3475.13583947 3477.62468451 3475.0430746 3473.20622006 3475.08418839 3479.13455155 3482.59849478 3469.65462787 3440.88587551 3397.44627836 3417.75516452 3375.69877385 3346.95335607 3335.20568689 3338.58406458 3351.42301916 3306.03865006 3318.63318962 3304.28703402 3364.46057076 3361.8506675 3364.76158089 3376.74358486 3396.4140479 3420.11178919 3393.15200081 3412.61020743 3434.01585982 3458.76761948 3487.90695791 3522.35077288 3528.04286888 3715.80825073 3701.48642869 3790.72122769 3910.44827425 4001.79398544 4217.40227803 4486.20218816 4830.14475118 5120.03074773 5342.16176831 5444.50149698 5404.77405477 5262.91765853 5073.05259443 4884.24667497 4726.15603229 4612.04619454 4544.47156937 4642.51775665 4658.80897983 4568.26441777 4621.28851562 4681.91181206 4733.63736266 4786.49166892 4972.09759907 5015.20646791 5133.17922782 5180.87016898 5238.93664265 5306.84270594 5319.99908148 5391.65788353 5445.24549129 5471.91121186 5469.96227936 5445.74729248 5497.07404214 5563.6766396 5558.54561108 5570.22935108 5600.08377803 5641.58498626 5627.03486969 5694.64041702 5756.56063 5803.11072238 5829.0202636 5857.86798679 5862.35544631 5943.60095072 5993.70707105 6059.39360574 6135.96753397 6218.48408489 6303.37282145 6500.89774222 6578.53567411 6750.44089983 6839.89293997 6936.72450198 7044.30145855 7165.19161514 7300.52222698 7448.88815866 7604.60059087 7755.66669216 7892.23730658 7973.02174395 7997.17589716 7968.07243448 8005.24355868 7957.40096507 7923.24904098 7911.84570539 7925.53738681 7962.54155573 8019.26567503 8121.14684891 8203.18171828 8297.590269 8488.94482794 8613.45843297 8764.05854138 9042.48725785 9260.61385444 9536.8260827 9819.12746652 10106.45337 10350.7454418 10495.1680678 10504.7782179 10394.2473792 10222.5669821 10129.8446241 10012.3565329 9992.62450452 10111.1930677 10231.8725522 10389.5491504 10549.9282891 10672.5626831 10715.7166979 10679.6599488 10575.61354 10440.8985849 10310.458867 10204.3440128 10030.4195368 9969.91322814 9933.88181586 10115.9754372 10057.5453706 10077.4618361 10115.610174 10176.7028991 10267.3077591 10346.7500639 10516.6802658 10738.8229107 11030.9422879 11325.2747509 11602.8113594 11802.8970873 11887.7359027 11823.6105612 11667.0892869 11425.0656492 11202.9038338 11011.7813553 10867.376475 10772.9629474 10723.6479316 10873.3846049 10881.7299717 10857.2546644 10871.0677891 10878.4738811 10879.0476093 10874.2599584 10876.9570868 10896.4627733 10953.0765285 11051.9487745 11199.3082032 11393.7576418 11664.2055711 11876.0596338 12053.669514 12148.4291068 12126.696891 11997.3328877 11797.3696408 11560.8049514 11261.319205 11050.759474 10886.2564595 10767.1785759 10687.7570443 10640.4412587 10617.7069965 10613.0471459 10621.6604857 10720.2804751 10741.0575882 10776.8149462 10757.4578673 10854.1707315 10992.7380015 11177.4808139 11398.0764005 11619.466528 11783.9218961 11838.3203117 11769.6754549 11609.5716707 11405.8337088 11196.3594295 11001.9797522
3278.65230474 3285.15380967 3289.53764184 3292.71356123 3297.6807981 3308.28291105 3325.36781863 3344.95448897 3361.30895935 3370.929766 3373.85413847 3372.52602113 3369.6623514 3366.30732375 3360.84310624 3353.78650144 3328.91096916 3291.17439901 3242.81236398 3191.38109187 3147.36697265 3193.86653243 3189.14010892 3145.08301275 3161.1472965 3166.49973016 3162.86350759 3124.182768 3094.88438146 3119.98040808 3112.70186558 3133.81910556 3175.91546256 3178.4738264 3220.98564384 3254.95121128 3284.67568476 3313.02087399 3342.64228083 3340.84855108 3375.33007981 3418.49209021 3535.83466943 3615.39000171 3720.3208279 3787.0127624 3971.88908052 4201.76409621 4509.13952277 4762.09694296 4962.44646774 5073.27494195 5061.88504541 4964.5299098 4821.0460489 4673.18265662 4545.53478164 4450.79486927 4392.74590717 4402.99184941 4374.71683761 4403.8046243 4449.74451215 4505.73336285 4555.67944999 4615.80688613 4678.24780062 4893.2029937 5042.29554097 5122.07387001 5215.61055445 5259.52209882 5375.10428828 5478.49227757 5552.51395947 5584.82720859 5573.67401767 5529.12934339 5460.29240406 5488.98749573 5555.66529536 5558.5993073 5583.89374906 5552.00611064 5622.80501428 5701.95197129 5775.70516846 5830.74950302 5858.54305695 5859.43699281 5861.02124305 5857.48635157 5950.58662833 6005.47131311 6072.61344546 6147.67308818 6227.36385128 6331.92124798 6384.13588694 6674.69236678 6761.98232757 6854.44161194 6954.24427655 7062.8648841 7180.64751887 7306.0902391 7434.71031839 7489.59250757 7600.15593037 7742.7450404 7770.06864061 7758.04899754 7720.06394948 7820.88779426 7801.11775099 7798.07565854 7814.6256906 7850.44296581 7903.65639004 8001.33407136 8079.7118437 8171.60281353 8365.76820743 8489.34024279 8533.08372098 8717.95504378 8944.30805422 9389.84543833 9656.53392028 9926.42072102 10155.9495714 10294.6071171 10312.0948846 10221.8027965 10075.5015611 9906.86139034 9906.77113323 9886.09565275 9995.66366878 10095.5273283 10225.9725195 10358.10447 10428.2753281 10488.0128991 10459.9376999 10375.8195135 10263.8775313 10152.1713257 9964.36990534 9882.12532161 9825.10616682 9789.85967925 9773.06880124 9911.19605179 9930.99638169 9968.64437251 10027.544636 10112.4996431 10177.7991694 10328.5376995 10522.7462187 10780.8128476 11036.7666813 11279.5306765 11458.8096299 11536.462977 11519.4526001 11368.5539874 11184.8611233 10994.2589133 10824.4214989 10689.8850275 10595.0246148 10537.3324154 10510.0342287 10642.746919 10646.6316695 10654.4812305 10662.3385368 10670.0548763 10677.795457 10697.0000406 10734.2719954 10806.7569735 10917.282023 11070.7230466 11265.4020634 11538.9675973 11743.4860134 11913.6919568 12003.2532963 11979.0621226 11856.2386305 11647.1949452 11368.8147484 11127.7714829 10921.7593018 10759.5342639 10640.0860144 10557.8590662 10505.9465884 10477.7485107 10467.8092411 10472.3193197 10572.3513649 10592.3199303 10542.8085976 10608.6530237 10705.3664023 10840.8169075 11018.2784232 11228.1172335 11438.4436177 11596.3686329 11652.407621 11593.5484968 11448.403129 11261.3865249 11068.0852666 10888.2423617
3251.15757317 3263.07312886 3272.93597648 3278.84313628 3279.90307435 3277.87173653 3276.06207623 3276.01617698 3276.65646514 3276.23207749 3273.90596828 3269.81465665 3264.19041096 3256.36803579 3244.25834824 3230.56546851 3197.04962338 3151.52785727 3096.7720137 3040.98283882 2996.32622141 2973.30609316 2993.80246973 3015.73458803 3040.04420656 3046.05759585 2993.71607548 2975.8988033 2922.84447601 2913.14711408 2897.01084517 2926.89577525 2952.47452178 3014.40248325 3070.83767712 3112.69119129 3145.84054994 3174.62858985 3202.83414597 3195.32997287 3225.37215032 3261.73899874 3365.29972092 3428.96779227 3435.15904466 3544.64160078 3687.23012737 3866.05581262 4124.19219721 4332.12435038 4507.09629839 4614.30335851 4651.46339251 4604.50345511 4518.36058325 4420.59912642 4331.80084604 4263.90486558 4222.05220714 4241.30252026 4209.71785857 4237.5028648 4281.33243375 4336.91595643 4388.05663251 4457.3160683 4535.87100309 4627.35736829 4959.03476894 4993.91223567 5131.72177661 5284.75224646 5440.28757798 5577.79630554 5673.85885409 5711.34700361 5688.06256845 5618.65632597 5507.58159574 5484.03079657 5426.72858914 5456.55516174 5479.65775427 5529.36080736 5606.62082928 5695.90283669 5780.88872261 5845.07312975 5876.83664588 5874.7880555 5861.66904403 5846.26762603 5842.00992624 5965.06557888 6021.83049294 6088.09087304 6160.84424714 6136.59913888 6305.23363476 6378.08470542 6456.29653451 6768.00854729 6858.13565669 6952.937581 7051.95774422 7153.58704779 7166.32067428 7266.18091642 7350.92241539 7500.37007041 7529.62150412 7533.08798246 7518.69034854 7665.39683087 7662.38779785 7670.73961159 7693.32146705 7730.80498089 7782.63692762 7766.52891403 7951.27284099 8038.50239078 8230.30190263 8229.83377219 8369.89848871 8539.7722548 8744.42487013 8984.51062774 9417.09169654 9654.06853364 9856.20256743 9983.70571118 10013.8914938 9957.6651378 9854.78822616 9716.65228651 9660.1850973 9639.07839602 9676.37581887 9931.56943089 10033.651576 10084.1335735 10165.966437 10225.4648409 10204.9274107 10142.741339 10058.5403144 9880.47390952 9795.94645036 9729.98809278 9682.84190669 9652.61902328 9637.60420088 9771.11365085 9789.33367615 9823.62566612 9876.23180212 9950.13681328 9994.72809773 10117.4472855 10272.6100281 10482.9385999 10686.3721043 10881.7367503 11032.1835855 11113.1286218 11092.8626955 11021.932144 10885.3554042 10736.3086549 10597.1530153 10481.2100383 10394.0787008 10335.7084911 10302.3486538 10242.8912482 10437.4037695 10441.740417 10450.338447 10463.2546275 10479.5865943 10509.6370329 10416.6554528 10574.2390823 10749.0921742 10895.9801328 11075.4412126 11338.2993602 11516.2271119 11661.3357372 11720.852852 11707.2976116 11605.3989197 11415.8261686 11154.3850507 10938.1211931 10752.3732371 10604.7233391 10494.3740903 10416.6666186 10365.8505465 10336.5106203 10324.252547 10326.0621166 10251.8684983 10284.5831807 10387.9321308 10446.8560965 10532.0984377 10649.4573287 10801.0314397 10978.6629313 11156.7249218 11293.2246252 11348.4136656 11310.0805709 11198.5986852 11048.3877591 10888.6909855 10736.9385687
3196.22844012 3228.09289925 3266.95089586 3280.77648227 3281.94965487 3267.9572865 3244.51767514 3220.49624777 3201.00592186 3186.69344713 3176.15885799 3167.57751737 3159.05006035 3148.37955894 3132.84357373 3109.2797908 3078.87552411 3028.94445523 2969.27912483 2908.36765693 2860.87864647 2841.21883933 2818.59549879 2902.23377681 2938.43995784 2909.26035398 2894.59703654 2865.85405224 2787.65141984 2732.43210494 2724.20843609 2757.06741419 2820.4010749 2888.94650859 2948.36820973 2989.0432287 3019.06861131 3044.20206187 3033.18085854 3054.80768884 3079.54001267 3107.75729363 3194.36531457 3162.67983496 3217.93564494 3289.32727139 3384.30235875 3508.64477308 3643.29016792 3879.45734327 4033.20670524 4147.85053587 4222.94739863 4226.94007063 4195.58232503 4058.53993842 4005.75739591 3964.02031993 3939.7554076 3938.20520928 4038.52253203 4068.85649142 4114.03578833 4159.435676 4225.7129303 4304.43552976 4397.996889 4487.62564094 4621.35258177 4935.3806943 5108.07791006 5299.14954593 5492.98571005 5663.96114596 5782.01217148 5824.61071832 5788.87392685 5685.23325596 5554.05045536 5424.94425919 5417.31409047 5430.08943048 5441.77384033 5491.91949501 5571.64198444 5666.44263814 5758.42003237 5829.20865083 5865.2782674 5863.80671756 5834.5910999 5828.52573066 5815.359556 5818.1962347 5979.06181388 5927.30106101 5980.82560391 6036.07353764 6230.50498877 6297.51876664 6369.5209277 6446.84186522 6760.74899524 6842.10099914 6923.47993243 7003.17249516 6980.74279512 7053.88323003 7115.92705502 7162.96272771 7297.17074181 7312.76930774 7317.92215037 7313.88877441 7514.45809111 7534.92028119 7564.8375263 7605.43112468 7576.48348964 7630.95117574 7697.29353818 7898.91349411 7957.74419596 8062.04167738 8185.48744432 8332.41784607 8506.39865985 8707.53777159 8928.40247454 9320.41067228 9492.63654356 9609.93870787 9656.41487681 9639.35816238 9585.81969729 9482.69866121 9459.81066573 9452.81425125 9486.83674481 9554.78062608 9828.32686687 9838.59567326 9900.56786439 9962.64822095 9949.51522651 9907.93587665 9756.91243454 9691.31346709 9633.46723713 9587.09235201 9552.26696894 9528.18399321 9514.73832599 9639.94908687 9655.00169719 9683.88156461 9727.84441148 9788.0874953 9809.90974849 9901.62943712 10014.4646281 10172.5741383 10320.4731697 10466.343395 10586.260004 10668.2057911 10671.2390463 10647.5412008 10556.6011881 10449.2983375 10342.8173867 10248.9737906 10174.1514398 10120.2777978 10086.1035719 10021.2804416 10015.2033782 10229.7098069 10239.1747424 10255.5431199 10179.5969077 10153.9677099 10213.5542585 10378.7812345 10484.824251 10618.3925334 10775.9462232 11076.408595 11215.4472129 11324.5642005 11350.4663216 11319.7511744 11271.5851326 11067.4672827 10882.030281 10704.2286721 10550.5596532 10427.1311031 10333.5590912 10266.4255985 10221.4346597 10194.5272028 10182.3952399 10091.1111098 10107.6441508 10135.5120546 10230.860764 10277.1589604 10343.2303693 10433.0174017 10548.0048559 10682.5737257 10819.0014346 10928.1756009 10981.6599602 10968.2227669 10898.4656548 10794.4789675 10677.2855403 10561.0855942
3165.19937054 3203.85528996 3242.18345973 3272.89323243 3274.03281678 3249.3764092 3206.28074623 3160.04680462 3121.68585066 3094.37261922 3076.42190306 3064.38125269 3054.56193196 3043.51787439 3028.04969661 3005.09460458 2977.10263235 2928.58446457 2869.53240375 2807.44246922 2758.28077215 2725.70700017 2739.38193525 2768.8106105 2795.4730172 2838.53677346 2825.08966867 2759.52866929 2706.59976125 2658.12318363 2650.04885462 2682.55364007 2742.55493296 2803.11667445 2849.5961343 2882.02986788 2902.30373239 2920.13504092 2854.73701002 2873.86405005 2866.75169339 2889.90250338 2840.00294662 2979.6080328 3004.91325777 3036.68560131 3083.97684542 3156.94626043 3243.48234393 3369.822643 3501.36217805 3613.98879422 3726.20844411 3770.95021231 3783.16730327 3775.24865714 3759.74014739 3746.65094277 3742.72532326 3686.70362099 3862.84039785 3897.85115012 3946.24900531 3992.56751446 4063.96622567 4150.91859872 4256.69340964 4359.56429903 4411.24331372 4723.10545558 5058.09818816 5279.66602616 5504.42131807 5702.69533701 5839.02911225 5886.4836325 5841.73844228 5720.64114877 5565.13590186 5413.3882707 5310.62490883 5251.72146765 5390.91010662 5436.32029574 5513.5562722 5607.54053029 5700.1217414 5772.89637052 5812.1657858 5814.40973244 5788.20203703 5794.91854287 5779.08184003 5777.45835155 5690.104771 5871.84420448 5918.3940551 5965.24164061 6019.5429438 6220.14862891 6285.89825139 6356.24834922 6430.15581052 6736.13962911 6802.87840965 6755.85098415 6815.79798036 6867.93858347 6911.75975011 6947.32341093 6974.84843335 7111.05743973 7130.50743029 7140.76379665 7152.82392942 7396.33853288 7433.25140732 7384.06055528 7441.72639092 7493.42240928 7554.51287247 7623.29673498 7795.5969636 7884.87966857 7987.61703131 8106.94727516 8245.78734717 8404.82761965 8579.44705913 8756.82641839 9103.12701098 9214.75754928 9279.42886124 9300.22360352 9247.57151943 9222.65059515 9233.72614463 9243.8591888 9280.04933453 9337.95969877 9536.10079014 9600.02205522 9650.82452852 9707.52907906 9717.04905162 9596.53265371 9563.12080887 9528.46103274 9497.09330977 9469.72488234 9445.64216404 9425.08226791 9410.00559569 9403.4767601 9531.26754541 9553.22415132 9587.95215226 9584.27539025 9636.82631435 9700.74159587 9775.58377099 9885.13335377 9982.77352674 10083.5721922 10174.0171046 10251.9856963 10269.5294494 10280.6411315 10225.5212787 10152.6998314 10074.8472321 10001.9810975 9940.57677545 9893.7572776 9602.20428982 9795.91837383 9789.20493499 10016.0172449 10026.3569893 9936.00674431 9895.21775463 9937.9935907 9996.86473079 10074.5772167 10257.4504357 10368.1579077 10492.4932818 10621.0628099 10870.6525976 10878.6123668 10931.3049674 10898.1569597 10766.5157927 10715.007113 10575.982051 10443.4015395 10328.389612 10235.1138799 10163.3995938 10111.047425 10075.2755814 10053.4462047 9950.54111329 9955.35602788 9969.31908286 9991.80043353 10076.6756115 10107.9437755 10151.7899841 10210.9561948 10287.3764597 10379.0238162 10476.1088595 10560.6391393 10613.1059769 10622.7153324 10591.9018723 10532.1306648 10366.7157735 10283.7347234
3118.24129013 3156.5585839 3193.91083598 3218.78393112 3215.51427754 3193.02033519 3136.38488008 3075.57550481 3025.29153229 2990.65201779 2969.80044217 2957.93599836 2949.92034288 2941.45819503 2929.3254087 2911.05837153 2890.86122608 2850.96041861 2801.45449895 2747.52398458 2695.78659487 2684.97795235 2698.44209253 2725.57130307 2749.67520046 2721.86997719 2778.55731733 2723.08140689 2675.30269365 2647.7295142 2639.87233069 2665.44009454 2707.99677058 2746.13075403 2770.12474039 2784.21435866 2790.05649836 2639.46588053 2648.98318874 2665.24814822 2685.23059213 2684.97519599 2698.41221723 2706.00705755 2807.46783465 2801.7819611 2805.3788237 2834.25679982 2885.63158806 2987.24848556 3109.04905691 3227.23361844 3360.92388923 3435.95620507 3482.21509895 3507.39248882 3520.90069364 3531.24534368 3476.74731309 3493.02840319 3511.83151859 3724.87218863 3763.07093782 3823.74271972 3899.06618957 3991.65447036 3951.44854697 4095.97975144 4275.04069678 4608.75797576 4849.04050586 5116.1345479 5447.66924114 5661.41104097 5808.45440846 5860.24630212 5810.91682299 5684.82054243 5520.1100623 5359.787735 5249.82118313 5183.73672375 5175.44407969 5360.83306694 5431.57996002 5519.19144785 5606.57807914 5676.92794436 5717.91380912 5726.09816058 5708.42153596 5741.6888019 5655.7654008 5643.6544115 5635.70446273 5650.46870019 5858.20113405 5897.65785404 5946.39291581 6146.29292435 6206.53704783 6271.47215373 6339.63225141 6408.6243943 6578.66142968 6633.99918858 6680.89710015 6718.94161751 6749.63462151 6775.61609198 6799.0869997 6937.44114918 6961.93193388 6984.08241896 7005.66075035 7065.80397778 7089.45024435 7248.73318437 7307.50394447 7356.26067409 7268.31845643 7472.39018161 7430.81245701 7705.04648132 7785.44575138 7875.54384504 7978.43222577 8096.55016066 8229.12011997 8369.43234956 8504.39405983 8825.51383765 8908.93996503 8963.26888145 8940.10402606 8952.59349501 8994.31325809 9022.09870029 9064.49226236 9119.60948516 9181.70663469 9375.7357819 9424.87343424 9492.10028109 9413.52817706 9416.39403062 9414.99674775 9412.01517243 9406.4210878 9395.09090924 9376.41200921 9352.59395234 9329.07185367 9312.25254814 9420.80548438 9434.56643148 9461.05444042 9447.72256109 9487.6806365 9532.92022351 9580.75382897 9512.45378825 9708.67055684 9770.61184662 9831.63627666 9897.17431847 9916.38107558 9944.89501813 9911.21996673 9861.35516927 9804.30717636 9748.09107457 9698.56415924 9387.85620238 9351.84172826 9566.78620408 9561.17204643 9565.49775016 9623.84588246 9644.87540143 9435.35344817 9714.72086514 9769.88981849 9838.69562089 9920.73001119 10101.9842703 10193.6313129 10282.1478875 10510.4187486 10466.1913459 10470.4533077 10345.5892255 10352.9887467 10352.4828689 10259.7425902 10173.3621346 10098.9136556 10038.15732 9990.71168271 9955.35032343 9930.71234702 9823.12168641 9821.01797703 9826.71349679 9839.11745573 9919.33932586 9931.37935162 9948.47467326 9971.29403877 10002.087159 10044.2886061 10100.1424062 10166.6786835 10233.4742536 10286.0787303 10313.3806018 10312.4402832 10198.6515339 10157.6592794 10077.0400953
3033.87249981 3082.37336537 3108.65159085 3120.91576283 3106.2560643 3058.78328526 2988.39325168 2955.49079308 2902.81155052 2869.45808173 2852.84237238 2846.62105182 2844.3132106 2841.17053888 2834.56718146 2823.42771459 2768.1125709 2752.91064727 2733.14466613 2702.75417796 2686.39142648 2680.48784668 2688.42338148 2704.56228368 2718.67997253 2683.12815056 2674.33866742 2639.40384683 2664.19896762 2650.42483583 2645.11211189 2644.24796513 2689.15198566 2697.07997672 2633.10498123 2614.88276275 2534.79547772 2530.54457215 2537.90335173 2553.531678 2572.33404219 2568.77210213 2574.71380439 2569.13785832 2550.71907383 2598.80226944 2566.36442961 2561.19823601 2590.84164044 2677.81364615 2794.45587336 2942.32030809 3058.94554815 3150.70178634 3217.07002116 3263.21715621 3296.39226934 3254.94686567 3275.98571867 3301.25000801 3326.84733987 3362.13337802 3434.21674919 3504.59280731 3590.42182059 3684.22817784 3777.587537 3924.87918463 4106.7068189 4327.45877294 4694.16138828 4962.27907936 5235.04325489 5522.202994 5671.16750624 5727.35509603 5680.78821836 5563.04936712 5407.76933778 5255.90066715 5152.65605235 5087.97728992 5076.27192514 5265.06820675 5327.64325408 5405.99595047 5485.08570243 5550.67777141 5592.65620449 5608.18193957 5602.59915569 5590.34590639 5578.214316 5576.49068618 5572.89207966 5591.12744362 5620.83944248 5833.67811466 5877.74974847 5929.69808561 6132.02046062 6193.38169226 6258.95665914 6200.91248984 6273.94272553 6539.32557206 6581.65542633 6613.56526681 6636.84845238 6655.21444106 6672.29825444 6689.86401497 6823.70659642 6849.55557824 6874.75618073 6900.3352346 6831.82221817 6906.0776824 6931.30897271 7074.52726082 7123.90273132 7210.97257155 7269.10336983 7330.96858205 7588.41817718 7650.13290128 7718.74611746 7799.40504311 7895.91237527 8007.20885915 8125.52653496 8238.67726009 8393.38922534 8459.91231915 8602.08149245 8646.19183941 8752.8638023 8796.97292495 8847.74534115 8905.36712257 8967.49930064 9167.62022149 9223.5550057 9160.26844822 9249.87760137 9285.92090366 9322.48740103 9355.77574562 9377.19668823 9378.0322426 9356.06979547 9317.92117951 9275.37839653 9240.12416243 9220.57040407 9328.56788484 9349.09880885 9264.34989209 9313.06137849 9364.23560938 9342.58095658 9382.42033051 9448.57390272 9463.79168048 9472.96450618 9473.19800436 9624.88669986 9614.03796641 9623.55973511 9583.72988837 9538.1919498 9492.77674354 9173.05311058 9129.19197321 9097.39413266 9078.18899757 9330.70110237 8986.39574883 9049.27593205 9150.96323818 9190.96731327 9475.23047389 9536.61853713 9596.22936656 9663.30736449 9832.65388284 9896.38512368 9951.59002423 10064.4722781 10071.7041416 10057.7098126 9926.2978632 9882.35387927 10002.0519202 9951.77527302 9908.9947691 9873.82953747 9845.25378692 9822.2490331 9804.2687194 9700.68442188 9697.00726459 9699.09472189 9706.68504835 9719.03276662 9794.15185413 9800.31697602 9806.83957247 9813.07601593 9821.13304375 9836.56005235 9866.10002946 9912.09214646 9968.08485955 10021.2391238 9978.87473779 9992.04803905 9985.27684182 9945.72364931 9909.9793876
2947.85467813 2966.86417781 2978.07904297 2987.94645897 2956.81554342 2899.68614534 2827.14431075 2757.96850194 2707.32324066 2729.53821128 2725.28549432 2730.86861809 2738.07615662 2741.96335072 2741.15280318 2695.79987144 2693.94847508 2693.15061691 2692.88527895 2682.02121012 2681.71392923 2681.90594139 2684.13390895 2688.30234054 2652.84379474 2644.03737594 2605.99382403 2602.25909299 2602.14809214 2635.51643314 2628.26476397 2615.26667808 2609.66645686 2581.85169958 2547.01030242 2453.79219583 2431.223025 2425.33557428 2434.08563806 2451.984043 2472.16880558 2468.38857372 2470.78208635 2458.03435291 2428.04735084 2440.59120301 2383.98063237 2351.0099253 2376.1850637 2453.87960536 2564.08542713 2705.31642957 2821.06584099 2916.02906029 2989.46888781 3045.34401035 3021.24230724 3052.3612927 3088.51281245 3113.79896998 3144.37869353 3182.65753002 3257.77389595 3328.11910293 3357.19312768 3456.99324234 3588.62815862 3730.75806994 3905.10973625 4115.28083837 4360.54405346 4737.01129238 4990.86007934 5215.57731775 5379.0849726 5485.31053234 5459.75116336 5360.14502569 5230.38891917 5101.88823131 5017.8998305 4963.00581848 4953.13927831 4983.88997952 5204.79336148 5274.07320735 5344.92525242 5406.01931274 5449.62297854 5473.69025343 5482.26092161 5488.60341344 5493.63598042 5506.65046256 5511.23631027 5536.41436329 5570.28064432 5571.85788657 5601.87739578 5862.66527034 5900.14014521 6121.70289438 6053.89377437 6130.60868705 6211.74702229 6292.27575411 6519.12842264 6553.92039769 6576.39871339 6589.41933386 6597.43466229 6604.29602115 6717.34491426 6739.94956388 6762.4661325 6695.94931006 6711.45561565 6785.62244153 6902.39943565 6941.25035453 6986.65769904 7067.77418972 7118.82751161 7169.86498849 7218.70492833 7441.76887842 7479.44695583 7527.02685468 7593.44164385 7682.80585885 7790.66332504 7905.53412119 8076.22095236 8162.94470077 8324.80511968 8391.23106497 8518.404011 8576.1178889 8635.51389348 8698.4654021 8765.37098308 8749.63993972 8919.22134708 8996.12288302 9122.21556616 9199.53591341 9283.40991135 9361.77355644 9414.56600008 9424.00002462 9387.75088599 9321.09146369 9246.62369141 9183.6396392 9144.16935169 9087.27265043 9099.61774623 9176.61834947 9238.7808285 9306.15959465 9311.89823885 9353.50262724 9388.81546962 9367.32722388 9329.92020908 9284.16052775 9393.86206826 9362.45931237 9269.03385941 9224.62420693 9013.39633024 8956.41738104 8907.30443461 8868.1438453 8840.12081514 8823.68827892 8728.6078735 8740.05517855 8805.50277103 8667.35671162 8944.60154561 8994.99081409 9289.2477238 9341.12556297 9408.42933189 9463.54204733 9613.78651025 9538.11707996 9559.51533871 9612.56868556 9586.4972561 9559.08921822 9531.35009838 9604.82131244 9664.98899267 9661.44735888 9662.48818603 9663.98883739 9508.23199958 9509.34358551 9512.19182624 9579.72716405 9585.96094012 9596.10415827 9610.0268681 9682.20944732 9686.87512926 9688.50958108 9684.95444509 9677.90508025 9674.91165738 9687.00670299 9720.47309169 9770.10639876 9752.89015711 9788.43001908 9808.78959377 9797.92262027 9786.66341725 9766.4640025
2852.34328133 2854.91109752 2846.47996169 2820.54135152 2790.9416228 2721.56666199 2644.86520814 2580.05527979 2541.84434305 2532.15494565 2591.27528076 2614.19184193 2633.62721207 2644.52018054 2647.32294604 2608.73719628 2611.89584058 2620.84333483 2635.67470402 2638.17687777 2652.17144027 2659.69704872 2617.12406779 2620.92048298 2608.85196853 2597.6623877 2556.87791564 2552.66544098 2550.91761934 2593.94631848 2581.16292923 2557.81449147 2463.9262483 2444.66501971 2397.72615461 2356.29246799 2332.57296283 2329.07848354 2341.83903329 2363.40658333 2385.91525944 2383.58458164 2385.76275285 2372.28133999 2341.02907255 2295.69115587 2263.82366847 2234.01063747 2251.26074898 2318.50236116 2414.48956997 2537.9034204 2640.04155156 2725.92085255 2795.46947011 2786.04690536 2826.37584712 2862.33923222 2902.48544751 2932.11818255 2965.74415065 2853.93450083 3081.82853175 3150.0122969 3170.09234722 3279.95961143 3386.1076792 3516.12725137 3674.36079455 3863.66970672 4082.96750875 4448.53682035 4675.79067523 4878.22466213 5034.04642216 5083.08723505 5070.48330944 5021.49212314 4921.09642088 4806.38280827 4848.8998406 4810.25780229 4807.25119428 4836.80881114 5066.08865282 5128.80291313 5193.87232515 5252.77336015 5299.9598542 5334.17619126 5363.10198059 5385.83954447 5410.76213799 5441.77148664 5457.79832422 5492.78279843 5532.5867442 5531.30859583 5557.77391443 5590.81315809 5634.79631587 5831.74042963 5986.41552638 6070.05779706 6164.47063202 6264.36580016 6361.12961942 6442.82675188 6563.76573646 6574.23256557 6570.59320139 6560.10145626 6642.09365517 6654.36891982 6589.47905864 6592.6678234 6490.88692907 6499.65613881 6518.85069412 6815.26527013 6857.93472376 6935.35850239 6983.30585493 7028.94511977 7068.40539447 7099.79051535 7272.06921227 7291.48569888 7333.11413777 7405.94356293 7507.310633 7624.53243138 7650.72571299 7762.13159418 7842.55866791 8065.04617713 8128.0075153 8364.7905263 8431.30555341 8499.92444463 8400.86285166 8429.36122373 8524.81147518 8641.56652783 8970.13842418 9138.2932333 9277.80505326 9410.59130934 9500.41959437 9515.85967929 9455.09491044 9347.28614403 9230.44052543 9133.02694953 8998.58389693 9001.39532148 9015.33665352 9102.28665513 9190.5214912 9239.52556253 9348.01584714 9409.50898413 9403.22292792 9358.09562512 9263.19787467 9157.36343543 9054.24508307 9093.86180931 9030.17016216 8974.2834771 8745.39547237 8688.07010514 8641.28351884 8605.43107392 8580.71000443 8374.60217593 8479.85605242 8360.80783211 8384.55925609 8419.44169923 8607.44177291 8654.62993579 9053.715054 9100.90552673 9066.3562393 9113.6827425 9154.39740366 9260.56615837 9271.11816482 9312.45208579 9281.89084423 9256.38231842 9239.7076511 9317.25005063 9408.50161465 9438.88738879 9471.98284947 9353.50700041 9372.62179031 9387.25258173 9399.15291017 9472.6183068 9482.13649891 9494.82191438 9511.5473979 9583.18875931 9591.46940502 9595.23191412 9590.44846919 9577.52108631 9564.83574842 9566.70369226 9554.47960762 9587.63484091 9623.95053043 9653.9064554 9659.27831623 9663.63517786 9658.81609218 9647.26933718
2755.12374852 2743.24515333 2718.33635863 2649.27590747 2588.12139282 2510.82277641 2431.66249972 2371.20719882 2344.46180853 2350.52423981 2417.03665217 2451.27582207 2475.56942812 2497.31408452 2518.36010825 2515.962659 2516.94909094 2461.14243147 2486.98558962 2501.14686798 2529.61713466 2546.16042133 2548.33207306 2539.95392671 2537.96627638 2540.53310065 2497.35938919 2491.08758885 2485.25350657 2475.77923718 2448.77803462 2419.47529287 2377.75335391 2282.40827339 2250.92264411 2272.69913058 2252.21828866 2252.7425489 2268.69196291 2291.68675898 2299.48966939 2312.43573085 2315.86176778 2306.64378817 2283.38889536 2249.12494178 2214.25339535 2195.45996948 2207.66498143 2258.16359838 2328.83665409 2423.76701161 2501.40752683 2568.95713042 2626.96572238 2608.04528861 2646.79649423 2552.83536374 2584.60853344 2619.13756164 2643.94957137 2682.92253948 2729.1666369 2909.68335681 2981.0409088 3080.87435591 3173.92328537 3286.52346395 3422.42229924 3584.10704099 3770.73940245 3975.52456095 4315.8044994 4494.94730832 4610.03161686 4690.83491313 4603.21538456 4563.12502652 4625.72744485 4560.57578929 4508.85806313 4633.66344722 4641.46292258 4673.98997345 4725.96832293 4974.09564248 5037.08045071 5097.21623443 5150.84904421 5064.85072095 5105.30428792 5144.63721685 5337.67229155 5389.90961988 5420.99338522 5468.68339042 5505.57773657 5512.23166754 5532.7375634 5555.93085753 5589.29239684 5776.63577845 5921.62855021 6011.57980543 6120.46333631 6242.93533311 6368.18978328 6478.76928388 6552.66561971 6592.64036448 6576.12492366 6543.69223255 6591.29744025 6524.71317148 6508.39002034 6402.74914801 6394.28097455 6397.89254969 6413.4505377 6441.15982771 6647.09428219 6814.15996866 6863.51996872 6910.35352511 6949.07486961 6975.69095729 6990.93235617 7104.48716322 7126.16867435 7185.89118585 7180.40328081 7280.96755781 7448.91869271 7545.64131641 7540.26281361 7626.2707271 7680.18191675 7733.47895238 8053.12334705 8126.77610922 8208.69877082 8241.81172545 8351.67059272 8492.11955093 8672.74421294 9069.82618869 9264.3592704 9452.66394589 9580.29376353 9600.16236842 9511.95077002 9361.26243591 9152.88341682 9006.14947785 8911.97465834 8907.6592899 8756.70445244 8853.92049041 9074.49183615 9244.44523886 9402.42898315 9494.05669476 9480.64441185 9382.93095445 9224.76818001 9052.33342848 8891.74280519 8786.49424903 8798.2277692 8553.71447676 8478.48066863 8419.21183989 8373.80306445 8340.83324122 8132.48516548 8119.09177537 8117.21714626 8110.81834372 8136.91003744 8173.44111817 8366.2673013 8414.14192607 8470.2989269 8788.31774214 8836.514918 8883.49341326 8924.77878825 9024.37246617 9096.13431928 8966.79129203 8956.4525826 8942.5108546 9016.08645559 9046.86922837 9123.09397862 9118.69233891 9179.85275439 9222.4843677 9256.22755342 9281.3193145 9299.95076354 9376.50674052 9387.59641852 9401.83055007 9476.42233324 9494.28267438 9510.91335954 9523.91683848 9527.3051574 9519.1615685 9489.96523108 9491.94830323 9501.51163803 9520.68018211 9543.12950468 9562.04100564 9559.76040138 9561.7930892 9558.37694554 9550.74922924
2605.41238932 2588.7836397 2576.48116204 2526.64436081 2458.20176514 2375.80554846 2293.836179 2234.78852925 2216.96293297 2239.20431133 2281.61670163 2321.74846757 2294.97928309 2298.93762894 2306.5097247 2356.05844106 2349.30411735 2356.0015843 2379.83148831 2395.14879871 2428.57484057 2452.72378725 2463.78525406 2463.63208292 2467.1686518 2436.49700596 2428.14492954 2419.92405705 2333.05888796 2321.19230042 2302.62225535 2255.87834884 2224.65992445 2217.46713192 2204.21665875 2194.57603401 2192.03601616 2208.02815648 2221.49100823 2239.21115475 2242.2373444 2251.30575997 2255.03714131 2251.74769375 2240.83736288 2224.27759401 2199.39829619 2197.69910163 2210.71754025 2238.67265747 2235.58827625 2254.86985698 2385.21479079 2312.30285158 2408.61143473 2443.25239601 2360.22158284 2390.29536574 2422.65643731 2457.89272516 2480.32279019 2518.17766601 2561.49110774 2729.85615545 2793.10443524 2880.47784484 2957.54939407 3049.30422214 3159.2266686 3290.00258071 3441.77509947 3610.01376289 3935.83023092 4094.83832004 4194.54360892 4162.77855818 4201.18104893 4199.98740384 4322.0920408 4295.70299297 4275.7819606 4438.76101443 4459.8570053 4498.81091502 4552.5262313 4812.5289786 4877.34507108 4942.39407922 4857.25354972 4919.72771394 4982.63486226 5049.45211909 5122.63853374 5339.94382594 5409.2589133 5473.62973149 5517.55707505 5524.58086783 5535.05191643 5541.70647982 5556.47444666 5592.08507823 5682.99630682 5946.71890417 6065.83395263 6206.94615631 6357.06478353 6493.70607878 6586.90311415 6610.75438523 6584.16237979 6530.72696718 6486.43814003 6359.30035387 6351.40728086 6321.26398563 6307.19440278 6306.92180436 6319.11211641 6343.96096446 6382.71674331 6592.69155041 6757.5274676 6812.04889266 6859.41661028 6893.09148886 6910.5041454 6917.16272306 6938.8098717 6973.86095597 7038.57852165 7125.39905175 7171.4526483 7252.77386313 7359.40575729 7443.15172289 7495.83593708 7554.43586717 7618.8809224 7692.04826076 7720.29868583 8054.84480019 8170.39201454 8321.94742319 8521.96028831 8808.09434788 9088.2087981 9416.49033939 9571.17981032 9595.34989652 9491.15362707 9281.75009787 9076.61080882 8909.12046294 8624.94345829 8610.52247968 8638.68634202 8749.33763014 8933.31727977 9199.15601945 9396.27629321 9513.39189602 9495.57006839 9344.99017506 9147.24250661 8916.54974768 8706.09649674 8487.36736263 8359.71313418 8079.84665949 7992.68204142 7929.82637834 7886.18392131 7895.79147703 7874.24285915 7864.33529852 7865.26099871 7862.60170301 7891.17322536 7929.51301484 8126.37708404 8175.85518649 8234.03404007 8300.20629571 8616.82341556 8670.61225753 8722.10144947 8714.88322581 8637.1421727 8809.91239671 8816.68384612 8815.66563855 8815.31719204 8892.87417099 8890.40533124 8988.40646496 9061.02291967 9115.92922343 9159.86343248 9192.4041204 9215.57635139 9232.75034496 9302.28238911 9315.94417091 9385.79689364 9407.8261679 9438.79984681 9466.1331782 9485.30983505 9466.71695251 9482.8693145 9485.5276083 9484.23595679 9486.42241937 9492.15023344 9486.52622516 9487.11020539 9485.31839414 9481.10419199 9474.5857915
2518.88236268 2497.36408583 2464.04381785 2432.22216721 2365.08095943 2285.71077507 2206.8240766 2150.48134514 2137.12378078 2167.05273962 2217.87240503 2225.55329523 2242.23731195 2242.1107715 2242.25440024 2222.84722629 2207.44033172 2199.71753985 2214.19624313 2241.94148576 2286.82926834 2356.52180128 2374.69233328 2381.02158478 2378.77136877 2334.28061186 2351.23726837 2258.38161775 2246.45606785 2232.26455949 2214.73759853 2172.65381655 2155.57862926 2173.13246428 2174.69540671 2184.40400502 2192.31930487 2188.30518158 2197.25631777 2201.72602943 2193.28488937 2194.74158043 2196.39971477 2197.12298583 2159.92265112 2167.95857621 2175.14525259 2178.3306813 2157.56956021 2131.37504462 2171.71265196 2161.45622285 2169.31164625 2178.93217689 2196.61729157 2180.90153876 2206.7465409 2236.4398736 2269.14265109 2291.38716146 2324.41282077 2360.77176748 2400.84908265 2416.5543691 2609.89919542 2683.5742076 2743.22658285 2812.48486441 2895.00186065 2994.3244642 3112.28936701 3247.03228308 3391.54751864 3517.96528435 3648.25367613 3753.77593476 3815.16703843 3846.99912003 3857.97512539 4023.83647535 4032.73847947 4050.0637007 4267.08003843 4314.77147668 4373.54657459 4440.89943077 4715.67758193 4626.46555001 4703.88501352 4785.42965249 4873.8142181 4971.92209401 5080.76472457 5330.00921466 5428.88786188 5516.10912872 5571.1197899 5579.08331931 5574.04410795 5554.84561359 5539.95560391 5568.8404926 5618.09338601 5712.52658342 5988.68936345 6137.267227 6299.2692227 6448.80972217 6551.80949825 6578.66777403 6523.6501325 6439.37318574 6369.42545962 6291.33682381 6277.81027089 6245.31101604 6230.98907466 6229.81848093 6239.02820021 6259.29227827 6293.96253959 6372.47270853 6445.76913698 6727.06925804 6790.68952486 6842.34422876 6874.737177 6891.37580288 6894.76200799 6912.18113423 6955.30053851 7021.19923442 7050.55348795 6972.69707262 7056.11473769 7100.77082855 7148.72246432 7202.40126552 7452.85771708 7523.15666249 7546.28488793 7641.6328555 7764.53442307 7927.59708017 8175.36647987 8446.18393028 8886.37698539 9166.02150012 9361.2445461 9398.00962133 9314.734391 9127.54125512 8928.3986999 8595.76563554 8465.76958836 8456.02239015 8482.46486492 8591.97165051 8776.25556719 9008.18725946 9254.7020255 9375.8586308 9352.63095847 9182.63613778 8851.48829272 8556.75738028 8074.60196746 7974.67362593 7787.59304449 7798.13184727 7713.78936654 7655.92631315 7511.64393603 7481.88834305 7616.30974323 7610.61957823 7614.80454145 7616.46816657 7647.53871031 7687.61759688 7887.21789215 7938.54130833 7999.48904973 8070.53924353 8307.90075443 8376.40415372 8537.06453073 8420.41168318 8519.00991539 8606.41866027 8740.67243826 8759.86325078 8767.47900238 8757.15589736 8793.73270051 8814.46780931 8846.50602972 8883.56940536 9082.62994526 9120.20536065 9146.5565337 9164.41118021 9226.94536237 9237.0697606 9297.49453412 9325.71127001 9290.83724289 9341.4712255 9396.35178251 9443.58099211 9472.68658379 9479.54199557 9471.2011486 9426.39739232 9403.39582509 9437.64167689 9433.6152665 9429.62012952 9348.36329453 9333.67009133
2441.6196015 2419.43522546 2388.32154053 2346.21945398 2305.57502028 2238.40311428 2171.77482654 2123.99523117 2113.29065489 2133.1756673 2165.55489769 2191.72117948 2202.13323563 2195.99305206 2177.33527171 2161.7061058 2138.28291578 2130.08071936 2137.97511334 2128.54881544 2202.96453141 2230.39167906 2233.27954695 2238.84931852 2237.02412662 2205.79326088 2184.11846337 2171.2964121 2157.47691989 2142.62067385 2127.4432862 2090.60854978 2086.08613238 2120.53563427 2141.12371266 2167.43490148 2183.53831114 2176.37600376 2149.22134646 2116.5832152 2142.78024148 2135.67788077 2133.54354049 2084.49034866 2093.2852992 2104.60248202 2114.00014337 2087.67187522 2074.7630996 2034.25273139 1986.61602135 1955.09613467 1921.67331238 2036.82729868 1989.96509767 2032.53397075 2058.95629808 2089.79159853 2123.42376486 2143.96182509 2176.68632066 2211.67057466 2248.84139708 2259.40280484 2298.20050657 2495.15425565 2537.30241581 2583.90334355 2639.22216259 2708.34233802 2795.43867473 2901.48319335 3033.10963837 3135.05533714 3262.18551715 3378.56201256 3458.78569761 3516.67849139 3634.7681044 3662.97782866 3688.34337165 3824.55430614 4067.67745625 4125.11217073 4190.95976044 4264.62592415 4378.36192806 4463.15431114 4555.62343072 4658.27796291 4774.5732869 4907.57871036 5057.6744132 5219.59892884 5480.29855304 5581.49382066 5658.4374093 5682.63811666 5655.96381236 5599.76066742 5542.14855698 5529.4296237 5546.9557299 5618.12418859 5741.80126613 5907.43748885 6181.01606488 6325.72094911 6386.11693708 6416.91638231 6367.39215997 6293.74867584 6178.97319022 6206.33794037 6201.80393847 6178.24543146 6172.06893677 6174.35167203 6180.39350758 6192.08497349 6216.54274042 6286.23380942 6360.09400113 6460.30519858 6726.73850668 6801.62478271 6856.90825631 6885.99514747 6888.73267522 6890.95530189 6857.39085235 6829.5402826 6841.13245523 6869.29589001 6938.32806254 6973.35937825 7013.83250012 7061.47899297 7302.38508676 7367.09773265 7382.4150102 7466.67035367 7571.97478637 7708.86283988 7926.04134599 8153.28435626 8428.11819677 8704.24161246 8991.85773213 9039.99643481 8958.68215289 8742.55167551 8544.98621398 8374.99806778 8261.07949909 8217.2569633 8281.15900422 8373.32435999 8466.11636188 8677.70785826 8875.67711604 9045.53868554 9009.01047961 8771.72449984 8361.40207908 8022.33414872 7718.07852754 7470.7124651 7474.44318719 7492.02238903 7421.08911087 7282.28791983 7233.47535133 7211.71566049 7359.16449661 7358.49030991 7366.39380472 7372.84225078 7406.27175701 7447.7063667 7414.46409589 7700.47181008 7763.45041091 7838.94345106 8090.60362108 8173.09166421 8145.40289021 8277.32597834 8413.21485086 8542.56963808 8680.82182363 8739.45780122 8764.08378659 8755.01366607 8726.24481532 8772.16466762 8794.81092791 8829.74179099 8872.56680355 8918.658379 8963.64721717 9053.31021179 9074.16892354 9125.60322879 9138.42930166 9187.93544326 9230.88417504 9284.91750734 9272.80649393 9360.51392023 9407.02751246 9421.92177413 9408.30412056 9384.48335105 9366.76776022 9358.99438607 9344.98127741 9338.41214052 9325.90931723 9307.57098525
2371.92731892 2351.67930376 2325.96310178 2293.57337156 2254.05485281 2209.28224877 2171.51510565 2137.33718935 2123.8234088 2135.9399478 2155.15629807 2168.89621473 2170.42214015 2159.18679136 2138.4162961 2113.8342722 2096.52687353 2080.29171551 2082.91172032 2088.60737666 2093.5495392 2094.79146628 2123.2181563 2123.49009641 2119.47380082 2119.47831011 2110.3911588 2081.28138813 2065.85448097 2050.33506458 1968.00883235 1925.5422892 1939.72472756 1971.32183966 2078.47900948 2112.08843009 2131.51721724 2123.70067831 2093.41000282 2056.85769349 1993.30396816 1966.88509072 1954.49653338 1953.8858593 2008.4451656 2014.59859533 1956.16663351 1901.8076346 1877.70478566 1832.00857024 1774.42231666 1804.19153667 1765.14903565 1825.40544098 1837.82228972 1885.35637472 1916.14155615 1950.13529623 1973.54161326 2004.92145319 2037.52724544 2071.59462731 2080.19021723 2114.24135656 2146.88795579 2177.02125102 2345.79462126 2370.80709835 2400.26731755 2441.45451716 2501.48802234 2467.47692389 2669.84217812 2793.61360977 2919.42284832 3044.78229647 3139.19327395 3193.75721923 3359.29290845 3409.14442606 3453.91584146 3498.76269335 3547.78054171 3742.55585454 3933.76059664 3907.81641843 4074.58908207 4299.6128397 4407.58557191 4531.62367983 4676.4148823 4846.02072514 5041.18469907 5255.32008056 5541.52156939 5698.63245378 5803.20259582 5828.90618849 5775.2527176 5671.41605661 5559.01276849 5493.50164142 5469.01095511 5506.27088005 5601.15862696 5739.80614506 5910.00023267 6051.1233284 6148.9711392 6176.23637327 6127.07893409 6091.58485718 6003.68671072 5946.37287795 5969.90525709 6129.53830109 6142.4396179 6153.52402776 6154.89190143 6150.73880123 6154.65414613 6204.44322531 6268.63784575 6368.4156068 6496.61222855 6743.08008391 6819.37009862 6850.58392762 6863.53848606 6841.03065897 6812.75662122 6765.69070301 6764.8073272 6783.84744368 6842.42368877 6869.29727704 6901.74276494 6941.74155804 6991.7822599 7094.14892924 7233.90256482 7304.90600249 7387.77041545 7489.13059502 7621.02637378 7823.98164661 8028.67032243 8240.37813328 8401.21358036 8596.54235467 8415.87581903 8290.49713641 8234.31501824 8104.83574442 7847.08499617 7799.72644824 7818.82860471 7902.7706039 8129.17028303 8275.60574845 8402.98643984 8302.005987 8232.22070033 8080.28635719 7820.34435176 7531.12199467 7277.17955036 7076.00271934 6965.6357462 6861.61067636 7023.8084892 6977.66473793 6954.69778685 6943.04567236 7103.87719143 7108.8144852 6835.56734856 7132.33330297 7167.86022505 7209.99052903 7171.11961304 7373.38199999 7522.60688172 7599.67781132 7862.3328305 7821.49842784 7957.87648881 8117.72843451 8289.56235178 8459.63424656 8637.24836869 8725.48764194 8762.31339892 8751.22102531 8708.45675251 8738.15436978 8750.69194929 8782.80443178 8829.38364738 8883.96845707 8940.0218377 9033.31049635 9057.60624365 9091.32769442 9098.13829399 9074.29055239 9099.51611396 9144.06135857 9202.24666777 9283.74351848 9324.55135518 9342.91516659 9341.85396198 9335.22214449 9335.95113655 9336.17319636 9345.69553137 9343.40793588 9326.4113024 9299.09848094
2307.2320914 2289.70884078 2270.11739575 2247.98916838 2223.06644297 2196.23853154 2159.77797968 2141.1340047 2136.63314866 2140.3203905 2146.28475835 2147.98650688 2142.04309169 2128.77419835 2111.10918223 2093.5780402 2077.60560056 2077.25685478 2074.64613168 2066.22072133 2053.37495559 2038.39081148 2051.1849722 2043.18693018 2034.16984922 1992.62459188 1977.2899042 1911.41457855 1868.29603117 1856.50772174 1821.55073529 1821.30598221 1832.51039303 1858.42878473 1897.40073536 1937.06102417 1958.83583096 2017.06635182 1929.30659949 1929.8142178 1832.90738997 1806.15111563 1866.6091737 1862.35748138 1862.27166837 1831.44597097 1767.75118391 1751.01952247 1715.43270791 1663.66701172 1605.80255752 1542.08231644 1505.83993539 1551.30950388 1683.57753578 1600.40433578 1779.84033096 1656.92559582 1842.59840024 1874.60041837 1907.10394559 1940.83778168 1949.75421805 1982.37276406 2011.39378812 2034.43700396 2174.12526206 2179.78339251 2185.64364661 2201.78841376 2142.66951658 2206.98097802 2381.80414218 2499.20377654 2624.33102719 2733.48483961 2835.23491839 2922.76816596 3108.72517294 3173.54442882 3232.14142761 3288.88848734 3363.76327356 3439.6356908 3523.38598548 3811.87847639 3901.41916468 4004.45366453 4173.73405366 4396.74248731 4567.43168343 4771.34256062 5010.50738007 5278.10134854 5608.23682027 5817.24976364 5956.17655141 5985.75192186 5902.90032784 5746.16914717 5518.31265357 5450.99735525 5380.01392873 5377.99101203 5437.3600551 5541.39707396 5680.55321627 5790.27875918 5867.52926597 5891.64041961 5868.1689514 5767.31359153 5716.9512217 5709.28267307 5925.10477402 5990.33715644 6060.56341384 6180.85728338 6174.51143644 6143.69845019 6112.8770933 6128.51045588 6169.90040363 6255.85444418 6271.63909779 6543.32394451 6684.26284452 6755.68444774 6778.19463072 6763.46631082 6709.73285333 6689.52120282 6693.26826686 6715.75350527 6770.35970378 6791.75306209 6815.2258216 6844.92206313 6885.84986147 6981.1708276 7106.61114743 7168.16557373 7232.68942157 7300.9933941 7381.91902894 7520.54642429 7654.44591849 7801.99439461 7923.96918276 7815.17841829 7966.81602727 7788.76873325 7678.83971682 7569.52510114 7564.5912035 7522.97281706 7526.94527748 7573.61822083 7650.55525985 7616.76592837 7681.13000149 7639.15525837 7379.93768836 7249.79801745 7002.3714534 6757.05423097 6547.71759116 6645.22674863 6588.78121009 6530.68214308 6383.2491511 6685.74345692 6679.09650892 6678.48849955 6556.5497337 6571.8689156 6595.02296098 6624.26889346 6933.14722738 6975.22224564 6929.76213639 6977.21534144 7187.44117076 7259.15686016 7266.71694778 7591.08480643 7540.49147581 7920.06860258 8120.25140779 8277.76348496 8470.53702684 8598.0365973 8697.28755706 8692.67290444 8651.79252177 8646.42684105 8636.5233121 8655.01871053 8700.30031801 8766.90526932 8847.64893639 8969.5535471 9025.31306738 9065.51947533 9067.9540017 9063.08356593 9069.49346982 9095.24599902 9135.52410165 9207.68384226 9241.64009591 9263.68645698 9277.28254911 9282.41581731 9310.55702677 9348.86861425 9377.94006803 9377.79919446 9348.51875184 9304.2764327
2245.16058304 2229.60761933 2214.84701285 2200.99818064 2187.83091732 2134.7781597 2129.24079952 2124.83495439 2133.24573508 2131.42339227 2128.7207625 2122.69519957 2112.62083152 2099.93449331 2087.68549477 2052.86470025 2063.50932168 2070.32937773 2061.49378592 2039.08564712 2009.21736753 1978.80885835 1951.43128066 1960.84565195 1900.88126552 1793.65413483 1774.56248761 1756.80148262 1768.98283763 1753.34907746 1712.65187542 1705.01666899 1705.23928696 1715.89230258 1736.53918278 1686.96596041 1706.29626961 1703.31077781 1776.39151978 1739.22321396 1718.27136551 1703.22664001 1695.02758698 1691.90675681 1624.85246018 1619.74178295 1634.20692089 1604.00383133 1556.76370334 1496.97974878 1436.5832229 1378.49542079 1355.08860279 1405.33509479 1431.44420287 1484.84343147 1527.87044595 1557.53048922 1583.65890075 1753.22789698 1727.81929844 1762.1798787 1830.52545084 1864.13344163 1892.78557702 1912.65168108 1921.3110575 2016.8019868 2002.47174865 1997.17219921 1945.67582336 1994.51689271 2142.48931549 2255.2467967 2239.64070445 2345.70995618 2528.51783962 2620.53914494 2701.96674938 2775.33453846 2844.02374296 3072.41002214 3142.41245831 3256.57268165 3344.95644938 3580.92847284 3673.38721749 3781.81987601 4016.9745054 4172.06657214 4362.61485631 4664.42097982 4920.40881118 5238.38318646 5555.89250038 5852.54451671 6048.37873459 6087.59655024 5968.93666525 5746.54781551 5501.74571121 5284.13572347 5269.75186216 5230.6511645 5254.79150227 5214.24124978 5308.55561607 5402.97553533 5459.58359741 5603.60319952 5606.495581 5543.37584441 5556.68990795 5621.68295011 5750.60555018 6026.01002573 6151.67291311 6218.09322418 6194.99272669 6102.7001811 5988.30332097 5925.50781086 5912.508648 6005.24837412 6110.49307278 6125.68525564 6396.36298197 6600.83401219 6557.26960305 6549.79355829 6600.3955181 6606.22413861 6633.96352497 6705.98026487 6732.56164412 6750.31108185 6760.95145718 6774.10336589 6800.96859309 6888.01261419 7003.67683094 7065.84600368 7126.40484535 7177.31684791 7220.5227933 7192.33364469 7250.26567158 7323.05722353 7357.33029385 7381.40519893 7441.04622921 7387.72668553 7313.85567284 7235.06993852 7262.08275776 7223.76209447 7213.18802404 7226.02047312 7102.80604726 7124.88097296 6917.47145409 6814.49202336 6678.08211178 6565.87609583 6361.73896366 6186.47462174 6058.49973359 5972.0513701 5762.99061278 5903.76448095 6093.98224888 6078.27440081 6411.7378332 6421.24567071 6313.86621357 6334.59847057 6362.14829317 6393.48784485 6427.29908326 6631.84418309 6692.13830903 6732.81373452 6782.65602719 6673.4010281 7008.28347452 7084.83237015 7275.45711753 7421.22866189 7674.31979254 7936.86662365 8227.53508853 8395.61611876 8484.95649735 8550.74750113 8545.73403627 8569.04930115 8570.88513679 8599.59341033 8654.84514887 8732.25863154 8825.45511209 8961.49791681 9007.49017304 9067.85620286 9073.02684457 9056.41794563 9046.18340681 9054.47668863 9078.41237374 9142.14158087 9170.45389094 9195.93129366 9209.78344105 9247.77202959 9306.09366983 9378.85293077 9431.92017861 9429.86898857 9379.5042319 9311.80466578
2184.38781064 2169.09281049 2156.69100926 2090.198947 2095.23405952 2095.44612976 2096.21545659 2096.13165157 2094.09764188 2089.29836903 2100.10179588 2090.53437845 2078.76334371 2066.91593879 2011.17828535 2017.95869256 2011.53597673 2015.02717848 1995.25780014 1953.68926567 1902.46758533 1867.54780299 1801.42388727 1767.2960261 1658.0311679 1699.90329311 1679.31689262 1594.91090389 1576.41317336 1559.01670891 1599.83767325 1580.75012289 1564.34091559 1465.35968041 1469.30193997 1479.65232515 1492.20796616 1500.71992516 1501.0825439 1591.28122759 1592.0501649 1591.45245468 1535.8490706 1536.16653888 1514.05476718 1502.56689663 1480.46328144 1472.89527633 1416.59889874 1348.64367215 1273.35734159 1202.72241343 1191.72445761 1205.04204813 1235.82434445 1262.56927536 1435.84001145 1469.85964922 1477.44561096 1499.6722737 1524.0380841 1651.51763637 1566.36083494 1603.74195079 1790.70097065 1812.02158353 1818.86880034 1831.85687247 1857.69804606 1789.13001905 1797.21732921 1853.4954117 1925.98574306 2026.19665054 2064.62774791 2240.21629393 2340.29585954 2431.01715261 2513.06536482 2588.55037399 2660.17903922 2897.6735443 2971.04072712 3047.37607243 3324.57218703 3411.79231818 3505.60264683 3615.59317885 3748.22918803 3911.7733701 4116.04502576 4291.0201237 4628.72239088 5001.51806963 5399.61055818 5795.52110291 6013.1613558 6057.19140465 5905.98693479 5630.38210728 5324.32823781 5158.34794042 4988.74886592 4909.16617258 4899.75113662 4975.86453744 5039.00440189 5093.86021684 5148.19006362 5187.04011017 5241.66766379 5324.06616524 5394.02613013 5524.03770784 5724.78987936 5974.12230199 6235.83437392 6331.64000087 6294.5096523 6149.94541978 5973.25216718 5852.07124694 5792.92986484 5698.05314101 5773.83582152 5888.17364688 6007.77124961 6251.10572122 6357.42443308 6382.67319907 6338.73970278 6382.75967237 6455.24881452 6537.39302141 6746.45831578 6760.04527217 6748.52118303 6732.59639574 6735.38615112 6724.31308234 6783.26378987 6998.04635591 7076.89853642 7136.86072125 7106.40333445 7121.59677665 7102.03128519 7091.88310521 6975.98262226 6919.50975625 6868.90815975 6757.52095538 6675.33344879 6899.33686162 6851.01419738 6913.84694368 6891.62620542 6453.05721552 6462.01041566 6454.82684717 6395.26369156 6239.69381886 6077.4187394 5889.19581569 5790.72417128 5671.18124501 5614.90453685 5478.94641591 5463.8913922 5442.63585374 5536.25993491 5514.93242404 5832.49740904 5922.15966751 6081.23885658 6106.15435973 6137.83612053 6171.59399356 6207.80997829 6404.04413045 6461.36971816 6492.57656371 6359.05042757 6423.53781088 6431.972372 6515.02064302 6698.81606129 6927.56746662 7366.51237767 7628.37958962 7935.1446127 8114.56287023 8225.05136345 8361.57335835 8372.09902955 8465.72245973 8487.8451008 8530.99354836 8596.30151094 8680.83732835 8779.17185673 8838.81063929 8968.45321141 9028.48288761 9053.57644452 9034.48854238 9017.38224126 9015.65200353 9028.66966453 9086.85464573 9110.796547 9122.7959485 9158.10196109 9210.35866644 9289.47341389 9389.57119957 9463.57658452 9458.65293725 9388.8311079 9302.03522218
2067.20243637 2056.7986646 2038.28182115 2035.11032257 2036.21350907 2046.54394602 2051.11282788 2054.10390713 2053.73490311 2049.19270698 2040.54728847 2051.37281004 2038.36178311 1966.76428152 1961.75132234 1961.31339666 1937.86236725 1930.05314272 1902.90487939 1857.96213847 1749.00022459 1693.62165388 1648.6731574 1614.18255701 1569.03376791 1543.38763249 1527.74305139 1506.92883843 1485.77272525 1463.30379918 1412.84008782 1360.10905258 1332.36743407 1304.78680768 1283.00945017 1274.6703813 1283.8778353 1306.00030307 1330.51068042 1331.11720618 1407.99839894 1421.30750404 1429.18653512 1411.80465032 1409.05445578 1396.28144502 1372.52885195 1333.67466835 1304.5436749 1199.8205311 1132.94131005 1096.86712364 1093.80364082 1119.48615318 1162.62703817 1200.16612926 1248.21212455 1378.29946489 1400.26027544 1375.17764091 1398.88891184 1452.55044905 1489.02575086 1530.47862447 1573.08542872 1612.08120799 1642.62086663 1678.15030757 1672.60626248 1671.05115902 1692.43434509 1717.41637173 1768.85672449 1901.1276577 2004.73625169 2095.30566529 2186.93437663 2271.29939863 2349.29231816 2422.67013513 2493.49210904 2736.0316742 2809.95085852 2886.27451219 2938.19510268 3242.17171973 3333.2920022 3439.32242477 3566.57052258 3723.10747954 3918.61263472 4079.28799071 4386.30087035 4763.88975618 5150.96197933 5500.34424588 5749.85269101 5798.27938869 5661.25950919 5401.11046824 5109.58179134 4857.03204736 4785.70552144 4694.15569784 4665.90923208 4726.58443407 4767.33894192 4799.80317064 4846.15401523 4891.35085969 4873.61492934 5096.96423676 5207.86921155 5382.76309009 5630.64637528 5928.01431458 6201.1264065 6342.25337702 6299.01735845 6119.63796832 5899.34311291 5653.75859654 5540.06368231 5513.94819252 5556.41476484 5640.65290003 5739.64360583 5880.48109628 6019.75855139 6141.73357884 6221.40994065 6336.20712545 6485.15056849 6636.09951382 6735.10764861 6832.6997511 6783.85865199 6719.84593449 6683.41254913 6654.91122449 6716.3383222 6841.7500102 6989.27664264 7128.95266987 7180.03830087 7124.90109478 7039.59241475 6856.10008697 6742.31995516 6621.52582441 6497.09270329 6412.94710023 6335.39437268 6266.87034895 6034.93355278 6318.00503556 6112.36383292 6100.9452196 6086.17146699 6051.07663115 5914.3700198 5782.33537842 5610.24906016 5427.12359277 5279.56440916 5256.10780528 5171.5654085 5197.23059769 5222.88594107 5230.93954373 5332.85459635 5326.14070022 5069.53235368 5194.21343216 5514.65189658 5529.77426208 5555.97190005 5593.01569701 5660.01254537 5947.29146449 5891.07305145 5773.36277453 5834.64724687 6107.56044218 6125.1092514 6234.06188777 6386.73177436 6590.92290009 7016.57889302 7277.46173293 7599.5890739 7795.6841305 7933.68881784 8146.72502999 8197.66556779 8343.69867218 8389.41082169 8448.25643803 8522.47366338 8610.31768682 8641.38433102 8755.67104524 8884.19189815 8936.38048784 8968.52767525 8948.35551427 8924.84641535 8912.3330532 8916.40879013 8928.60335269 8934.45634093 9069.40350651 9106.04345913 9158.69368216 9236.34008507 9335.79271358 9412.23259702 9410.36810928 9342.31772598 9256.4843257
1953.56593591 1948.04234487 1943.98262789 1942.40126327 1982.81954041 1942.92318671 1945.56532892 1945.9243383 1942.17750539 1933.64436937 1920.91080732 1878.72278976 1865.3260671 1839.26420969 1830.69704822 1823.5235634 1843.35021652 1819.71693113 1781.78914958 1675.42028157 1621.74010122 1575.52540204 1540.69839707 1515.45548553 1477.83762645 1456.82078597 1398.72539735 1421.54929465 1398.72324876 1372.48632671 1294.73046805 1252.56192246 1207.77148159 1157.3369342 1111.42936604 1086.77270509 1095.59865791 1132.80975782 1145.7188114 1153.67146548 1175.82918403 1187.07217007 1304.84599779 1311.28981307 1311.2515852 1301.35763161 1281.82326324 1248.55086406 1185.15532856 1120.43545814 1067.92249019 1034.71299986 1035.12878863 1066.08496934 1114.54385882 1157.17874445 1192.59928573 1210.94539074 1294.46935656 1309.85547212 1329.69207249 1379.21618478 1417.73791266 1463.57654338 1438.79802141 1495.7252812 1550.41234066 1628.91729127 1651.29483534 1652.18611266 1655.79027536 1672.82757716 1712.18267632 1766.68980422 1797.53054662 1982.68431295 2061.25070843 2135.44959737 2206.16652352 2274.61399919 2514.35366991 2586.53992957 2658.79510507 2732.8531637 2778.90226211 2852.89858875 3157.18564175 3253.87123116 3368.24920483 3507.3744822 3679.78165082 3805.96645385 4074.10761912 4389.51080563 4806.44503328 4981.99298425 5205.33480413 5330.84906281 5227.55915744 5019.64722486 4780.72393755 4568.19995087 4390.22062331 4285.07504899 4408.1358731 4414.89014152 4474.9421218 4357.09785618 4406.92534828 4465.49088074 4588.08283702 4682.08979654 4976.39057547 5167.10927862 5424.50187856 5725.05839913 5996.68554265 6137.24875868 6081.46950113 5882.62618738 5588.32754077 5465.08526829 5341.30872792 5299.09991583 5321.75436076 5387.22453283 5475.36032677 5628.79096546 5719.87912343 5780.69489711 6109.72513906 6298.45785752 6533.14205013 6767.482259 6917.0374697 6916.13030742 6785.2234198 6721.5835902 6596.02975018 6400.79014972 6487.73857019 6775.20464765 6966.5367859 7150.7879105 7220.41464336 7117.12263798 6892.61297719 6563.89099703 6332.2045583 6126.72448629 5990.62181615 5887.49746823 5806.80591181 5679.60168778 5621.23579978 5701.57499815 5482.18712652 5777.1261905 5754.88898551 5713.38982429 5570.30390648 5443.24943084 5283.41847847 5118.44686595 4994.23335765 4934.77432569 4955.84866817 5005.23393464 5047.39964635 5065.95479746 5163.5889006 4944.78685355 4926.70181546 4913.58358798 5048.79632052 5357.26537785 5387.13618669 5428.80745304 5152.79604507 5120.94861172 5418.58899256 5479.7693156 5667.6256223 5706.66270028 5883.50358489 5951.99824417 6069.47175003 6248.45677615 6481.91929296 6839.88832259 7226.29870724 7475.70251996 7643.91336405 7765.80783155 8018.31365845 8161.85155005 8279.04726735 8352.51227419 8434.16033451 8444.67536318 8550.9678239 8652.92463754 8793.6177763 8837.51706296 8887.15735596 8887.75847653 8884.50726371 8882.17657751 8883.38855483 8878.00799908 8898.12234312 8931.5414682 8999.46205968 9047.15950678 9108.32745367 9184.1387772 9246.4397786 9250.25465438 9194.96550565 9114.95310325
1920.72761808 1915.53033663 1911.36724785 1909.03139667 1908.90700063 1907.05902152 1906.64961479 1903.58476596 1896.55539802 1885.17053037 1869.86548044 1826.18838452 1808.25899461 1790.10724615 1753.79332402 1730.68737378 1700.6475454 1659.71238021 1589.09176031 1529.46046262 1480.72067442 1445.98664586 1425.67231139 1414.14780684 1387.7170608 1338.46702732 1317.74393492 1296.24580421 1316.69661647 1242.02092605 1209.74534746 1161.37717811 1104.73215636 1036.40961786 970.454071005 932.674868172 943.114054253 965.664292006 1009.07708006 1054.61338559 1084.60399515 1100.62077768 1084.49017681 1085.69528599 1088.06024822 1215.36888264 1204.56171768 1135.15952732 1110.72160235 1084.53364347 1044.11809107 1017.43127439 1018.29782724 1046.21095361 1033.06560992 1048.5593852 1083.53331621 1161.95399737 1163.64479405 1255.30898634 1270.05096782 1313.30990582 1293.24914007 1339.38878479 1394.91800812 1456.24216989 1518.44096905 1607.28882222 1639.99436972 1649.57646793 1649.64126108 1653.66078842 1665.44138324 1720.59904816 1732.11540063 1891.84192224 1954.52114182 2016.65118483 2078.67460499 2140.9378951 2378.83490197 2447.99546652 2517.12321714 2587.25220005 2625.9988851 2692.81880842 2766.03933205 3062.26085633 3157.54573248 3270.61953058 3408.1009913 3484.25391321 3693.71264743 3939.35647571 4188.73278675 4439.04655689 4550.02337137 4679.87946042 4621.16154122 4528.49586518 4364.91981705 4213.14815746 4071.32105998 3987.39346214 3944.00102506 3818.5298397 4019.38078899 4051.71150802 4096.86285399 4154.8975421 4287.53837124 4382.76387344 4520.35462853 4689.81748749 4949.89343121 5246.23359105 5496.97952149 5629.9925091 5585.77009214 5396.22307814 5106.82478806 5068.10120372 5085.14900065 5048.146853 5066.70630864 5125.21986545 5210.46966231 5377.95990234 5434.87486707 5586.37957987 5795.57615125 6224.39559337 6533.39058393 6843.89642394 7042.58060315 7026.85740462 6845.87633056 6501.90383787 6237.76640972 6141.04088917 6204.48074073 6406.84962929 6761.72595717 6976.84578917 7063.13479188 6940.06100458 6645.58542524 6332.47407102 6071.25995814 5839.88287793 5695.19375421 5591.82856204 5515.39926354 5389.72150384 5335.41929289 5225.39955001 5203.34984688 5191.80087411 5160.92662394 5139.86278592 5053.28248092 4999.38469948 5079.97179188 4952.46104305 4859.48180519 4828.37824685 4853.63182883 4897.39960298 4930.2951225 4940.89676556 4743.98307567 4818.63087122 4804.53147122 4797.11621979 4916.5774421 4925.69399022 4663.16743442 4684.47625943 4950.75418884 5013.40134157 5085.46419363 5355.72901703 5332.86946032 5385.73989379 5426.43040771 5688.16981022 5770.62864155 5927.97510363 6085.4254382 6337.48592446 6907.61228377 7144.68986595 7375.90450672 7529.27099552 7744.20643033 8020.65493951 8104.5783373 8116.33223052 8214.98299409 8329.03365495 8431.27788574 8549.33938942 8698.11759287 8750.55239054 8828.25340432 8855.63447063 8873.87371891 8877.35925904 8858.66185625 8855.90510857 8871.53680894 8907.5008498 8975.95484923 9014.80241458 9044.89963886 9071.65778108 9093.87690144 9092.95560588 9061.06661166 9010.15870878
1896.56340469 1894.05643359 1892.31217105 1891.23530213 1871.3648913 1862.3344136 1847.63736739 1829.53756525 1809.59341885 1788.38586654 1766.06130438 1774.12612014 1709.54478799 1681.58632429 1650.38340745 1639.01113306 1591.74668323 1469.73671095 1408.63563327 1382.85990557 1336.3835048 1313.70051283 1310.93200839 1295.82640902 1270.07290129 1261.41523109 1242.61576771 1221.49493792 1151.62407335 1120.81879275 1090.74716243 1095.48092089 1030.65155642 954.203349142 861.987933145 826.114497437 836.399104525 885.695283227 936.028100987 982.819573626 1012.15155576 1026.44158234 1008.16787809 1009.2967853 1014.25981451 959.593500565 968.34341917 978.892605595 1012.674933 1015.75037157 1044.19004746 1028.19538475 1014.83243155 1017.58639842 1025.51145147 1041.40679782 1048.65355736 1081.25356776 1111.67727589 1170.77520669 1178.41187738 1224.12797949 1254.18113434 1297.16646008 1351.11858377 1412.74268162 1527.87726476 1577.58759901 1606.03179836 1642.46142711 1645.96051488 1645.63227326 1645.96564531 1649.00297335 1647.01046869 1651.58194022 1857.36658036 1908.00000973 1961.95328063 2114.96688364 2253.47285653 2319.25381396 2384.57337565 2734.66072407 2480.5624987 2538.59975205 2599.46281272 2869.08145675 2941.08737024 3022.28838346 3116.91586347 3134.0240432 3126.98733123 3304.94659565 3598.31629023 3779.33368177 3927.30662566 3997.75236683 3994.78635208 3933.81777511 3843.09783141 3627.7107523 3719.82764438 3665.65968148 3450.42117673 3516.24771623 3483.88082988 3745.68851055 3785.58642392 3837.99990182 3918.46223851 3853.11509218 3978.56383309 4144.54969368 4491.02058304 4703.50763216 4883.26509123 4982.50087986 4965.75247824 4763.6874961 4649.26602855 4502.11933704 4555.90395492 4525.15415998 4790.63129064 4616.24864984 4737.31559814 4847.58332989 4955.437017 5142.91203979 5403.7688262 5758.45581689 6300.4517122 6697.26210377 6954.14587212 6946.26517509 6704.95976538 6386.50576141 6100.47308381 5978.85954627 6005.6973049 6154.86002076 6356.01690982 6541.37788748 6596.86645909 6458.62788487 6216.12503257 5983.1668317 5708.82901614 5523.45215461 5395.83753738 5306.88694819 5241.35601021 5120.14326062 5069.96604293 4967.23218809 4948.65987988 4942.51591932 4919.95174685 4915.64691602 4853.24789812 4838.72728598 4823.64787677 4813.13810645 4817.80511928 4813.10879309 4826.02182146 4842.76127526 4848.64710681 4685.16659191 4643.72928555 4711.36418501 4704.22630269 4571.45913804 4584.46922393 4591.60328273 4614.18393374 4629.89993539 4663.41453799 4916.92621589 4994.09775186 5195.02322037 5247.6514835 5294.37662253 5318.21302784 5467.4270644 5519.20443569 5614.26728083 5818.21324463 6064.06958735 6455.47161381 6890.26321789 7099.27884124 7137.35242546 7421.59011976 7544.81762851 7660.99227242 7961.57457486 8111.18139552 8227.5168738 8329.23713652 8428.90482935 8614.47102467 8689.18594749 8803.47438858 8870.87954339 8916.7031155 8908.76787876 8873.32140598 8844.73931947 8850.98014026 8921.0990745 8979.73870091 9031.55151842 9045.29712383 9025.1774191 9000.09073869 8976.48501369 8947.45418473 8911.96474278
1844.78577809 1860.02161634 1873.72317999 1882.06681276 1879.96860243 1864.68048954 1839.33686002 1809.52243605 1779.18148035 1749.6772913 1720.83302314 1675.47030591 1639.12508217 1618.98170085 1578.94790715 1497.91989683 1426.4671172 1361.27449577 1288.81218359 1221.87567833 1171.99728314 1190.03608881 1206.12114492 1201.73568985 1190.26454 1193.48257651 1135.16941329 1107.6220699 1086.27137406 1059.50779202 1035.17525969 1002.36011796 970.986099426 888.883979437 832.89331009 799.721283653 809.086796919 853.111315942 896.558446095 934.366442563 955.27306309 940.142205168 938.395417478 886.313041867 890.604787011 898.058072703 912.28649923 930.449036379 950.333066761 990.516809894 1000.88039414 1003.46773586 1006.04591263 1008.2043532 1015.69053188 1016.54401109 1050.56536892 1095.66811169 1138.04540287 1165.18534995 1163.13679088 1201.05718357 1223.83155415 1260.10179516 1308.15863016 1364.80816484 1482.86243853 1550.04261405 1586.92812578 1617.16869217 1623.29017273 1620.3607758 1612.58588384 1604.44998095 1590.87688142 1587.65090489 1590.20579469 1729.96875987 1852.07823207 2000.48666421 2136.58618067 2199.48866517 2548.68702288 2609.09973612 2664.94228676 2392.34307087 2746.2789869 2778.03487073 2807.44372477 2773.36577526 2821.44336075 2718.53668641 2699.96574584 2791.45808276 2891.76778595 3004.49334961 3237.07747852 3324.55101648 3376.57596353 3391.28217542 3378.02270715 3216.54056278 3149.71500074 3167.30541671 2985.1638247 2980.2744625 3191.57386962 3223.88375438 3262.06373217 3308.82384172 3368.80048423 3504.39427797 3588.92781494 3693.42588039 3815.78008188 4093.48960141 4198.52084888 4162.30371452 4178.35761981 4142.50363514 4137.54266778 4079.03671856 4043.93082355 4215.1239103 4253.34826851 4338.50192023 4423.3228818 4434.57319647 4684.1162927 4866.35773498 5114.71371448 5444.85809898 5846.59325826 6335.88231323 6572.72212973 6582.00115616 6387.76902952 6091.99308311 5865.94851269 5749.0141072 5747.02898075 5835.05908516 5942.81121062 6035.66860198 6032.37363491 5897.85321152 5633.3788397 5380.44274336 5327.86727817 5190.66737819 5100.81752213 5038.17148725 4929.20063005 4874.0114691 4827.26761791 4732.83363079 4717.26316515 4716.56132462 4702.64906877 4714.37732153 4672.93282784 4691.8002813 4718.21751462 4749.65438703 4777.21113581 4798.13863134 4783.45311883 4690.67308578 4614.15006123 4588.10006291 4550.73572852 4480.12699942 4523.4534255 4549.9941638 4572.14318054 4576.31771185 4586.23348751 4588.4857822 4610.51803815 4662.18129761 4793.42121066 4900.92150864 5185.89164456 5240.01652395 5236.2751336 5252.65449796 5301.97934779 5353.93184276 5630.78568741 5863.95693114 6246.95311695 6649.46450046 6775.96680145 6953.76928921 7262.87711975 7398.60966586 7525.44281935 7850.9490434 7954.33155472 8057.81429478 8176.35148005 8331.11308425 8533.44897186 8687.84380306 8798.03252798 8924.84013104 9011.47360578 8998.52703168 8909.07338949 8835.51041431 8826.06741934 8906.22397433 8997.70457661 9088.11917346 9101.68000476 9030.31471808 8950.6396643 8896.49169122 8859.56783654 8803.38684758
1814.02759324 1855.50841163 1876.03400738 1889.5716724 1887.51295833 1866.12240952 1830.42979171 1789.39531337 1749.24745763 1712.02191162 1677.23862057 1639.22746061 1589.56311421 1545.38817741 1437.72617171 1389.06545777 1305.10504585 1239.22814267 1168.31810048 1105.44853147 1068.13825047 1076.08284378 1099.5735223 1121.58293013 1133.42928292 1097.13710956 1077.41714328 1046.93528855 1025.50496897 1004.10658832 988.306186168 967.046043856 907.4969578 882.634879623 841.409053303 817.158721292 823.214522374 839.167453695 864.374109543 880.544375428 855.461654952 882.543431091 873.438704099 826.69054849 829.927419639 838.789383574 856.363713933 878.986225306 903.766708191 954.087737084 965.031954351 976.361191515 982.723477707 988.001371943 998.654223661 1003.70269463 1045.91953224 1101.61581354 1159.05408226 1184.0653164 1178.31335453 1158.82074993 1138.75817376 1228.32076032 1266.74503871 1349.31154578 1454.42640393 1500.75199116 1536.15570022 1571.96740469 1577.43462888 1571.67309252 1558.26745736 1542.89688339 1522.61736348 1516.51879584 1519.56746865 1529.6247429 1682.12562245 2006.98051141 1940.80724513 2372.3185445 2435.36166955 2491.56679276 2540.85411039 2578.29664019 2600.56833265 2614.60899258 2619.28091434 2348.97662949 2380.16656559 2384.65546726 2294.30049052 2326.32205077 2329.96208095 2384.00820452 2589.63221431 2699.83941701 2804.43320253 2885.68099045 2938.30148984 2824.73845701 2678.87372172 2689.36506129 2686.84137667 2691.85605129 2706.03905245 2934.57786197 2953.02681853 3000.56977305 3042.77547913 3090.69282322 3196.38183114 3239.11344933 3281.53101364 3474.61546105 3392.55019311 3444.41954658 3493.61590127 3534.97334238 3626.96598606 3652.66189365 3681.23181232 3739.49860367 3959.36361411 4057.45793488 4042.14586708 4151.99112302 4388.65805953 4543.63732568 4748.01228491 5013.23315845 5330.3623732 5645.88053037 5978.21554342 6019.98887894 5909.51756086 5702.76663513 5547.890521 5459.69888882 5445.13112058 5465.80712215 5516.48686473 5537.0475057 5389.82125443 5268.0855001 5140.87501949 4961.2446989 4824.9280093 4875.62753055 4831.58241346 4798.51344358 4705.06279971 4655.87348317 4610.69570034 4524.82350066 4510.78220514 4513.22537006 4504.62087558 4525.91391469 4495.32084665 4532.28878242 4580.62130072 4632.82994329 4673.71811353 4668.52828215 4636.61433691 4572.18190636 4355.16928628 4283.24658678 4261.14323097 4235.27481718 4392.09030192 4566.52221806 4598.04312991 4598.37977684 4585.24158805 4562.61960228 4563.00232172 4646.14733797 4730.18449605 4848.15122704 4984.61546124 5171.5307782 5229.9236012 5248.31099783 5255.27642591 5299.91811602 5401.48479625 5667.1746624 5868.31947073 6226.86295769 6415.96771423 6811.28562682 6967.91190276 7259.75957368 7391.99137293 7738.30583887 7842.38743828 7945.82452957 8051.89167403 8178.45949104 8393.41137795 8614.94128712 8765.00823777 8946.41075059 9094.49456584 9068.90621558 8921.2829432 8805.13023077 8780.94340527 8866.5304651 8977.36277018 9094.74057665 9112.26839878 9007.35837062 8895.03843939 8808.74181303 8767.31065209 8736.91691377
1795.67960634 1828.27510613 1859.18412124 1878.23279231 1874.48857597 1851.82125712 1809.08378953 1760.85771225 1714.43572355 1672.25502175 1633.68746382 1592.38408523 1539.66363626 1418.6190006 1376.02839822 1327.32298112 1253.55788283 1188.85113993 1119.90670291 1059.64227796 1026.25137464 1027.23780864 1049.43140361 1068.44387975 1079.69433282 1052.66016836 1025.81782837 990.727223827 968.418752296 914.075715425 907.386100593 898.706469373 883.757380928 860.052725675 860.546145059 845.512159763 831.053272544 839.760852556 848.155474165 824.096900997 816.735646074 804.632906645 781.077424583 773.917687711 775.563660632 784.793045828 803.501289581 827.417024118 853.316473748 878.2442763 915.392065159 936.552416455 947.000885748 956.764398154 950.70881963 979.981583176 1025.93248461 1085.08296772 1147.59768856 1175.5424946 1169.36568458 1146.73869671 1119.95899819 1106.49518207 1207.85629994 1359.52654999 1406.45819766 1447.10384903 1477.90248502 1515.23460986 1516.6048714 1505.76323529 1486.10962542 1616.85621054 1611.35626693 1435.95065699 1444.48665996 1462.36566297 1861.25408664 1924.35724307 2131.76415412 2193.83794517 2247.5740326 2478.65484873 2521.17988242 2259.57425118 2564.14522281 2563.81388562 2545.91003693 2242.44419521 2196.41058359 1922.48364508 1979.04526549 1882.39317085 1819.24112873 1831.98242188 1916.79928322 2059.98219591 2208.59584473 2340.02757114 2439.33351 2477.9261591 2356.82708657 2374.46866952 2403.42319451 2416.42417749 2433.173785 2454.97451294 2482.88068624 2504.13503265 2528.20742024 2753.78271809 2762.34139885 2815.57236897 2787.75854627 2749.28288045 2761.92124659 2794.12945743 2873.79386988 2982.71378128 3154.66125251 3253.72704959 3337.51970812 3432.74850235 3351.94071258 3625.73574845 3717.14675391 3868.83131433 3993.93408359 4194.12143095 4335.98312605 4517.64145387 4738.91025573 4970.29736421 5152.74488741 5236.89434274 5269.51100245 5198.12736009 5181.16197811 5132.40740799 5120.5822709 5110.03741369 5119.39613971 4978.56712057 4929.23992332 4823.58995962 4699.48136607 4637.34098564 4563.55162047 4524.30790584 4614.26875691 4601.73969674 4517.26838142 4469.43941134 4290.20489109 4258.88521791 4335.86195546 4338.44080643 4329.7725437 4350.52937483 4318.02380679 4355.04813339 4404.56470397 4457.33854929 4497.76833547 4345.30867949 4329.84061155 4252.64050804 4188.83139387 4158.74694245 4186.57650687 4224.59720014 4369.85213282 4555.68062741 4619.04191901 4658.32254068 4610.18546052 4549.79325661 4517.57309899 4577.21022049 4653.24868609 4773.81435098 4922.54462193 5132.5040589 5209.59126238 5240.76050723 5253.02510523 5283.12808731 5359.28639061 5605.97822607 5829.82487161 6122.16723646 6295.85746224 6645.9981071 6842.23536658 7082.34189331 7213.78917296 7341.96297977 7666.1276656 7768.03608308 7884.43088157 7997.13085835 8211.86895248 8368.55549449 8621.55668378 8834.13275752 8998.56011161 8979.04270953 8834.62965919 8724.17585761 8701.70070332 8783.81956877 8876.67084646 8968.16979277 8968.63816794 8881.13261558 8793.96460232 8747.51075428 8717.27981454 8688.23673705
1764.92435027 1795.10570006 1822.7110202 1837.37851303 1830.65241524 1798.25885894 1746.27482656 1689.37118515 1635.3072071 1586.9181524 1529.48825382 1491.97147675 1435.44336329 1377.30498061 1335.98190289 1290.02067108 1221.01810462 1163.047248 1102.47117458 1050.54210878 1022.49710161 1023.43739272 1038.37350864 1050.67740626 1011.66631857 971.161359674 939.323083044 912.221368669 868.95913192 863.043001423 882.684164925 878.81712868 869.879507117 853.146448506 841.160706462 836.724369855 830.767491156 829.620714021 826.202088011 793.673176153 780.950395774 765.250030469 739.130188871 731.353897188 733.868806771 742.269783123 759.22047657 780.820910697 804.241593861 827.096917156 865.143658057 889.548973522 902.833353644 915.997781556 911.630149736 942.092486186 985.679524909 1055.292296 1101.63239019 1128.11516293 1124.26011819 1109.81797078 1083.73698997 1088.36111753 1178.30915409 1209.06128957 1358.44945005 1393.58157592 1310.93133694 1326.28414925 1451.75271644 1433.13740932 1553.62780563 1519.44875756 1500.21932124 1509.73486075 1436.99083099 1481.36665827 1665.94108794 1842.35445157 2052.31113971 2203.92044533 2266.48912235 2317.05682832 2355.47156896 2284.36042887 2291.76589915 2348.81983163 2315.6911451 2188.01196733 1920.30203241 1780.79576692 1502.63409467 1431.38802226 1337.56051124 1318.21412581 1400.21769908 1612.48072666 1804.79629417 1979.077957 2091.45203799 2177.61177098 2070.44314121 2101.06079184 2139.35786056 2157.30102397 2175.45399624 2179.44019192 2196.80528577 2234.87554943 2249.57279164 2258.90585529 2431.64797242 2390.33098077 2365.700489 2286.47072928 2225.36389524 2238.58036085 2344.89738672 2512.30562038 2747.02427857 2905.18353475 3030.95596113 2980.81436085 3096.85163711 3177.44670371 3454.92704373 3617.47079757 3690.90650808 3763.99410899 3918.7877444 4015.33403951 4151.29329861 4322.21679406 4387.69538222 4506.48992656 4558.48648968 4743.02304385 4724.80634211 4793.66974994 4793.54191043 4610.64657214 4617.38735763 4615.21116777 4583.56614496 4522.35212786 4464.49659351 4424.12685309 4426.65402198 4411.89004397 4355.20950033 4287.72904914 4278.71468203 4233.27894796 4158.79032752 4140.01084316 4129.9870951 4120.53032965 4190.54723299 3974.12307216 3974.05127648 4169.9719592 3978.11389052 4035.01775058 3942.52790755 4073.13222278 4078.60111976 4025.17565385 4002.40462618 4019.21839979 4039.20296845 4203.39355256 4422.5255925 4653.41889144 4744.02404342 4709.24262038 4640.94409195 4535.34245432 4464.74324385 4317.28590824 4378.56766953 4563.47140654 4729.38237565 4902.75789657 5144.38535259 5192.24356372 5237.04911166 5265.59438181 5326.83654329 5571.11162105 5768.02594882 5913.00065106 6195.65393699 6541.31139558 6781.01282118 6911.28264719 7091.40180213 7219.56906214 7552.52056704 7650.21105525 7749.00513171 7932.25930369 8020.99489881 8130.82872139 8274.17473009 8503.77494095 8651.31995486 8672.05283242 8610.19779816 8554.58139713 8551.76736278 8630.99620582 8695.9166885 8752.69088724 8763.09890076 8741.97428727 8717.87207855 8716.47909159 8682.15632214 8630.265001
1722.43635498 1745.59816241 1764.93220996 1771.10279632 1760.33245486 1729.31421825 1684.57804456 1588.94653037 1536.62243841 1490.27737313 1432.76769042 1393.78349836 1357.55279028 1296.85580196 1260.15347192 1221.81424528 1177.5938563 1153.94143177 1104.87171869 1063.67291487 1040.35934496 1036.27628415 1039.21692709 1012.01472371 988.159789326 923.213182119 911.10819595 865.924873694 862.138341844 860.041065856 852.409154118 838.307602516 821.848779131 816.656490727 805.494549961 780.23684902 774.429211093 767.182168192 757.942841293 762.134887939 749.172728514 723.518090401 715.612487517 710.947698097 710.815618897 716.915924969 727.753315152 742.57987622 759.858005233 777.884780675 784.685167817 839.06668972 853.084013643 818.471055843 839.164212753 890.058090556 910.789218745 990.400948045 1026.39158395 1047.5280855 1046.52261417 1015.51713425 991.166027533 1043.0762084 1142.66966094 1164.5379906 1195.16561516 1224.94476289 1262.05095323 1274.90472286 1274.15408535 1432.68568638 1461.46998385 1399.21402304 1361.51165066 1307.47711089 1356.19826947 1425.92719713 1619.14593505 1880.59713438 2071.60604504 2148.55518286 2210.4392655 2258.05625722 2290.85633994 2217.54739272 2281.78314763 2260.12196754 2216.9266 2075.56328474 1978.93810682 1634.80179383 1295.66730402 1118.95382481 1002.75739538 957.375807895 1045.46616174 1225.31993445 1430.03560685 1699.79112445 1823.43401128 1766.40346417 1821.0076451 1855.30118747 1834.75633219 1915.93136983 1934.17250955 1922.16644901 1949.62690058 1986.02868669 1997.41561082 2003.62426445 1995.06033981 2007.33696719 1946.55272967 1842.78231485 1811.89872294 1805.38141088 1931.90142628 2145.65042153 2388.46886743 2495.46068782 2638.61052248 2749.60534342 2870.39659254 2951.273386 3054.04301154 3199.04761675 3415.88273797 3448.80568478 3467.96023378 3552.39758488 3619.72841273 3659.92036144 3834.49358212 3982.56433236 4089.87906446 4129.21297936 4140.61242222 4227.12312495 4066.75756825 4291.14893497 4300.44147139 4311.65251767 4321.13243457 4320.88342977 4344.71249149 4381.44921449 4401.67877304 4377.04074325 4299.7974551 4200.4746153 3987.49902512 4069.40880206 4063.47583297 4082.81124132 4093.59187005 4017.22475507 3966.06247839 3895.52071201 3847.58569155 3756.64228361 3762.70410538 3618.44789761 3650.47673287 3671.47826706 3791.73938719 3786.68782131 3799.35052747 3765.88939339 3915.29793172 4128.79534277 4401.67390827 4657.37277052 4788.60712711 4742.81403695 4574.22971146 4382.77971557 4174.02301742 4216.42354569 4254.85878124 4365.05100255 4571.7851629 4727.81412542 4947.19468535 5015.56649308 5099.88098786 5220.21698189 5281.0637967 5597.26128626 5715.47120799 5837.16659317 5960.06898203 6300.41572316 6669.16995613 6796.27275312 6921.87326509 7044.91525874 7434.14828377 7526.32321057 7617.91409453 7782.20494664 7848.50093911 7904.75134993 7958.20765377 8068.47329263 8180.5530999 8281.28020209 8361.68249793 8384.67471453 8459.81735874 8494.06495162 8507.5131027 8550.44970119 8585.66131671 8639.88470981 8729.44565636 8763.43857409 8695.48934899 8609.61610327
1672.39460376 1686.46005981 1652.56904485 1655.61769323 1642.21342809 1612.979137 1573.90912625 1527.14563235 1485.96869886 1448.04712011 1412.91040667 1361.51405848 1328.57893157 1272.37841422 1240.21815315 1207.53115966 1172.69833499 1120.7963524 1086.63582734 1058.66197959 1040.1235705 1028.16977781 1003.7545068 981.436866323 932.63352528 902.321058774 863.979225671 859.138602257 862.715252262 863.057117122 851.390571438 829.940415615 806.587496454 797.107262873 743.885195064 705.868907499 694.627756151 732.468769816 715.702394078 706.875024325 720.779421929 702.639601301 704.134097734 706.627669445 706.917036284 706.01192777 706.475627126 710.861818614 719.435678788 709.663582011 675.482841611 687.586341294 745.527874669 760.501389582 778.236409119 806.436489261 833.699112533 861.921502743 891.256870829 908.818891542 910.531541006 900.184302269 912.781990589 985.746971329 1092.58160975 1120.83987266 1151.89839342 1181.85438549 1221.16332342 1235.05907435 1234.57805082 1368.72455771 1580.09264033 1418.15875847 1313.53005859 1189.1979432 1266.77847518 1371.68282313 1725.53207678 1840.6641256 1922.57194375 2090.64065286 2151.71509456 2197.25973183 2224.50143144 2231.06154941 2200.29588325 2174.2997281 2130.78251817 2018.79052475 1884.58647695 1523.65335668 1161.4634879 945.344835898 786.573553754 717.451877755 814.790884812 1018.09757906 1241.10447372 1368.60451029 1622.18534426 1556.61236636 1604.7518103 1634.82097697 1611.42548593 1627.98223793 1680.24945177 1693.94591685 1719.53756075 1754.96438033 1767.28440074 1779.62217131 1782.72212476 1806.48333755 1748.53624818 1635.22725783 1554.92755632 1531.97682883 1666.04575819 1836.62554984 2105.87477346 2302.9098884 2449.77649641 2558.09331308 2673.31779187 2750.05149282 2851.06037431 2990.80940829 3039.44880043 3059.22653169 3161.94535005 3047.82766161 3116.97549688 3231.99453607 3411.27677885 3585.68538466 3721.4833757 3790.42193814 3827.05709936 3690.81330611 3795.12419206 3778.91741176 3800.97595291 3837.23489675 3900.13199894 4006.58035982 4245.83030563 4349.79539659 4396.60184166 4332.59041237 4160.3232596 3994.43095261 3885.6225133 3863.1108128 3896.95954952 3946.72133192 4097.68893802 4058.91702538 3976.50861007 3729.03973543 3566.74444924 3443.53543065 3408.22189846 3366.90742809 3374.73959155 3387.11956325 3379.86132747 3540.01456372 3464.00483832 3556.42805543 3712.99987089 3959.28385772 4243.72022961 4452.07976285 4639.67400404 4583.14863532 4378.3599426 4200.74473862 4037.10562113 3948.81169369 4100.38711112 4189.91909329 4383.71526488 4518.62033236 4761.56301058 4838.11150378 4937.42129549 5010.50812946 5063.27711097 5561.65134276 5661.77133054 5765.8045811 5872.8952062 6083.0132059 6403.01039429 6680.45151478 6806.64227629 6928.76009055 7045.82901855 7395.21658731 7459.53789719 7634.22143216 7689.30088664 7705.86588414 7680.69415004 7695.41168484 7800.73350275 7976.39206742 8102.3193985 8147.21277227 8196.89657626 8326.2008171 8362.64367511 8396.60772699 8441.26916036 8534.71675562 8681.15469367 8736.6577424 8653.81055245 8557.57313841
1560.99717173 1572.34616469 1577.49786649 1573.35873194 1558.39997371 1534.19706616 1504.96262372 1470.6387876 1440.22448743 1410.57781664 1381.03849461 1333.93956074 1304.12654346 1253.43628797 1226.37758731 1199.51385855 1170.47221858 1138.54497572 1091.39791283 1063.2799748 1040.57081034 988.623988443 965.014431893 935.916023027 907.799158543 881.75536575 848.01931669 849.564400462 857.279673415 857.151696972 840.575802194 812.593003852 749.437417846 718.904632254 682.266266704 665.764701034 652.731250838 641.740262582 633.441659475 669.852434468 652.229081696 679.28527256 690.084706244 693.568914712 695.301678413 678.594179531 656.489845625 636.749838281 628.381935434 618.250634781 623.132114823 631.393254795 638.264302642 699.462140862 712.377873543 733.352249594 749.740026069 769.176700422 784.811147603 794.128747438 796.87835371 796.146750405 824.828701206 900.506807756 1038.6905925 1072.42366333 1107.28208567 1140.593907 1169.45350346 1190.37101643 1384.75461325 1339.55191425 1496.40236896 1266.68145259 1108.48812385 1102.59121848 1229.98159418 1397.78545003 1690.19937051 1806.39797605 1881.35117462 1939.38834785 2086.15595107 2132.51926929 2153.64915101 2147.99101698 2107.57086484 2079.72509437 2015.24232177 1954.11816646 1836.59353065 1480.99493852 1233.94249885 920.159045695 705.595086637 636.098122307 717.91624675 881.85714573 1047.83782578 1287.32854546 1322.23634991 1359.00563681 1413.91409157 1434.30038477 1406.58278391 1422.16534786 1471.34941612 1482.96209186 1504.78909925 1513.04518102 1550.25709606 1411.54868074 1464.20001618 1506.83194204 1551.86920841 1550.06305827 1464.20704914 1443.30976592 1545.11979513 1737.10289112 1991.3304072 2176.54457076 2310.17784502 2403.59059591 2503.18914321 2571.10100488 2670.85719491 2752.55119315 2872.51976293 2896.50059731 2873.73453887 2837.70935598 2829.38169758 2947.43107017 3130.53291192 3192.6322856 3311.6169415 3382.30814435 3426.03584646 3449.76121246 3464.27341507 3538.55240978 3560.09240634 3602.52750574 3674.14945115 3796.12791981 3965.27104796 4122.36732707 4195.84688937 4099.06881578 3881.72120887 3694.28144202 3597.69568732 3617.87055906 3764.24025308 4027.53867775 4196.77645014 4120.41549271 3831.44755593 3510.10769233 3254.38078355 3271.56580551 3163.11824217 3124.63140075 3112.57572566 3115.4411708 3105.62999645 3150.50316352 3205.98504519 3301.92418409 3244.45371218 3493.08248498 3788.94465054 4060.86127999 4268.74756843 4237.53986712 4023.65762199 3813.92585889 3816.91662167 3751.55992181 3913.90767402 3990.69382492 4177.9685532 4296.68758825 4409.52355987 4561.27160312 4787.10716189 4859.28207341 4938.76232339 5271.57459728 5606.05578105 5699.21504266 5793.25285693 6096.70700794 6286.13764867 6467.99973815 6692.48394663 6814.09256301 6924.7562177 7043.47680646 7319.02390367 7471.35257903 7541.19317719 7562.30040071 7518.55278658 7469.75142429 7572.58251147 7765.69570306 7935.05012961 8030.28427308 8087.71447647 8133.26741621 8238.02351071 8258.38919845 8276.75410311 8333.45049127 8455.49078258 8533.46577241 8511.14411173 8459.86721966
1511.22993141 1515.21217592 1513.80723169 1505.61711424 1490.66903992 1470.98749282 1449.73295775 1429.0677371 1404.47767032 1381.43899577 1355.86726893 1312.04790923 1284.42882719 1260.50247948 1219.03578378 1198.3594487 1173.83318169 1143.80258894 1083.00789299 1050.93716173 999.221158603 967.776405903 905.232344681 875.67355821 847.954683478 823.380510022 794.840302728 825.194281969 830.888794634 827.346830357 807.78601399 747.99488967 709.787890242 678.747203765 644.815166821 621.115967183 607.512186947 596.864084715 589.628685264 587.729635729 567.686830165 587.84662939 630.160007633 651.349646446 633.015044428 610.659815219 577.924904175 592.047158277 581.319459301 556.849903882 505.159344369 508.103917014 514.663047633 570.651677898 582.232094753 632.325497167 671.446195276 678.462005771 681.776151714 682.74039616 684.656996155 691.206498889 796.051215429 824.498308985 977.105625348 1019.25456033 1059.81652901 1098.11998614 1133.27522858 1162.47535271 1375.50081171 1343.84633048 1496.40221563 1235.35829837 1047.39059792 1061.77352105 1237.98366463 1510.18007319 1684.31875467 1768.52961494 1818.15836572 1872.98440066 1933.52228271 2063.24849426 2076.68724162 2100.64422137 2023.63991085 1931.80785962 1917.14087054 1896.13454149 1824.20429988 1501.54356586 1283.9503236 988.523375269 792.341994663 724.83421659 808.161452263 905.913783693 1034.19465724 1099.21650732 1127.99754182 1121.45021779 1031.01036353 1055.11050175 1060.40216921 1233.41393777 1234.41239513 1289.9406293 1104.87205562 1116.06483897 1006.22268459 1230.24236355 1300.64650738 1377.68984036 1469.50717283 1489.0811782 1470.80548987 1470.790933 1571.31900623 1724.9990545 1944.80312735 2100.47043416 2210.72367938 2282.24209086 2234.52087807 2286.16384832 2508.18386876 2599.36181914 2740.30057656 2789.73302838 2787.6314109 2752.95242456 2732.6923354 2790.4984491 2913.33452602 3037.48405717 3134.26991503 3191.8596592 3229.69572777 3253.4432973 3266.04995006 3330.63845649 3343.11616243 3373.20920242 3431.88208259 3533.52318357 3673.78126109 3788.63758669 3849.16152551 3767.45995421 3603.18023378 3476.76313058 3423.13201061 3433.14980693 3630.49183575 3914.34411946 4098.97644456 4013.1060731 3651.96346497 3358.0684355 3088.52035094 2835.17217403 2713.28392618 2882.9213816 2586.56346774 2571.37690276 2576.18684182 2475.94582685 2656.94638216 2758.24888768 2923.99556461 3112.64080816 3332.41695058 3535.39912527 3659.77166846 3687.58101975 3594.21617694 3467.20819904 3360.57153567 3306.65627484 3547.89378457 3771.983115 3962.16777445 3960.39605716 4077.19832853 4355.2424479 4458.72552454 4746.81269157 4868.23825651 5001.589075 5346.42229187 5548.32169503 5732.71783257 5814.46613631 6091.60987609 6353.96624374 6460.98442334 6589.77143539 6699.64007681 6798.00506531 7139.93826408 7243.73236502 7419.8370263 7489.59603089 7478.35231555 7449.18604979 7530.69905269 7710.32683922 7869.21080265 7954.87273464 8001.82690016 8042.463586 8103.35270091 8120.43586339 8105.12234502 8100.76534376 8189.15388224 8288.40320139 8319.45672645 8311.37021689
1469.13295425 1468.81085819 1464.21265439 1454.89561952 1441.59625452 1426.42688533 1411.88630696 1398.74592403 1384.87843642 1353.12295539 1327.39437719 1311.34452201 1269.43319277 1249.31505649 1203.4557398 1191.7361314 1168.51715305 1134.59778214 1090.16233054 1049.20615504 984.788131325 906.402950425 873.117179284 841.582599848 813.593447684 787.772350448 751.056516312 751.93169094 753.29661138 715.774003678 688.648717664 686.267774715 654.215727882 627.491325586 595.080045342 571.822116972 558.928097667 548.555448909 540.904178103 512.126603805 510.054303359 521.743964962 521.439036652 542.682564183 544.010008107 529.998639531 509.129777218 490.446851934 457.478663856 456.741406202 454.70067416 456.648859956 461.193309309 467.183745739 558.504052191 566.209557686 597.844738681 594.232988772 585.955009388 577.485222881 576.272834157 595.942819518 681.493981454 756.13442812 910.356724414 962.298579516 1008.0420084 1050.51274936 1291.58932249 1335.46710206 1375.44011884 1368.83955248 1609.66775436 1387.19806388 1227.39208861 1259.69446757 1392.52786836 1589.10946604 1690.70633336 1697.69393037 1703.82634705 1765.82928429 1861.29056284 2281.15345424 1932.55723486 1967.4401623 1850.07497928 1759.5273006 1779.39631543 1823.72851833 1638.97789767 1563.61383719 1406.22525557 1195.72456642 1026.90053743 931.726604744 977.568112128 982.553473775 1054.02524965 1067.40116935 1056.06118008 1020.06149096 916.98597012 914.098697087 921.46906054 938.434881775 942.02394277 965.264937636 963.186868553 841.434926054 866.667760027 918.128226067 1005.05158978 1119.89085868 1274.43456353 1376.83578348 1424.87370014 1452.33127054 1487.54176781 1652.56808279 1832.0780897 1947.72868371 2041.07485714 2106.09105472 2164.54386945 2198.32690302 2254.5737646 2343.74622654 2502.27464483 2617.32491946 2640.45038546 2727.97937301 2732.49294632 2737.98705509 2768.94794901 2946.29335355 3012.55770411 3051.23349252 3078.53293925 3098.86233484 3107.91062697 3159.91442473 3160.49953407 3170.02847728 3203.68577165 3269.22779634 3226.47974959 3321.91308251 3314.92537055 3284.12349731 3198.3606951 3115.08001865 3083.38276992 3169.04071087 3336.72563859 3457.41922699 3611.51945089 3530.96727507 3273.75497663 3065.18773892 2776.22886803 2606.37408598 2458.35175888 2380.09714184 2361.6238891 2340.3823165 2206.21798624 2226.78877573 2384.83163553 2455.82049725 2575.23190845 2696.58372147 2838.55840893 2975.91975817 3076.99162614 3148.58288271 3129.50557467 3084.83907125 3046.17788362 3034.95904069 3141.57871194 3192.96546004 3334.18315689 3726.80204674 3864.04127168 3984.09292744 4292.27591712 4639.37553138 4810.27577559 4997.95505822 5352.19413532 5553.23874173 5606.21020524 5656.93716334 5960.14756922 6064.06735381 6209.64690073 6506.48209066 6599.77887505 6665.56671861 6787.00806321 7015.66158672 7187.70369027 7389.72332137 7467.9481797 7524.8774349 7601.79891501 7731.75987765 7842.33759817 7909.88724207 7932.3156385 7981.22227985 8030.87154267 8061.14059771 8038.48775181 8012.41882601 8072.40945899 8141.03680899 8170.49528517 8211.54565113
1400.02200436 1401.01328581 1399.10701667 1419.87656417 1409.76646524 1399.79239081 1391.86264552 1385.28139807 1375.6745318 1347.25036661 1318.29541974 1262.88817207 1239.19794839 1229.05511852 1220.13676081 1217.054521 1194.98086523 1152.39492783 1100.325613 1032.9035457 967.603734092 879.07620919 839.828371787 804.65521502 773.695392614 748.141557319 694.709324964 642.434414489 635.569781145 621.369897097 598.283314976 570.538934013 543.661364217 514.037456109 518.583574264 492.776031057 507.693804574 436.017051623 400.617384443 399.045999282 393.700701591 398.544376935 404.812462288 414.673586519 438.092896346 434.049110725 428.126778789 402.267283634 393.914976041 391.16036109 404.075037602 406.51730714 410.274317141 392.149596951 460.821422149 506.374946727 504.684301767 520.040881481 500.718214551 480.909074078 473.550398064 486.174924728 587.382121546 648.688595401 815.951429896 876.893207607 924.781936133 968.444461458 1539.84978638 1297.0986896 1356.60203528 1890.56239239 1804.28790774 1672.87285927 1580.07824167 1698.13183375 1840.62974181 2017.28552578 1929.58760869 1563.34917204 1515.62704879 1612.03944716 2043.63404589 2213.42513623 2205.18420872 2004.45554798 1612.7077082 1525.91781776 1585.85374443 1724.65601763 1643.2275009 1641.53653634 1741.48078115 1409.48195408 1224.75136579 1165.40734785 1166.99120432 1197.20803732 1056.54829945 1036.19242805 980.959799758 911.306550016 796.70017105 767.719960515 787.645041512 807.008549686 832.522287564 852.561901443 735.557851756 727.927934719 726.920062876 760.087301736 844.201390888 969.550988879 1143.57342446 1278.68233966 1357.57279461 1411.47512244 1461.50487795 1547.87495362 1688.71193486 1793.55885156 1921.8897443 2017.08245168 2131.34414092 2146.32420045 2180.30198125 2253.60341197 2315.77688307 2439.26651528 2555.00201648 2642.73998501 2671.34221114 2707.78431041 2728.44609561 2762.32459589 2929.60632268 2953.25341461 2969.26676736 2962.79522483 2968.23358568 2975.10457017 3028.50553422 3026.82531922 2958.15509641 2975.54625884 2957.81482047 2985.67605752 2974.98856108 2938.68212981 2882.21178783 2829.40884741 2730.83638928 2759.45714978 2788.37359639 2902.11296707 2958.97909554 2897.38107593 2741.06853756 2508.04746507 2465.42906992 2314.81810972 2216.00561637 2154.41386041 2141.95262102 1978.07659363 1981.68229967 1990.73647757 1974.78921307 2036.1648787 2229.3533889 2287.96544981 2363.25657307 2449.40000109 2461.41610424 2642.84683739 2684.88841212 2708.25324989 2732.77485351 2756.04606399 2894.19676065 2957.2667359 3107.54932558 3226.93480005 3641.00530637 3779.91542746 3945.25421813 4295.94348691 4622.50423582 4899.23595452 5242.60470861 5495.35206441 5657.07796529 5663.09846834 5683.21933501 5903.73803706 6155.26029691 6301.89417209 6406.70402521 6496.63949101 6568.38419295 6749.71044802 6969.7948684 7196.67645874 7432.50493008 7552.60876281 7639.03733466 7761.14106187 7814.08580193 7884.130602 7885.26584371 7904.34937232 7974.58231207 8006.91658043 8026.93757243 8030.44367889 8063.88569649 8100.41776004 8116.52929667 8122.1111779
1374.98551622 1376.13021272 1375.59372298 1374.11605317 1373.29896626 1387.25829417 1386.55099316 1386.29993986 1368.74348459 1339.36672862 1299.56984115 1257.94183648 1234.02109067 1230.84048649 1234.42813822 1243.97105216 1220.93697962 1165.71122063 1099.39083379 1019.31016373 901.274029324 848.59013605 803.914780436 764.49452062 728.938802505 696.756375426 605.511326685 563.530379229 543.95184801 523.335851618 503.060118332 485.373382356 471.045170013 427.446737376 415.687201253 386.209397813 374.692270069 360.552685473 351.853479819 344.603217176 329.234490401 319.876840101 309.985545694 302.475724351 306.250316193 317.19113896 325.825532263 333.582509072 334.842744124 338.133375265 354.793885895 334.183050945 339.05422973 344.287235453 412.702689771 415.769774809 414.046959271 414.686681646 404.54966117 398.803933768 380.539725676 398.534821052 499.999657123 566.283562239 758.034271976 821.602318174 860.519982061 893.892248577 1427.28363665 1531.62696208 1884.9264139 1978.6443519 2016.81792873 1988.9524222 2342.41067925 2116.87575084 2537.76695981 2162.25815171 1873.35875721 1494.85543389 1337.61583732 1570.87466058 1967.98496435 2221.11303274 2154.54137236 2295.29745936 1322.23082885 1212.63064813 1340.04297065 1565.40200192 1744.63867585 1942.34824907 1918.33930212 1823.29684089 1434.55908668 1368.03400495 1327.81036005 1294.83916615 1067.8155352 969.298271957 899.213007912 792.434355493 667.599959404 598.723077023 582.669477885 612.689044994 742.589816882 683.846755399 662.218177633 629.985759593 599.141751748 611.846309841 693.520957938 825.098031944 970.213027729 1166.4589277 1266.5652511 1341.99949674 1409.07224921 1484.29750422 1606.16566549 1771.44682795 1918.18798517 2040.33505299 2121.32735547 2125.53296529 2098.6100392 2108.54396037 2230.21254826 2333.56766591 2437.49429832 2528.06801874 2570.65339244 2591.12131876 2618.89614286 2668.29947729 2790.11475864 2813.75655082 2906.46062145 2884.54964375 2880.1090273 2892.54763178 2911.63617608 2937.75903751 2948.63611088 2881.35262546 2809.21003905 2735.48596468 2696.86014598 2645.75751843 2402.07799333 2353.62909868 2263.59502795 2274.39619707 2285.90621955 2363.71207551 2335.78471273 2284.02639882 2221.55511673 2102.38216657 2022.02747154 2042.72022175 1978.88121703 1933.271993 1789.77756752 1773.95880813 1774.07600715 1733.54817518 1739.68741805 1774.78762805 1778.66664547 1915.07781698 1936.6243824 1986.56925609 1998.8597167 2201.91506029 2290.7951668 2364.57656855 2430.68342563 2486.72507532 2501.22833017 2584.45052175 2887.12990749 3012.21326418 3166.26569285 3435.24408104 3629.45576414 3995.55164027 4386.04821476 4905.57538947 5325.782695 5584.40819154 5745.42940836 5715.79154728 5678.62017507 5853.73572305 6000.33216457 6230.02142251 6342.98626592 6382.37978037 6404.16267216 6524.39562821 6799.6650236 7084.79357788 7289.4045764 7534.74790214 7627.59123742 7708.85527934 7793.26919866 7840.72074679 7859.88232631 7870.8272045 7929.75530383 7982.73661571 8015.79601083 8038.09505743 8065.21901732 8096.2878186 8105.41731978 8097.98517454
1357.24362118 1359.35199297 1360.40785048 1361.45996724 1364.63794112 1372.44380765 1384.42850661 1392.07848009 1377.38231395 1333.65394975 1277.93399897 1235.39515777 1199.81903234 1209.98320991 1240.0884949 1254.1227531 1220.75001627 1147.80257457 1026.20689729 940.921407604 837.521316767 773.444448131 725.162158316 683.311279383 633.282986748 592.873313994 524.938979445 486.240392791 454.408280799 426.677941325 408.05910977 400.023254847 398.657901898 369.619191101 355.191983351 339.512072054 330.461962778 289.268966487 279.663026531 268.215075184 246.377561852 227.660381426 226.973759176 209.439475618 197.593742309 209.709459705 252.769803382 268.676417685 281.132472519 265.624905569 270.95025888 290.154803759 295.30934541 296.922400095 306.66103294 373.192026571 374.188060851 377.345904236 356.865588187 331.157352528 316.154293314 334.341484507 425.07966001 524.630126052 691.296356455 771.548449803 785.018493608 794.061464834 1230.48877574 1388.63304365 1825.24664536 2044.46735761 2184.85345153 2788.76390767 2813.56496099 2811.2057926 2936.15877621 2751.53615549 2220.56043091 1594.88249114 1345.11433754 1603.52945347 2061.21912376 2330.63918884 2898.8572807 2182.15750194 1235.31738293 1054.35753293 1242.82227692 1561.36891966 1819.76075194 1948.27518377 2092.26565332 2037.81045657 1610.27622897 1529.47677805 1451.84780065 1156.01276241 1044.67124915 932.15732342 796.775794122 593.960530271 514.14229748 488.588213941 470.495262651 477.917061081 522.44376081 541.725269892 549.332263546 563.312626415 509.888096289 507.76820968 587.403477096 722.800251071 866.908759876 1010.78980763 1175.33292287 1262.01446869 1339.82318391 1427.08433227 1548.1137077 1664.56348201 1779.4299682 1962.79523468 2092.7624443 2097.97667219 2068.47476541 2061.22178218 2095.71499105 2225.79026157 2312.91019805 2402.60192828 2450.96876204 2506.26406515 2576.3779602 2682.77786189 2837.97649573 2881.33886264 2843.12871778 2765.68485523 2688.82810758 2710.63359241 2809.69075813 2933.38444853 2973.58282653 2802.66786664 2579.91442061 2420.23043687 2295.08166722 2215.16480541 2161.47614789 2038.06843147 2006.70556015 1978.15576827 1938.69647503 1866.03460007 1767.97642889 1793.71021143 1798.25978134 1767.33207317 1711.58084706 1536.29132987 1629.25258512 1601.63229279 1575.57376056 1586.55236604 1542.79543567 1539.52123477 1536.32119227 1526.64269292 1526.75335125 1493.58440935 1572.62543347 1549.54189042 1627.62536902 1837.93275375 1961.28766701 1954.11052605 2160.94076695 2192.85677015 2277.40334787 2405.08586645 2501.90988098 2815.8968192 2954.58410714 3230.95716588 3433.27716718 3702.83078089 4239.44192224 4687.17588983 5263.15594597 5642.55763026 5795.54669267 5734.61119537 5653.42750199 5802.81167806 5950.07774131 6188.4483385 6316.7530279 6363.20893674 6350.15675064 6433.54896665 6741.65115868 7040.46107163 7305.56860049 7451.51713644 7640.22501819 7718.69028312 7758.84350427 7813.39877378 7867.80982807 7880.49299344 7904.52968761 7934.24040056 7963.83934906 7992.37709105 8034.93453255 8103.18622911 8113.93312767 8085.14942997
1303.48219965 1311.93307843 1325.83435998 1331.55615894 1340.29373151 1355.30737553 1374.8995899 1385.43993538 1369.0820833 1322.80028263 1264.88586511 1216.28765874 1187.67396295 1190.83380753 1207.54397749 1214.4127905 1166.56901623 1080.90587369 979.276201703 897.465107843 807.14790902 726.482885549 678.196470406 642.963345467 588.775739669 509.723535499 468.213219611 403.328011278 360.134713719 334.893573623 316.931577797 319.067531968 307.272482519 316.885123585 309.507899435 277.243671746 262.600947804 251.682525237 241.914144957 228.879031314 203.678897989 178.787523545 150.184163289 128.673794404 128.523575701 150.416360558 172.153156918 201.005263018 215.35102719 224.236632761 230.382116911 249.743031964 251.520397292 256.00636526 266.204291081 333.294895189 339.466026608 350.810086129 338.586010854 316.431777671 296.652161792 319.449982306 405.732738487 512.454923171 674.365891293 698.511512251 697.553826328 657.522194325 934.996451197 1172.66270471 1715.79416849 2572.83307248 2912.40733336 3134.58380956 3431.36464369 3449.52673631 3475.33798667 3196.1696091 2723.01741781 2203.63892512 1996.11465062 2273.51452047 2709.24590252 2603.45755133 3256.20901864 2540.26651886 1714.97849753 1352.20599815 1397.14266953 1722.92678869 1991.31631864 3248.13437953 3365.33941064 2072.44404641 1864.87190205 1496.51361637 1385.36612205 1264.87469728 900.03016976 787.496179779 657.960271215 532.355459317 443.382253646 408.442221655 436.507073986 479.193718095 478.035758145 495.77781801 539.025334018 513.769454878 480.707204588 478.667959256 518.710553772 676.71330427 702.817811268 793.146783804 1029.40315246 1023.07549951 1101.93705725 1215.01183714 1315.28088912 1468.64181683 1617.78690358 1821.14693063 1933.90201701 1951.19605714 1894.40418207 1854.62430572 1860.71171602 1894.69020789 2185.23938178 2272.92896647 2332.81210524 2408.73609878 2400.19648431 2689.63166921 2851.57213794 2968.91110863 2863.81940411 2656.77447623 2528.86072456 2530.93434719 2636.89662121 2792.37159316 2812.99174264 2632.70586971 2388.42071379 2216.05837978 2084.89287222 2005.4610069 1951.00404834 1828.88821218 1793.1249335 1752.05794243 1689.6940792 1582.09002108 1462.05031282 1423.36317208 1452.40638776 1442.74730865 1397.73902353 1359.28834971 1317.31444073 1419.37180884 1402.82194541 1375.30063575 1375.00053911 1371.41027571 1367.41036215 1351.42304382 1333.29404438 1268.76392876 1221.71060715 1264.75155521 1349.48801482 1557.18072897 1611.80155774 1726.09667581 1823.41608297 1982.46591394 2073.77769865 2204.7752673 2302.65075087 2603.35689003 2737.47729703 3006.14212616 3194.87503457 3446.60291337 3873.04304448 4416.8860366 4927.21001586 5429.62045678 5636.8018258 5575.87969101 5461.75759578 5573.29303519 5952.22447262 6133.51284532 6282.04598502 6361.89012783 6417.17880558 6548.37896504 6824.54291418 7070.44084936 7318.26026223 7454.23967249 7528.39429643 7700.20783236 7769.20850551 7825.99417125 7878.79597876 7883.55916289 7882.79786108 7924.16448856 7943.16673246 7966.52241598 7998.50047292 8044.37095452 8062.02593912 8001.80282131
1301.18933654 1311.77956726 1319.41401424 1324.27861307 1333.47919201 1340.3937572 1350.86468414 1353.28884837 1332.16677205 1289.9697199 1237.33176359 1190.36044013 1160.01070934 1134.46817045 1136.05909013 1112.5258178 1068.91436955 981.841276756 902.593803883 810.510439352 754.681479966 681.477396946 637.295885393 595.283653359 517.058421201 466.803685775 419.358800579 364.200857728 292.408965128 248.097016433 236.111600003 234.568358382 256.80019837 274.245738416 245.984668566 242.901217032 228.510564778 218.484037931 210.081104118 198.320626676 173.929790214 148.25736395 117.566773365 94.3164856144 91.9699295385 101.893458275 129.216416126 120.949706376 150.911789035 188.697979273 194.298576832 199.293792739 214.059478453 217.786576305 227.024930659 233.456971211 277.582484509 305.043711228 305.44093829 309.44476764 326.083088216 348.178682127 460.142283449 572.755383654 652.476192636 679.644399452 604.363225444 594.179737453 610.165364892 1029.73955791 1956.36708948 2641.71738232 3104.58071939 3411.50918239 3837.15391732 3902.41087855 3974.64919507 3782.21291349 3475.24658532 3156.57871991 3021.16064288 3156.61071467 3370.21066152 4111.12463147 3919.53559857 3376.83580374 2768.12061381 2311.19662191 1841.70694491 2986.95219048 3402.69897948 3649.18272068 3494.84647917 2269.77042305 2034.31830271 1618.94605546 1478.78844254 1300.44572041 930.29139714 806.197527079 667.626009366 534.331521021 434.369150504 404.039592914 430.921059359 451.512397806 473.667947708 490.461286545 511.312262499 508.315715032 497.005283252 500.371260727 532.186945376 587.63014651 679.023102895 751.433929434 823.382715783 961.137463027 1034.63766221 1139.50818528 1223.34978515 1348.51498124 1449.76172538 1554.99594967 1689.42285628 1720.76667746 1713.00401622 1720.07150895 1749.39947759 1785.14005246 1886.3818421 1973.48616304 2060.00244867 2156.41011866 2310.31097759 2531.43336577 2794.69164836 2919.86570947 2804.72341441 2582.02548476 2431.18415119 2391.90218149 2420.12208992 2475.28572987 2436.05263066 2286.18893183 2095.35556643 1974.06037584 1879.76487087 1818.66729002 1696.52009467 1655.00815272 1623.52394454 1588.40877638 1533.04427222 1418.04882071 1322.6272568 1298.08031912 1313.51613605 1253.57324993 1198.37219159 1109.34292301 1060.09195514 1138.95207523 1250.60247912 1089.61907006 1083.66290804 1088.29755839 1230.16770875 1221.15381472 1126.31116356 1085.50226468 1044.86426835 1054.56178596 1112.37874794 1216.90967221 1439.92885873 1550.32922999 1618.88628869 1798.99053136 1890.2400738 2019.50891444 2114.98007813 2194.83379339 2517.49763011 2764.64986439 2919.19565439 3119.04784326 3478.9228012 3956.53709413 4409.29155728 4828.36146104 5142.57111385 5258.73054387 5246.98410351 5450.84091562 5679.22338191 6023.79781996 6198.76534774 6329.05317353 6422.82217715 6674.6756418 6874.67994261 7079.56749691 7266.65749671 7374.74073002 7539.49633834 7630.13470752 7777.92465432 7857.14527663 7925.06473599 7913.61261534 7891.05671368 7916.42299526 7929.0344655 7946.78152962 7964.11809565 7976.00209866 7948.57524274 7927.49991797
1306.22108806 1321.58132251 1331.55828831 1333.67288107 1329.10884452 1321.82535102 1317.00040155 1314.46511923 1290.85732817 1246.45084052 1200.16321015 1155.09862004 1118.26261847 1072.74620397 1019.05246208 987.42464171 935.83599871 866.612666397 806.724048859 735.001492582 695.903046162 634.415456813 596.581070847 521.296167571 484.209492691 427.125828573 368.582821106 311.232846556 238.29234913 191.669029911 174.865862893 188.145605713 211.92181925 218.686007347 218.441589066 212.799417055 197.497834967 191.536244337 183.036652264 168.823512253 155.866600418 134.148732148 108.337928442 87.5937152189 86.4006843885 95.140419784 102.29141156 105.817206875 105.682004292 104.091037599 135.194992963 139.051908234 152.603225286 160.744093392 163.640429042 169.530881644 230.952853305 257.886460509 287.036808803 308.912578081 375.489581592 406.852822185 813.78674649 621.149236473 1107.10116703 1029.90298119 778.830979622 501.177922491 508.872115987 996.289967893 2603.49606195 3567.35469352 4244.53633223 3949.86262026 4220.80030391 4328.45675091 4460.28582148 4371.5753788 4228.86260328 4086.10273413 4021.5822893 4069.69721883 5420.59609351 5489.8107049 4793.45076037 4453.52932869 4086.47984446 3885.11951871 3564.62668134 3797.82348505 4009.83943887 4116.88928124 3870.3473826 3684.38666112 2189.44095987 1733.01713497 1532.23804651 1360.7214519 969.069163452 839.418036159 712.069828873 591.612181332 496.87212332 442.454927422 460.865046497 461.523772041 474.76692797 487.435656286 493.987646422 501.906208836 516.124609513 525.637773815 549.753099526 587.37762515 633.149070156 717.755777846 777.345795941 835.998113104 967.612067182 1060.99124719 1127.31613825 1223.22321428 1278.63411078 1329.47816879 1433.92438547 1479.26542083 1518.15483409 1572.11588103 1631.2257328 1671.71040432 1723.77149121 1859.65870039 1941.71730121 2023.26019537 2140.50271452 2313.80783482 2505.56690575 2600.47628468 2502.77957648 2335.92561425 2274.73246849 2217.07571724 2177.04213716 2150.43796251 2037.62770555 1872.26223525 1738.48923764 1720.34739748 1704.11868322 1672.40823222 1553.82574354 1514.5361662 1492.26385484 1471.99173555 1433.46876022 1358.59529474 1303.18023326 1284.75123794 1270.28412073 1158.69323754 1066.84697483 1008.70194055 973.348936358 947.764704969 918.695538036 997.026309325 990.848361026 997.948572633 1015.92164328 1034.25086891 993.809291086 1001.62375872 996.162514853 998.303145005 1024.04938194 1134.87328585 1202.46379177 1392.00103089 1467.54440941 1545.21589582 1724.38260137 1848.52269101 1914.47286775 2007.96851835 2110.13032141 2518.78135583 2625.7383944 2816.90416451 3002.13904394 3370.82537296 3745.2192359 4134.47931686 4548.02518197 4845.91415128 4964.80758006 5029.47681824 5493.89493794 5875.3356978 6133.53993714 6310.5993564 6474.65660712 6723.49709268 6981.5493067 7186.60729437 7261.31640826 7334.11421209 7482.7773776 7568.64424136 7712.56467341 7833.11173134 7937.10946394 7917.49918043 7869.79121784 7889.76868803 7889.44289854 7903.69048064 7965.71276036 7937.58297046 7894.44336192 7862.62585114
1318.19514031 1343.13815417 1360.78563161 1363.26158664 1348.20575506 1323.54985674 1297.03847604 1273.14927282 1245.60945339 1198.37122709 1154.75246765 1115.01330302 1043.79327477 985.875962402 927.401367657 873.522577177 810.420496793 750.277176595 681.52610768 656.750372293 637.091545009 613.591208812 557.963599897 489.943017122 456.694926031 404.872218862 350.881162038 296.550482142 225.106354837 178.659842514 163.971407247 175.17375599 189.265956731 201.876210263 198.067948577 185.063760917 168.148498557 144.819407643 142.638201195 139.91842377 143.622766062 117.654680601 95.9712497225 90.1480952065 89.3950306671 94.5594824018 94.8031206636 93.4344924868 90.2858987986 88.2080325281 88.5099483342 94.2941660624 122.811339796 106.764520285 133.183099179 128.203687782 181.3657491 213.203120688 255.646884372 295.8505686 392.206565679 456.936041669 997.615901219 1110.99149022 1246.90728044 1573.89692168 1248.29222616 782.425140702 825.819751453 1336.66076837 3070.62022097 3952.66571162 4605.49431131 5046.14351215 5546.16234552 5630.97897515 4847.14256576 4813.65098363 4779.68304313 4775.62785069 4806.94872229 6216.89574566 6389.42535554 6430.12623646 6321.57936799 5533.55363678 5325.69272595 5181.80255984 5090.22745413 4601.77673793 4626.96953566 4590.2278037 4248.40869051 3994.89924298 3470.30395877 3195.04231077 1604.72899468 1413.68351039 1008.46607414 881.387773517 767.645270765 657.309141346 589.710857909 558.865253432 502.949595792 475.560534872 477.316132991 484.371726011 496.204918035 500.635622649 484.002380546 534.093960041 552.334670559 577.445810802 609.260408777 670.84551448 733.542074077 784.905532614 860.237042009 985.412494983 1039.45531683 1084.27269095 1136.00167439 1146.03236725 1211.69994429 1270.06089896 1364.93978036 1436.29566775 1492.84570424 1570.47367289 1623.79004488 1750.67042899 1821.86843839 1875.82367245 1939.98048843 2037.8439641 2131.34727216 2172.60078262 2159.156172 2089.1446636 2008.45276739 1924.88830173 1925.80046521 1874.74268348 1782.78731899 1647.81503535 1562.57566991 1554.48925025 1586.71880978 1508.21829137 1446.74870874 1412.45545732 1400.11300495 1388.53536192 1364.76050927 1249.54085383 1211.418319 1201.89894806 1145.92200025 1053.04024767 963.293242781 920.668116713 904.341171044 892.37393934 872.141331863 848.516821732 913.655374365 921.78489107 945.348603308 919.657792226 954.720493134 980.063535411 991.60122693 997.432839723 1006.60649371 1020.75141879 1031.59301354 1161.00920873 1199.8102823 1402.9782527 1568.9708941 1667.29550491 1747.81123795 1833.97601511 1925.91584672 2113.41455892 2233.76649951 2289.96702551 2575.56844807 2741.87863777 3065.60032229 3469.46553038 3859.51898714 4321.10751402 4581.20370957 4796.54696062 5157.41492638 5751.94423766 5979.39049731 6206.95060471 6632.08285775 6853.78276931 7107.84535308 7323.96564169 7336.37991347 7359.43383365 7440.9180658 7580.93281079 7634.20394064 7747.40158349 7815.53248203 7831.6256987 7859.69211337 7951.27072727 7924.36279566 7873.84690612 7913.75343695 7886.09256311 7822.65194315 7727.18993895
1333.68394256 1374.11039553 1407.6411195 1416.37477218 1389.72437939 1341.33731696 1290.97936793 1249.06167484 1211.42166474 1159.93017825 1115.64588421 1046.83752025 998.655420373 931.447398938 857.275467345 783.7911276 696.228710505 614.598345472 587.875037355 583.537112807 584.487763062 572.232030815 491.448060571 461.128703397 432.140213424 404.060611015 333.080564867 291.07141463 243.444679926 194.938241324 179.286821159 182.077408012 187.338364305 184.102750125 162.888730493 148.32093397 129.192599713 125.723920798 126.859152148 127.861116148 101.710905419 98.680809537 94.773413833 90.4014764896 88.7064485045 87.3294049459 86.4129772939 81.4298688987 76.1013000857 73.6774734885 75.1896579882 82.2465518577 85.9726759532 93.8757235084 90.7202013385 107.690122588 113.747710451 145.358821036 194.848675905 271.939036272 417.260377831 1012.13025854 1138.14910131 1804.0706707 1977.5042109 1927.55925922 1780.44473246 1664.43465724 1789.83494771 2337.26417301 3710.98840052 4399.91426873 4969.30159213 5606.92879305 5828.45137851 5868.78083869 5732.27947107 4973.92450134 4972.50233196 5118.55749015 6571.02241228 8055.27717612 8369.68678569 7300.90196809 7235.55883378 8789.42194298 6282.39496027 7089.65221283 6436.19371731 6434.88170839 5160.00163198 4725.65018715 6173.30930601 4278.16642323 3687.87864832 3348.97972596 3016.64064982 1450.37469455 1036.24220109 907.597661855 787.618713878 710.675539484 657.3891171 625.954053206 507.729791672 452.22967795 471.400428611 473.420107848 476.061604252 492.869307835 472.551620105 525.377880518 538.390062375 554.84894055 577.836955939 631.306105224 689.725019592 721.803352148 768.737931359 852.278192644 903.358390705 1003.66597309 1037.15960061 1020.7109106 1043.56035977 1111.09187438 1214.83304677 1325.98527022 1400.89090085 1484.30617413 1536.94075448 1591.79333694 1642.54421168 1740.94625305 1757.57777619 1758.18027982 1796.12206575 1848.35602035 1877.78910162 1864.95805182 1822.61032873 1714.97692519 1645.60942856 1697.74652741 1617.58390442 1560.11953791 1524.00869601 1522.74010404 1482.23108194 1385.36432881 1381.96646293 1352.68388101 1329.24854265 1266.81271286 1145.82960608 1109.88731227 1100.77420064 1069.71762528 1020.31095124 924.354670084 874.33742822 863.252118518 861.148820965 854.591691007 839.945881463 829.598837837 832.188211333 867.500509056 836.670303771 854.75122851 908.261636787 921.268463802 948.029676033 962.685168483 979.046336753 978.523021661 963.789827128 965.309485255 974.592746911 1153.05083746 1301.76799476 1402.58169968 1593.61457529 1672.00101002 1759.5735242 1829.92168825 2014.2165883 1992.68266066 2080.58749136 2102.27583947 2407.20796367 2849.85049636 3301.72833754 3812.96464414 4107.9977449 4564.70671918 4968.46835678 5438.38429891 5874.81535776 6146.02557161 6460.86031483 6953.39613065 7312.37975498 7474.87413221 7428.34169766 7370.02729564 7451.23902328 7604.18240604 7659.10613078 7618.86797687 7706.40561537 7733.73315003 7747.74551047 7852.21812553 7854.08955495 7796.8242109 7791.63822376 7780.18819632 7728.13543386 7698.65462974
1344.21742206 1402.80078941 1458.61198451 1479.16868905 1439.13816309 1362.81889269 1288.29226819 1230.03583072 1156.3845586 1101.66499966 1053.35155234 1005.69984453 953.98180937 878.607103288 794.6991489 705.400949058 597.489785358 524.435255062 503.306381754 523.882207569 544.123491193 512.063161727 464.633605603 432.978156301 389.277186843 370.861548262 337.001095646 306.230485192 268.722747675 224.758952967 194.360019256 183.110664184 176.31077425 154.424898026 137.100878902 120.815518469 108.61721757 106.197187201 105.076230326 103.899351855 94.5095101473 93.1939255202 90.0795828509 85.2616363206 82.6525860821 76.4138396569 71.5800690515 65.8196063316 64.3184061706 61.8399618653 64.5726146452 72.7354504221 76.1704368569 84.9501533289 78.2641359068 78.8802213948 78.3617366945 112.682907712 179.605868606 243.742444704 954.019163671 1115.98883145 1263.31448781 2021.05710047 2246.35264809 2299.81155582 2298.93103106 2323.17404376 3209.19819431 3681.57190147 4149.98591999 4719.65001208 6009.02706597 5822.9324549 6013.94911809 5982.72709984 6416.83413322 5231.99868633 4673.79480526 5762.23467244 7736.87030705 8616.28336432 9171.80768422 9331.54495274 9229.91448248 9587.0832506 8007.79400274 8614.93504068 7849.94157302 6792.90626128 6795.04108657 6644.04827113 6453.04469963 4458.91167811 3826.407625 3465.89072156 3085.28933607 2446.06431126 1043.07078089 900.978521593 780.885097398 713.932779859 675.345149917 537.338955816 521.913911448 439.539190796 431.029824255 425.526193513 454.526915108 468.093507805 457.924164497 468.026269784 514.870011223 523.853043995 540.753766427 588.763973339 636.551040165 675.662956526 717.098734252 793.083108857 845.211831904 899.739101588 960.554345636 963.107163468 952.668748403 1028.08201646 1147.06832955 1249.72494181 1334.61880069 1403.10547043 1472.62050263 1512.38711796 1549.54080608 1590.14404503 1631.57544719 1599.44891168 1602.93704604 1654.7424147 1691.562534 1670.40158807 1608.17915946 1568.16961711 1500.13805436 1469.60291949 1438.29902277 1451.04505395 1472.63962206 1451.40447666 1359.56488291 1253.98662929 1293.57786031 1363.330844 1324.32176286 1155.34109554 1072.02732636 1010.22722007 966.402175102 937.910850908 873.229850354 852.319878013 846.953899322 851.657994567 815.980872812 766.647732996 760.147143328 798.852859945 839.087085427 817.029320047 761.139323894 744.248835603 748.46588241 855.24455994 880.949939289 904.716068824 905.289925 931.063714656 915.041493999 916.354674116 927.004969749 949.514454758 1046.85879875 1174.63763973 1240.77305231 1315.27927888 1489.18057676 1615.17869004 1690.96749914 1751.87550584 1666.02565676 1694.19117728 2015.36260631 2508.39746801 2998.30295237 3369.24074197 3872.95813188 4295.18915055 4774.76913331 5047.45356298 5528.39430319 5854.34935369 6319.13825732 6871.98363835 7355.70937621 7590.79492307 7422.51552175 7270.09363928 7401.7008755 7567.59701686 7636.69643073 7558.95526393 7568.29398487 7574.87800423 7564.83252982 7633.82491604 7644.10243043 7590.69576719 7601.55368931 7658.26646018 7764.75840935 7704.60831232
1341.32249088 1395.46821828 1475.03162328 1507.80214351 1451.92021472 1347.85247738 1251.98613278 1182.58064711 1130.90034723 1085.76793263 1027.34237431 980.125539474 928.515926865 851.641067537 765.152355758 668.987979014 556.224916567 466.15304804 452.961723611 484.385010553 506.901838112 492.864789888 442.866752472 391.940773331 369.261925845 359.664476414 340.737053886 319.899437778 291.668050301 225.605871316 208.591391478 186.318335194 172.979978984 146.83857682 129.282723163 105.64916539 103.69781512 103.067962902 97.435203189 99.2444533303 88.3834439154 84.5226248425 80.4722974333 77.1605260956 70.442217038 66.9279563463 63.1903433425 49.6384481811 53.2659140858 55.2904065487 54.8438672264 56.2758917063 59.5421269507 64.5873795431 75.4529522891 69.3832007319 72.3506784472 111.16883844 171.666862587 235.84439362 927.961400176 1206.11445662 1377.43118056 2205.21338932 3262.82786627 3440.68840281 3441.73435158 3516.37252386 4071.80846531 4476.08513767 5162.4818242 5997.20481048 6089.999483 6395.36969798 6062.05776556 6955.08578969 6182.14201985 4714.77776563 4197.26905956 5847.11483602 7863.51291999 10212.0223697 11026.1122295 10014.0106443 10583.7932013 10088.6260001 9214.00700154 8370.78519774 7799.64913183 7467.03955358 7803.36145645 7947.88948284 6616.15670456 5974.01659699 3947.85262722 3541.38228838 3114.80839362 2433.99253785 1030.15381683 856.984011239 721.044981515 659.663386167 634.740901751 526.733080792 509.025395457 435.46636889 422.674379202 414.368577461 400.07472139 413.890924775 442.167538696 455.061103212 461.330041793 469.272318826 498.472402665 529.838014903 595.60433828 637.270361655 670.481993923 732.367148178 784.659730201 851.632752596 916.794988664 947.919451394 957.501231081 1005.83482629 1130.21232808 1215.28130322 1280.76306693 1351.44423168 1413.04214065 1447.89840209 1481.56064711 1493.52965543 1524.7832353 1543.17177497 1539.69806475 1545.82153565 1536.84606109 1510.9068411 1481.67542424 1446.0314315 1374.65400362 1323.93476769 1314.84277924 1331.00899999 1345.01658195 1323.90539309 1194.16936189 1152.92131559 1170.86875256 1215.51563183 1161.63019371 987.051172841 871.054319806 791.403479066 749.837602402 715.165802274 682.030243005 714.232226481 775.502800744 807.007403537 777.946697936 732.166863881 710.865927568 774.506124658 819.08203415 793.48186832 728.627703617 681.980060233 665.512388515 678.743611745 701.01153934 838.695016958 851.229271585 795.374155136 881.592688384 885.040895595 894.097795926 872.929584857 952.91294293 1126.17796609 1173.66242013 1226.63459264 1328.02631822 1520.96552967 1623.05497498 1690.13913649 1590.84806381 1575.02018098 1901.15569601 2408.87172887 2856.85983595 3209.16852602 3498.15448831 4118.62441808 4389.10642878 4662.41440334 5154.84246862 5574.36321276 6088.78806972 6469.58280997 6948.01458789 7282.41052959 7197.86670439 7116.56340002 7213.76332896 7356.44272695 7409.42852915 7396.5956863 7395.65699163 7438.16860699 7491.32544855 7548.73101754 7509.54739231 7474.02265345 7431.80411224 7535.89307405 7694.65554051 7621.92396873
1273.10421785 1357.45271213 1422.40389866 1447.56569931 1392.65524672 1297.79187612 1213.04943825 1151.48132661 1104.36394933 1061.86692444 1007.15094235 962.706174887 914.957646658 843.486711178 776.072234587 676.512942659 569.355561361 477.465314753 464.312650748 489.246733682 489.171848462 470.005730545 419.287148117 368.575195881 347.776910517 344.748419176 339.852022995 317.322093091 293.212190935 247.249849122 215.567636552 186.072317756 169.049563607 121.464092904 110.409873557 104.196475291 102.743919658 100.726417773 93.8649896733 75.9728801077 65.4761745278 56.818292263 51.9134279428 45.8922510988 41.5560050458 40.8034130039 42.9343831055 46.6426598663 51.8076654531 54.1492995704 52.808341329 53.8633361927 57.287275942 61.1299961486 71.3276820334 75.3244277813 101.189183734 131.584865368 179.650780724 234.610497725 980.742086797 1273.8030936 1464.87547995 2586.69769532 3508.52107125 3630.69536234 3703.10690176 4278.11987743 3595.77077853 3377.89200296 4216.87433055 5649.14218064 6475.9758324 6490.08289217 6520.46233437 6885.76231592 6945.05616408 5332.52661714 4607.142877 6934.94356879 9430.55796482 10865.0351118 11630.6900397 10613.7612787 11161.8869432 11577.9331406 10141.8674811 7617.66481064 6534.25132095 6631.25762296 7456.45238882 7966.11066617 7889.97305115 7285.04939618 4011.77126798 3569.82484574 3110.50492215 2507.558151 1977.70759351 837.832952241 615.476682097 558.031320953 521.666152433 518.945845842 500.744010457 411.136754973 408.853950469 398.523042931 382.82143071 385.674896774 373.151536347 419.155396616 443.42113978 461.45644335 462.862199776 476.391589915 548.092208731 585.241147352 611.529023794 650.728790059 706.213867391 780.497213682 869.33477569 934.856255092 961.87282113 1012.43767831 1080.78803262 1137.59693745 1218.36916525 1284.95359361 1327.14787892 1359.56332397 1388.67421658 1404.22134581 1457.507226 1511.14160097 1525.40603462 1502.53840994 1454.01015963 1388.63857552 1353.92597845 1349.29710614 1253.62752684 1209.25382611 1197.56097662 1206.41363567 1208.35173899 1119.34872242 1051.95036482 1005.90810618 980.480053381 908.154166359 872.746284489 808.657926741 742.048522372 659.796207158 642.112086266 604.816480247 573.566594429 602.746054723 652.818754512 683.210582269 672.147504614 639.907128885 645.03731613 680.496604239 716.478069382 697.783528161 650.924775503 615.029331597 600.818681814 610.680144624 624.776586313 674.847386877 716.116632453 782.44590381 841.18585831 874.484127092 869.741385354 871.890502512 951.408766338 1093.84911491 1118.0402841 1143.05288021 1230.93851765 1431.54468177 1569.89584715 1637.05639313 1670.24032616 1698.17331365 1984.45736735 2478.10655876 2845.4605679 3135.87080065 3381.23285214 3752.79391476 4206.08496701 4467.04238109 4941.03393739 5322.32782824 5568.32981277 5875.8302589 6156.67716337 6477.42174403 6675.74218083 6793.65262497 6923.69697813 7118.97441454 7158.79661051 7302.14499429 7454.68265386 7373.35714829 7386.75984476 7485.39271142 7386.59757155 7338.04859818 7390.99821322 7364.88552788 7389.07369964 7282.97023933
1214.33687174 1263.73787546 1304.9558832 1310.79700158 1274.19798217 1213.16697556 1162.52145901 1115.62837725 1078.20778962 1040.94570256 1004.4125469 952.066287187 910.742993625 850.101346933 799.049536164 701.419815304 624.514599505 557.499429414 520.254439551 505.143009134 497.727106485 470.032546802 415.357846068 364.482574875 345.073693015 343.548805314 334.958988071 316.802966086 293.43921972 232.697580221 209.894553285 189.501121508 132.664661352 117.285839074 106.477425865 100.088869339 97.4760892591 86.2126843314 78.9936913825 65.8495449208 57.395493475 49.6144524523 44.9657268884 39.1943078707 34.6831152091 34.1264559464 35.6655531493 39.9961855159 44.3065554417 46.5112375453 47.4746733798 49.900398575 53.2011327954 56.5701628244 60.1185651664 83.9523416966 124.940328039 153.321745317 186.655401272 230.14339576 1010.53682439 1309.9710748 1728.03910114 2195.43254328 3661.94218369 3815.36779322 4781.83333701 4283.28973937 3083.8767822 2177.71114898 3346.55178544 5561.38093878 7006.13257589 5941.68530938 5298.85233687 6819.92965319 8495.2042188 8603.73378381 8491.57020501 9366.33858274 11091.7605822 11394.0443406 12054.1312296 12339.4349089 11631.281108 12027.2202138 11156.7615924 7592.22416623 5567.70647552 6205.24174401 7313.80287813 8064.32637795 7772.6621135 7115.46652326 5353.76438503 3613.91310776 3139.250497 2475.3437345 1932.19592545 1295.3031709 556.83708306 484.312948414 506.010611812 508.801406838 484.002666763 393.296912087 372.48225976 377.25653754 360.697326921 322.322209235 354.602337471 388.506797135 438.587230801 463.355324725 463.35075822 472.782998912 504.926469923 577.495383836 597.902768239 604.274688763 648.040545568 719.049798021 827.47371787 890.043496733 957.494882709 1039.78111199 1117.10413071 1183.45669595 1204.54234426 1194.62318592 1286.61077011 1328.79424579 1349.12577986 1366.38457159 1396.92205493 1428.38375313 1434.05230975 1390.57463617 1332.61580943 1306.85623364 1282.64216874 1259.20213251 1189.0605093 1135.74285133 1125.83104212 1092.83968867 1047.35791039 963.036442572 877.554595138 781.11910559 697.801988784 666.12653099 655.287422488 647.395143687 590.026068466 554.352571286 485.754832902 467.279080288 458.032852228 474.189923762 515.343279864 550.369909639 530.685974579 550.308719749 556.465281337 569.135512513 585.269068188 568.917080416 519.814308515 503.700384006 529.280859759 534.550917905 557.317152839 613.822089993 648.869908373 726.302714498 825.748976029 866.766814725 864.046807552 865.978447475 951.809440953 1023.54458053 1068.52745248 1088.08644423 1162.05945982 1283.5976824 1503.54221873 1636.83800179 1714.35620428 1883.73169128 2112.04488075 2368.39261289 2775.65064965 3118.64438606 3299.96124496 3481.11632693 3833.37993835 4274.58407744 4532.34690713 4981.84094116 5190.09230227 5282.06540717 5474.03083209 5810.45393601 6143.64327807 6364.48440268 6511.4147292 6740.61717679 6939.57108364 7176.81329977 7407.3231459 7270.25144627 7179.70632526 7182.45779868 7157.37268564 7291.52677108 7514.83910488 7179.79208775 7012.67703755 6929.7381658
1150.7026932 1176.79403229 1191.96374489 1185.31028526 1158.1082501 1128.58822184 1104.14337487 1074.34060038 1057.68540487 1023.79766466 990.894616214 958.198680496 917.070990271 864.927451124 834.027152556 767.466304621 706.757775027 629.100364125 591.263518992 536.989014059 511.684779966 477.13490993 434.66557978 378.400130033 348.897906698 339.867846807 332.958616563 316.708253433 274.464249543 234.160980418 211.051096384 177.107721463 142.397144966 110.872500301 99.9878906778 91.2671925407 85.4952572182 67.7317474564 60.4318223631 55.01492338 47.772480873 36.6469643202 33.1633567251 30.4517089167 27.8865163056 27.427467112 27.4947847532 29.4934386617 32.92039348 33.2224134478 34.4820460255 36.8549511067 39.5153461921 50.9812948316 70.4246034412 85.6672193316 92.4070121165 96.9879889472 165.515968803 213.255241449 991.048258126 1418.36607422 1741.18731473 2239.87123456 3479.23833497 3902.10731021 5436.71547714 5007.37014363 3852.89921373 3090.78287403 4289.13933343 6905.80276078 7121.23059076 4793.93812224 3354.59294817 7004.62340308 10385.6554189 12123.6238282 12228.9904081 11802.6471749 10994.7132434 11862.5266291 12858.4948947 13116.7006225 12625.7002252 13396.1221565 12300.1941581 9012.91084327 7035.22957567 7317.53445323 7932.1122213 8046.9089802 7608.80738363 6946.40083702 6111.03443989 3698.38894851 3178.38049467 2406.36978484 1999.15856909 1442.07173042 864.97107108 538.921570061 546.231679017 496.348563477 398.391541793 364.296270461 345.524110768 334.792982107 333.883666264 297.003129397 324.809799909 356.622180211 394.05921877 434.708830896 443.363027715 467.140373011 501.063402838 549.658508152 590.091623757 597.938140254 625.404960866 682.600401321 763.369478236 850.655271021 917.722460487 1040.23101378 1141.15739873 1232.41444874 1240.17360379 1208.15640807 1257.41668298 1347.14681345 1362.67029553 1343.57076014 1344.35528629 1345.97287577 1336.8859922 1305.91048967 1267.74241653 1244.39109731 1237.87801521 1194.5800701 1122.05321491 1109.32888533 1106.90322865 1013.29696295 926.251787445 758.345984042 702.392481906 642.187474319 566.301106427 507.979279052 515.840989552 515.430284053 490.40036306 465.251632958 412.768216282 386.62674719 359.612879781 368.112441039 409.186030268 413.629245939 419.899359628 436.504918698 465.779713477 464.565200483 438.190675585 421.846679845 412.83532441 418.963384777 431.467801324 467.362921888 485.290306679 524.67549525 577.943970082 654.343074689 756.86439792 804.387601434 829.799371757 836.569495465 889.500963344 1014.72674082 1065.19009723 1073.96508174 1140.42912456 1248.95938548 1463.38426297 1606.58854404 1753.31219343 1949.21473823 2287.06794019 2549.58070854 2782.39309555 2904.2715204 3125.02324623 3383.0894123 3707.11434343 3819.21286204 4230.80867362 4540.12536068 4987.44746773 5055.30905607 5071.90233726 5327.53738149 5688.01480513 5907.7113942 6204.7588783 6423.76137412 6592.1499407 6692.31960074 6776.99717878 6766.39603442 6731.9415946 6694.90631536 6691.30212544 6745.21878732 6915.32321135 6698.48723799 6506.82614413 6419.98215941
1096.65592622 1110.24881065 1116.26713305 1111.11389018 1099.29825301 1090.54424278 1080.39983527 1056.99158908 1028.5564007 998.814084498 982.404376551 954.011810195 918.312248279 881.565267177 855.506612513 834.49029426 764.442337397 697.951683713 643.984211711 581.219012245 526.509175926 487.601702412 421.545720049 377.517345554 361.307491302 345.986233425 328.602253321 298.199024878 271.927049774 232.579226919 209.774846776 175.413062634 138.737266263 104.284212965 89.7155541555 77.1049092158 60.854410808 49.2367061493 47.1531434556 38.051986078 33.7277616304 31.0218905887 26.7111147629 21.1144187486 19.5667473517 18.3136390919 18.9826448496 17.2395269852 19.2048761135 22.8858703555 25.1207210323 26.6333962022 33.8351365695 53.9600659567 66.797227445 86.666206534 85.9972808013 84.5443124775 89.4936207416 169.854736789 910.461062162 1360.76769118 2088.46092181 2655.23470648 3638.36941747 4254.34623332 5447.83023106 5587.42871037 5558.36199286 5950.04398163 7293.60380841 8956.96469217 9776.89007196 7467.04640411 6363.57597758 9786.91635906 12907.518826 14402.5668308 14978.705078 12278.6070897 9186.745228 10943.8083736 13142.7087087 11857.7151427 11839.4679205 13346.6991056 14013.6334445 12775.3316934 10548.736193 10248.6979737 8715.33753162 7591.57545637 6514.90821019 6101.25959414 4864.44525367 4152.50301617 2763.99891001 2456.92551637 2057.94764823 1741.07088515 1338.84915978 626.526848278 588.539621043 460.376260738 391.954926146 322.025006603 312.838565432 308.888847628 277.786175962 268.708373976 279.18982736 304.608758893 341.164298716 382.790641435 408.065948814 427.301297849 485.782277494 529.26645167 567.730408123 580.025494142 580.465339174 623.112634686 680.603433344 760.640047488 843.859990573 931.163598139 1083.58613866 1204.26790002 1220.06865047 1191.12494323 1239.44134634 1317.73506292 1342.34062627 1288.29956908 1252.57157631 1288.08248365 1276.33367531 1261.78205106 1229.10362054 1228.81517936 1232.86883881 1144.72291746 1072.54090157 1048.70154886 1002.58351414 878.133132274 748.205825541 656.355043168 623.851824761 579.748220273 506.176514206 476.944800719 474.467177565 449.043824847 405.698297202 369.879644051 352.723591023 332.734675434 314.519016581 314.830414073 327.43610647 329.694893371 341.549000282 323.80874439 330.014821403 354.331841616 335.180043563 327.732037369 326.806291123 350.02508691 366.838264225 382.577258946 397.953112194 446.12372135 491.040101884 558.669125885 628.392187565 713.046802135 731.441651797 793.912906395 844.348203163 976.497845166 1027.91899722 1050.65705704 1075.43715219 1123.36457677 1296.06755331 1441.20157463 1747.34595835 1977.01818613 2263.0872412 2705.4556105 3003.84219583 3101.42446178 3139.47607841 3237.87261985 3428.28773959 3625.78820132 3831.97232368 4291.3332114 4745.28634528 4980.91780792 5019.62752518 5103.70699836 5342.9264071 5502.17136643 5769.84350866 5920.38904964 5950.04686183 5890.85427047 5930.10909627 6132.82363615 6208.18785043 6199.67508616 6088.41187119 5908.99815799 5715.508414 5868.16606534 5977.50244577 5893.81727245
1057.22668468 1066.5478208 1073.19646346 1077.93169704 1083.71253226 1088.23047293 1078.41318643 1035.28704925 1001.22019755 977.936318351 971.261753982 939.469107046 909.513493854 885.542158498 896.483860575 883.703058966 819.978641813 739.867429663 652.606340981 571.573318585 534.367456724 476.418016916 427.525502167 383.379037094 363.705699919 349.971622585 328.379315894 293.8387389 260.125034556 243.302337714 208.30449262 172.797919795 134.892934218 115.182794696 80.1612842322 62.3571063112 41.1366514192 30.5623551823 29.9292667039 27.4955578105 26.4250974728 24.6602717194 20.9237407384 15.880052628 14.2705341661 12.6200678715 8.17222166856 8.17430755424 9.62397364449 12.8575637358 17.6012230831 22.8655551281 30.5025412985 34.0860019965 59.9203111921 73.9642111899 69.2652175987 62.3000832057 123.459578011 231.120511128 935.364402876 1909.57736136 2232.76380165 2515.74653236 3586.32734275 3567.30468696 4637.0862669 5465.26418337 7146.36796411 9158.81317578 10642.5746499 12843.7976204 13269.8656013 12974.5851608 13496.889038 15207.2050655 16461.232287 18475.1721595 17724.0304135 15084.4311263 12057.5365974 13257.7116046 13973.6734271 10087.7570898 9138.4963541 13244.2462853 16010.0564474 16093.3158764 14193.4502586 12770.8660397 10010.4609186 6369.84905129 4387.06897124 4787.97642635 4531.88347251 3683.4374828 2389.5949391 1909.48036272 2085.64639646 1948.07666279 1603.2207192 714.531447215 597.852933339 417.72708576 339.665450162 272.830724012 280.433161308 280.300105067 271.677845109 243.556565187 240.406590721 256.097523572 284.463636849 314.355195057 367.881755003 383.727013061 452.128027779 497.643162511 526.226608925 541.441000278 549.394304028 592.792272736 642.495189692 686.590504117 776.918475489 846.733404119 946.342394352 1068.39324969 1123.46917596 1135.79433038 1186.29829593 1235.40402409 1247.25783102 1227.48117094 1202.9961912 1196.82397648 1176.95130386 1172.90016297 1161.29125018 1158.33700438 1150.00758613 1090.43162177 990.287973971 933.08743565 867.794330684 737.770471734 623.577482023 575.677549217 570.420916544 543.049302432 485.698376765 465.379078117 417.111895009 346.047341767 324.595988588 319.694931965 309.222899155 310.970799289 299.506954908 287.204127 262.561597473 244.156763798 249.642600526 258.7925388 274.33481458 274.186018586 277.316270422 276.460964133 279.95500842 304.182426192 328.349590507 322.924894431 343.782168323 353.549607102 405.356307339 466.196989058 527.459099745 565.353570401 649.720523662 727.533346551 781.740469868 897.483766013 970.918338293 1009.10746304 1048.50877524 1093.40353289 1162.77559254 1401.96158519 1535.98868577 1819.78522971 2126.76933296 2661.59315921 3102.65374138 3224.31325697 3096.44990448 3132.06414928 3450.03442438 3675.54107886 3765.63690794 3864.12380918 4357.4469572 4753.01598276 4867.27593301 4998.92100941 5094.0647597 5223.31437323 5427.31210226 5490.96590859 5701.92026767 5583.99689252 5564.67793503 5630.58836164 5612.67233774 5568.60933303 5580.84838595 5381.60688123 5163.75272868 5337.12881574 5402.99782254 5392.17497098
992.520426459 1020.68770323 1029.15778803 1042.37401924 1072.66270204 1080.25885371 1061.14764299 1024.49552741 997.966994692 983.407272676 972.989144908 941.055248127 898.365478031 889.00836867 904.644448038 900.021104717 820.3985428 728.429875098 636.135114178 579.385189233 522.402737947 492.804237246 431.848169135 382.14471822 355.980774513 338.110522538 310.303434934 300.20849986 258.406846247 241.220410235 206.037367744 167.463214202 147.517397197 108.376816341 86.5132283735 52.9596100006 27.8665257762 17.8291222426 19.5071011469 19.9689785561 19.2035841574 16.8747156706 11.7444424319 9.04546775504 7.96726600025 4.3927351623 3.23628572412 1.6719916464 2.69023716718 7.01423384731 10.7687804406 13.5032332244 21.3963074787 29.7777422919 56.6945421696 59.4620694814 62.853931947 73.9862695501 40.8315263096 473.301789778 1030.80249914 1669.76727755 1895.03959728 2985.29154159 3288.43109329 3244.63217564 2613.90565381 4159.0630866 7689.00179947 11272.6373567 13408.2350519 15085.3677299 17594.8785082 17844.8092082 19494.96608 20292.8770179 20599.5666427 20994.4620619 20719.8004482 19747.4973802 18492.5053633 18057.9509841 17240.6445786 13499.6821263 12450.2335064 16430.6801844 19205.3700431 19435.9346609 17300.1966647 14576.3986792 10942.1131392 5598.90245272 2729.99010791 3880.30212644 4706.77854635 3712.1320571 2078.50660694 1687.86446065 2182.47428497 2114.88476486 1091.18635428 753.012308101 597.378746621 457.057846182 301.825270958 247.733392277 263.096616977 269.544721997 234.750294803 227.783413933 226.385243308 234.938879578 243.655254841 263.074243323 299.196536469 344.847528167 384.068495904 459.488395278 485.787186621 503.535043936 515.754056134 541.991652692 600.486472069 647.902154099 704.896446743 739.39061097 806.844033095 902.940113452 999.087052405 1059.26675385 1102.11759473 1150.15131143 1177.45638198 1193.44179244 1188.08209287 1177.24945191 1159.98852926 1162.25073237 1158.16202906 1111.97275298 1060.85550159 1015.36754477 927.150863433 836.728994986 724.61382266 622.671839022 566.108700903 555.788808017 542.329993723 489.482724837 446.276806492 383.830722976 332.873394815 310.738121911 315.96718919 301.040821208 272.517116025 231.427510439 227.618904851 211.317851031 183.881750738 189.932404975 203.964352725 213.791600801 220.212269359 235.459755876 255.562333047 267.661322993 272.238246193 289.358671348 290.487905728 300.044361625 311.054690114 310.337391799 344.08146004 393.197489877 431.569511565 480.268129341 527.038548859 579.937141885 684.725950891 747.721496474 901.406710448 971.296976019 1016.85049218 1057.06388686 1118.51780076 1322.77212296 1457.93130502 1660.17629965 1972.98829084 2462.57526388 2869.21777945 3003.39970022 2885.63362639 2930.2325122 3378.7098462 3771.53210785 3817.28399157 3709.64839981 3783.38548612 4086.23262939 4400.82264182 4686.73715511 4972.95788345 5195.44031201 5336.99833489 5352.63955445 5343.287686 5438.0120945 5490.04814016 5375.14149083 5287.1035358 5305.69039421 5288.48062661 5188.26507871 5150.5885709 5061.13950058 4911.22058951 4774.64198952
993.441320682 1011.91642152 1022.30725047 1019.0698271 1027.26300804 1038.10666697 1025.2399369 1000.10697644 989.085511995 998.045379675 996.952315327 957.93245987 886.992841059 865.725717464 860.895109325 842.300501413 777.088144077 684.30144295 624.940173741 577.36574364 523.59342689 469.698798635 432.571158268 390.543858177 341.337530864 318.490129508 305.304507277 290.191843901 272.559209185 244.421635555 224.009304153 164.727314871 140.1487211 119.942724652 87.5213405048 48.7842427689 20.1076663417 10.1100500794 16.4334465088 17.2908951001 15.4243928012 13.0641106066 9.82036474699 6.32677512131 4.35359713974 3.21062971168 2.28369252171 0.660634905322 1.02438570192 4.12589445745 8.01130370454 10.1016841583 17.0166567574 25.2021322134 52.1438980762 57.4716670363 66.1777003095 109.568961309 129.755706935 604.171457585 1264.31327219 1224.44895579 1193.61719931 2329.36803522 3247.82547891 2568.87709279 495.677726175 2915.81180562 8259.70814308 12752.9037006 15777.7726423 18584.6592563 20769.0022259 21505.4932463 21679.1485862 21785.1616585 22209.659906 22183.5324641 21497.2178127 22449.1190185 22479.0256819 23762.3357483 23152.8500361 22875.0449674 22376.6925506 23497.6690071 23970.2769574 23399.4295405 21288.1558716 17727.2119751 13685.5967079 8122.14415638 5075.65355145 5586.6434065 6319.69456488 4585.91568581 2759.24281684 2380.65865805 2444.24130533 2203.47482489 1088.27133811 741.454153775 592.705010881 441.01496759 341.567809083 294.572792516 268.265584135 235.098993846 224.731356522 223.763683713 222.426633071 218.421996778 219.124481168 229.436328994 259.341395632 284.541114838 335.973733076 388.266507526 454.49004174 482.356865983 497.836531379 512.309484713 538.941042253 609.746341884 624.253394725 637.185138782 688.684900811 790.78466796 869.561059244 945.165930539 1022.66362992 1074.64711024 1144.16367761 1231.02576749 1225.54847393 1162.45604205 1142.31327514 1203.55711294 1220.03743984 1099.45505577 986.226904676 883.460446229 785.832142476 679.874363504 604.426715875 557.548458844 514.943619206 500.274846162 469.569954755 391.343449704 350.270463706 317.785698459 267.466097086 227.337549526 233.130327006 219.00603381 183.806339631 166.673335687 157.877840724 156.117148187 135.58288478 150.953754016 173.102502434 178.689076215 179.663535249 195.342852226 206.206437033 231.336489187 249.679334157 252.102780923 251.359638232 268.300629102 296.748154642 300.815070181 300.845908038 314.010209574 339.372654601 381.711268816 424.889787634 506.666292701 565.03561404 639.771222515 782.888012023 957.314694361 1009.63146623 1032.79507617 1078.37519097 1256.10483551 1369.71629819 1509.42789201 1719.76484038 1996.12387837 2377.3221074 2543.86493827 2589.41636882 2736.67307993 3049.06726064 3525.34144789 3605.2680232 3488.91838219 3445.12877967 3678.0945905 3758.86587536 4213.78699097 4627.71866812 5070.85215896 5379.10826697 5221.24131293 5022.65032563 5157.08523508 5134.20028415 5105.26349156 5205.98525794 5255.58081934 5029.99563294 4933.14251279 4862.6374566 4635.31658245 4523.60631321 4533.32134851
1010.58455544 1048.6972348 1036.03191541 1006.00640255 987.065844004 979.774130105 980.247055754 973.846546116 977.002740936 997.392760269 999.705962042 938.898238053 876.413123635 830.24614745 795.505190662 769.11533262 692.719121026 643.883945521 606.269223439 571.755839986 523.214986497 474.746323818 437.844695535 392.049017084 332.073257526 303.523919585 302.953136941 296.787394937 271.735849827 256.491654546 238.705821702 196.45460229 145.777926093 128.343611616 110.563777949 64.4907310754 35.3883934431 25.3229554495 22.9052153214 15.7958995197 11.0226327556 8.37449975979 5.39752924676 3.77784594949 2.63680510888 2.34541718103 2.37515279476 1.70397835712 1.80519231666 3.87108935417 4.72798376795 7.15827034894 8.81937368393 20.10964859 43.0618998142 51.90777643 202.199506841 215.798347152 444.593484123 572.026724968 1336.80286303 812.783700754 267.438409003 1677.49997312 3585.03971358 4034.72877164 2992.30488915 5855.88254648 10925.402027 14546.802338 18123.1161909 20316.0175499 22306.793584 23949.8673057 22805.5390887 22478.8714715 23507.456774 23001.1955042 21613.5931302 24561.6778047 26982.8149011 28452.2232105 29468.9277124 32486.8077867 33549.1890703 31790.9282385 29266.094756 25746.038406 23858.0928001 21713.0853252 18397.6101162 13552.3543822 10586.1997391 9293.95657729 8323.37436214 5973.33374102 3878.47427691 3096.28887468 2693.25610857 2130.52208721 1025.80152323 701.640813549 529.923961384 453.672562523 399.68479046 350.537964574 272.718846242 224.2074396 211.628532062 197.744518155 180.080749439 189.690684612 186.440087049 184.657097892 205.400368089 246.661189245 268.90944366 331.083907266 379.970760285 461.223562714 500.415575631 501.432652271 514.852020025 563.474416889 598.524907285 585.061577816 630.81106032 724.723895131 796.551853482 874.407137263 934.285982104 991.14815477 1093.45406065 1245.79618723 1243.83073343 1121.99362944 1097.01773492 1187.44784002 1213.58647716 1046.05423118 869.778789587 752.992833685 673.646972072 593.65178931 472.518560925 419.610180826 394.830553897 373.856192868 318.16425547 282.125642055 245.632058345 186.133261293 165.435747095 145.675139637 124.346053216 129.957120435 127.953720977 122.72954499 122.038685309 121.338462588 130.149102477 129.531549884 131.283875779 149.404757719 150.801107061 156.056099192 173.504753925 191.635256686 203.302614247 196.883811923 225.344879803 238.486388791 259.489240637 259.004626239 253.522492702 267.943952365 285.580504299 321.148842984 348.584898955 389.760302581 493.412845376 578.882419475 718.99949865 914.425954094 1047.02009969 1028.25645632 1044.33395914 1125.26447762 1307.05433631 1374.0832246 1471.56043413 1640.02232485 1850.09720541 1997.9696861 2183.38790981 2379.52108665 2604.35944825 2822.61158007 2998.95965644 2899.73635691 2860.98783325 2923.94602132 3194.06447213 3425.58213477 4076.36943617 4504.12522582 4774.64440481 4655.55802207 4534.431648 4460.35871927 4691.95985518 4718.24344006 4847.42776621 4849.97615973 4492.92234753 4307.06843025 4267.27216253 4325.58246698 4462.05365733 4368.76331726
1011.50617486 1074.15320034 1051.58807182 978.46622982 950.274469777 933.882652758 941.029207824 933.838773265 929.698314108 948.272539668 946.725278909 900.649521441 835.763564781 796.815120097 742.633662538 683.854629075 634.939414351 609.198764355 590.167991147 550.025842019 503.162751283 483.619789629 452.383756564 407.817983427 368.949591414 324.044656342 306.430769705 300.764813799 257.645425204 231.817847809 220.424371147 196.014519344 152.95576574 131.299346007 115.053012039 89.9558511244 58.0249338513 46.5855762033 34.1824421518 16.4888902165 6.05255272732 2.99772765489 4.07058305942 3.12095654497 1.13670995931 1.43705025362 1.49234250895 2.25963116408 2.17367424061 3.41036358886 2.75160652563 3.09967039278 7.02253693268 8.60434750895 24.4987090833 35.8731611255 120.980066884 365.520537367 684.074728496 927.499733895 1722.84543785 1156.10179344 729.104840033 2145.97272959 4682.4329382 6063.59403487 8224.20954905 11050.1498479 15245.0101623 18471.2028698 20322.2720345 22427.8594044 25227.0300246 27815.8715324 26818.2874015 25565.3048282 25584.3171746 26356.6664372 28253.9402114 30666.3567099 30527.308587 31694.7337643 33622.3235236 40323.9937212 44220.9546968 38485.8897877 32764.2950513 29994.5398952 27154.2426567 25923.2134928 24225.9688623 19937.5154836 16246.9129744 13151.0426355 9320.904461 7362.99763457 4501.40803515 3347.24795022 2420.38555883 1700.65768838 905.02877063 648.323347881 485.707580105 414.11271254 398.666405878 368.504866374 256.424769573 208.66284747 178.817800186 154.760532902 132.577952107 117.547801324 117.745629694 144.192992837 161.94094516 182.833009376 227.51030854 269.170745849 328.627297706 393.534861318 459.412459284 472.179131805 481.559549612 530.770047828 574.171707021 603.0726903 633.662631302 707.884238679 758.894468711 795.158053671 875.594383693 913.747537352 952.31019631 1055.75769653 1075.72680101 1007.42852928 971.433656547 988.435736018 925.705745196 812.357564798 737.997782379 660.650359372 574.746751448 466.789369875 388.338389683 298.308220497 230.015676694 229.736138769 226.590313823 208.853062207 155.397328518 125.75373884 107.131375441 86.1616075522 53.2033868891 69.8693604303 87.0586116504 83.0493848659 77.7878319041 95.0200393446 112.344503136 116.114559187 120.437256764 132.891154665 146.969982041 139.817335804 129.35627005 154.827818074 160.621223009 142.522909008 170.943972807 175.011875546 182.414258149 179.903505979 160.824364923 181.194820652 229.148660504 253.67486305 285.486283628 320.702549722 411.809301632 486.807776183 623.587657815 860.340178141 1043.30783452 998.12270373 973.539807706 1086.21630681 1227.89900651 1347.50549443 1361.0725924 1417.55071899 1529.44125691 1633.60440857 1761.89691773 2019.0037982 2150.85041631 2268.14740113 2336.73056245 2436.92982828 2491.65711977 2517.95101235 2689.00048965 3032.73563839 3248.55246597 3585.10692014 3691.8340634 3884.09151413 3915.96656824 4016.89311636 4010.30838433 4116.14768754 3966.12405398 3802.26668943 3755.41380443 3787.79953278 3792.43419507 3842.2755762 4003.48106822 4021.6245635
951.592807467 996.951409402 978.634523108 923.095371571 885.324015757 880.119590467 862.257427129 869.762435078 885.889262134 888.476676886 882.378341553 845.862279982 794.633002742 762.208201138 691.308671165 645.750077825 609.74119474 601.763672229 591.788584469 556.60825823 499.242565683 491.817849662 470.546435813 471.36221566 408.085239365 373.501740758 355.243638709 289.971588727 236.405044618 187.72613455 190.523871435 191.833256288 141.546562916 106.801905139 111.819488618 108.667085696 81.4440533633 68.5695926764 41.8207924395 20.6714415504 9.54475184419 3.98672855955 5.02318364921 4.18991216452 2.04626884892 2.48889359724 1.65709800351 1.50350418794 0.924079187225 1.65288945925 0.695488288845 0.703172513512 5.77006183472 6.48548082344 4.81973417942 15.9261012079 249.637697086 541.380820408 829.286312794 1149.47610568 1642.39260754 2146.5008398 2475.87930705 3710.49108705 6258.5752727 8308.83431037 10803.8219923 15332.9976059 18855.8832148 20407.2650481 22141.3297693 24415.0500058 27455.8741362 32493.9032225 31144.0956667 26631.8196953 26933.0798114 28296.8971596 35195.995819 38585.6957683 34470.8033453 34860.0704309 35673.2887371 41132.5741506 46033.4028288 39310.6655243 34204.5673804 31087.5619948 29912.3632718 30471.7026928 29960.0554465 26328.8510499 20778.7179925 16143.3480803 10908.9625953 8226.07362587 4927.57601513 3200.06967964 1641.54775781 682.010586503 752.406711348 729.977690316 432.553287717 338.290182461 365.400739708 335.388111054 212.301865695 165.730031325 143.820761005 113.737996415 94.1778277709 75.775741773 81.4539959982 98.5055938859 130.130398236 148.247050476 166.904031863 213.39010768 240.775640944 281.674140971 340.277746386 415.331033921 445.578197265 485.277597887 555.463600226 578.603165206 627.968690887 673.756492322 723.897095911 757.401663844 800.710084633 832.277400122 848.679293266 869.174728964 880.455841236 861.473561426 831.596974751 778.633736365 668.115304119 581.306736583 583.477648055 538.173919484 464.169701031 403.971452811 315.938537166 198.454833509 146.144112845 150.257909209 144.339921953 125.264935496 100.535571943 83.828038468 70.5676504591 55.8336310776 53.5855286843 62.3250766902 61.4252420912 56.104273923 55.3158362747 70.8631667418 83.2004547365 87.2675287601 93.6531732984 109.369864081 112.438539725 108.247916829 104.815254614 106.410639104 108.976404301 113.638506714 112.06968727 109.612508426 104.658035841 92.2250053249 91.9138859867 102.13547397 143.025752704 172.146792784 191.544523361 254.883352775 271.681341259 339.461825673 420.16369182 620.511303837 783.276325524 797.220081394 867.569437742 980.309000067 1121.42930625 1280.92926913 1261.9482125 1291.20331522 1328.78242773 1356.06863219 1419.44087044 1579.86442681 1684.04652233 1823.36474949 2064.69859518 2150.16572007 2181.36333027 2272.46836683 2420.49293974 2551.4785227 2840.6283689 2852.08754253 2911.11820446 3040.89992454 3171.35000455 3290.6115018 3436.916937 3507.51295991 3514.74454841 3409.05935728 3403.51704993 3411.66338871 3410.27025894 3425.97070617 3447.75965887 3443.15451552
838.95568853 852.783082652 845.906696719 822.540102173 798.692740921 798.672585811 813.169326922 831.905850268 833.585678756 841.670837851 812.105875295 786.852656152 765.100603304 704.415547858 666.146144603 629.385104519 606.24396676 600.383412464 587.384996328 536.772656677 502.023875655 512.523636499 508.873303572 481.31102379 444.490952306 416.631737179 395.483073369 339.53893459 246.523671567 156.635669265 177.553198617 201.780009895 159.429026896 114.093872695 118.638797147 125.811563156 110.737032411 84.1808384522 50.4893389318 26.3938444237 19.2894512705 16.066715044 7.78036483605 6.6162295711 4.99881931511 3.41283716743 1.75942242753 1.51935832785 0.953887795922 1.88722366084 1.21864964557 1.69751713227 7.19547568585 13.719506165 8.58443317275 49.4538713315 141.735291372 476.185022506 902.3616228 1412.19616922 1546.4850551 2009.49685505 3213.24941182 4648.75454797 6375.64365342 9328.0859182 12009.6838857 16203.1355415 21311.1787464 21019.5354215 23460.4955045 27826.319804 26873.5596271 29874.5265499 28850.5818185 26240.7216008 26809.3415092 27846.804869 33442.9061374 37535.0837935 35526.1182319 41429.6319148 37126.208434 35100.0821257 36113.2175704 34892.6779594 35592.0221373 33560.764543 31510.0573573 34407.8705058 37288.1192648 31718.4554928 23452.1870934 17393.6701636 11714.7055044 8727.94683115 5207.98673041 3277.45451193 1363.4284446 447.209497215 705.680532806 778.629763572 557.853341207 355.212013002 342.229765386 312.316255815 188.25376124 143.67242806 112.926934288 95.7951773618 70.6897685911 56.8414901699 61.8994403312 74.6531285507 92.3979470031 105.905761552 125.173970224 153.914304845 153.962165597 175.866611212 242.729010052 324.655509524 371.890793312 447.973171918 492.312215305 577.047884182 626.834607066 659.643713079 663.933160234 698.888858232 730.051025171 783.567138609 830.984484305 808.554786116 764.034134071 739.494977088 716.185040122 644.441817543 574.935672923 515.419317075 530.371736275 448.122734457 373.295461728 320.870840444 265.989212824 203.01855379 147.288972827 127.370758939 98.9523052255 77.2668842011 66.2427095271 52.1345138292 29.097936746 32.0731261856 40.7020989937 44.1915879749 45.9555897319 47.9346291521 49.1916003768 49.8350634457 55.7200573315 57.4049022265 67.8262992196 73.6386573917 64.4363676205 67.5452946497 82.4387663669 87.0990524952 84.4405099169 82.262106603 84.3602763743 79.6860375035 73.942056191 59.3889625006 50.4259084665 61.0906243655 99.1048847537 120.708064279 133.984605099 157.508815713 185.283973831 194.76072236 220.574172471 351.026625425 498.887792426 574.819102142 624.813586636 825.710074927 946.602468432 1053.45198318 1044.60894576 1039.88217386 1121.605859 1164.00327131 1206.52097082 1274.17821695 1427.64152112 1619.97529791 2010.45898315 2113.5579107 1874.6439908 2100.28492348 2150.75176002 2253.83675921 2351.47514068 2621.87105068 2698.63935364 2773.33904176 2854.67335479 2879.07854173 2926.96176525 2928.73857754 2924.74569779 3220.07755437 3263.31976047 3148.88439352 3285.4002403 3385.0289148 3071.62929253 2897.22612602
776.885914457 803.051371957 799.983866778 772.008323104 751.927448385 744.249973365 764.694961639 784.633544579 787.785016454 806.350202645 794.587742282 773.054996498 729.430489474 691.384406103 670.827768514 630.699127614 601.378473949 571.663629166 546.161654323 510.861326358 494.604035713 508.536646344 507.249370522 489.053633318 490.806942554 466.11062798 558.686338467 386.164131373 312.411178827 281.147810361 308.837483949 259.051401497 226.710303102 173.709509792 164.0179726 136.165648133 122.936098753 94.0394071374 67.9001674326 32.5465358094 24.7269062252 22.8694345219 19.9670587656 8.91981868934 5.28011666085 2.84525866408 1.36002698793 1.08046768218 0.889405143012 2.01603259583 2.53485676505 3.55676702278 19.7178083791 23.9965916967 94.2849142536 120.601425398 178.501164255 495.836101319 959.114835147 1440.67525375 1906.63993478 1789.88358529 2574.01194962 4778.34849381 6772.68168397 8703.63188544 11945.2360344 14508.5559984 17299.9514155 18669.9194089 21823.7933041 26648.4721827 24582.0823753 23306.6015868 24621.665268 27532.5733584 25862.9870797 28060.8250903 27358.895922 28034.344696 30546.144981 38421.2010877 32983.7148987 27771.1674392 28232.2862734 32336.4884712 39721.3032745 35860.8768399 30857.2966378 33943.232263 37939.5483987 31262.8841837 21337.6170587 15478.6308824 11555.8556331 8762.02973113 5546.63693096 3869.68649756 2416.3434566 1194.14792777 1024.77357146 939.197948214 718.246618888 392.176885693 303.041272133 166.314084541 152.361427247 108.718302976 93.1042253393 83.3767094347 73.9602337549 59.1402915793 55.4859592007 65.280452958 70.3691934683 74.7388750849 90.37258963 109.334758479 103.169999278 112.448204668 183.946016065 249.67769775 318.726320671 381.817476993 438.830677292 538.042510682 646.028447954 662.012083713 660.54161025 722.072045168 739.590740618 722.083816925 730.999343982 714.195973703 695.895449478 679.870806097 653.564802049 609.844516588 563.306637127 527.248534656 479.642015422 370.702224361 330.412772757 322.092803387 274.167004846 176.399591331 140.085493986 97.5861360661 54.3223296156 30.4006237537 38.3465858925 27.2384363285 21.5451755519 23.6559240902 27.6996048121 30.519165722 26.4047174104 30.8058899216 21.0852911381 27.3087149103 39.7334363059 43.3137373102 54.8937704351 44.3402813336 26.8928713694 39.9963011279 58.6716715152 63.9792763197 60.0182431975 60.8066718085 60.9955866408 56.8065087816 54.9916575463 53.4120573511 50.2319418103 58.3664555879 71.4774091724 88.0950327603 105.970089084 122.809115926 158.482721582 164.335340111 153.677959959 238.073607028 361.894735862 437.10012379 498.137471187 598.560990911 688.649238877 768.765321921 899.969533923 908.2416947 924.854336121 934.092669436 974.798639334 1035.90336829 1122.34140728 1235.85310801 1535.02458545 1722.11732051 1679.86686302 1832.40024548 2214.97519645 2201.65926443 2181.78670273 2426.42379331 2518.45652371 2432.05241222 2498.57998113 2614.08465646 2542.49197187 2556.23339597 2493.28085514 2626.74129866 2734.51770281 2838.812636 2907.06455697 2826.4263268 2525.71731997 2474.28702886
748.837200505 816.75148114 787.65405727 723.123193859 713.190567017 710.321243581 704.11020332 734.210732053 750.833693594 769.3743439 804.068184621 779.775085635 721.042934789 684.667847479 686.89636636 662.220374443 577.427649679 525.297268054 490.85790641 452.703779133 494.247297906 485.349914845 480.908173103 477.940585713 501.304351922 656.309139365 619.726509999 608.527167177 500.420725633 511.18985089 478.016933954 469.475490081 312.938273876 256.307842039 183.927328756 140.273041807 120.628141154 95.9222530151 77.051095781 39.4877700345 19.6333942695 23.079011585 21.5585638909 13.1068791708 5.17117567506 0.846257847552 0.651301690671 0.99160887673 0.604665621283 0.522799675871 2.69583604924 5.38317170765 27.2578724054 48.0363347744 148.769086637 153.976402171 189.498076171 458.465450397 885.413735134 1321.02496289 1603.60817971 1111.56585137 1361.12048643 4819.87155793 7178.99280713 8824.9088785 11034.5111821 13340.6619257 13484.104064 13800.3141544 15868.5579883 17304.3898608 16737.5021207 17472.5165777 18886.8363913 24918.7277244 22588.4576274 25417.8444899 21242.9022456 18651.2627397 19460.6861083 18128.9875423 19109.8546614 18644.7050888 19592.9060261 24229.0039371 31603.2176409 30088.9617304 26680.107741 26589.4104358 27354.93131 21916.5775875 16779.5243337 13269.9719386 10635.2439174 7312.06941409 5613.81276963 4287.05866849 2784.09385518 2231.83795947 1506.24238725 1108.55365295 805.510729293 398.787595447 206.985723585 108.752422934 115.827188167 89.6744879939 67.0866842772 65.7552476009 65.7690285985 49.9542370464 49.8203931534 51.3252956624 57.1906344162 60.9807426517 78.020995872 103.17658796 107.908243738 125.699845942 182.494546296 235.618942997 268.151111372 325.414001031 378.031713274 441.321794967 549.562472091 593.912010514 610.345935653 670.594682197 698.31951767 661.203099064 651.611793879 652.564184315 679.102093341 652.337712628 631.32710659 602.790988296 530.536030882 474.125725247 392.224754166 341.599281192 318.197747496 300.40205353 232.488511504 165.320603722 122.891053792 76.5262029544 38.0985569413 27.2336453336 22.8167723786 19.1741776516 15.0755852192 12.8813982682 12.0642636963 13.8484489357 15.1547040143 15.0872759676 7.13225632746 18.8584532109 34.1679873195 36.786758941 47.2800219219 40.4741049891 21.5290271032 32.1982293465 40.4824474178 34.5347332678 34.3286068625 35.1399072666 31.569933397 30.6181388724 35.3337108535 43.7736295057 48.9499309472 57.4364356052 68.8656274656 85.2302533095 94.5601184388 108.144679785 140.515440016 159.960929244 171.167829469 202.02252814 270.385590013 344.485078465 397.816588451 451.556819583 550.238489956 654.062495929 823.109698735 916.626421627 839.836924022 848.777676883 911.241267363 907.188531835 1028.42090051 1057.79922349 1066.98552811 1138.10777163 1319.36790936 1594.34716833 2160.59443114 2061.99071414 1804.21882394 2006.35176747 2122.33432097 2223.10336875 2301.72555469 2449.67177936 2349.69378777 2371.86722858 2439.55678603 2376.17237084 2298.06546122 2361.09039906 2296.56872662 2227.93178095 2114.26336812 2117.34779974
662.093318328 707.48856422 695.283124443 669.668810053 659.882559441 657.44666266 671.228762875 689.673480292 730.880443033 738.886582037 759.150738384 736.991022564 682.229962941 663.369263922 714.130884426 706.807222697 561.700402551 462.646376032 402.221936963 396.110865276 448.904938286 443.646076127 425.929485869 446.303510106 636.632745614 685.427925225 842.289392037 939.408795657 743.911234031 643.368962226 615.639062338 598.168780984 525.571029009 316.53706809 188.262478654 79.8475602469 126.651060134 93.2829828744 68.9243763837 52.0708650244 25.6011186121 22.9604085774 18.9298145369 12.5425905592 5.79073299853 3.03232608812 2.61800817935 1.80195482403 0.365453982478 0.2922575741 3.15979423685 18.4493436426 31.3496415732 61.0110670679 141.299296333 117.071272355 100.944965733 443.954737012 698.155109258 660.552264981 1666.91260618 2066.33275031 3357.21328118 5783.57485526 6721.81699146 8765.10733793 10291.6996368 13807.011672 11703.4043152 11043.664942 10781.4376717 10620.2973191 11041.2896375 11888.7777042 10877.9026484 10682.6377258 13635.9830965 11677.067493 10218.9525861 11602.8888062 10052.4968489 6644.7796584 9558.10047441 10446.0066479 11452.0935389 12745.4910813 16532.7472557 18466.9183969 18874.2940673 18945.5592896 16649.3033294 13841.0659652 12257.346325 11087.176251 9324.59363708 6929.88107427 5479.61205909 4189.42801298 3605.97009724 2892.67081184 1801.60023196 1217.92866304 623.343276122 412.319476824 212.360985625 105.103636124 106.359699828 87.5370267877 56.3361153578 57.1141226479 48.29753764 33.2309877793 35.5971047089 39.9209761463 52.4684457529 57.8201481608 74.2132883104 93.309525941 121.745873567 145.74454556 186.52501939 217.596331875 246.799261612 287.889874391 297.960580038 326.868010576 427.58640593 491.198427527 531.714077178 567.387549706 582.200181684 580.172125602 577.876085116 602.305772389 619.155263204 578.849121613 602.725184334 592.775058875 469.833405271 396.074861063 334.515854677 259.736176534 231.668375749 215.688768982 166.685576162 124.701079801 73.186034878 49.3897212228 33.7002794989 18.4809922681 16.5859436094 13.7016837493 7.3306568651 3.2669848368 5.26091117992 7.17142115603 8.81689404505 15.2019631149 18.3157642787 29.0359107319 28.4750609932 19.1787889068 46.8898508375 56.2669267634 69.9613750126 68.9535821028 32.7843812178 24.1570332775 28.0409760141 25.7197392825 12.3601967081 12.4664195227 24.0014212409 33.6312168385 32.0334649837 39.608171511 53.2706835239 67.19558164 79.2298938218 80.809176824 88.4722510166 112.833892833 165.886934651 198.116724409 211.420904772 246.682128456 322.524938865 363.49075435 398.005676673 472.8656467 620.345705444 732.104688001 703.3345826 776.666120555 929.217180165 822.050105028 852.516588498 891.416381269 816.184491997 844.767725926 928.063141801 1145.79166238 1313.08864078 1411.40357213 1395.76826325 1461.48939901 1653.45895318 1822.80110023 2156.5825987 2362.56055048 2103.8317856 2094.69513628 2114.7789737 1979.17095267 1840.75869669 1812.9194073 1837.36939849 1858.23498686 1990.12652275 1973.38843997
557.002874403 603.415714339 661.173849727 668.885262526 648.797309274 657.123248073 657.290112031 694.930344911 750.84884409 722.644131464 694.624693275 652.756370635 623.000289326 599.707424435 635.194624107 616.075569482 484.186022949 397.979206073 331.817953455 314.630998881 339.978985685 387.082828541 340.176139497 455.543277412 627.826326222 806.328818635 979.646237078 894.821678637 626.527213867 728.744693278 823.745858855 727.91714471 599.240910846 388.788802681 283.375244177 157.43750976 175.947045097 92.5173574192 61.033624868 72.8690704155 49.8245780928 17.9374363074 8.98783377571 14.310932316 3.74424460927 5.70617216232 6.17409001562 2.76982822189 1.63088154664 1.57931638019 3.65395183133 19.3003676054 39.0280097859 62.7673143978 70.7137101053 146.556817113 168.007787779 405.155490522 598.494807719 189.415382663 1524.96119654 2933.53828358 4518.56952654 6005.52852993 6576.98365518 8329.19800746 8521.78718365 8764.14124946 9579.60633682 9086.22521794 9213.86554902 9109.37759202 8838.70435167 7679.68675544 7644.05612323 7479.52889188 6999.53066461 6637.65360003 5974.63072263 5769.63399491 6087.43799018 6437.60416208 5840.56091025 5988.88221008 6902.27467998 6264.89119014 7899.60088798 10256.1575064 11336.502927 12065.6456335 11700.0845591 11053.9761838 10890.9346454 9837.17256218 7701.926601 7050.80235088 5698.30667518 3822.31239822 3741.32007946 2736.53569057 1713.50921697 1159.07077918 617.896893225 449.988015666 323.450370628 160.629841439 126.569006318 77.0263696141 58.3235647669 46.4488218433 28.2811003681 24.4323345775 24.1964111518 28.2902629083 34.0995099983 44.5154496048 58.8934796029 81.554412802 116.398570856 158.237031914 188.606444706 224.966968601 224.067458883 242.601454269 265.7021957 274.261826713 318.600767045 377.417191633 439.233599075 506.887178211 589.014409393 555.793070798 565.396441403 574.811338811 510.341113143 469.820795571 449.324234661 385.968352885 338.360731487 298.605655265 236.45701036 185.348888544 161.854960012 144.880002255 124.160284163 84.2206195802 56.6461162657 35.948953062 11.9086699529 7.23428614102 5.52691036671 5.06176672518 3.75991175193 1.39349855535 2.95654411478 3.9378687274 1.86414544245 18.1840407968 35.0863119328 42.0717570994 40.6839932306 35.093024616 90.8696879038 115.044520862 116.282618542 104.272729547 45.6236239898 12.3477568977 35.9719995406 20.2929977124 10.6036833715 9.6965436978 14.0601775456 19.4815116393 27.9680687816 33.65359239 38.2332165645 46.1585620693 54.6004309048 64.4750983699 75.5520473668 99.842138307 129.43022945 195.274762893 211.322552347 194.678280482 239.399434429 252.098616627 311.952878748 324.238455705 407.722748198 467.674641051 510.641086108 548.447033072 575.856977257 547.896740764 594.465587578 587.792656443 581.253681709 644.162117199 707.115194429 800.583328139 778.219875203 882.098064902 1083.83631088 1196.0738122 1347.86296325 1520.95794327 1608.75739279 1701.54670411 1750.04590582 1691.3651973 1674.39868164 1675.0294648 1581.89951423 1619.20815422 1570.3060509 1537.99270444 1645.74350673 1681.31990916
453.480463877 501.779541931 574.886646341 585.010850972 603.293940325 721.259180835 673.251966594 688.523364177 794.422186154 730.826203881 643.118267887 600.047694206 554.209827861 519.681349077 471.049723463 393.989710815 334.298307684 295.169900416 273.039290945 277.260690449 275.000841531 342.462449491 340.590549239 487.007033289 746.905540886 674.552526551 865.002062155 1029.10203531 694.69320645 957.265328899 1009.60497494 858.60737495 760.844559784 489.595532958 439.934681962 346.638532298 262.558037982 167.131328785 129.846597781 108.605348304 71.2260587586 39.1205192108 25.6875527589 21.2145963419 9.02186324382 10.2735477064 8.26924037881 4.85761503262 3.27518105134 1.79441889493 1.99947638741 23.23605075 36.6696834249 57.3506056833 74.6703953391 194.743870434 305.541081105 615.274536207 907.614723809 1203.36375751 1975.68907358 3304.14702257 4260.49311781 5061.23048819 5784.65613275 6203.47956044 6132.51291481 6104.76424099 6982.22903962 7469.28814771 9319.63269982 6529.12633652 5733.13215674 6775.92315563 5552.91338463 4935.60044457 5225.28341048 4621.54474161 4453.18445703 4466.81303968 3560.65794715 4179.48580298 3565.20678428 4417.20263932 4683.71872345 5095.45278743 4759.81133212 6390.8427908 7388.51741121 8005.78832668 8539.84934401 9542.78966708 9235.11860048 7821.65961702 7415.14203261 7752.33795275 5534.20079984 3774.23524797 3098.33805658 2031.97752263 1280.77321297 795.727138135 572.364034014 433.722451802 337.625291517 209.249829047 125.789870926 63.3096660423 41.3842435027 24.405916055 15.6232862996 13.8343850757 15.5985185552 15.9388017421 15.2338088007 28.9506075441 55.1313894402 85.1665894858 114.356505664 150.470237059 185.06494177 219.590253657 217.46075481 222.380897689 250.949618173 264.74079204 279.122860747 316.373473637 345.867873118 375.439909036 446.370045137 460.773035897 467.964621424 449.312511363 374.10521 341.924361597 280.87497676 218.962933239 244.545378933 210.286431773 173.667482356 151.972807039 134.107880558 116.982528918 86.7992168558 66.5507200226 43.3020219151 26.3854129829 3.96184161348 1.03053771389 3.55430714125 1.97912299826 2.22164070303 3.13532528584 4.97430383584 8.78439980264 10.1451768882 19.2546883915 43.1964634653 59.092516197 81.690192182 92.829936293 133.113322034 198.391433651 199.48329809 168.78938528 103.468747794 53.2362624645 52.9740117346 40.2854609678 18.4299262117 10.9335745908 10.8621613592 16.3936112527 23.6546481617 28.4817188562 30.7340277164 33.3829556406 32.7047958155 53.2582392115 65.8086294503 83.4253772726 98.4971790013 143.920200211 174.362430275 198.488492816 273.29745798 242.612622985 271.106254676 298.438081281 281.993347292 284.074593814 299.75206529 359.410077373 310.651265831 332.012406377 370.100306525 421.651180286 518.743642085 527.777702729 601.135518256 633.852831337 717.529635337 739.556554407 789.33753028 1012.26875979 1157.87303924 1214.24418617 1272.12410003 1277.33675763 1349.57168604 1358.82784521 1353.76184043 1375.59628757 1480.35860367 1486.80442243 1424.47578815 1438.3302493 1289.69839768 1237.03179217
394.835118554 399.904304146 428.046771935 454.12949956 507.200752383 588.60171285 560.861679085 585.125996974 645.970123662 621.4474102 591.602896684 561.468416021 507.542141258 455.290402965 356.966422038 239.010871395 221.086264998 213.259492196 194.21830858 203.358532693 237.122503351 292.178868763 403.988271741 677.125165744 862.436853928 540.617801394 919.226258667 1459.60124425 1449.45696687 1367.53743883 958.803442562 946.341380612 692.003392697 638.689108417 463.917255601 395.199238288 330.92965256 220.584623072 172.452305045 136.692607098 91.4186182293 65.6461834471 51.4798067778 31.7053340689 18.5281566407 14.8085674874 7.77370032623 5.7015248025 3.32475927077 1.36943487966 4.1412548947 19.6060206403 23.594108048 48.8258323749 8.81049081112 160.388661719 379.169935685 739.817595004 1161.41503154 2036.23917852 2478.16527584 3027.10077869 4247.55324727 5317.75200649 4845.07829963 4919.9624374 5292.3408292 4678.67479135 4315.40689483 3414.70351662 2841.94377648 3476.61303994 2898.83505668 2063.64096662 2015.36499909 1835.00778 1036.41843482 1714.84388665 1572.68179731 1276.42997139 1063.52750243 1275.50496046 1190.76898252 1434.30858022 1951.39043363 1747.87031316 1712.86592155 3067.6183187 3566.30771738 4599.70807593 4046.06941635 5169.37247689 5909.23485184 5909.57597503 5566.16807527 6132.11445864 4596.4751696 3175.39732412 2035.29385932 1370.65046216 889.755016837 769.324241933 537.518263409 418.843149954 335.870139148 177.412399175 110.033275183 51.0487977129 27.2524256402 3.98276165836 6.07771916711 6.60782691901 7.51938656022 10.3610781756 3.94187044489 21.4379736263 49.6683921793 82.157679906 111.357132512 139.51178005 162.865336909 175.701507182 179.952486793 186.304164592 210.668401397 215.931830756 217.152271173 240.799433079 260.879308112 265.740475661 259.130708035 301.099465518 299.075907469 256.720697092 279.781839013 247.978851934 226.730096616 198.744837548 179.901989952 139.494893192 136.852297236 124.37805004 112.03934098 86.5471208125 58.5364843022 48.1418609902 23.7647674394 15.2830623835 10.1517099926 4.60439680797 3.45281721466 0.827648440766 1.19125752353 3.72733087205 6.16255751328 14.1066942042 15.9900794105 24.7391462842 43.4815750699 80.8504934383 73.9410700872 121.070904939 242.66912537 265.217532634 237.84944874 196.394209617 171.677577733 150.229606701 77.6831863852 51.4782025004 21.7579533633 10.1497769916 7.91535828005 12.5255055976 16.8670713082 21.3708908405 21.009219537 29.5703690231 34.2573997083 49.8974855728 61.9950893559 67.6835771979 77.8603595858 87.6900508706 109.706294647 148.055396131 194.926375255 172.525228279 159.308350182 188.20628309 164.526410333 172.900049921 197.635435274 187.977605988 247.122531547 271.829001833 297.500481306 299.501436153 354.852332052 419.877913742 465.862483529 477.392767401 605.173847674 706.447412167 739.61346259 805.884703621 957.859811674 1066.31514005 1168.43709657 1219.35913283 1210.0591351 1166.201923 1134.74897973 1073.43358936 1129.42085943 1159.12357993 1141.22304118 1105.10303376 978.941039318 996.331505588
368.511455218 363.712093519 313.593131366 313.989021186 337.471974432 354.909059397 384.720626996 445.258926032 501.885113133 543.240605144 551.26895673 521.233655411 481.997362644 413.562071806 321.774102438 224.802931518 206.797630665 177.590048635 152.31872604 170.477652305 164.969477663 245.683119984 438.247098862 817.31752446 1108.05598137 1450.00121394 1696.94337651 2093.71913624 2177.96002034 1863.67408648 938.226060654 1088.10167946 768.10161768 772.724027367 550.881530569 403.234965548 360.69702711 281.679829786 190.675176773 132.950106343 114.573787292 70.507269502 51.8846095679 35.1579098667 16.1958559156 15.2502782257 10.5847382121 5.48818832464 3.85542683906 3.56580335372 9.83891204306 18.5770881523 11.6753925817 73.1909381178 99.6890667808 192.256598496 413.881977809 593.503313399 1100.58520971 2154.91097062 2358.32600559 3245.68121317 3642.17074048 4120.23635008 4252.92973313 4305.37823441 3052.09771509 2347.72011795 2158.98140261 2066.3757865 1576.59304001 891.528387883 913.799076054 475.792570818 571.638314735 481.294208031 430.167445702 439.385491528 543.188179592 293.858839674 312.058165043 292.201899979 519.406176727 695.471731852 858.438735245 1142.95866276 1190.65338215 1339.39306795 1647.6300327 1870.63367267 1878.59728377 2319.79458826 2717.72788762 2847.58726526 3076.48865725 3066.71855731 2737.54672333 1843.59056261 1393.02367189 1033.74555848 723.491497638 654.199061834 358.203766196 262.038051748 170.755651891 81.5168279067 56.9574691168 33.5855964391 14.0175819051 7.54114544191 6.18242083439 3.51938742094 3.36640135077 10.3727511687 19.3579339081 31.4404792117 43.7226933276 92.4831266491 122.196916365 144.990193733 143.354797314 152.45723161 161.650202009 168.969074499 164.325790359 186.779437467 197.698117599 186.300571896 192.362180596 219.565763975 235.710631728 230.380156363 230.614121648 233.594910366 225.146901605 214.376946528 190.301503453 166.759991768 143.634630378 133.028741924 111.346373567 78.8338370787 68.7899606269 50.3855493402 40.2490924935 36.9720633659 21.06660863 14.0358091346 15.0181600897 12.2394291331 8.92820394209 2.81510596028 2.57766661067 4.85273257824 6.22556212151 9.33340810668 17.7121243197 35.0034533463 47.6253414889 77.8869078046 209.220488684 240.756991467 248.417351724 314.410014944 324.25257978 198.129475326 161.304418209 171.339649275 76.2927464687 52.7993648132 23.5777264874 10.144361144 0.967156188516 12.6123715551 9.22433527536 15.9470579809 4.26210681423 23.6165973677 37.5814841107 46.0278291412 51.6588196678 55.29824153 55.9369723598 58.6899237732 70.8682338063 79.477815098 85.3170891127 92.7513118803 90.5208580602 95.1473589295 107.02238079 110.305512329 106.204842556 121.860028018 124.829420431 149.89554931 182.514065908 199.255771326 220.289517107 267.752984456 351.859601141 387.630942528 460.752289179 602.544281419 705.100630048 893.828495754 911.057843941 1038.14356215 1067.55771443 1102.7998213 1092.57959418 1077.32554671 1005.40176234 1000.66013456 939.386192133 860.622995506 858.076219604 819.745469955 895.465246641 881.679714296
235.185548841 205.439864106 189.304297033 210.324643404 232.942113856 230.993035849 282.956870174 336.203507508 413.969318344 526.50294029 578.370150693 495.369875906 450.238949814 394.124639539 341.324838771 272.809885747 181.084213166 128.469894387 142.554216755 154.499884693 201.470566577 361.632937434 501.272811775 908.745122267 1412.19380802 2064.47441552 2337.16687657 2792.78733051 2969.37558648 3123.46563228 2630.08396792 1715.94006548 1110.59895117 892.901897188 666.478950107 510.548295909 356.288894278 291.522805538 181.196052161 120.428284842 101.90192009 72.0171624275 44.3700449698 37.4414932967 29.6577218816 13.6353949669 5.52033665191 5.3807019668 3.11092087619 5.0734380762 19.1662386293 34.6100828656 57.7939221541 113.559677969 178.026708086 341.663543982 398.750506233 498.303681837 745.579525671 994.724386668 1621.11409983 2357.97608011 2598.52419623 2347.58185276 2124.28826704 1068.92828236 1158.88001895 1100.58726523 1003.07250379 818.891988391 551.281303535 501.922820504 415.063741149 297.759549006 159.750337614 117.199181638 200.606220103 120.86317183 60.7893889888 62.602671941 87.6939567521 125.76159629 155.643774671 293.856298417 521.121872188 699.282651282 1012.60072903 1375.49114011 1263.94203062 1514.68603358 1611.28450951 1393.46142157 1630.26487835 1626.15549833 1441.59111063 1068.57176346 1246.37282036 1116.94297931 882.822068758 456.551684404 330.300883914 304.746722067 223.219593 162.3849251 85.3873257677 28.8046708233 41.4522381399 18.452030131 15.3827006482 11.1441285244 5.7620878889 5.08069977635 5.2794272597 14.1259690601 26.2983185355 27.1037454973 39.7510744374 94.1256091457 116.76913236 135.237528518 144.652897977 148.764604839 149.380945581 152.782014112 140.3227737 147.139105024 156.369432716 156.685025611 183.300343616 169.697552856 168.882774371 197.34414628 194.127326584 172.987304514 190.721205479 165.689223907 139.917579665 128.600192649 106.939210177 76.9674803948 69.5432550887 54.6301866303 41.1746037871 38.9926801534 38.2822313226 31.5638740667 24.5962783422 20.1846909245 18.3086255244 22.7944876918 18.2660297175 16.2471593642 5.08486309867 7.99039385602 5.76677750443 3.49358194837 24.0164777189 56.9482412293 133.324186759 176.784355067 307.478622757 346.615226212 368.324080289 297.173133393 375.134662887 330.333374307 201.360154479 116.781962943 73.1843884082 50.7782762366 18.7884076142 18.0875153262 20.6817588991 26.8215275242 11.1303006963 33.3823859554 40.7023273072 37.7613081986 41.1678888641 40.6591538211 41.3353609445 37.9586792382 40.4298717779 42.7611347693 46.8299291531 56.0080085019 58.6654660902 51.8267637424 53.3172080247 47.8383277794 58.185428681 70.6500464952 72.461000154 74.3515628402 63.3936412539 69.3150292625 84.989294112 136.133029288 160.080399247 176.418335648 246.22677838 347.824729023 429.396802403 451.022298159 607.615095047 765.884819414 831.701664345 958.207949795 1008.51431185 1012.99276615 1015.15723624 997.642129908 924.666278014 827.248068288 727.071650486 664.020176494 609.28343952 554.717357087 604.007297795 620.22070332
137.999176322 139.484720762 142.883963833 156.425924376 166.046459964 214.603242057 269.062670655 295.282731545 352.054896423 411.725015354 478.290439463 492.017197342 507.703979708 391.441951699 364.296322279 256.652074494 134.628850663 84.7475371292 78.9879938752 90.2996285285 179.647236902 406.800224788 511.19491202 878.93293457 1355.11480901 2073.18449669 3075.23786488 3598.97652802 3711.64972732 4088.14434991 3896.54137205 2074.93235899 1356.78661477 908.848427251 697.336097694 544.132272775 311.223172391 166.409461235 130.181419461 94.5225130228 79.5980026986 63.5176929183 66.6486550393 53.7749562137 39.4445476815 28.2999710608 18.5703877796 11.3541397071 5.12982009112 8.84568623487 21.0903503073 42.7599105465 58.2837005724 126.510354724 162.211922637 254.783175016 312.954420705 453.105512711 544.031611768 693.564254346 859.122058654 951.29229389 943.043915643 1055.45357558 770.038445246 590.896712811 560.973278523 340.213243254 328.38797811 276.298767891 214.727733731 226.305811627 133.366316252 132.476392158 81.247437689 23.080997116 24.5426869179 25.4842262097 22.5400629648 5.91385588908 20.8413256938 16.3766270556 52.9377747513 86.8667757985 131.073346329 451.288554659 691.728640735 812.295370842 914.629530525 869.702538847 815.074003381 798.777272717 709.39803302 838.206458502 867.254672951 878.091042238 684.032417958 370.82690986 303.850133235 277.113108547 280.760982808 190.162694127 125.297411744 85.7785476717 68.5292814096 43.7530629014 32.5972808994 22.1884222343 16.3058221428 12.5686606079 7.08454261179 5.49608632425 2.19737684727 12.6150555715 17.7032698661 47.009183605 79.1723387167 82.6276701891 126.418994574 123.541157004 170.169803616 155.88983474 156.250197763 141.482364638 140.409984865 119.352592691 95.4430016587 97.9073758107 91.9207736206 92.2967031006 98.8644292866 84.024615201 68.7398634499 132.451180012 116.375045377 45.6037227313 121.533167837 120.495007709 80.1895770921 17.8217391612 29.835866212 27.0229480976 29.5797196764 24.0853543284 28.7447300717 33.5467861771 36.7761471981 21.1235957676 15.2948300575 30.0371156745 24.4965496923 9.83444692778 25.8665958913 21.6961519501 17.1953085391 20.2396005617 34.5302055937 69.6961209958 149.891752153 211.916852617 288.799822656 473.235746077 674.779366327 807.524270944 680.544037738 477.167789621 273.436720832 73.7846541194 49.1534075891 41.4387378341 14.7384384172 22.7678210206 33.4261841198 54.274364444 58.759348925 84.6697934321 76.5500742865 50.7414050853 48.0048395172 41.228980951 34.7423635924 32.2550804474 31.4002562205 37.3791003199 40.4692596758 48.0950243547 47.3310362491 43.2811210335 38.1400513091 35.0560624899 33.5536340653 31.4717212921 31.1838526427 27.502572695 25.323171787 28.2105978464 36.8425442421 52.818758772 84.2097069301 127.070923891 147.358216151 217.701240497 269.972925807 363.476790851 483.275924923 569.501573528 686.158496055 873.496313898 1113.75997472 1017.80409176 1100.13472736 905.215542227 748.72204541 627.678388636 559.866242409 546.110588288 468.976464253 500.498782344 453.978497949 392.570277329
69.9358612733 86.2199431533 114.306373569 123.567505292 127.006931336 152.494424543 225.940873156 268.386322318 348.284272885 336.360308912 380.92553055 441.087569707 439.965749855 369.915000342 283.103285354 201.315419487 104.308392357 49.7204308642 30.0687979516 49.0522740065 72.4960269 165.54155744 366.109353766 789.611713355 990.334743132 1865.79232597 3920.921784 4029.38862563 4896.79025055 3255.5317106 2343.33302618 2348.88479061 1579.38242133 1074.63732435 479.038868092 312.269060483 244.898776539 147.884294759 97.6497911451 78.1856974155 60.0619971728 65.0658051616 57.6751527437 51.7154220163 45.5898927814 33.7346118758 25.5087377842 14.3102435535 6.38409535538 7.20967201748 20.2719129544 59.8775792691 114.57586354 182.054378565 137.137755306 109.688626765 90.8685803197 97.6513406557 221.377383891 482.386698575 647.391192372 707.406142483 599.547097215 277.262667392 221.647400741 172.419511995 148.779616672 164.784344164 185.890112157 207.796821273 219.546543949 164.302927786 141.560892062 50.3031593565 40.1770362422 30.361807659 17.1787852752 1.8591586857 3.56329267546 5.33604481295 6.45971246922 13.1863490712 29.9087041059 78.8197976888 182.070398614 371.702687032 619.90325116 457.150552116 741.705446115 602.91061007 558.449096561 639.719252568 610.967298937 728.66823293 493.892579775 413.793016937 384.605783171 319.3077225 327.668402855 211.97358106 151.577625293 104.799916746 86.3747535482 83.2988476411 67.890297275 43.0161913272 35.2395147272 23.4761585604 5.38977429545 14.0182943898 9.79058322968 6.31532400258 9.91511440213 19.0820363113 18.7620347012 80.9948647312 133.074971521 158.82302407 185.991721587 200.776768969 207.603756857 178.515417119 158.115556522 111.335529962 96.7860075029 64.0948847131 52.8356986165 53.4232679139 32.7548336178 37.3839011264 47.2847691282 61.8580140715 70.5002190641 58.9665331292 130.51060717 118.246134857 105.903856181 134.781492896 76.8075939114 44.9479434977 33.0365778954 9.79721743629 20.1162002237 22.7914399691 36.6856346696 49.66696622 43.4320147159 36.2749183468 27.1125317958 29.2813164626 30.6047080002 45.6502072991 31.4771978832 17.1330822204 37.5719360122 39.049179582 37.0859719893 68.9260993979 106.290509484 310.264265853 629.677558844 1003.74272424 1005.77605981 1036.17007439 763.967967053 556.504424229 495.302804131 206.340961124 99.0649113667 55.6572481988 31.9090515109 23.7214532607 40.8484931696 72.939464863 59.2871785839 118.024935858 114.476738712 90.487699483 59.7595390355 38.0174947452 24.5505537841 17.6142628381 17.0395351829 27.6093669071 25.7271152404 59.8880725779 49.7686600295 47.6134749458 23.4987852554 24.8610196972 11.9050502018 15.965444832 15.0363598051 7.04677996418 14.2367561102 14.841542694 16.9234129656 22.5262010016 38.5212435794 68.8083503837 101.151018102 129.396741458 227.731195794 344.295619256 396.293073045 523.811500776 644.106486944 753.328239806 837.149382437 794.779727951 791.598101858 689.400986251 594.827882086 507.147523579 453.787195534 388.11128694 343.827511885 311.79512039 264.535330947 252.581934209
58.5533060667 56.2110704424 60.325242453 80.1600506392 89.2645926986 106.23308472 107.347726592 167.543898369 220.386483007 258.202558791 321.145538781 393.010259005 437.243265393 376.017245469 236.936919703 134.393872121 72.7131454817 31.8546095545 21.2072195504 26.5987656738 32.0225230536 71.1950697706 204.868744019 363.247014137 662.444472813 1078.73533141 1490.59847264 2066.66949994 1748.31209947 1262.83445902 1033.18644939 868.049246072 701.711429341 463.941244451 355.098053302 225.457081481 148.60579219 92.5762089062 54.1485417304 27.0413588272 26.6960228586 18.4691265357 25.3013615989 40.4335954896 46.4897033475 37.0049112162 21.8723300414 16.6960944535 14.2840776756 15.125868912 58.8486368174 122.365415733 199.992853163 169.879076715 74.0406797334 1.49747682199 4.49434537061 16.8080807483 36.6931764401 129.3800907 411.031057852 425.630211629 264.367758687 126.552888474 72.4744149631 54.430313017 69.1929517615 115.09507889 198.889295218 321.428364501 276.793102555 261.909835562 322.161127226 169.660631685 92.8766480249 6.48746651798 5.77521425061 4.26173685325 2.44711782289 3.18520588726 6.64591877399 15.4202029403 34.154674313 112.946763084 387.327033274 429.315643992 721.280733209 665.248735159 584.979825236 404.999564407 288.186868473 299.831544479 297.592152006 272.980014145 247.23116255 205.84646664 199.988203613 196.671510822 164.627923363 109.300442313 60.1123533761 45.2409904189 46.809975887 41.332234701 34.2732950978 32.8829018243 32.7813197439 31.7505196953 31.2731671705 9.82952467525 12.8783820314 5.49955835357 19.3259609183 37.990619581 62.3178093907 109.022264431 176.622310509 221.800184675 238.854034256 238.476507032 248.674596567 180.934398457 149.454520434 63.1826600581 42.9407061531 14.1967695509 30.5111531789 36.0699111524 46.6927916704 69.7276993361 50.8472292303 87.8579268987 155.272983034 209.028642056 286.764415278 321.90855627 132.185493887 166.3240122 80.8860573409 111.998943242 54.3763528319 21.5571220026 24.7099886388 36.9879325773 44.6868963377 58.0749252127 48.8046251076 30.1424123641 68.3541936697 93.9158513503 110.871991475 114.604937988 103.588562933 74.5695859219 28.6183690865 34.9007490363 56.1543225762 94.8430389106 157.605153314 259.245555158 430.618950325 705.973189649 907.857983279 588.439227681 482.243117797 416.528235693 264.992903743 183.54357757 116.433123276 56.6120072301 35.9512814434 29.9972899283 37.4428307493 68.3720842258 175.05948925 239.160606675 229.810934274 145.527509237 80.8273732876 42.9231058407 20.1366642431 13.0550607171 29.9534135226 53.4630253707 118.946621127 100.751753416 112.278293178 68.7920985231 47.2922538647 10.0867453937 25.4189047869 30.1292343658 29.8838497996 23.1736280611 7.49549346694 7.56260719148 13.2508200301 16.4231235967 31.0789384989 38.9252789548 73.3400728749 103.739594447 140.302178083 217.134504944 276.516097615 416.442713785 686.129594067 640.065173563 686.73864389 590.781497642 570.457232548 583.707461897 537.111296577 444.313677719 448.072613968 237.947009333 198.09396774 164.609597089 192.302058415 200.827445624
28.5763232804 13.3334456781 24.6992448824 29.8453907054 33.722820008 71.8551525804 96.144083598 113.952930928 151.100368595 222.003678129 278.839805211 322.018936373 371.422438928 415.620779613 375.57111902 177.929398091 69.2464947895 22.6075008352 7.08443972975 5.99964042518 11.5345218766 44.8339710558 100.349905793 219.460861605 599.977836197 748.37261454 798.905929466 678.491576521 509.442936983 331.308256449 201.632968589 162.940017743 115.216763658 27.5762456435 60.0483162411 34.786156752 36.3244804735 35.2511667329 33.1464522473 24.4213775561 4.89591894887 11.7342582001 5.13947352261 6.05297156254 17.8993248928 31.685657685 45.4333403251 38.005065429 18.685288704 23.1529171317 90.8682805708 181.423279379 293.529507325 161.559699721 22.9290611854 1.5799374686 1.27701618441 9.76119634466 47.8225535233 228.319007812 294.418675111 162.690762327 84.3141319069 13.0735469154 7.96584304568 4.65742247066 42.0419760342 132.008901492 335.135358634 632.795403712 802.404199571 833.166860155 495.536245911 329.278817496 145.318446886 69.8266475923 17.5618875255 4.61304365509 5.07342221188 7.12142073035 17.1340589682 28.6387381125 173.137824262 457.596047076 1188.81068363 1790.18341266 1626.10764342 1044.74317025 551.415846525 369.292306508 250.821808893 202.28926362 180.8644209 158.251671941 114.238320387 86.5378471238 75.9944088673 62.377499656 29.4957513909 22.510048762 14.6904825891 14.07274235 11.4546616816 15.4664208251 20.8135709552 31.2423035714 50.0907189345 60.442639825 57.4639293938 37.1098746607 33.9781108347 27.1499225212 13.9345795924 32.5041011244 62.3782377433 132.2844084 168.058943268 250.140981331 306.651623786 249.819183464 212.264591437 86.4601046378 27.5847642268 22.9089567929 17.051489375 24.9189113874 23.2738628183 46.362764995 73.9965849214 124.51126536 164.569611849 160.790709979 176.261157678 443.104124082 468.347095348 631.738097239 536.297173178 388.793391512 301.213496864 187.156324393 97.3506234244 6.31052429679 28.5420645045 25.90035594 67.6405779335 86.1906428786 95.0867149036 85.1679444011 85.4686017068 104.184854823 133.645739025 167.913349624 145.458487744 123.676317623 99.4723179441 68.7937452111 71.675204269 85.2204784531 124.336279495 232.454073332 246.177794949 226.885621428 220.377638276 186.856900732 170.971687232 149.17029529 117.167227271 108.56432838 88.4297210209 54.6808052629 34.992429366 25.0773061968 44.4594842447 157.102922715 278.044838133 391.253383764 382.614233119 279.608021742 178.481581218 80.1430219407 55.6647842729 34.4093247932 71.7072987345 123.257301112 203.358745439 332.65629878 258.860332294 145.313463709 120.206659088 60.8840124323 133.063435854 100.945044521 63.8743942042 72.4904978639 53.4785898984 33.9295183977 32.8381744085 44.7281261458 46.5871447641 48.2365244808 45.0033655471 73.5294516358 108.106015803 142.32462936 219.110732586 288.600641015 326.837552883 379.098454478 474.755558188 484.018106769 480.12658202 412.722920209 345.716726597 275.169008031 166.051467044 87.6942202877 65.7948628067 65.6203448472 44.0943653796 72.5033452095
15.9577551931 11.7483633048 12.5698191802 11.550767457 20.3688530901 36.29848356 48.3202951811 83.3088706919 96.9371387716 121.342857143 154.149801231 189.372401872 216.107690044 257.357829012 317.544255485 173.843266781 52.8965116992 14.5705385216 2.53178039539 1.46162368254 3.1964090743 11.5305135506 38.4061559349 90.9165614782 110.913077247 224.100039579 230.232271971 224.465973556 157.972510927 79.3690102725 28.9628327023 29.3687621644 19.6018625655 20.1784386738 11.853467664 19.0811139215 21.093340531 31.5723411456 50.5747360513 53.5257119129 46.0147739679 46.9876503894 33.7976541166 11.9127924261 10.9493611744 17.8466100457 39.1279785221 58.4914259069 63.7506411705 45.7707253804 137.114153578 349.651135065 406.577521195 101.356346916 13.4413906076 1.3234309814 5.29807636793 15.9060640008 60.3927046179 114.835066256 166.016310183 170.205676383 52.0959755693 20.8784010709 4.13583204468 11.328446098 55.4244374213 283.235009486 473.940905382 673.824697282 1502.60350105 1542.38371836 1306.82450273 813.127302108 405.839979441 46.5095551934 13.4800272868 12.5724201008 16.1685628975 16.7863947029 17.7029481857 103.454528635 268.124241598 1144.13150036 2115.85558169 2478.25596366 1938.92467489 1404.73464726 765.06185851 254.684887209 159.042209137 112.558759203 97.3796818762 75.3487274204 65.8807904851 46.5548972943 25.8606108862 19.0299027528 21.25937731 30.5533181197 43.3531641756 24.2283302266 46.3612271263 6.6522132896 11.4935815524 25.9115007644 47.7588079639 76.0320010669 69.1181159776 51.7698584788 43.0243950397 42.8461778304 47.41989374 62.0952875292 87.8886377656 130.877075222 187.59406091 182.213899176 172.034709652 136.979372171 70.0316987915 43.1760886352 35.5764389603 33.2472288045 35.4960956593 37.4534622656 45.7415805869 96.7154737161 158.250838826 172.001359067 171.057331931 136.639834781 131.342673434 181.922849925 322.797608553 453.632680827 742.505288873 625.042351435 318.667324766 202.336677102 128.439349098 128.961231435 40.955980781 51.8674578925 117.239062912 156.675105039 160.862969591 127.80905308 109.329318949 107.002855505 103.363504956 52.1999073448 56.6028201199 68.6669825768 82.3978076057 78.8833512251 70.5767223723 46.9221872246 43.5524967198 43.2215254993 64.7358103142 105.325057826 99.0280620997 64.9996836348 80.7169606221 73.5068214805 56.7479211097 68.5833540841 72.0910769875 62.435176098 42.537862893 36.0792325821 55.7210983029 124.410944364 241.042951223 315.433383816 342.805150112 280.514508558 182.443479281 150.522961069 117.733320557 114.967072283 128.729464093 269.50328515 526.451820037 601.799535276 370.966221821 275.327632742 213.075789387 291.201483654 132.95418882 142.406449248 252.084296903 213.685241886 200.75497303 209.318288229 136.127256474 258.524075022 222.77199329 92.3121041989 51.2157115916 40.4953336621 52.5089298184 84.5441120484 153.847568985 229.915897208 208.864357531 181.253004054 148.506494778 238.538964241 326.112500491 320.489814489 267.485170634 145.885955121 109.981128666 56.5123481095 35.5319385904 33.1174863343 31.8676897078 20.6210565788
3.32966530115 9.76054096336 11.4558357948 11.9783745855 27.6132567168 25.8172828245 52.5167160216 62.297026919 50.229338025 50.2959456803 79.4591889345 100.049583635 100.007259698 121.941869247 151.346888868 142.323894037 63.9053518795 23.6272160209 3.48881201323 0.577939400023 5.65107889044 24.1936381531 67.3301027015 60.1467968255 45.2050875522 45.7279059683 45.8911351327 48.3647229471 32.561091823 23.4898963765 28.7121732847 17.8988641256 17.5276416543 58.4484529048 65.4374158032 54.4848532517 100.482351478 102.317157457 84.368816339 91.6014470229 80.6535082263 98.3457202722 70.6667968835 52.2261342761 36.8737406796 31.1483901814 48.5055868099 97.8096390846 127.439904529 64.3010489349 51.4495229381 378.80575448 264.267784435 99.9221305934 11.2185185856 17.4438833645 32.4716165903 48.5131966712 24.7814917233 32.5228762665 167.983212262 193.579965409 108.008270205 14.244227424 17.0913909385 15.8074306586 59.6171576772 92.7360913632 208.990965909 516.220177944 391.470509003 291.351654037 393.635943276 363.385601172 367.700167058 152.541029741 21.7450188938 24.8171052455 51.4929212603 61.5029833692 59.8479667815 132.690817799 641.259207535 1377.87343761 1225.23271771 846.450741236 546.869254675 429.205598202 277.963825072 145.830228569 95.3664209992 74.9099508109 64.9888436502 47.8288977089 31.639129491 20.2980016381 18.8337581936 31.163348307 29.8678027648 43.4774480584 125.359542323 124.06972302 154.717261016 83.6384012222 69.866570414 41.9172780082 52.4611234245 93.874226012 102.971832025 79.4145070285 49.4310427861 40.3951672083 66.8919827533 77.3934158203 69.0619635901 82.4455034766 89.9234237607 71.6601128289 18.6969287567 30.5383234282 42.8076129961 62.3588994129 43.1252592864 56.9996869268 45.9100884093 50.1235773854 91.7443641553 141.289474619 134.829823959 97.9976055858 84.7335390965 152.141438146 301.092109327 209.061844883 120.150804528 131.496356524 225.008868958 282.30233568 220.076214114 166.932371081 229.629816299 214.996714449 185.840490196 105.96354284 200.75462829 238.385361045 207.229197646 132.517719814 104.378701746 186.669148948 160.843404613 115.399302512 56.5742169167 31.8134541859 49.9281033896 78.0972169014 72.5206091192 45.5806241873 29.7059551278 23.4047265908 78.6915271939 121.812442735 176.459437539 141.872495421 56.992501858 75.4797940825 23.5606562697 36.7913169603 104.109455899 124.185205232 90.417863879 68.5400402605 79.0759592976 85.0439134297 175.445324387 224.83090731 226.860089805 281.027291904 213.730776984 200.117120947 186.646547573 176.089164421 183.535172689 290.954154166 508.3972143 395.984004096 331.225085066 237.229690308 460.981110582 589.510804505 531.341438819 476.69522389 389.052096347 376.004943853 444.711863944 549.332372838 571.238288174 639.543585286 326.516356073 209.779884018 78.3923208247 51.5209101147 52.9049752437 83.7266959416 149.355994094 264.669255136 284.208987668 140.794470865 82.8633142743 95.0760746406 161.400242631 224.077946836 194.343363411 92.6138365409 30.2959749198 23.2869758946 22.4886636688 12.407235093 13.8987073504 16.3475931367
7.93487428123 5.8881715119 8.78689474251 10.1991284859 19.9792707291 29.0436867842 106.206432636 119.949981712 23.8708811607 14.0961033733 55.5321427864 59.265130471 34.1174016954 54.8311511112 102.98119049 74.2038850241 79.7278802016 85.4095504482 62.870351464 29.9621181407 69.0786056635 260.336191346 170.948903133 73.792995261 20.849089749 20.0799854128 21.5378010844 24.1521603265 42.4221924407 57.383382231 51.8333146276 59.3356463822 110.408056845 169.845764546 223.786130515 287.270552936 205.441178887 175.237556308 260.952338613 152.079349938 136.604627566 201.864477994 231.872486269 160.181643897 117.753083825 139.617762981 69.7180380795 112.507256288 163.635540808 109.893675598 61.5023640091 170.68799985 155.834017113 101.424270746 100.357141448 93.2598149426 110.918684511 116.949763549 27.1427326498 35.8681697393 351.010602167 328.666628097 141.873737637 50.1174018669 46.8284427351 31.2973411592 34.9251915906 35.1793268515 62.2990614807 51.0652104111 37.7468645314 36.3234831324 41.7716548001 60.1602335871 23.224496285 24.2778690165 11.3708523721 44.268652285 103.862384109 69.4364058116 49.7270604016 120.517211558 288.60867202 286.558252255 290.322173637 112.443269679 55.4255085673 20.4497115533 11.9983336403 11.3025579417 28.4165411549 31.3374787132 26.1555935153 28.6340651698 32.6967909106 34.623617216 33.405979988 93.8644214077 137.183082643 363.122908581 284.808611065 300.950187225 359.328326436 300.653597111 231.466386238 179.740555173 110.121383601 86.8562543999 114.254327885 92.0397144179 79.4611547151 74.5329454627 63.8490945816 109.934354983 57.6574603755 47.1322755279 59.6338003151 60.665261795 102.856056321 137.822780908 122.835393713 115.831222812 97.3789353264 95.3872599655 48.0763917089 61.022235308 117.920958972 98.7724993841 91.2475768269 61.6532522737 74.2235304409 219.689611599 390.784056664 443.626230904 375.97621892 222.741067811 141.130045216 213.096623732 190.980317142 138.091546459 219.052859188 466.831751933 364.062173443 286.192289189 316.317041655 261.935279656 182.726668243 103.307048875 211.903986269 318.438939513 338.080518504 228.124469414 94.4430790063 59.224731889 39.1458884008 93.6822891633 87.0781558155 77.935305017 45.8696231127 38.7851988807 132.699144721 277.749069795 248.593118726 288.591548727 232.067505834 217.710339871 132.693302792 67.9270647053 111.288458954 248.397042967 250.027787571 172.908387932 157.358790063 138.708416239 122.098445462 107.865685076 88.9360336784 95.9109612829 121.353993661 159.678991109 123.776364717 174.273944726 163.069791004 153.57494968 164.127451684 163.462510971 136.880780895 144.859956884 365.238743123 374.490281704 346.456318049 267.202506929 215.060884564 223.224376073 476.335773539 503.207633673 750.877753406 852.590460664 428.222519636 250.93400068 125.544272723 72.5602564108 211.525352944 239.875886622 88.8382744795 250.830545187 207.907652855 135.998083538 46.9424813299 25.3396041799 87.8003359254 127.884158876 78.1745129811 40.5797776787 16.0206493546 9.46763144431 5.87696237773 5.51259159614 6.29698512378 6.98704087667
10.3117791106 8.37221265576 12.6680560165 18.0552020244 25.2557351104 65.1903691024 98.5799967471 152.045417911 125.016610636 31.7074189739 87.8609960895 170.803564708 153.944320813 121.802548095 199.276037034 207.942714825 260.392934081 281.297271871 249.505043482 192.415757311 277.696441629 103.135713592 53.7988288346 41.9040938379 23.9962371207 19.6426434511 19.3851818484 25.6280912372 43.8146992311 92.458439209 125.766683195 168.429108073 197.757312271 185.744972552 117.301948471 276.72346596 211.173428582 110.978866805 150.669902531 175.87103769 184.975805854 147.535244702 132.781411242 124.817625005 115.565803626 187.938258382 119.501323947 86.6463238219 129.583514731 168.83912602 134.478391192 178.958766287 270.611374103 155.10625625 107.845429332 89.9460721992 144.42908257 133.288107732 99.4334568922 61.8959984059 50.0122317508 8.08668972506 45.8285361026 36.9223192585 80.5862566605 98.9867294686 63.5368135675 169.959704359 262.687114889 106.961003174 73.8530595348 144.481767931 163.717664586 276.357299997 31.3428942529 28.3170021497 20.7892665348 16.4603604733 20.9626436621 10.0448339789 10.5296980727 15.326860412 17.5516078667 17.3626607751 17.4270208053 13.7136109521 18.1742979157 15.0872201591 31.7761515226 22.0946171725 24.6192626429 26.1175046181 19.5818309625 30.8752285645 97.2119087685 252.526140522 160.323954968 111.896479182 99.5744203567 158.878735547 139.793250564 118.3037358 200.773414707 222.489433952 260.678458303 245.03747764 399.980513154 381.006941761 264.067445234 231.674695657 222.471585687 216.64982777 126.63413386 140.69461821 107.811487913 105.987796568 71.5491545581 93.3195676702 123.256231435 126.285703645 54.615401468 58.5545825002 112.64576756 98.846050443 128.657464731 67.73531346 84.6805738409 65.4352424631 49.8039469774 56.1209992283 61.1255303014 105.373107434 175.250909181 126.225240841 192.106551095 204.921788747 205.284858201 117.651393296 170.497658226 148.336856101 348.51891954 356.142216104 564.717362754 613.451838889 446.218526754 216.579729227 75.2910839078 170.210672522 157.296046148 164.130718478 132.371670022 80.7080971827 91.6578599923 88.8249979748 36.5125695042 112.773990392 145.457922017 143.763407485 83.828903826 80.3352135001 63.6952725482 69.3213494225 43.4633710887 90.811911007 76.4958954201 96.3240607271 165.051267536 138.130379115 93.3076872227 127.384609492 113.843334582 188.549371255 285.029560993 301.998047431 215.071110069 185.646314714 113.416461085 125.686873465 85.2278045253 118.380399923 96.3849361486 283.94713545 260.210836149 133.871377706 116.303999404 169.630964556 185.950847285 214.171310923 188.769928236 105.066657542 116.24493456 204.180155849 122.396813104 112.242867231 120.828549754 181.377439558 257.690015917 221.311667179 114.022933065 80.9453368037 111.175737717 227.336630252 249.449388345 213.748275625 211.062100367 195.195745656 110.840618992 64.7911464445 72.7058784848 41.7758094284 46.0700303222 63.5258314754 20.8455796594 8.43055418061 9.81958590435 4.1764613863 5.01629244926 5.10586781867 6.76466987146 5.28990678578
