DSAA
220 79
-53.7994932458 1725.25055045
-633.666666667 -0.975556903113
0.283957525261 12735.1931166
2561.39433414 2535.05733331 2513.27987757 2499.40347188 2495.89899661 2501.59819113 2510.74940019 2516.72171252 2516.17875378 2508.91254744 2495.5539669 2429.01256699 2402.48749406 2371.28319077 2334.92175059 2292.42752904 2242.31256893 2183.50554765 2117.78153096 2053.07026683 2003.8711471 1983.61869068 1993.03620594 2018.79223699 2021.26045645 2025.8129325 2019.42641652 2004.7028816 1953.03735521 1930.87240312 1908.00921176 1883.32488339 1854.63976031 1819.54431 1776.35007412 1684.12040974 1634.58637251 1599.40528291 1542.98304813 1521.00638083 1511.11460098 1508.72468628 1510.69467816 1510.08827863 1504.49928436 1486.48792279 1468.645455 1447.55799368 1424.78876675 1401.64328424 1379.0155066 1314.96776545 1251.04656799 1230.48381109 1210.62060839 1190.97298679 1171.18725235 1119.90679998 1101.41672643 1083.62674284 1067.08207762 1052.39508802 1020.08332274 1013.59674973 1008.92647531 1005.34195829 1001.94376275 997.872634103 992.496686085 975.143035306 944.657435617 935.209341709 920.995094274 906.602975629 892.460719809 878.86463332 865.99459219 857.209227753 845.751431685 835.122725164 825.29370402 788.41986652 788.336052953 759.630977291 754.729963862 750.622283844 747.250056588 751.075308765 748.533022736 746.511249571 744.954504568 743.804643729 738.697757863 739.272077447 739.923450861 740.521224528 742.032651959 742.007237949 742.09608098 742.347260536 742.803749898 743.484936648 744.378867706 745.446292755 746.631693776 752.255799514 754.031303742 755.548112287 756.922675244 758.178353085 759.351725673 760.962005535 762.061269857 757.893817568 759.212823863 760.6718967 762.265453402 763.951934606 765.646650573 767.220724298 767.680293509 768.65894903 768.94845774 768.414677918 767.11673875 765.193369307 762.860949489 760.338105797 757.796817269 755.344315461 753.028492127 750.854398773 747.834404934 745.777147105 743.799024468 736.395428461 734.25491801 732.207431747 730.262835492 728.429529931 726.710895278 723.352528546 721.98075375 720.748460142 719.693421302 718.884494433 710.687966811 711.852790886 713.723613949 716.085394796 718.454951779 720.155662135 720.537719596 719.237078837 716.304721053 711.955916617 707.062913411 702.056136733 697.362085026 685.175734866 680.05627276 675.929335863 671.112816179 669.343503513 668.229601351 667.665861989 667.599845323 668.038026514 670.4346819 661.944433219 664.646429381 668.206276484 672.543039301 677.42288262 682.448775287 687.097561861 690.811392441 693.127006016 693.799993971 695.414965066 693.537738496 699.668151355 698.163341652 696.912284222 696.105804217 695.829154756 696.08140343 696.806513075 720.979271202 722.767432771 724.64400998 732.244299256 734.469474579 736.770769669 754.734439455 756.685317904 758.444422734 759.920171783 761.01646733 761.651858441 761.786405233 761.454100072 760.792502606 760.052762239 763.705505512 763.637225174 773.92195843 780.116772775 788.627831463 798.354721754 808.311425169 817.819752794 826.54468555 834.427018361 841.579911592 848.193353773 854.465206248 874.838244811 882.150722388 889.525145867
2571.53057578 2543.77902546 2520.60265627 2505.58090438 2501.38771554 2506.63295811 2514.86512159 2519.28502499 2517.40049243 2509.81025196 2497.14827567 2434.49576338 2409.33368664 2379.57637783 2345.1371669 2305.19278822 2257.73950206 2200.40015428 2133.45142475 2064.62426514 2010.66276989 1987.95328309 1997.49334885 2023.67398936 2047.92902607 2025.70228211 2015.31500254 1996.52598391 1944.88314389 1922.71913581 1901.68325646 1879.96402163 1854.29082323 1821.13651216 1777.9518562 1705.13306749 1647.42048451 1571.11599662 1532.70879949 1509.25386324 1501.05917017 1503.32114321 1507.10429845 1507.15444021 1500.86332243 1488.01515015 1461.23090434 1437.59616944 1412.57237665 1387.76371904 1364.22591181 1302.44218497 1241.39387406 1221.74502309 1202.79871607 1183.88492373 1164.51318497 1115.5059347 1096.64511952 1078.27334866 1061.08786594 1045.88866761 1017.06020635 1011.32864575 1007.72468385 1005.30827652 1002.91393375 999.452758079 994.174756187 963.30167916 949.072181158 933.401396046 921.998819137 906.262495538 891.012832743 876.556027167 863.052145485 853.799074045 842.056656726 831.259498493 793.633054809 785.570333419 762.977819418 757.250508814 752.415000636 748.403136694 745.156368453 742.623022227 746.683871464 744.876214466 743.556398202 742.659100108 738.170777188 739.020648344 739.929754224 740.735343526 741.817716326 741.798385283 741.853310589 742.05935876 742.488999816 743.181542655 744.130760318 745.290474087 746.590193349 743.910690994 754.188325322 755.722446299 757.079245652 758.292833812 759.41382431 760.936430398 762.0095801 763.126734375 759.414059038 760.917545692 762.609885203 764.449556511 766.342190004 768.136222091 769.633573943 770.275269307 770.659698958 770.083368296 768.59801539 766.394715466 763.757859176 760.962934247 758.213526294 755.623753911 753.231462673 751.023319137 748.053496871 745.995961963 744.010101052 736.844274553 734.677303943 732.601489334 730.636181972 728.795451445 727.081389223 725.48394462 722.439923022 721.167186364 720.035173164 719.122583944 711.106800204 712.219541757 714.206798199 716.871822277 719.659784492 721.738162043 722.288872053 720.861531741 717.541285825 712.839397729 707.218464131 701.733946485 689.594999983 684.473550938 679.365279635 665.955977139 670.994050863 669.486514895 668.600310126 668.196830855 668.215967942 668.685016986 661.105400614 663.032067409 665.935011751 669.920050671 674.945419007 680.758867314 686.871183245 692.595571961 697.170823714 699.950318509 700.591791902 700.984609831 698.319298823 694.859865405 700.079468279 698.34868603 697.224447507 696.783605679 696.989370024 697.73772219 721.073486552 722.870904688 729.928479442 732.060593311 734.260062731 736.550305974 754.000075347 756.064952795 757.950230705 759.541698929 760.714657808 761.356083588 761.397234356 760.856037943 759.880748888 763.53430724 759.966551086 762.88971007 766.325607431 773.586760659 783.465607359 794.506993065 805.476273243 815.601881256 824.583532324 832.467559823 839.490822766 845.950721089 864.697079311 872.013888641 879.44118904 922.37473912
2599.18136775 2569.13122378 2538.89865057 2523.46892361 2517.71773806 2519.55939137 2522.77830469 2522.16136809 2517.1163271 2508.95888533 2497.6091582 2440.02788611 2416.55177395 2388.61198016 2357.04811442 2321.80942822 2280.86418101 2230.71681749 2169.86009922 2104.59845185 2051.09872445 2025.4180195 2028.6208855 2046.2771655 2061.21726102 2027.51430512 2010.15646671 1985.27380611 1933.20434094 1911.21756569 1893.05593275 1875.96605845 1855.24338348 1826.0787612 1785.15931473 1713.80687537 1654.17318802 1574.67748592 1533.85425928 1509.02111001 1500.68282454 1503.05254589 1506.5206693 1505.36277737 1496.90756512 1481.16246104 1451.39211783 1424.70412874 1397.12247896 1370.56662576 1309.32514001 1287.47923892 1230.25830053 1212.12401017 1194.65620346 1176.96835888 1130.51688431 1111.81121058 1092.73623303 1073.88490818 1056.1228543 1040.45480651 1014.57062577 1009.62657008 1007.13532931 1005.91001123 1004.47386681 1001.48085019 987.080545105 968.457029494 952.406494768 934.882027593 916.929623396 904.680494203 888.383947979 873.167545212 856.370795465 849.566181924 809.677513329 799.410005573 790.324437365 782.295173737 753.382249927 754.561257626 749.825127335 745.93360732 742.830563004 740.467036733 744.66036674 743.097674151 742.050272508 741.445502604 737.44220482 738.5749499 739.75006208 740.77219326 741.744039655 741.746700995 741.77006255 741.923381477 742.314109587 743.006904179 744.005255755 745.257987036 746.679306557 748.607720093 754.478277671 756.001327911 757.308541659 758.445375439 759.478678759 760.876652498 761.897207 762.994759241 764.184653622 760.989934403 762.726263667 764.660136463 766.689108893 768.644007699 770.297825904 771.267225718 771.722799219 771.111628221 769.469264563 767.03882538 764.166559216 761.178200347 758.302792771 755.656253907 753.262261747 751.08557237 748.220747331 746.203054816 744.233863383 737.3351074 735.142617051 733.037632936 731.056469342 729.223838674 727.541138291 725.984399556 723.061200417 721.757984842 720.527243351 712.858364461 711.339695599 712.133837182 713.924399471 716.561797654 719.460111379 721.67878598 722.273283255 720.724505302 717.13633474 712.096542221 706.141516766 694.320399629 688.114207296 683.102520758 670.471402805 665.53718395 663.557975846 669.770307924 669.209258368 668.998594223 669.069612182 669.478924044 662.184723411 663.981752982 666.914077515 671.189962105 676.830159739 683.576827638 690.84426256 697.755866525 703.302632323 706.607928657 707.18657454 705.186912353 702.807149448 698.347344134 701.734314262 699.541604371 698.156223078 697.63445085 697.887877016 698.748618901 721.265086558 723.067120208 729.818267017 731.888367793 734.024044654 736.265771992 753.159851167 755.358256757 757.404572183 759.161062887 760.47354771 761.196250351 761.229122494 760.568926079 765.912140313 761.068325841 757.805743473 757.642968814 761.488349721 769.69261833 780.713626756 792.739745681 804.309832293 814.601273216 823.397543376 830.893539741 837.479066283 843.571551703 861.568616646 899.23042295 908.439598471 918.062935572
2626.19252921 2597.48434057 2573.1449258 2555.71936421 2540.30987675 2535.11613145 2529.31305653 2520.87700292 2511.92100707 2504.16891275 2495.80326627 2483.00468879 2423.54815598 2397.11794115 2368.43299208 2338.9844109 2307.26870339 2268.7825105 2219.83957319 2164.15044174 2114.8824584 2085.39997405 2077.24673939 2079.8853508 2079.80299803 2029.67718107 2003.03512184 1970.25480279 1917.48485975 1895.61519014 1881.24500979 1870.38610826 1856.44270725 1833.17868087 1781.32710423 1731.96783679 1671.32167929 1589.4291233 1548.07933347 1516.51404906 1508.30888566 1507.98640959 1508.35636747 1503.7706217 1491.59969363 1471.92357121 1446.53234568 1408.13881712 1377.7398051 1315.3360926 1290.53644476 1269.73422035 1217.5627612 1201.60879116 1186.2334266 1170.3024997 1127.26468603 1108.97877543 1089.89353173 1070.73430923 1052.5425748 1036.52462443 1023.79993803 1008.51787673 1007.04076729 1006.86174589 1006.17850918 1003.38857702 990.715285395 971.665466151 953.728184707 934.366903213 914.82340743 895.988872841 884.238688256 868.456653231 851.273285299 838.038842007 805.66177114 795.470740752 786.493702688 778.584818624 750.408356948 751.555440481 746.943863295 743.186559998 740.233527115 738.041064303 742.383083721 741.081859088 740.327571416 731.979522475 736.376883653 737.772543605 739.194423775 740.420042725 741.674617605 741.733887646 741.755032689 741.877502649 742.242965453 742.943250359 743.995629694 745.348483151 747.236929829 749.128260979 750.952277105 756.38271791 757.608890504 758.633849502 759.900535818 760.776774046 761.718323178 762.776087135 763.964373773 765.262397401 762.592033419 764.532126202 766.594678808 768.600427229 770.309515066 771.319963809 771.816040257 771.177174584 769.456375552 766.920647143 763.951897204 760.906626396 758.029498621 755.43528391 753.1332077 751.065596827 748.370075249 746.433824046 744.502447514 737.898028274 735.668790212 733.523426868 731.526147009 729.719986633 728.107262341 726.643814674 717.288501092 722.609573972 714.452806588 713.533003397 711.537759549 711.694526561 712.885449128 715.035369799 717.585589068 719.576647063 720.023642864 718.372831255 714.71201048 709.631342693 703.650788598 691.554353381 685.673836065 672.714919207 669.15872576 665.063112681 663.89092517 670.396322842 670.273721076 670.285258065 670.350195316 661.988018613 662.427562453 664.813835172 667.508387001 671.831116407 677.886118893 685.423785297 693.766269852 701.838483643 708.361869697 712.203605881 712.751035008 710.157647569 706.380603484 700.96647728 702.890335265 700.337762672 698.819439955 698.358950681 698.802035978 699.802863899 721.597118706 713.043594125 729.78389168 731.751435497 733.777462102 735.925217655 752.182844474 754.535325587 756.780764639 758.758067526 760.285353448 761.187501888 761.336752898 771.526677429 766.027609118 760.888525088 757.37017659 756.811408865 760.929748642 769.67820086 781.253586744 793.573495242 805.027229553 814.802801742 822.814962099 829.441424315 835.243858219 840.760868439 884.837322668 893.609629132 903.099998922 913.249654711
2659.46019321 2631.80501344 2607.18052816 2586.78199256 2569.95454305 2553.67696469 2528.52060801 2510.4543801 2497.93157066 2492.95058421 2490.62545009 2483.22173063 2429.84703137 2403.85837845 2376.73483513 2352.39498826 2330.45461278 2305.27655755 2270.30642008 2225.92855086 2181.76328762 2148.45200204 2128.38157041 2115.08695021 2098.85926505 2072.17737625 1994.60344286 1952.84730391 1898.93990554 1876.67315459 1866.44679639 1862.82336686 1856.82139153 1827.92810233 1795.8059343 1751.22663284 1698.29136615 1612.43025301 1572.16885965 1533.81260895 1521.6448653 1516.12871768 1510.96607823 1501.07257014 1483.93984203 1459.55032737 1429.64097704 1387.48607659 1334.55038338 1292.67472024 1268.20475311 1218.54217632 1203.33723871 1190.25357259 1177.59313749 1163.94099498 1124.68280375 1107.06722161 1088.20114124 1068.96279452 1050.56497117 1034.38543199 1021.68941176 1007.83984922 1007.05783121 1007.53949354 1007.20044651 1001.67328937 988.236074985 971.613247592 951.974255172 931.034637468 910.203677114 890.442739861 872.284836312 862.214331208 844.909344624 812.18374493 800.834749212 790.895036986 782.154717754 753.166251342 747.114490054 742.039711738 743.765687543 740.142401517 737.330785536 735.295177033 739.763270962 738.721261486 728.603008429 730.115220737 732.076885788 736.45524684 738.079686514 739.477543435 741.408576814 741.577292108 741.65691922 741.807914111 742.197006347 742.939231956 744.068295012 745.776457053 747.743809396 749.782686544 751.723734802 756.850640862 757.969756715 758.851680951 759.897419475 760.634491349 761.474568438 762.476990436 763.650863535 764.960570158 766.339368056 764.075727731 766.049763206 767.969800962 769.603014644 770.324854492 770.793031217 770.142577262 768.451209115 765.975413208 763.091550608 760.157947074 757.423369308 755.001622758 752.891134972 751.013586003 748.555869783 746.739248081 744.859090362 738.569150355 736.273823216 734.061631442 732.040022861 730.281783453 728.793567415 719.90172498 719.009797481 717.945903995 716.048663596 714.627865035 711.962529271 711.162071552 711.339024051 712.516481853 714.221930034 715.574560253 715.645890788 713.887306748 710.335669439 705.506880787 694.694397708 687.576135275 674.391329384 670.146504144 667.671411253 664.760182836 664.702457356 671.626679438 672.077317677 672.339244915 672.312170066 664.35959125 664.095427746 665.602937233 667.692347508 671.696932037 677.813372207 685.807319447 694.920825201 703.900237524 711.221904208 715.518151435 716.053009452 712.999195307 708.256314892 702.141974996 696.294644348 700.592915314 699.154653801 698.961729991 699.786160123 701.11661451 712.206137343 714.253485406 729.865658873 731.684122477 733.546517585 748.608070729 751.039864543 753.567175418 756.050647963 758.306399978 760.128673687 761.320480574 761.73594837 773.514766676 768.362085445 763.47685829 760.136713037 761.44353334 765.602932841 774.240510344 785.454108928 797.067029338 807.445750848 815.859983585 822.39460384 827.634251583 832.32287155 870.287506091 877.99854695 886.87562621 896.886745171 907.826804986
2697.63127745 2670.14158015 2643.40027629 2617.28437406 2590.15705266 2559.46409753 2525.22373982 2490.28395106 2474.36902869 2474.80341618 2482.24307101 2482.88109507 2435.5351238 2408.41202638 2380.27204231 2358.36434781 2344.2515552 2331.24260548 2309.43449094 2275.79247798 2236.96883349 2201.57601318 2172.59634558 2146.50046492 2116.60544325 2076.91798315 1988.05064349 1937.82670858 1882.03021478 1858.49047662 1851.64353325 1854.77653955 1848.89826546 1836.04736633 1809.58122716 1770.98135359 1724.54094327 1638.22605897 1579.6053221 1553.61270263 1536.53188792 1524.51369403 1512.51775114 1496.28698203 1473.50755917 1443.97089584 1409.19791369 1343.98079128 1308.61034853 1266.4314811 1226.6713925 1199.74581741 1187.81388326 1178.24861839 1168.86455772 1157.93182962 1122.7513935 1106.00500553 1087.56985712 1068.49483806 1050.14386311 1034.00820337 1021.41659771 1007.18424108 1006.52486012 1007.02056013 1005.37167933 999.672220219 984.89368894 967.053511961 946.182503397 924.180371617 902.575639875 882.374573652 864.093689152 829.612970013 815.289729965 806.095079633 795.230206543 785.729347496 777.356870305 749.365140487 743.547709953 738.651861656 740.302292273 736.796448676 734.101385503 732.19269006 731.04128521 725.130364907 726.138153072 727.714537058 729.74329961 734.520455916 736.296054351 737.834311914 738.938857256 741.092125073 741.314301059 741.582402235 742.073361518 742.916563466 744.162199589 746.194413961 748.328251271 750.528249803 752.604535045 754.39432292 758.368898217 759.08638046 759.877583739 760.453908688 761.17872324 762.119176607 763.273928298 764.585986339 765.965990546 767.314618545 768.538726414 766.873835615 768.318587255 768.456880616 768.848550124 768.196448211 766.627756013 764.359506539 761.724080763 759.053124124 756.588534085 754.444959016 752.61521073 751.001913431 748.848812814 747.182001674 745.354549311 739.386145071 736.971657734 734.646207539 732.580934931 730.894565382 729.60449471 721.853030378 721.317475493 720.404433369 718.413220707 716.408948801 714.223904568 710.883625424 709.696793786 709.50429153 709.960288652 710.327673403 709.800335315 707.86801281 704.504359493 694.596214766 688.85557447 674.819344509 670.168590419 667.284619884 666.231208607 664.867905772 666.268838025 668.079550639 674.94121279 675.485900562 675.251779827 667.614616862 666.269817128 665.635315313 667.510694672 670.731921526 676.417490231 684.340888068 693.680004059 703.054799849 710.779487946 715.336535918 715.908062323 712.686469022 707.70135688 701.376061437 695.494745658 700.218791439 699.150225803 699.485118509 691.179021884 693.495380155 713.699031292 715.906101361 730.115204278 731.732828492 733.36920558 747.18468644 749.711709452 752.433989512 755.19251111 757.780663693 759.973237578 761.560514268 780.497976858 777.002913388 772.753536083 768.687696059 765.981184334 771.228114501 775.149899016 782.932436076 792.763483492 802.581021131 810.871373178 817.056475063 821.427433741 824.803256207 856.228947172 861.924952134 869.394413884 878.721323261 889.650646528 901.763918684
2740.3596452 2712.53341806 2682.68564836 2649.60518002 2611.14335349 2565.50598476 2515.1512212 2471.21400994 2449.97543437 2455.71532203 2474.51331542 2484.39180268 2473.07137764 2412.12062064 2380.16918966 2356.80960899 2346.56997787 2342.62759089 2332.10361541 2308.66914052 2276.2229375 2241.57455796 2207.88003968 2173.55176357 2134.25671854 2085.58755405 1988.24265447 1932.50457459 1874.26601472 1848.94344035 1843.4070608 1848.25225139 1850.84159125 1842.68418052 1821.35572691 1788.68238692 1748.75798352 1685.74067494 1599.86610751 1571.48650174 1549.45296981 1530.88063871 1511.95685594 1489.28175433 1460.78561903 1426.05710871 1386.3110474 1318.38141092 1280.07850412 1223.26171052 1201.8329309 1179.75263162 1171.57778369 1156.9390747 1150.52306965 1141.86596981 1121.36776542 1105.58430395 1087.72029408 1069.00019737 1050.89965127 1034.94495052 1022.42933116 1005.95430143 1004.65541548 1000.97373858 999.220377045 992.615807092 975.754204746 957.232175709 935.799236343 913.42645791 891.699732346 871.646802184 853.763961408 820.981038155 807.499290988 799.061131484 788.939357766 780.067129486 772.189282575 745.333390258 739.781148193 735.068538529 731.169094878 733.16684521 730.547903644 728.722677646 721.844375801 722.219829669 723.22781047 724.802962051 726.827403096 730.142297561 733.852466821 735.518756474 736.78602125 740.165594873 740.618908913 741.098536266 741.777259655 742.788810633 744.540373119 746.602901111 748.910614137 751.281945861 753.512475892 755.407473837 758.769930544 759.318279303 759.841060031 760.249735117 760.858963377 761.742350578 762.88264838 764.196455878 765.570089597 766.889406668 768.058197511 769.006603581 765.316438801 766.157049951 766.447241781 765.795782265 764.395271997 762.412896526 760.11809724 757.798583679 755.681879256 753.885504264 752.401073686 751.111339031 749.323004392 747.825307574 746.037570371 740.378728646 737.765503811 735.257821715 733.115528635 731.524408464 730.52338269 724.242962503 724.310843643 723.736688365 716.780319918 713.545250027 715.79278801 711.124046575 708.318171625 706.49661769 705.452837344 704.610047537 703.30460287 701.083880433 691.587700201 687.121788323 673.762025551 668.724609379 665.606416113 664.336377841 664.996523482 665.541549351 668.777889546 672.18702329 679.135478477 680.006211188 674.273569192 671.968777951 669.113768878 666.830707869 667.058154956 668.99439226 673.692239546 680.910790356 689.780980738 698.871559285 706.459418485 710.99856898 711.686819387 708.697036993 704.355841536 698.464929338 693.174879864 689.533979695 689.527377622 690.407415788 692.9126109 696.358984916 715.686722398 718.125033221 730.59272138 731.954580809 733.294541994 745.579557202 748.201972749 751.137218328 754.202594814 757.167735176 759.791600229 784.725506419 783.758612006 781.537738666 778.58843544 775.734006446 773.964100361 784.410162523 787.820120534 794.130401886 801.74815942 808.877569762 814.233369964 817.450570125 819.074653774 843.840360659 846.190540049 850.980470609 858.652377362 868.991491854 881.403231499 895.181170028
2788.18915831 2760.61833994 2728.40067755 2689.50174179 2641.60595296 2583.85531185 2520.82510948 2466.72232156 2441.24249337 2451.57285667 2480.22862418 2492.3043815 2482.56737921 2418.55037804 2381.96286218 2354.4459654 2343.66223071 2344.21331142 2341.91961659 2327.62976738 2302.26592052 2270.7078957 2235.97053963 2197.80598224 2153.80261606 2101.22458948 2039.17413022 1924.24590998 1882.17864345 1855.66604812 1847.57996135 1852.03995677 1855.36457528 1849.34088922 1831.58041774 1803.69283977 1769.15437948 1701.9652899 1615.80125845 1585.21588319 1558.77107325 1534.39102704 1509.27410771 1480.7682155 1447.05613855 1407.5481862 1363.10705732 1292.83636409 1251.32858218 1197.50211581 1176.84699673 1154.34044438 1150.04079032 1147.86598558 1144.69564426 1138.49781716 1128.47180024 1105.48735327 1088.22106137 1069.94067264 1052.17507443 1036.40175032 1023.79059591 1003.54672449 1000.82008847 991.44919485 988.156322283 980.368672034 960.903392728 942.237768997 920.923767244 898.882920764 877.692247097 858.378313845 841.416560939 810.873057707 798.629009307 788.245391547 782.111497059 774.04853839 747.21362133 741.188397494 735.912917993 731.371646497 730.182696663 726.885895212 726.706603245 724.912710866 718.651765778 718.985248754 719.949642039 721.480218839 723.459089424 726.841875435 731.568309014 732.679905804 734.145046029 738.788327001 739.544958437 740.311012545 741.246075391 742.751759952 744.660034831 746.906541076 749.383278278 751.922468003 754.31453867 756.336306234 757.80175301 758.640401045 759.79524469 760.051516873 760.56160858 761.403275315 762.539681961 763.860086428 765.229180322 766.522254887 767.643105897 768.529483104 767.256713394 763.89077452 764.08608591 763.437104665 762.205244274 760.513369742 758.569942303 756.61643127 754.864585449 753.438029302 752.331437902 757.581530791 748.285369488 746.747590962 744.648697333 741.549962491 738.636969479 735.859361708 733.591607759 732.110083316 731.490948786 726.988406292 727.94354791 724.424775282 722.392933792 718.137694784 712.459410658 706.554338359 707.288764089 703.713233702 701.068126661 698.917326783 696.725914319 686.759840044 683.33017833 679.511604007 666.05522207 662.863255959 660.874566367 661.357845566 663.944094505 666.709769186 672.15783966 677.547857761 681.51872966 682.281901058 681.121944829 677.381934033 672.587329361 668.223490082 665.623760832 666.606476543 669.817350075 675.741599022 683.482750903 691.637152789 698.568848073 702.832890839 703.710699429 701.338447726 698.447699931 693.621782887 689.528580781 688.474816763 688.65156349 690.992565182 695.00005449 699.883673386 718.225254119 720.987391543 722.856897433 732.407643005 733.375675045 743.838452361 746.553624565 749.713814704 753.107545294 756.478963433 759.573519329 786.958763305 787.34489798 786.559816148 785.070537225 783.558634237 798.479244571 798.664620219 801.326509494 805.791898764 810.72184138 814.632205084 816.505794311 816.22965754 835.090324883 832.611205848 832.870328958 837.191304578 845.753910418 857.865692703 872.449281824 888.437487096
2841.83987065 2816.38067812 2784.36294689 2743.1092327 2690.30765923 2626.15066408 2557.08483225 2498.7160999 2470.27593602 2477.57678276 2503.07577304 2519.73325977 2500.39393025 2464.57600907 2393.26469928 2362.24383311 2348.18174444 2347.94758704 2348.73972641 2340.266321 2320.74948714 2292.98905513 2259.50382231 2220.87195277 2176.19498736 2124.33894198 2065.52564296 1954.21041622 1906.21379827 1873.68144737 1864.62603673 1864.79956386 1864.98244792 1858.08510133 1841.67223207 1816.71588165 1754.34245758 1718.60771568 1627.01087933 1594.48285089 1564.39162677 1535.28847528 1505.14143 1471.89869495 1433.97923441 1390.65266521 1313.32083916 1267.20771202 1205.67159734 1174.89434663 1154.65935233 1139.97839351 1139.01818648 1140.23931152 1139.88803116 1135.72630437 1127.08130044 1105.33586005 1088.57135339 1070.69110135 1053.20675709 1037.47553141 1024.48924631 996.623408453 981.236456377 978.379868779 973.036537655 963.810099078 941.488747006 923.041283355 902.343933461 881.174354943 861.043674186 842.955883168 827.363086619 799.622844524 788.95694833 779.990076701 774.947834156 767.854067448 742.654904293 737.068346616 732.060584948 727.664552676 726.359432608 723.066995958 720.541756922 720.841456982 715.281550761 715.54456665 716.442354931 717.911538373 719.834878782 723.247483549 725.42618819 730.313536251 732.024848218 737.031809096 738.133029497 739.225574188 740.452707391 742.464505116 744.592249939 747.008411741 749.629341901 752.308161529 754.841515153 756.988895123 758.524859505 759.334289516 759.756023696 759.902731661 760.346775625 761.167503988 762.309758397 763.640913637 765.011082295 766.290402283 767.384444753 768.236080371 766.512255788 766.66304626 762.102550457 761.463189103 760.378398435 758.937837259 757.301558258 755.672421211 754.250505213 759.295984467 757.537423506 756.349047283 755.660317453 748.351191114 746.156123392 743.2732006 739.529080423 736.391683375 733.938609967 732.555140639 727.675356163 729.773547607 732.017562223 730.676279795 728.548244875 723.173068179 715.649936887 707.571987386 700.239809488 700.997102696 696.781328686 693.342268189 681.77847007 678.552802575 675.201396081 661.335972891 658.320985455 656.449863552 655.930467548 658.169994161 662.761750208 667.919075973 675.856850562 683.553477176 689.141824022 690.724939381 688.734334583 683.269404376 676.221896365 669.507145072 664.700055588 663.629843572 665.038034013 669.272930705 675.435077464 682.212436581 688.142214915 691.972615213 693.096304013 691.604961905 690.911422817 687.651998094 684.920931968 685.66784797 687.526240206 691.591247612 697.352799202 703.933589763 721.235992431 724.43487155 726.333308804 733.126023298 739.996444686 742.067808585 744.86444173 748.247402731 751.972446816 755.757340671 786.142947367 789.214193547 790.965131598 791.606463491 791.534523694 791.284201096 811.792705451 812.171379492 813.921615416 816.416223686 818.536173885 819.06772394 817.232669193 832.513066753 824.47182265 818.223000819 816.60240731 821.06744713 831.363098299 846.090814539 863.534045354 882.212376398
2901.30683664 2880.74447746 2852.83865086 2814.26606033 2762.51696496 2698.4756183 2629.73101331 2571.45862018 2539.52591157 2537.15532349 2549.75294108 2555.98917914 2541.92518067 2494.55815303 2417.78288641 2385.82141795 2368.05853345 2363.10315085 2361.42265888 2353.87073458 2337.16942961 2312.2472556 2280.78934128 2243.6412161 2200.89052142 2152.67144015 2100.197755 1986.50873971 1927.35257662 1904.25282106 1891.48114368 1885.62454137 1880.2956085 1870.13023314 1852.84414839 1828.74230863 1765.48540159 1730.91472631 1695.96737331 1599.91437614 1566.93879067 1534.25207579 1500.39319236 1463.78542842 1423.07450043 1377.45058796 1298.54832134 1251.06640501 1190.49338438 1159.1154409 1135.68444544 1130.08736208 1131.50426028 1135.07698755 1136.55726716 1133.61916038 1119.62668555 1104.74388822 1088.2912489 1070.67370482 1053.31576841 1037.40752844 1023.74618888 989.787036667 968.587841478 962.948089375 955.283157574 944.441728638 919.289577335 901.190624978 881.338113921 861.320991664 842.5517706 825.998526585 812.087344277 787.680935427 778.845018435 771.509547966 767.690259271 743.79086666 738.280499187 733.119007311 728.35058305 724.065119337 722.59076843 719.260136249 716.684478048 707.840914517 709.178584725 712.07300833 712.901091955 714.311745505 717.450076807 719.594256991 721.820766816 727.136469543 729.112463422 735.005053619 736.455685164 737.876795376 739.863756269 741.954444403 744.277529737 746.8296773 749.548584576 752.31094169 754.930129051 757.165747558 758.771288763 759.608263718 759.740960257 759.84706921 760.270586011 761.091236042 762.243921551 763.586003909 764.962651322 766.243684129 767.336453388 768.185176655 766.103281923 766.164917877 766.140378993 760.023883168 759.060806082 757.818334664 756.421280024 755.043669386 760.524031265 758.092064896 756.185791703 755.059504281 754.658778509 750.035046571 747.697089032 744.461865969 740.325983014 736.770032355 734.071600023 732.725180793 729.152749382 732.134082079 735.196553157 735.98708539 733.744527502 727.242915482 717.934874336 707.829658703 698.48887593 690.650557933 683.337644934 678.383622228 674.24420277 670.564351361 655.714555904 652.680254656 650.529107522 649.771707308 641.321365981 654.346288757 660.810025552 668.246605255 678.67519013 688.759885104 695.844365258 698.407916467 695.456547053 688.262437043 678.95860609 669.957309522 657.043436943 652.504516803 659.495023532 661.919393907 666.340902914 671.581387895 676.335311593 679.757266866 681.161004434 680.660588575 682.208216396 680.668289535 680.094758393 682.430341282 686.097511225 691.984566121 699.60110921 719.381755706 724.397051934 728.148356979 730.134000258 734.069841766 738.47991996 740.440769758 743.289154875 746.86651244 750.89680142 781.562412195 787.150289611 791.44274931 794.467769838 796.413705582 797.600530516 798.427145747 823.698427986 824.076000728 824.866211599 825.481058574 824.964414598 822.295597014 837.760640594 825.505211893 812.390651061 802.374583724 799.165922756 804.395810877 817.185683593 835.196143016 855.945994758 877.536739091
2965.09446161 2952.38187363 2932.89318891 2902.44111652 2857.57448617 2798.74517705 2733.43124919 2675.32661493 2636.9682645 2620.43081349 2615.58912338 2607.81658042 2587.05691289 2551.93596104 2495.72412543 2433.04111564 2401.25789625 2390.05807476 2382.49536369 2371.83513255 2354.7423748 2330.95632631 2301.2401319 2266.20939806 2226.34500201 2182.54568264 2116.05041855 2072.36705513 1961.09563795 1938.76820797 1923.00782605 1911.45872845 1900.11700866 1885.40055964 1865.50054605 1807.09224411 1774.59607806 1739.8354012 1704.18324755 1602.33884532 1567.13281376 1531.91200862 1495.63919301 1457.12790661 1415.26504396 1341.28515156 1290.38606853 1243.57505076 1187.39963048 1148.02497065 1131.52052219 1126.61432851 1128.8432409 1133.07959859 1134.92028543 1132.10880327 1117.9911183 1104.96762466 1086.98411657 1069.44378503 1052.0190724 1035.71321689 991.85143378 981.232681444 954.722473956 946.322912648 936.331666716 923.838817347 896.138136289 878.365696208 859.367190205 840.54516766 823.211451595 808.301543229 782.439004707 773.594189403 768.725081746 763.147899346 760.608354341 739.142228709 734.259991525 729.475406497 724.902706375 723.049032842 719.01892687 715.627770415 706.437172075 705.588516512 705.209790178 708.80147725 709.568390673 710.926502517 713.93983011 716.109442183 718.377623081 720.592197233 726.215059495 728.233823218 734.59061119 736.686169125 738.889172543 741.206206287 743.684134562 746.325054606 749.08217597 751.85448582 754.479650816 756.736636792 758.385965284 759.303826396 759.472255932 759.90147323 760.356583723 761.19809765 762.364274466 763.717269394 765.106928574 766.40622054 767.523219439 768.399877039 766.051959526 766.072302864 766.027140247 765.245311757 758.276628554 757.180677898 755.950276289 762.83901127 759.958644576 757.217279585 755.092963185 753.953235327 753.783795341 754.09761104 748.927461445 745.361110945 740.847601583 736.885040751 733.897557022 727.297795538 729.138974165 732.709680043 736.453595481 738.245720756 735.824499218 728.426645928 717.762214445 706.133089466 695.278356608 686.02161714 677.455674034 671.480294122 666.626712303 662.575202252 646.68807369 644.021410892 642.502905187 642.577215321 634.779886327 640.409890183 649.40116164 666.40133957 678.848586662 689.395685295 699.599057181 702.607479057 698.966725714 690.313117951 679.262880478 663.600464947 653.758091751 647.419487012 644.768626181 653.89071603 656.673651831 660.45924666 664.184250408 667.193240499 668.89590895 669.376682953 673.095786935 673.26608838 674.509568079 678.714243368 684.1144966 691.711941218 701.059376227 721.151169936 727.068723345 731.442632828 733.587671231 734.33391629 737.350166602 739.165297447 742.009578357 745.717429616 773.968456084 781.700423061 788.318191211 793.684495367 797.827444718 800.901431774 803.149771042 804.853834588 834.035679294 834.310689445 834.234805967 833.258551231 830.544693325 849.875249256 836.669765553 819.738371307 802.091207142 788.675229008 784.21687334 790.575894844 806.144571422 827.526665488 851.463955208 875.706171915
3029.85986855 3027.00557701 3019.27505989 3001.33589771 2967.693106 2916.79925718 2854.97287976 2794.82710974 2747.55643496 2715.94061978 2694.05909642 2672.56919313 2644.57428202 2608.72201542 2512.51002645 2480.44230731 2456.03745609 2439.31615083 2409.23401553 2393.33712779 2373.70461697 2349.63286659 2321.06698041 2287.999613 2250.73198321 2210.42141269 2147.80206557 2074.71435193 1993.50570134 1972.46248658 1955.10976811 1939.35844551 1922.68275588 1903.00601661 1879.2897805 1816.45582115 1782.17786283 1746.00458311 1708.95191537 1671.6000448 1565.46839764 1528.60384381 1491.06758641 1452.01106193 1378.18630664 1337.52018397 1288.87162206 1228.83436706 1176.21365222 1151.73002096 1136.1517525 1129.98518319 1131.19737453 1134.15122249 1134.73959102 1125.52110917 1115.64001293 1102.260756 1084.36068979 1066.70990547 1049.04073561 1032.17179874 983.888123893 951.765314156 941.398616316 929.38598752 917.294073143 903.282549345 873.5224538 856.036230469 837.81337432 820.096121175 804.114323979 778.239606571 768.994630075 762.234562602 757.293342622 753.374937119 752.358812484 735.092800587 730.731029312 726.239702384 721.810620049 719.846912158 715.79541813 705.821072955 704.577408076 703.848028125 703.517895139 704.682924421 706.712581875 708.005298451 710.829438128 712.987885553 715.251928801 717.494622367 723.437674954 725.669206744 732.606481313 735.297123701 737.733267567 740.225612338 742.810833294 745.490258807 748.226305583 750.937243305 753.489634718 755.698216845 757.493777292 758.424815015 758.754042988 760.03197901 760.573617884 761.463850485 762.65592915 764.029110408 765.445315743 766.782995841 767.950088131 768.884079886 769.352660417 766.377982681 766.341109797 765.532757613 764.370256822 762.436080818 760.561416297 763.17232764 760.040400347 757.021100721 754.662964745 753.430717355 753.360080078 753.907046939 754.220431381 745.664651058 740.892484135 736.618763448 726.907479173 726.002368021 727.571178173 730.959472866 734.581632445 735.611819281 732.908942489 725.069417305 713.804340279 701.455559021 689.813632291 679.759575904 670.470755928 663.890423827 658.610822121 641.09430694 637.594122667 635.163946806 634.034035397 634.596589615 626.937531131 633.215708337 642.929835736 661.082330629 671.060573148 685.857478123 696.583913138 700.408971349 696.546736233 687.361376612 671.895780523 658.818509755 648.086329133 640.669165831 636.708667731 635.788695789 646.604531556 649.174839046 652.082636479 654.78576231 656.798154591 658.180666661 663.848959454 665.572560213 668.449450976 674.307068151 681.178297076 690.158310284 700.849568773 721.670071939 728.355165442 733.305478253 735.663928255 735.506696889 736.752149259 738.393264031 741.159652789 744.905826547 773.89060236 782.35508153 789.774869591 796.015905691 801.087723326 805.098922379 808.218433358 810.630312529 843.009731504 843.191274183 842.474567853 840.363008915 865.672034076 854.470842021 838.516388357 818.586955011 797.925554113 782.169095559 776.90095247 784.234641412 801.970388348 825.846389694 852.017951276 878.01914843
3090.78388446 3097.59065668 3102.33790361 3098.5769032 3078.00890646 3035.9198873 2977.12257942 2914.21484071 2858.71409557 2814.70867409 2779.24896957 2746.4367952 2711.51991972 2673.15335162 2633.47042157 2530.09622474 2501.29598617 2477.42102575 2456.40276653 2414.91010594 2391.74926205 2366.81510445 2339.24887341 2307.97167096 2272.51187221 2210.53122043 2171.66296118 2101.1221534 2021.76412054 2002.74834998 1985.58017685 1967.50464718 1946.53667228 1921.81501161 1860.94201635 1825.6175747 1788.13718927 1749.54017111 1710.56517822 1671.55746234 1556.98313948 1524.30926074 1447.95550984 1411.78813435 1375.07393962 1306.10170752 1270.80085712 1235.85527586 1184.49744069 1162.16952866 1147.1496034 1138.57781636 1137.23224931 1137.29751159 1130.47519259 1123.27082036 1112.26463339 1098.24137801 1082.23802062 1062.31136156 1044.26451592 966.558560356 952.193601684 939.121375564 915.210000973 902.764813493 898.885984229 883.650156307 852.456675487 835.309488505 817.83388806 801.134674526 774.477635659 764.306201202 756.983921225 752.15103225 749.034603482 746.715904333 733.865316443 731.790275429 727.771418733 723.457232861 721.514978733 717.080195617 705.872217925 704.230470791 703.241756732 702.738166651 702.538276178 703.185283159 703.548991082 706.501725937 708.304666929 710.365038871 712.535879625 714.719578957 716.870292615 723.198192915 736.149586338 733.813293671 736.419835606 739.035657192 741.683764864 744.359476674 747.029162948 749.627562925 752.05276314 754.166080758 756.024105632 757.076210168 757.640096077 757.925640076 760.837075388 761.819121622 763.070029266 764.491652466 765.961780453 767.365941213 768.612179853 769.554506781 770.12511728 770.389397154 767.07333767 766.275267392 765.116003128 763.177583347 761.278251351 764.281017797 761.023170091 757.84278803 755.309742429 753.9290356 753.769154685 754.282878763 754.586318842 745.194325288 735.009697558 729.791547419 725.186952564 723.628868613 724.319678771 726.66497543 729.235760553 727.705411384 724.523592896 716.653562657 705.544703979 693.310737856 681.655351802 661.632625277 652.250792778 644.664513608 649.972849674 631.70285295 628.273371943 625.967606377 624.9770484 625.647798246 617.55572831 623.699927236 633.11003808 645.474446244 660.320447635 674.734091972 685.300638176 690.137742885 686.743396126 678.28948279 662.526149047 650.038737134 639.52221384 631.876813472 627.26755448 625.379205181 636.091958849 637.762680058 640.119006422 642.645506339 644.973810545 647.147186389 654.480152019 657.518792627 662.882115528 668.926698957 676.873714278 686.743603743 698.175201772 720.238852366 727.365951504 732.688937105 735.259395547 735.200812381 739.293674694 738.089943803 740.722829802 765.34040551 774.769772411 783.632333094 791.59066694 798.4897211 804.298347198 809.067566005 812.894950264 815.886073287 850.910539799 851.085870802 850.031608282 881.717540556 873.710245883 861.693107807 845.122021672 824.715339526 803.583066021 787.382864921 781.944286251 789.552338643 807.872615928 832.374014007 859.038734641 885.360612115
3142.96289909 3156.17765819 3170.10016857 3177.89489048 3169.08085199 3136.0178583 3082.08372103 3019.87804007 2961.06064943 2910.34089401 2866.45524539 2825.65016686 2784.64886772 2742.20705452 2699.18865623 2579.47167677 2543.9531529 2511.29709273 2480.7966603 2452.15642878 2425.75530047 2379.31853463 2353.69217162 2329.75714995 2296.01677663 2228.66808437 2188.25361524 2118.43938567 2091.03462265 2028.42612805 2013.53184051 1995.03891851 1970.63918026 1934.95751022 1874.50683747 1833.5471385 1791.71134075 1749.98675191 1708.83247965 1588.65757362 1550.13489944 1512.68641667 1442.24601621 1407.28548061 1372.93298314 1307.00600702 1275.97393529 1245.95973555 1195.99316781 1176.03724962 1161.473735 1149.57705625 1144.79966954 1141.09468777 1129.44441852 1120.06329894 1107.6358432 1092.75470738 1076.2395346 1030.61378464 973.190149193 956.15959434 940.527249329 925.951915263 899.051936212 885.16769071 870.731824542 865.452080656 833.512882614 816.905454323 800.293287741 772.464060729 761.320056928 752.847176857 747.224950635 744.050037062 742.45716385 741.423870708 738.024564686 727.796344205 725.366863933 721.093464397 719.11720977 706.533094359 704.354838152 703.032556605 702.407239398 702.228576566 702.225588667 702.20042905 702.663822761 703.086037513 706.447221735 708.28245248 710.24262892 712.262769135 714.317278214 721.281306175 722.884080204 732.254284087 734.973260629 737.669195099 740.347899834 742.994144511 745.573964452 748.036085779 750.310864557 749.220317305 751.179985879 755.414765858 756.251293959 756.893400293 757.548288686 762.166591789 763.535533355 765.058371171 766.628290634 768.138670683 769.499156476 770.504674588 771.181596521 771.547919501 768.217999981 767.476506441 780.649932339 778.253406861 775.120048272 766.283028752 763.062497193 759.879166518 757.268672637 755.705074798 755.259244175 755.436659657 755.427750967 749.315655613 733.084703245 727.768829498 722.68261793 720.25233229 719.619544685 720.283488309 725.895122733 715.767254133 711.791302415 703.984406366 693.434122987 681.873775676 661.37838476 650.695546647 641.822811503 634.609848529 628.763959047 621.989254491 618.68376649 616.403156429 615.310712014 615.710419998 606.670199507 611.928192311 620.057954494 630.750661329 643.765283269 656.503770708 666.063298628 669.595852714 670.028578009 658.576402802 648.086498702 637.357408173 628.022599597 620.926408696 616.305692257 613.990042352 613.56314825 626.066177165 628.189860771 630.668103064 633.314689272 636.160162779 644.866195092 648.952892726 655.415119278 662.338555513 670.915140337 681.123679396 692.616081749 716.4417297 723.575320299 728.95900038 731.681761669 732.783871468 741.143107306 745.491757942 758.135920334 767.215202391 776.509032568 785.462604664 793.723287529 801.089830618 807.46992618 812.847638636 817.25319116 820.730330796 857.954078231 858.231206101 895.634044594 890.66117913 882.884787075 871.669418779 856.656265755 838.485420084 819.789493788 805.451973116 800.681112842 807.719550032 824.686111425 847.583297104 872.739992076 897.791848642
3183.70712775 3197.52252818 3213.49455052 3225.82070044 3224.4170295 3200.91792468 3157.11664358 3103.45407262 3049.60155862 2999.59959436 2953.04249235 2907.75418896 2861.73948557 2814.09537949 2765.00966881 2627.82378243 2582.789097 2538.61031666 2495.96553752 2457.00480918 2424.80127999 2400.59314271 2365.88392621 2342.39682928 2311.11280793 2242.58727099 2189.79895629 2126.88793559 2098.0723269 2048.86330244 2038.47570685 2021.26612972 1989.62711291 1953.06707605 1886.20267241 1838.36723419 1791.43304085 1746.33986411 1703.15698121 1580.18637413 1541.17261991 1503.73903933 1435.62763609 1402.09609857 1336.45312128 1307.93367641 1281.22643647 1256.12110315 1208.11168391 1190.28651922 1175.91013217 1165.42852103 1152.04863792 1137.02196445 1127.43458278 1115.66487534 1101.62451783 1085.71742297 1068.5495191 1021.99709038 962.226451385 944.520035423 927.975202266 912.337814099 883.04271319 868.282743202 853.308688307 837.818773779 816.886516944 784.861763714 772.190264033 760.765426146 751.343854027 744.498841908 740.36749154 738.505123923 737.989336139 737.754673336 728.057689921 725.751004063 721.34741749 710.126296652 706.405690954 704.913617968 703.002673738 702.063287942 701.860677603 702.050255346 702.26346466 702.234124736 702.292094275 702.35963833 702.613254735 706.657561637 708.2935842 710.054277815 711.930464307 714.801339156 720.806810245 723.49005636 726.262686897 736.159443196 738.855393464 741.467623741 743.957137135 746.283050497 744.393766574 746.562969018 748.4044725 753.565854555 754.678811037 755.695972232 756.756191182 762.400816878 763.974060878 765.676404478 767.411800566 769.081173905 770.598222041 788.084583869 772.51519098 773.022493477 769.77129599 785.057677539 783.501820997 781.290464296 778.396941011 774.870146686 766.175285705 763.123982307 760.51089264 758.730122632 757.837796443 757.432238231 756.851206597 749.006110212 741.35650696 736.634982447 731.986500106 716.070761104 713.901009638 720.591123492 718.423305181 701.689930736 696.566637755 688.58196534 678.538626193 658.555376222 647.584696413 638.05877112 630.180757914 623.778461714 618.539712154 612.051436173 608.918121609 606.573092793 605.161463467 604.952179151 594.609923697 598.396404102 604.527600577 612.719121883 623.034758462 633.345651362 641.448922517 644.863880049 643.587143136 637.572577449 629.844668115 621.540438988 613.995930207 607.996709808 603.86201284 601.574007507 600.899256586 601.572372608 616.130935355 618.674178769 621.637757362 625.042964077 634.853561358 639.732810619 660.031546925 664.176088389 663.237724548 673.300983824 684.27581537 710.291652386 717.03547673 722.183988099 735.034314653 728.04466181 743.759478919 747.811815493 761.310118243 769.786100198 778.712271024 787.577327363 795.999863961 803.714336669 810.554282362 816.433359092 821.321235666 825.214977292 853.03841483 854.42762072 903.762301775 899.238637426 892.471169078 883.180455912 871.271038966 857.311246791 843.24264639 832.63201001 829.408662373 835.519719378 849.885349738 869.618873443 891.808281315 914.397809311
3252.17213648 3246.44887442 3233.33437793 3241.84877259 3242.50298365 3229.43392088 3202.39001326 3166.29282703 3126.01290469 3083.69700437 3039.42010499 2992.50960991 2942.37301642 2888.76041749 2831.61472119 2770.74976095 2618.90654764 2559.70959073 2500.72923135 2447.30841704 2407.05076879 2384.20896313 2360.20617368 2349.2852161 2323.23959788 2245.94162363 2196.55501273 2128.84430416 2083.48432736 2072.53139094 2060.74835753 2046.50685332 2010.62152919 1966.73605429 1892.64785554 1837.24979891 1785.15628163 1737.14705644 1610.25402445 1568.7811066 1529.90893647 1492.86686794 1427.59212013 1361.33800082 1332.92361358 1307.5710445 1284.91050224 1264.30582548 1215.24944877 1203.29662846 1188.75171909 1176.2574259 1149.22207554 1137.14509232 1124.26603547 1095.70503768 1079.48546273 1062.13738455 1044.12328241 1006.24185028 949.892589874 931.728034701 914.588735418 882.681048201 867.122968455 852.006717713 837.016408826 804.007882886 790.848978487 772.387483354 761.572959767 752.111466078 744.57965842 739.397805547 736.595173904 735.667822191 735.688305791 731.239697742 727.430718064 722.571182117 719.539402383 708.428507741 706.051366576 703.207009697 701.579082373 701.013441075 701.197636225 701.7039821 702.08697113 702.032386991 701.478661858 701.684575956 701.509408332 701.608643694 706.524019264 697.097476723 698.023003161 711.368027052 718.69731616 721.384782133 724.197667035 727.103732086 737.254205092 739.851265116 742.270851246 744.475888382 742.029242832 744.015182831 745.753389354 747.268302336 752.950392498 754.338941685 755.829661066 757.872361498 764.314237447 766.298417021 768.283130153 770.175715188 788.355546244 790.44546538 792.065660405 774.80267235 788.881587205 788.138024272 786.82920394 784.923896069 782.408701506 779.328525613 775.84407088 767.417904442 764.823958597 762.782580705 761.339721936 760.204011886 758.883080208 748.915615824 740.445615756 735.397422249 730.196582949 725.184801978 707.619031168 714.448950102 710.174261175 687.082332044 680.519835347 671.948522976 652.626285888 642.078158745 632.423442914 624.284332244 617.736308616 612.489670892 608.136143195 602.124341618 599.191854837 596.699699084 594.788899977 593.707217785 581.936977505 583.922243045 587.707091538 593.081256088 600.434743423 608.164637476 614.750188854 618.061068059 618.204754262 614.432255911 609.486561695 603.707207587 598.13698656 593.486491838 590.134378331 588.190424019 587.576540829 588.337922772 590.265415196 606.488026592 609.764314259 613.632538124 638.473981584 645.884127072 652.120004931 655.960629889 664.328219298 673.346042804 682.673874393 702.1829409 708.299889005 713.039571839 732.939979551 734.386462707 745.859379599 757.557499792 764.282951711 772.175974331 780.756767362 789.552331498 798.14270181 806.189417325 813.449235529 819.770755749 825.075196598 855.026937182 857.993961457 859.64015106 910.607376814 906.635395703 901.060038673 893.995793688 885.656989618 876.566101907 867.947461208 861.950956494 861.051838297 866.714368014 878.581870993 894.952039599 913.81385499 933.539086112
3282.2456987 3268.21862691 3255.76027584 3243.64383227 3243.53415014 3241.38393641 3234.80560294 3221.38990223 3199.5523578 3168.73765902 3129.25932776 3081.99105868 3027.94777206 2967.82027235 2901.57146508 2828.25563729 2656.46927842 2579.23678205 2499.43926658 2426.18512005 2373.9099819 2346.83789567 2347.1295908 2346.69680105 2328.2516456 2258.80322844 2203.13552478 2133.32663943 2095.80595613 2074.27616549 2073.04425967 2061.01263644 2023.04115979 1971.2340584 1913.46344237 1826.5168123 1770.23337813 1720.71409203 1636.76454051 1594.99445948 1510.38639733 1474.99488988 1407.73166016 1354.31198866 1327.80169968 1305.32521108 1286.40597755 1269.9066242 1225.46275588 1210.29712296 1194.75790229 1179.52565334 1138.15222636 1122.10842681 1105.63194071 1088.44538945 1070.52176078 1052.04107516 1033.28256808 942.758288209 936.29533107 917.843981017 900.376604436 866.861505844 851.141908751 836.104513128 821.539609829 788.962773005 753.651693425 752.107890348 753.088757521 745.813752921 740.351868543 736.894427213 735.283545856 734.930170579 734.964468088 731.132616876 726.483417934 720.864981554 708.793881689 703.130041574 703.851908481 701.160421384 699.786576531 699.50625291 699.946692182 700.633078612 701.08986893 700.992003828 700.285286796 700.602204361 700.093605354 699.850117775 689.836643847 694.653650434 695.412986806 709.071100544 711.352403868 719.170196417 722.034519857 725.020844638 728.046724094 738.205138879 740.594060574 737.793598273 739.888857885 741.71690716 743.344383982 744.866294265 746.378982816 752.783668252 754.736320955 757.224326712 759.326168505 766.896181517 769.227864521 786.791173885 790.572326009 792.916774965 794.778104835 794.822866709 792.001064965 791.519124764 790.527681792 789.012365743 786.964296781 784.408840565 781.449363128 778.30266594 769.946084688 767.598564437 765.552872401 763.627588221 752.926466046 749.223563914 739.785938253 734.241208286 728.357675209 722.345931326 714.121520044 708.139607143 701.717970964 673.576003277 664.812686886 645.344326146 635.100542059 625.229809951 616.710235928 610.014189296 605.012562386 601.183100853 597.926864537 594.800443979 589.803654623 587.083031604 584.538746071 570.319959274 569.343685581 569.490652243 570.970016195 573.689487228 578.310005814 583.720515458 588.931915213 592.086987059 593.2874337 591.262344133 588.604076975 584.992704156 581.214323898 577.887283566 575.409938699 573.975250587 555.019059569 574.691036426 576.783679703 593.969749928 597.552713866 623.790840886 630.900940622 636.882129643 643.423448024 650.526360761 654.973817195 663.57658526 672.197233013 680.377333808 698.161543457 715.681997335 729.203675858 731.216896907 737.683883461 759.435363697 765.782548354 773.406586098 781.93299045 790.898372818 799.828364387 808.307075107 816.021061772 822.769784133 854.378914597 858.964742275 862.160613409 863.969915873 915.629673752 911.858233293 906.982176821 901.536069906 896.118517669 891.319800689 887.812609943 886.552259737 888.707955069 895.125725848 905.796126975 919.871750977 973.619202062 1014.93894555
3321.57825461 3302.64557191 3284.76155219 3272.96647248 3273.71956933 3268.5671118 3281.23706042 3289.0898088 3284.55758792 3264.2279602 3228.47337696 3179.76184811 3120.93703436 3053.88308883 2978.73592554 2893.73498788 2703.00650688 2607.3711176 2505.02203982 2408.74018507 2338.01313895 2318.52301012 2331.91483666 2346.92711123 2338.18076064 2281.69506714 2213.82551862 2138.76530416 2082.99702686 2074.74480986 2074.91876354 2059.91512866 2019.73344622 1960.49429084 1894.92799104 1802.19586086 1743.94482415 1661.00175116 1618.33193513 1579.77300594 1542.58250082 1431.05361121 1397.65354618 1367.00053828 1321.19247912 1301.40559519 1286.15584847 1273.65628662 1236.34091094 1221.64385978 1204.45469504 1186.02678191 1140.73222788 1120.24693447 1100.08810452 1080.10713654 1060.20794211 1040.40659901 968.588565156 926.627124862 906.924837883 902.879382771 867.09129314 850.445672816 834.875971012 820.238498039 756.059672004 747.758870393 740.893421624 741.845631182 737.237440389 734.370486415 737.276171322 735.499950914 734.914147856 734.844803336 733.048350428 729.483691442 724.1633313 717.995700881 705.657462591 699.942823639 695.947095466 698.518561994 697.34713849 697.226285978 697.756135905 698.462489092 698.892766694 698.748745752 697.987172877 698.765513084 692.724331697 691.577266314 689.554014824 689.300259805 692.626879958 706.605747083 708.837583163 716.78530496 719.739449584 722.867496086 726.056565694 729.172697643 733.684432658 736.065795406 738.072968847 739.750080366 741.225530086 742.6802125 744.283905784 750.968260386 753.896690788 756.431276243 759.095991087 780.822344591 784.641698459 788.792619796 792.838957332 795.468354549 813.863016366 797.747533503 815.92908915 795.092258078 794.453120449 793.369973921 791.830118146 789.82467035 787.38420209 784.617046168 781.709651246 772.946698471 770.28126791 767.563498872 754.494751384 750.033719266 739.556618508 733.357580355 726.682018862 719.621198211 712.175878 702.064759657 693.54789691 660.557824996 639.628723619 629.164055486 618.533782551 608.876759329 601.208860942 595.91816061 592.604408829 590.38080845 588.353800844 585.939252207 581.073090698 578.035289732 574.77456274 559.768832825 557.546936945 556.123420565 555.70416036 547.716634722 558.737403503 562.256777964 566.225752158 569.007182577 570.642761401 569.575437136 568.39648012 566.309013437 563.891924901 561.658119828 559.982853237 539.710162253 539.252019635 560.612456216 562.960885668 566.135830704 603.26678174 608.566112672 599.461941458 627.267445597 634.050186574 641.217282733 648.650391263 653.066559822 661.122636272 668.595729294 687.410823157 707.524126464 709.566985303 738.271491158 733.665778045 758.271921549 764.69929967 772.590902677 781.585213995 791.163326502 800.760611951 809.87463036 818.13498667 850.99090734 857.272922939 862.083445223 865.41057849 921.09420432 918.385362407 914.06726759 908.77044384 903.510256881 899.478836356 897.644326206 898.452700214 901.935518508 908.066126752 916.878211231 928.257572375 979.233974111 1016.43221835 1084.92515668
3417.30706605 3358.71844982 3343.46790474 3336.29541308 3344.20720285 3369.76847054 3405.51779902 3388.41592189 3395.30251379 3379.96117744 3343.13500779 3289.28936466 3223.53891557 3149.28144172 3066.94190974 2973.84952917 2841.95372944 2715.9858557 2576.81232408 2413.93558225 2337.04728009 2313.95613406 2332.85574101 2355.8695691 2352.76669089 2298.20209435 2239.10834688 2159.7690101 2087.1165006 2072.86523466 2066.71660057 2050.53234426 1995.04846202 1929.38127494 1833.53719104 1763.43073899 1674.78922432 1629.6704375 1593.1286051 1559.99211704 1526.54446867 1420.19133627 1387.13709439 1356.62577231 1330.75119346 1296.70439328 1285.42586754 1277.18386837 1249.26717917 1234.2979756 1214.31443751 1169.38694047 1142.95928864 1117.43644298 1093.20935162 1070.18845322 1048.16517542 974.046136738 952.657510842 909.205284173 889.350210818 870.836888674 826.513556403 811.355051173 797.564636661 772.269600045 740.412772703 733.275478117 727.895253416 724.402603194 728.614161617 727.769409022 729.657738774 733.26800101 733.498928841 733.557976243 729.155892146 725.198737385 719.622809305 713.393155939 700.960574524 695.579263494 691.872527054 695.078877703 694.073097534 694.009923586 694.500528896 695.113168689 695.456623557 695.283789441 694.564492251 690.441970974 689.281030814 688.425218104 686.395136924 686.269176366 695.592868081 703.879340059 706.092897969 708.773195015 717.255813106 720.609505262 724.070330077 721.774651293 725.30610831 734.670020501 736.644278358 738.160585401 739.408943726 740.685608211 742.28138124 744.35789215 752.281307964 755.526109261 758.884260888 762.179609719 780.949299488 807.35512355 811.617593904 814.732387093 817.114251317 819.133914292 819.456864131 819.124431803 798.431404785 797.7783348 796.745573812 795.280770617 793.331416498 790.898631209 788.070067266 784.986201505 766.112339521 761.794578636 756.116381063 750.827380139 739.864148922 732.901812466 725.373573597 717.269624911 708.505422827 696.625623047 686.159244383 662.771639167 626.628978062 615.065993292 603.680664255 593.811558227 586.696052616 582.734869969 581.191739086 580.667715488 579.878327548 578.096193544 575.150613231 569.803754495 565.80265342 550.524422229 547.418873419 544.984539623 535.322861313 535.554550047 538.458617954 539.646957398 541.053995697 542.072798477 551.268527442 551.359514622 549.552585209 548.219759511 546.615277592 545.133405509 524.202531135 523.16604048 523.06976207 523.963432987 548.755255236 530.077291352 569.056023785 580.965161577 587.629815892 628.883093207 624.11345674 631.395982901 638.787033607 642.256981916 650.042886067 657.161397551 696.375010721 698.700916819 700.630557384 732.371235005 735.496563527 753.156811032 760.193418353 769.041976137 779.2140388 790.021429388 800.741310129 810.764566759 844.620192884 852.752043178 859.274338195 864.229933329 867.609211474 922.348550609 918.741107258 912.899532499 905.570151542 898.363225295 893.519273013 893.028098436 897.573092605 906.319453047 917.799665808 964.712096046 981.576190297 999.254533536 1083.09535784 1107.60092831
3496.13115747 3479.65050447 3469.45056736 3437.34987552 3458.55087127 3496.43725505 3542.30387723 3580.2369928 3595.72275965 3522.39276158 3476.85106501 3411.91010075 3335.96960525 3254.46157201 3168.20119478 3049.75407181 2938.7438672 2808.94391498 2662.94941119 2487.28423046 2392.12128373 2359.10229741 2368.76071207 2384.47780581 2359.43563225 2319.90002512 2242.01486344 2180.05764067 2129.2533529 2068.21264961 2049.25807175 2020.97404052 1960.89098375 1890.27973078 1775.82189802 1678.32535984 1626.30555285 1590.40701874 1563.50171049 1538.31554481 1510.09964009 1409.92185727 1377.02051671 1346.41143423 1321.14518768 1292.4199573 1285.70214022 1271.54037537 1264.56272777 1248.19464941 1223.89785701 1176.19590438 1143.32344949 1112.36328747 1083.93021623 1057.87736208 981.093829557 957.192163987 911.911264239 890.400288819 870.500504682 852.07307823 809.342359789 794.433229999 747.167398588 737.211504705 724.270961567 718.084005775 713.865757691 711.711819088 711.628685744 721.022095334 722.426537245 724.463592366 728.044584925 723.892937075 722.743892889 717.701130152 712.511523012 706.813553123 694.593126937 689.924501348 686.731133441 684.988803691 689.8932975 689.850026066 690.253066359 690.739172636 690.995584513 690.834455845 690.239875655 686.006296155 685.316590218 684.872039037 682.944113548 683.048104142 692.702713022 694.27685205 696.207959119 705.837466641 706.358143929 718.181550034 715.96422743 720.13350707 724.157585884 727.780892938 735.627235683 736.971593627 737.90054957 738.865247035 740.344251794 742.608984492 750.509208806 754.623977006 758.815449159 777.493206077 782.354427948 809.662459112 814.200588413 817.674480629 820.247737769 822.345601773 822.70417746 822.357511796 821.453709293 801.993362999 801.423488 800.46446847 798.97605341 796.851758832 794.094827323 790.815334143 770.675881447 765.394867807 758.806068802 752.634136971 740.734456767 732.970142847 724.595175324 715.521829863 705.595220971 693.90650449 667.664518174 654.452406602 616.292070098 603.634930441 591.302137275 580.92156331 574.109545181 571.375730631 571.577020225 572.663310304 572.911494309 571.508214509 568.411623201 552.54171837 547.493319063 542.550747974 539.110769504 536.504333833 528.744603815 528.884560835 530.341632536 529.990901755 529.356704973 528.26707923 535.368522941 534.509838874 531.266327319 529.918472063 510.532155777 508.428545352 506.967991014 506.30535874 506.536794793 507.712711114 510.804551994 514.806359075 556.145924955 553.126391834 575.344997546 582.983192642 626.295850071 633.90951362 628.747799002 636.113614587 639.369987585 669.40413848 673.879478359 719.200244046 721.777604352 723.299918908 726.233699547 746.447311574 751.7171693 762.328378135 774.550524748 787.349058981 824.624343676 835.976931585 845.284932957 853.538311418 860.159701282 865.168045844 868.591450494 921.773290333 917.036072162 908.780502763 897.569907586 885.715648893 877.286803094 876.46772919 884.823928199 900.267062419 948.775847841 971.858380765 993.794599733 1075.86512679 1101.43772941 1126.31320988
3588.21215024 3583.27388101 3587.44763042 3605.97801602 3601.13633342 3654.71736675 3712.66132322 3756.50659908 3769.24309417 3744.44338087 3627.97771297 3544.73014195 3454.84822998 3366.56097213 3281.12002052 3168.72329678 3067.53409111 2947.24969456 2808.01969544 2619.23977129 2510.80839188 2459.23988249 2445.29056179 2419.18361662 2393.98973193 2348.27405347 2266.34232545 2202.53220542 2146.49812888 2060.48124831 2025.23380666 1980.85658761 1900.09000174 1798.57796944 1678.89170508 1612.64944626 1569.71789811 1546.26475895 1531.88644144 1516.5662925 1494.5806563 1400.91283539 1367.97382826 1337.2677111 1312.81486937 1297.60599539 1286.51490812 1284.95491607 1279.68750284 1260.5905021 1230.59500452 1178.77685764 1139.28957794 1103.06960382 1070.79269242 990.899151441 963.029948005 938.15178081 891.651484855 870.08613047 850.321992479 796.865701388 791.252835149 776.648730978 729.373321135 714.784209812 707.272769981 701.725311554 698.251690216 696.921002819 697.675913873 709.364643055 711.615521161 714.270009419 719.426174243 709.178098074 708.212100126 699.210775936 694.330545415 684.602941648 686.680587504 683.02175513 680.535213948 679.202625365 684.839949214 684.8466305 685.193290225 685.59560267 685.820287875 685.736032532 681.450111238 681.291012357 681.123889882 681.154447935 679.415703052 679.812139138 689.612111821 691.05249075 693.02395133 695.670225498 699.027667874 708.288198641 713.724822336 718.497848382 723.170757035 727.401983897 730.845743301 733.253963975 736.724787544 737.262417654 738.534342865 740.978253236 748.836873304 753.969704366 772.055692005 778.533036876 799.428625667 805.338107302 810.211421294 820.512372007 823.223134755 825.328683991 825.619167179 825.074075053 823.862148693 822.261967732 805.546701772 805.026055519 803.970615249 802.160931576 799.514084038 796.11552171 781.450661496 782.449738807 776.313240888 759.860602517 748.208532453 733.590857356 724.44647445 714.547237509 703.780302817 677.88269265 664.869706234 650.117873343 632.137943872 595.469034678 582.254913859 571.294756666 564.648839382 562.968224549 564.638428965 566.909734693 567.691213326 566.209960108 562.090735736 546.414367974 540.879078553 535.817975037 532.745063093 524.77544686 526.464426186 527.620486397 527.149217402 525.957544503 522.577196753 518.426387134 513.963285677 517.692024721 515.39081192 513.436348606 492.868857568 490.802558309 489.550691782 489.165308038 489.684270153 510.403684473 494.939356731 526.223288861 532.691375175 539.887440026 576.117174534 584.62603204 615.980884445 623.995354126 633.264289285 641.008326275 648.208247464 660.915769834 665.557866292 709.973950899 711.006738062 711.224617045 713.438400277 737.34255134 739.082941504 752.358947448 767.645445095 807.303245914 822.715479848 835.498075211 845.35452313 853.137884754 859.551901595 864.466094528 868.047207466 919.536055237 914.110956629 903.200688787 886.604512111 867.254918377 852.087212741 849.345312094 878.383006062 908.096231997 942.247271154 974.347919682 1057.09820847 1087.88651297 1115.50727311 1141.31335798
3687.71940272 3693.51810439 3710.34706435 3743.75385319 3793.91769588 3859.47729953 3927.80566778 3977.50778175 3988.13757778 3952.85855319 3829.92229489 3731.20277345 3632.2462275 3529.68855657 3378.33633854 3304.69153959 3225.97387638 3128.89382669 3005.37089555 2793.73069712 2680.79962883 2600.83641719 2550.41449944 2511.01172228 2456.66889889 2383.44313815 2293.08113319 2224.33845583 2160.61820267 2102.86439763 1978.12862913 1916.49550676 1839.28122602 1720.72166892 1627.81187307 1546.99009444 1513.48150426 1503.41200893 1502.33969005 1497.04059987 1424.04919297 1393.22542437 1360.0903589 1329.4826501 1306.13316673 1293.43231153 1291.09125835 1292.89331308 1287.98279283 1265.30578888 1229.33025983 1172.6127179 1127.55487258 1087.19640824 1052.15388978 970.416070388 941.652486359 885.762806379 862.012159839 840.674382956 794.467810952 776.805969341 760.862981783 721.897336394 710.92051639 696.470045635 689.234599078 683.964936394 680.78844744 679.771681588 680.831830892 683.643000348 697.066968294 700.180817786 689.437479502 693.506972968 679.424029823 677.318912731 676.559221958 672.69214667 669.097225835 675.04786768 673.407734737 672.599147396 672.496678495 679.153302911 679.528172335 679.938962396 680.225194791 667.368001519 667.558874978 667.570110541 676.996586849 677.544920875 676.088443912 676.818112906 689.749466073 687.731540704 689.694427166 692.387661103 695.90645685 705.344698787 711.210050291 716.659974143 722.079986255 727.034781516 731.048027716 733.728061905 735.01116482 736.036724907 737.086222373 739.73784391 747.747648059 764.350476695 772.866707543 793.75689434 801.385141908 807.558936892 812.568140897 816.635649828 825.016973268 828.071812591 828.225087918 827.307287159 825.473372608 823.093610806 820.739062414 808.58150828 807.923539993 806.473747948 813.351623097 811.558646684 792.609665243 786.539229072 784.795991421 763.601374678 755.775250726 747.334054921 725.000009973 714.602998041 703.280807961 676.404616938 662.807191001 647.39932123 629.794939002 591.111839023 577.378925913 566.066029889 559.57288957 558.586536323 561.0209831 563.60118448 563.611035011 561.50665375 557.278972314 540.679016248 522.40569421 519.716789204 519.358668618 522.540770107 526.717681744 529.590369255 528.991137308 525.178325957 518.391197044 510.463719919 502.629235122 495.927150553 499.872283163 478.430152707 475.141969324 472.990499608 471.872444062 471.72457925 491.34407931 495.099602429 499.695366106 511.776415263 518.678321728 526.294111997 563.511949629 572.501276447 581.94414153 615.013039521 623.653706116 632.098912547 640.065879873 653.066282468 701.393392786 718.815300909 714.107213064 710.492898582 697.597296888 724.756932692 729.977631713 752.232343588 780.578036717 801.944289352 820.342323177 834.592778895 844.598137778 851.211001389 856.783815008 861.290485059 913.942892631 915.501270452 911.026009561 898.734377486 876.826375668 848.399726767 830.900281957 823.402911423 846.459052321 889.496287004 936.280230751 977.149993154 1063.77419663 1097.31549381 1126.21782708 1152.83046238
3889.68087368 3892.43110432 3827.83952146 3867.09028773 3924.78580124 3998.7766759 4076.88714886 4134.85386544 4145.62984088 4098.43892691 4007.12138403 3897.94857802 3786.27941386 3697.27310672 3556.45244582 3448.98568464 3404.36620069 3337.94693344 3234.71955437 3016.25495156 2879.22118096 2762.43874165 2670.9800543 2595.31439132 2514.25761637 2399.04184321 2320.95220658 2244.41003638 2146.69145988 2075.59919759 2002.98252889 1858.42629386 1771.34589867 1663.49173604 1569.94509304 1504.26471607 1474.41525722 1470.92728447 1480.06825908 1481.98687293 1417.22878166 1386.03264334 1352.60303383 1322.23525717 1299.81397847 1288.57595325 1280.74215374 1288.10814045 1280.4182017 1254.34146624 1198.58049454 1145.77545208 1104.80575429 1032.76232577 978.251352929 944.784024221 888.673065654 862.554982945 839.54020881 818.899836012 772.979452013 755.903020276 740.410921152 702.644007164 691.854696329 677.412310127 670.162908568 664.796431884 661.486674849 660.340198559 661.301693582 664.067509194 679.142426223 682.765369687 670.272364937 658.511435886 660.19848257 660.013626681 661.704410626 659.843367645 657.978816928 666.26952596 665.554147061 665.359124273 665.61859165 672.939592694 673.448625107 673.980027105 659.997349832 660.911134813 661.700719053 662.490157592 663.412752843 672.311105333 673.277027149 674.394416582 686.357112663 684.527936858 686.375627007 688.987552479 692.541729115 697.12852188 704.578678249 714.386754022 720.555080399 726.251981201 730.882567746 733.928654682 735.254876902 735.439401837 736.432087463 739.37036651 744.935005632 761.002291724 786.358086526 796.113871005 803.826800212 809.904427781 814.811491839 818.868503492 822.166400289 829.225110267 830.638234226 829.263341637 826.552573986 822.965487932 819.378874296 816.885856138 814.566768525 814.776011574 814.93510798 814.160138868 802.531105892 796.677999602 788.040803127 766.061228089 757.812497969 742.626804564 732.561431271 721.6858486 695.008524258 676.682499186 663.117709454 647.87630078 630.459738014 592.196626242 577.947496366 565.890816039 559.511141352 558.538302102 560.577619786 561.967355369 561.272814143 557.988842095 539.637820615 521.309389014 515.88387921 513.574375185 514.909935578 519.344872913 525.766700382 530.180112215 529.365861258 522.459825527 513.019266262 501.323294424 490.209151953 479.285835733 473.11990121 449.462362764 445.457129404 443.108847956 442.124111469 471.990363276 475.307005107 479.491423724 484.487944551 496.97937139 504.291022475 512.294572905 550.246600843 559.698079492 569.68461524 580.184867317 613.473759469 622.895350856 632.018953508 678.641719742 701.827343262 707.16069614 699.072698718 691.665148725 688.9071644 700.087849874 722.886297625 736.532273185 770.239706486 796.761065693 818.397134227 833.758761836 843.032238139 847.638393951 850.742406335 854.126771545 903.836333661 906.713359088 908.255294362 898.236092606 874.402558473 850.177199828 809.675753414 798.949300929 828.66145267 883.096112143 939.265739304 1029.45177073 1071.92687757 1105.00400686 1133.49708543 1160.50263955
3997.80690787 4002.68810008 4016.34369065 3970.95205234 4025.81705112 4097.24867974 4175.827416 4237.8168929 4251.51043594 4200.23108721 4098.1596808 3971.08678747 3857.4188883 3772.28596778 3654.5679562 3639.65819871 3634.53296311 3554.7899511 3467.95079216 3325.98447198 3148.67387374 2925.9843265 2792.48184367 2681.26660935 2583.48065751 2465.79243288 2348.16711322 2234.39928603 2150.38970329 2068.47115854 1984.62221272 1825.42553842 1735.01465847 1624.21896824 1539.56488961 1477.82047171 1452.19042942 1458.4800888 1468.8443874 1472.33633695 1409.79947409 1377.70706529 1343.98177951 1313.67002224 1260.50278095 1257.13380727 1261.58043811 1264.3767547 1246.81720925 1201.63236943 1160.83080396 1107.76555361 1042.82763471 997.425996753 959.576059634 889.209823475 861.066390166 836.717141888 815.141044332 768.500709623 750.612908148 734.326274261 719.397878328 681.274916785 672.355250252 657.801738403 650.245208703 644.415159067 640.578172186 638.942423108 639.544005278 642.15018862 646.229086359 620.819624459 627.525894569 637.937309332 641.103232503 642.772620296 643.289982652 646.65898276 646.441438964 646.289734424 657.225178398 657.695814626 658.399577206 659.276280846 667.110195268 652.098237596 653.506719234 654.91534347 656.401366518 658.074741035 660.020978106 669.627353094 671.284564255 672.904792161 683.324264609 681.786231128 683.352988915 685.673922401 689.047867836 695.218229811 701.253458312 708.137149454 718.304038798 724.651075689 729.86666924 733.370446487 735.006132716 735.400452977 735.908181288 737.996368168 754.178130747 764.09709337 789.999949062 799.443464504 806.609592788 812.125858861 816.66375011 820.643353997 824.108351059 826.972419414 827.866326199 831.339892588 827.711742077 822.709355923 817.56828171 813.423849604 812.836188333 814.081427763 815.614914668 815.995326481 805.254193039 803.303208565 790.719516898 783.073692353 774.601646746 765.209102187 734.561911171 723.52081173 696.884536094 684.35076362 670.913360324 656.05269054 625.109759424 608.037426295 582.677048812 571.08761176 564.049890471 562.016032368 561.90418412 561.603785788 559.118003757 541.926022241 533.93400094 514.046688081 508.200581906 505.792835949 507.367625383 512.550773507 519.221592156 523.917326766 522.45625562 513.735908006 495.265679575 477.758343379 448.793359232 446.213079157 435.95198555 430.618007276 426.760024297 424.725635212 415.497691505 415.643214957 458.924390989 463.565011497 468.968426241 481.812866675 489.495310818 497.828438605 536.203123876 546.034490963 556.495154589 567.65625605 628.77341158 638.18844807 623.505425843 694.755575505 694.39020764 689.70218376 685.865672761 674.413081462 668.326916407 675.789765304 701.763314838 736.07139251 773.613529543 807.191199482 818.056714907 833.629805125 840.701030797 841.438423634 839.853131362 840.608044886 885.29247813 894.457274604 936.544345606 931.907973292 906.926609411 864.453540765 823.824587942 813.200786597 844.752312796 923.544718381 991.159909691 1044.32104562 1080.79422986 1109.10979489 1234.43853949 1274.1355811
4105.79501351 4109.21126184 4117.04042244 4131.89849438 4098.82835574 4153.923306 4217.71450273 4271.35233433 4284.9508951 4237.12368503 4136.42081665 4014.5340198 3904.15767374 3827.56016898 3795.21991712 3755.91536523 3794.11844315 3800.43717279 3695.08129748 3572.42082747 3331.63797491 3138.51266244 2958.90751772 2821.05427282 2702.72134961 2550.13318823 2342.51085726 2244.99521312 2152.52423795 2062.56584782 1971.95339561 1804.73424309 1716.60729486 1613.1306593 1537.77864598 1483.52267065 1460.16258486 1463.56485657 1476.13890956 1481.33352671 1399.22834859 1366.39514368 1332.4870769 1259.63117309 1240.90190391 1231.60280815 1228.00751617 1209.24563432 1192.31257861 1137.47358348 1088.54389917 1028.42161149 979.892350596 951.916539227 874.185516002 854.833717588 830.296843602 808.672884245 789.137305175 744.226814613 727.619199397 712.32296306 698.092345739 661.75241816 651.002112692 637.975422376 629.830551723 623.182876205 618.455610375 616.040893718 616.141074111 618.630699035 610.964780263 599.044957762 606.225111509 618.300974407 622.925755276 626.29372856 700.087402574 704.289859294 707.663394968 635.978611197 648.6809481 649.825574684 651.016911163 652.258144328 643.80717243 645.518222457 647.330460079 649.314573441 651.582637595 654.254508762 657.393768192 660.922114803 670.304644072 672.587567053 674.072810412 679.951635583 681.02835874 682.769780696 685.657577054 691.429382331 697.471880287 704.556742822 712.142821754 719.527590611 727.764282766 731.832393227 737.155776656 738.037378294 740.659230549 746.344599206 754.238019564 769.191875536 795.098756909 803.341884149 809.239126765 813.686309671 817.620554611 821.568985122 825.461055328 828.890166614 830.265346988 829.574123721 829.847534842 823.702887882 817.199817364 812.431420547 811.796947051 813.836924705 817.896178631 813.666402165 810.506375927 805.352473728 792.78449842 785.163917409 776.704941158 767.255395091 736.896035153 725.770110843 699.521426782 687.555580487 675.29212261 662.235575368 633.251711938 617.890572476 601.843523899 587.522859759 571.535511394 567.324164233 564.953022724 551.50565178 544.468846265 535.986656979 527.069709946 518.785638953 498.754438437 495.514653002 496.158462541 499.932524203 504.94336604 507.454642747 504.506970997 490.221445927 464.625273853 444.272186734 425.868133378 410.879611345 414.969078884 409.977386937 406.954114486 398.292443644 396.662783749 397.333502712 442.192134045 447.319111812 453.133566648 466.265703315 474.265821492 482.842145673 496.169107628 531.303052005 542.048949601 553.691780378 616.938289378 627.5845791 675.39691948 687.543652664 688.42190747 683.924578281 680.876203973 664.810432561 655.031230114 660.214236332 683.847963738 726.831210138 770.363159087 808.183401605 834.852200713 848.454088111 849.732509059 848.936435697 837.642240433 862.127075502 866.169375529 900.970141745 927.208785183 941.088074284 943.926739198 928.429015234 893.457885291 886.221216892 918.54299613 973.36019594 1024.63972261 1059.97833728 1156.23592552 1182.4790036 1216.55611465 1260.05802616
4217.29943621 4217.9105536 4217.48154599 4217.56560536 4220.93594692 4230.83604544 4222.52643457 4254.72217527 4259.97959997 4219.54704977 4134.30064314 4027.84101697 3929.6812129 3863.94691852 3845.43911436 3874.36518883 3909.23602747 3937.95458042 3874.16431016 3715.45081773 3511.92366169 3311.12380207 3101.07595123 2945.57000679 2811.43761217 2586.23361082 2474.61135042 2251.90829545 2152.90487938 2057.61322639 1923.2255525 1756.51218335 1679.52189172 1607.96224443 1552.85559945 1507.25056175 1484.47963337 1480.24518189 1482.13024007 1478.64871422 1359.24163653 1322.25805688 1286.23481218 1254.32742543 1214.63940958 1197.37667821 1160.68061893 1130.5990386 1104.53105744 1066.17302213 1020.087892 957.653807521 911.999452296 856.750881976 830.097573373 817.251740567 797.440079818 779.178322055 735.775721952 719.433890509 704.294050177 690.180367568 653.775300281 642.63419786 631.914770626 621.612024021 609.411895737 601.604760023 595.638220887 592.19633102 591.739165431 581.157000582 571.142852004 578.738224218 586.590407915 600.161336639 606.177162322 600.430557339 693.164156063 698.985852017 703.654050181 707.253179557 709.851344972 621.101175868 715.979586659 627.826802198 711.765317382 639.110572378 641.352980143 643.934633937 647.018225965 650.760457434 655.235523386 660.31879277 670.409079709 673.505583275 675.632530305 679.407642369 679.784119388 680.6125234 682.647828929 687.674474784 693.408313798 700.403626653 708.052731922 715.619496976 732.67763334 736.250065706 738.677981018 741.039996143 744.923917333 751.574058421 759.852123712 769.265094434 794.592376218 806.970413167 810.884945754 813.781131011 816.98093361 821.135029653 825.945278226 830.535546699 832.991480624 832.949056868 830.102637393 827.374947938 820.334592462 815.149477736 814.163893007 816.775716337 820.448626072 815.490403551 812.103070318 806.681542732 794.119511987 786.695615514 778.491220071 769.188517413 758.575043913 720.960804531 702.51808564 691.212877453 680.426101559 669.671267223 657.949022498 630.613739908 615.775631157 601.416961115 589.836781713 572.824006239 556.221018216 548.592103015 538.286985515 528.608238992 506.826514962 496.890995928 489.02437763 483.886428493 481.031094565 481.610778686 482.80108044 465.387290467 459.4472404 449.090070311 431.161650337 412.903802984 396.972326826 384.524588704 374.309019343 368.95988227 378.740427261 377.139953976 377.587292777 378.91498232 425.140213695 430.768389032 419.519908256 450.339029505 458.596980756 467.309246333 480.532694837 530.093290394 526.005367385 537.757915056 602.622875867 654.191365947 664.987153476 679.719951287 683.614835974 681.655082315 680.131203196 664.324541366 654.321560814 659.583829918 684.727641836 730.306191836 776.395731934 815.631879208 841.719213812 852.047434414 846.7724983 834.707899923 810.845644408 812.757822835 816.448829454 871.397599276 924.491379041 964.231857018 977.949872273 991.547689619 977.515045551 977.931792983 1000.17914844 1032.72378613 1057.55871731 1124.78209836 1130.23548367 1144.6287545 1181.02627687 1234.97405406
4337.18722118 4336.56114642 4329.16843936 4315.26231027 4297.32847259 4280.07704044 4264.39281412 4228.33126145 4219.90895091 4182.71906786 4113.50818206 4025.84295824 3942.2346462 3885.17252321 3871.29924207 3903.81702129 3957.99458992 3989.60689792 3929.82720767 3771.64309366 3566.76680412 3362.79712751 3150.08943479 2988.10258929 2847.20035955 2596.78281611 2478.36202258 2334.89339243 2101.34467439 2004.53578305 1823.3330849 1745.1003042 1673.38794708 1610.30317736 1558.84356895 1516.81844895 1494.22195351 1493.05194081 1459.6791951 1406.69992137 1352.63430977 1317.10211438 1262.44350178 1228.63894596 1198.03298627 1129.2084403 1088.27469668 1060.31222021 1024.73501815 981.766714745 936.370704336 864.756665071 832.37205106 784.284529017 784.137947128 757.73366942 763.973590373 731.305743192 709.018739173 694.488334089 680.901674142 668.166595581 634.780313677 624.296781955 613.696140801 602.888747355 589.618932893 580.336459779 572.789284806 568.0919661 556.247016077 559.441734797 552.259148691 560.357916738 569.040039059 572.964260867 580.122057915 586.216755766 686.643249093 694.079107275 700.013141449 704.577909529 699.295177291 701.826887625 703.33944708 712.827092492 711.066914537 708.632685789 820.158172068 638.518642913 642.352819791 647.124249523 652.951449654 659.698699653 670.614897514 675.145983293 678.188299897 680.114035548 679.655132102 679.286795563 679.051994115 684.116243852 689.239513682 695.881861261 703.385874193 711.010152077 731.130474037 736.099800958 740.221612224 744.616142337 749.822081115 767.033339483 776.688016632 786.565314244 799.848775863 804.606676715 807.037249886 811.642276603 814.141052391 818.976176729 825.426882753 831.940378711 836.18895232 837.507326843 838.428511497 837.101076481 827.637675183 822.752173659 821.348672836 823.014142125 819.61211885 817.711597918 813.215750013 806.981427801 794.431973064 787.414132306 779.818383695 770.966368353 760.395457932 723.396405264 705.474408588 694.711270408 685.51602176 677.376680969 668.770109865 645.113223509 630.795179785 615.3281201 601.145287619 576.770517219 554.05821675 531.056878635 519.48715781 506.564628555 496.64130863 485.802662292 476.58871715 469.341052213 464.012299296 446.578752463 443.858119446 426.900844921 406.632145281 396.181719225 379.207073024 362.81212711 349.25817844 354.988763661 348.377900293 346.101239245 336.514677 356.980492449 358.518446849 360.557244068 389.752834276 396.100748345 403.08513908 413.245521897 442.512515052 451.252392074 464.146752005 472.931990386 523.305867484 534.242625529 563.393704061 637.656347377 647.377714559 669.544688192 678.36084871 684.048084782 679.712550196 674.490845756 670.38650525 677.527576464 702.823351839 770.866060763 824.023560179 867.774763543 894.010550313 898.644220071 880.673463662 847.581936803 798.603618097 767.724082805 769.636093833 828.000006012 909.743122678 976.382756107 1013.45494939 1053.33439592 1056.9192299 1062.40546463 1073.5639054 1148.29413566 1133.77254646 1099.2549184 1072.89182059 1079.39063021 1128.35362904 1202.66553921
4469.92436132 4472.58955583 4463.20953432 4440.31121762 4405.70082759 4358.02778633 4318.9049189 4286.53232739 4205.98480208 4163.08892908 4100.623325 4024.77786977 3950.66928743 3896.3405735 3876.74341642 3885.48821911 3929.6779823 3939.75066209 3882.13859462 3738.47293481 3551.27255482 3361.57815181 3188.81168101 3002.85480904 2726.0923507 2554.76417398 2431.56642888 2316.3773969 2091.28491166 1992.48352147 1809.44513154 1731.59837407 1662.30736811 1603.47412519 1556.77034408 1494.31199071 1471.31809974 1453.19499024 1444.37231115 1357.08975603 1326.57238776 1292.08607048 1255.39724306 1218.08378918 1090.09984898 1057.91419879 1031.81677149 992.611018271 947.256024053 897.904240373 851.009965019 786.937143032 764.298940951 732.10159563 722.699518733 722.222905879 716.908719893 703.39788413 688.951045225 669.621427953 620.091987585 610.196111191 616.63179163 607.101111721 596.842987976 585.619884635 573.691552935 560.229123395 550.80436726 544.653098065 535.532291534 538.991562767 535.466818531 544.305070798 540.272138736 548.255925668 633.785685289 646.459413754 657.223575455 666.201247201 673.55565717 892.186325632 904.232039642 701.247601036 702.914492424 928.048121005 923.011577185 914.271721572 826.761189301 816.799768692 803.555506215 642.733727557 650.915938069 658.995535819 667.474275635 674.979863252 680.515693401 681.127145312 679.669063139 677.675726015 676.83753179 689.903349896 684.978954102 691.108175432 698.355395989 718.717307358 726.260133477 732.986579809 736.125259467 747.725863087 754.46096563 774.488082629 783.79427762 792.660896479 799.576153823 806.381238962 806.262716474 805.850288619 807.693730255 814.512167365 822.834782291 831.467657874 837.770671381 846.598357473 846.267103009 841.194226664 837.751543494 834.581859153 827.350254907 826.208974509 824.380734714 820.048091058 813.327166481 800.114694744 793.082950281 786.79934725 780.410785592 772.545383218 762.242451115 725.905923579 708.092206242 697.549806171 689.903085268 684.610877756 679.272384676 663.364865133 648.895581402 631.450937182 597.135530097 579.885091525 537.164176769 522.957580111 509.522737562 495.278318307 485.058374263 473.227690714 462.572234611 453.096755105 427.487332653 420.461962153 398.266092808 374.71970223 362.135223058 351.269677428 335.822569258 323.174466355 314.647475597 309.672543135 291.299002782 304.911665731 316.295896599 317.225748445 339.802919115 342.47367326 372.435399441 379.189397988 386.543145387 396.991221232 404.906561259 429.778545707 447.108045243 455.079387172 463.412816985 503.766400904 541.382758882 600.700205295 627.255314226 646.575875162 663.015637497 675.271131314 693.554906159 692.533674444 693.605703067 723.585022791 734.146491393 807.822559639 854.924657572 893.353109518 915.141477888 915.423246236 891.909007728 850.262779425 800.066972853 742.93684241 743.742626032 815.942375735 917.058073312 1000.91664383 1053.12134759 1110.78457561 1124.99959953 1131.78555326 1211.49846658 1188.34341 1135.55694462 1057.39244123 996.865074896 1001.84546745 1074.40798806 1176.68454903
4617.84860488 4630.78192742 4627.36785558 4599.64882326 4549.25841293 4488.73062624 4424.17060762 4364.05806458 4309.37008979 4254.10463372 4109.92843553 4034.68208385 3961.49024572 3902.92779992 3851.86373851 3848.87065515 3854.48066921 3851.40005802 3796.65448042 3684.40368032 3537.69508926 3365.6176858 3102.1770203 2954.40963546 2780.35813334 2547.34037858 2425.39515927 2292.6949957 2179.19224828 2069.90650216 1792.87756339 1712.68931144 1641.48347994 1546.79554475 1501.44303578 1468.24593795 1444.44431241 1425.6791792 1407.42263303 1327.58193789 1298.52537356 1264.83945509 1189.48136547 1151.91473354 1051.52075327 1012.9558695 971.258003345 931.935895687 877.586100803 820.957303666 746.510649132 694.646437679 681.73278982 677.849465256 680.138963461 675.081993291 688.713942276 676.856738685 634.555162064 621.758918642 610.608791266 591.840577366 575.100221005 567.238530062 581.814467365 570.46630046 557.495068433 564.221608643 530.963597151 518.17633269 516.8350011 543.046096714 558.710345334 573.395008562 530.089100983 609.532841757 626.470007803 641.040964056 653.310926972 663.480635229 671.762774154 901.048240045 914.565706715 924.579832802 938.952259001 940.833935418 935.483308022 926.0532585 912.411222973 894.382367252 871.774689593 785.303306651 640.52022613 650.584120376 661.593459192 673.083661092 679.767039381 680.585880818 680.60683694 680.559583928 682.05620222 687.069093633 693.945116469 700.967318751 708.516592753 715.126360515 723.573722343 727.965379187 735.582772799 743.312966723 752.786789498 780.799397246 789.852941824 797.775715865 803.155527433 805.039884105 804.812972789 802.615229262 804.593246636 811.975410631 822.854062529 834.096080727 842.739303958 851.713237029 853.438668208 852.231083392 849.460085963 847.329112617 838.485138434 834.953193809 830.383093219 822.391073849 812.132505845 801.710447777 789.039688332 783.997148446 779.805068994 773.844280986 764.289581745 739.276884768 703.88897702 699.478508098 693.154116772 690.821817098 685.111160578 677.621978843 661.884976852 641.308114523 604.928663418 556.857513593 536.755035167 499.156195219 482.624269481 482.603844816 469.541918881 459.40076474 447.428681921 399.539759841 390.677507404 381.126339797 367.241149683 337.726662059 321.783021448 304.880772725 294.465226722 284.94015878 281.307900366 268.930270561 269.6633287 270.063504227 279.786711012 280.586494446 301.781214538 309.925127816 355.162054888 362.176630033 369.863005317 380.623366368 388.809150792 412.755162521 429.648940993 436.393463726 472.503561769 480.476922532 505.102805286 561.784600344 581.719619837 605.802562869 647.013508044 668.608568015 700.609264163 710.89806904 721.338565095 769.52198758 799.526242197 852.439391944 893.034640599 925.981888833 944.272530277 943.139905414 920.082843295 889.528438466 839.590871944 787.671139474 793.338776074 865.383111557 964.077718184 1046.89058961 1101.40262634 1166.72602689 1184.83527151 1284.35918229 1268.43171866 1227.77327257 1150.65924169 1043.50558588 955.590186513 962.367814623 1056.52646063 1180.48621469
4806.09371532 4834.48458797 4815.89280954 4799.58407267 4751.44318423 4671.1037478 4580.04273667 4488.11295865 4402.07487848 4320.72290213 4239.78452041 4059.0523541 3978.49221707 3887.03581447 3834.72833072 3803.30662356 3768.85723552 3736.41052149 3671.53449941 3569.92156693 3396.01200178 3257.18871371 3123.59870507 2996.82218461 2755.73725828 2630.4039032 2398.99359731 2281.50037164 2166.9157221 2054.77895673 1859.73852759 1649.08779995 1573.29829765 1508.9641554 1458.88560106 1424.13047191 1402.31594916 1387.65043224 1373.49100963 1285.06827432 1231.32835169 1197.60122295 1160.59643916 1066.10290748 1015.28659044 972.773753276 926.05991871 873.078626264 820.685620607 732.603870599 669.549259192 646.765783055 640.894354621 644.875795342 652.521086354 650.820240098 651.24102071 625.355541162 611.537769598 571.835913511 563.474713265 567.391822759 561.534675146 555.338324955 548.000432342 539.134933607 528.863852536 535.308511873 542.07766437 524.114001356 513.045806432 528.743584744 552.265087039 559.95383024 584.004830558 602.454002971 621.37878603 637.454547568 650.896699998 661.996172079 671.005799113 909.787989729 924.772457657 935.926884338 939.924888676 953.627012079 948.09914203 938.188001686 923.86682512 905.136602163 882.053347839 791.536127741 771.810054939 642.656484225 653.627165402 668.157040181 673.69490413 678.849545115 678.441660451 678.144069754 679.226391957 682.26237664 690.446851409 697.270334055 704.864924363 711.186326006 720.519172357 725.446696392 734.514269672 743.816786045 768.458172323 786.013082878 795.059501511 802.368389196 806.634421221 807.069185539 805.006840873 802.162832011 804.401229866 813.2843126 826.189971246 842.263270614 853.439643791 860.802935867 864.421330587 865.020089062 863.627659302 866.675448615 855.686420903 845.75797548 836.409386556 823.601200038 808.312804227 793.836358379 784.211206142 778.175848401 777.544576945 774.789593753 766.751957485 741.996649735 705.628124511 695.489104382 690.145069845 693.185970335 695.199779241 688.263940503 670.500429305 636.225911534 605.627500437 552.069991049 507.796585166 486.861040181 468.978858658 453.190248934 423.540113002 426.147337662 391.879714428 381.097460439 370.086903773 357.70104643 322.988534646 306.83736935 288.267052098 269.749359393 255.356850095 251.375378804 243.334586104 247.157716176 251.517658289 254.575499142 264.948740887 266.820222182 255.344787977 294.453978551 319.441512156 325.840475689 333.320226731 341.787705787 362.368509876 385.088599769 393.272736163 427.647214395 433.556388465 466.884471327 511.091167139 523.513310916 543.892025429 572.197760882 621.584680311 654.307206075 701.163261246 724.516727855 745.912231026 813.350387832 845.62235633 899.112171363 935.161436946 964.415367049 981.434451135 982.458727677 985.816673239 950.426844284 926.654650741 895.686546866 957.846613008 1028.79903425 1121.44855332 1200.32073678 1207.17120589 1239.75604759 1361.13092323 1342.16239992 1322.34694908 1279.59564127 1204.83460989 1103.10501711 1017.1570264 1022.27905031 1113.44104048 1234.41185163
4966.27787817 5021.09086463 5056.51236736 5057.54624205 4989.86460866 4894.21668975 4773.04689638 4643.85293905 4520.84188346 4407.79508396 4302.49657146 4193.70853884 4095.14899181 3887.58791593 3814.70367277 3755.21499758 3686.2086512 3624.21158605 3544.34314248 3394.95239689 3281.30306345 3168.34375712 3059.62982383 2952.75100092 2724.95179773 2607.61461112 2393.52136738 2268.08911902 2152.94751691 2037.9189167 1830.42047005 1622.16024691 1536.19245771 1461.06331646 1403.06598929 1366.84935159 1350.54615894 1344.65049228 1273.67140003 1217.97713164 1186.33722523 1149.88764516 1072.87458962 1034.83330765 982.366192044 938.547805819 890.266215253 835.328433321 750.250935839 673.775162711 637.817195356 618.313524011 616.935798954 625.09928254 634.327325337 632.509537877 607.24857859 591.695006385 564.488491603 554.577231466 547.918947156 552.655599181 549.096947722 544.860767871 560.246702705 551.702995518 539.127243843 548.845657791 524.868008681 502.463251061 496.353113029 510.016214157 537.993329568 572.193768999 574.008323515 598.800574574 618.914834883 635.87588597 650.046120953 661.771327164 898.054636889 918.444487586 934.867178902 947.18839587 951.402726539 952.481696733 960.815030689 950.551006305 935.730009724 916.580073155 893.489631598 798.871470518 780.227847061 760.987643898 747.612953279 664.79666379 668.805507906 672.899327141 673.161826234 673.363916803 674.72545107 677.863256472 678.079282871 683.763262166 700.828044895 709.129229813 740.493456276 741.966198232 751.354509249 760.908893387 770.851084586 782.018765857 799.961203813 807.323764007 811.397935086 811.635408544 810.078759061 807.723617249 810.288051099 818.771256095 834.143819525 851.8959397 863.893521106 872.441877974 877.532566538 879.645756777 879.400876749 883.597866035 878.287244162 859.54068567 844.142451635 825.886534342 804.382415192 784.335987449 772.275959526 771.092791794 773.327024555 775.678623954 760.675728829 734.947717675 716.909051227 695.796882253 690.746979139 695.128017113 698.551686009 689.670603162 665.651586517 622.425790706 586.838562102 526.842191293 499.703646224 477.709878675 459.169390703 418.09073206 403.085711792 394.975741774 359.677823735 363.733059115 351.658568706 337.819635009 300.690604171 283.151899709 263.282607939 243.857844796 229.574565682 221.757268893 224.605129909 231.208534963 237.80997805 242.353072232 252.530429528 243.547090709 244.357231108 245.137260386 286.032038799 310.298186057 318.091568239 327.201528134 327.302856934 335.232907837 363.807589278 369.737771019 411.818478663 411.939156578 468.303825363 475.545279876 494.998499371 527.708194532 570.107980305 627.610295301 784.259330589 731.794750538 765.320802345 797.428715898 888.61827202 1067.66688073 979.407243835 1007.4972872 1025.67072137 1055.18394855 1046.70684758 1028.41092176 1056.26946963 1042.92081426 1125.67184811 1170.6963231 1225.90148582 1275.14424125 1313.80171275 1397.58716439 1410.40055283 1404.92214323 1456.19145252 1414.03981196 1355.71701981 1279.80418708 1216.29506467 1220.6660706 1299.93699994 1414.96182138
5117.95487396 5204.43742093 5272.90563974 5299.80090025 5263.73521797 5136.63140101 4981.95345035 4811.96651524 4649.81557911 4503.81408474 4372.82556234 4243.20509974 4128.64417801 4021.96564039 3796.41527002 3709.99645938 3625.91345818 3537.54228926 3402.58515746 3263.22201116 3164.13374074 3074.87001522 2991.317253 2905.03216937 2693.87232652 2502.00739591 2375.38601292 2262.919934 2139.5756428 1927.82827397 1814.46775384 1599.57789955 1500.61892523 1411.14677197 1342.75223696 1305.57833878 1298.00931369 1280.66963621 1226.01294321 1198.32123497 1162.4767142 1122.27334524 1018.11487003 978.125031475 931.510224639 910.219039723 863.923011059 773.952822272 723.799889467 658.321090954 626.523804661 610.225274894 610.198505256 617.550356998 613.003178056 602.664813053 592.911772414 569.189400966 537.379982734 538.401787727 533.77458401 539.102296345 555.945118406 556.826431107 554.487154314 547.777934215 536.396672658 546.991632421 521.615120746 499.439507887 491.723269042 512.335612197 553.795838633 572.2609081 574.112591265 598.974156732 619.131695781 636.209403498 650.629654679 662.697950326 904.958420333 926.90262348 944.76018357 958.290953003 962.750548967 964.261133418 960.775322432 962.853383816 947.466626642 927.761150342 904.476951279 805.584703452 787.760590226 770.420084967 774.368622457 759.66081068 656.003610888 756.776857294 761.931887969 665.421696418 667.886134078 671.808220841 671.935738501 678.005260796 685.165733017 712.89709303 729.995326719 740.354498259 750.952198704 761.803235024 772.37047742 784.90034277 796.456479813 806.021847816 812.502824127 818.578255822 817.636510093 817.685015379 821.159776399 828.995499397 843.619529521 861.521351719 878.020086679 886.990521256 893.06948128 896.410204094 897.208264857 902.498197668 885.62344748 874.326490339 857.587513346 832.758317809 805.142973058 779.120474836 763.847952594 764.018680735 771.688980983 770.212411197 753.810257421 736.57351347 717.456451322 701.664731016 683.898616226 686.602173629 688.703104475 677.190597384 643.766368127 605.708492555 569.315894195 508.182738 481.871020733 460.72889544 442.869071744 401.601096141 386.90372001 356.248813377 344.490530482 333.246849621 317.17150721 303.954012681 270.414384852 255.682600139 247.478437741 228.692171948 215.207767111 210.534800262 214.386720983 221.7597958 228.748113944 233.340860424 225.659792037 234.018748971 234.513499963 235.039882164 271.65192578 277.02400756 279.714536033 289.01349346 313.421513224 324.150139107 332.991659119 355.682074304 382.367810175 377.153115806 371.91739364 418.777080774 435.920149685 473.620829566 526.522783799 585.948768299 778.858573008 841.426448544 780.687433515 822.330713046 933.507694469 1131.19969538 1168.92474303 1202.51628671 1217.53367073 1139.46688689 1140.5572117 1109.96237377 1164.97947009 1163.61599021 1258.8574363 1276.60269807 1298.80487931 1325.08503558 1404.8998269 1435.69446725 1448.770215 1437.82152003 1476.4476698 1436.12137245 1411.01426117 1398.3621075 1393.1316248 1413.2833665 1470.74150777 1553.73631823
5250.04780653 5367.28226111 5469.91708161 5525.25379525 5497.09636515 5378.81609264 5196.25833921 4992.68311222 4799.15841773 4626.93497806 4474.8072523 4296.82536614 4146.63981938 4020.97044718 3899.45317486 3671.57118548 3557.51768763 3380.61940238 3262.56913619 3137.01980258 3048.55071697 2982.37050222 2925.08759296 2787.00236447 2589.5072837 2483.7706656 2357.38251123 2246.42374013 2043.93043133 1899.24018839 1784.96261066 1682.74646725 1477.09675097 1372.41640599 1280.93189967 1250.62959622 1250.67801743 1258.75457011 1215.27792806 1181.61184418 1139.00420151 1093.40679639 987.678103043 947.964052335 904.059197727 821.51681003 784.896320615 745.625460219 707.706215519 666.904597985 629.788636439 616.119367713 612.232128638 611.850801417 605.274558146 590.239795905 555.814920804 538.138249449 525.992357325 516.12528465 513.451108676 539.899823206 545.604162552 549.666151919 550.113877322 545.98864939 576.222176763 555.459475832 526.095252164 520.204157187 513.620031463 533.459856363 572.579662315 618.307161618 658.546473012 694.711635445 621.457084085 637.943688172 652.255567063 755.427409032 911.354992999 934.879599774 954.248814727 1241.31094448 973.846247634 975.839080675 972.393847647 974.740034115 958.459782954 937.593265185 913.165511587 835.826412365 809.520065969 791.539392253 782.99124593 771.426595415 776.033109155 775.052061431 779.57300002 788.370762721 799.664926649 655.884497012 664.429196506 671.238309672 696.250901492 708.366058962 721.014280871 737.780263151 749.580699345 761.822240259 753.318939438 784.408210668 797.962367337 809.724026187 821.321650192 830.154675792 832.519015626 834.979683363 839.61383806 843.431550467 862.010924402 872.600829259 888.726699143 897.401528123 911.159242823 912.454891558 917.919171274 916.76881558 903.249557798 891.242426126 873.069533123 847.790496663 815.820138941 786.527961747 768.932184024 768.550594037 773.11247908 775.337367022 758.618030475 740.68107929 720.003115412 701.521931681 673.676126242 664.916939508 660.302474975 643.709105284 609.809956335 574.673317926 511.210522359 481.814125834 459.121281295 440.765045439 424.738890444 384.339479258 370.24394292 341.098752689 329.903383519 319.398622713 304.074797353 291.989691201 259.292874805 246.474834627 232.667419523 219.838152247 211.345343418 208.605757656 211.890322087 217.955071054 223.489387078 218.900596277 218.887587667 225.766578341 225.716749299 240.903345272 244.141271403 251.882201079 267.793651591 278.138478442 290.005058731 313.852281271 323.448026133 365.523845859 364.212885014 351.728223684 337.59269507 358.15338659 372.048186632 415.258536643 481.15060005 556.270368429 756.227141544 853.139687413 923.874989872 1040.8332428 1131.08872309 1179.39531043 1220.01564729 1418.96542318 1285.76037311 1200.91443459 1210.87336066 1216.03793664 1255.75104121 1253.99913331 1338.46785632 1322.06105339 1312.56892186 1360.00649119 1408.69461879 1458.43692605 1478.795367 1528.67174847 1458.3817158 1387.39737443 1375.0138521 1426.81197235 1492.92129052 1552.69845361 1614.68812234 1683.65632205
5359.65856852 5493.78359451 5617.84577342 5690.03928197 5673.01761678 5545.40395586 5340.40955588 5111.55591361 4895.81723543 4705.65820298 4539.02765706 4338.93069789 4168.3027744 4043.68046661 3902.33254943 3603.30731682 3437.11135973 3291.51956658 3149.523808 3029.01345783 2940.23928599 2895.28894767 2866.28664617 2756.6627428 2594.33652055 2467.13641341 2292.73228707 2140.31511412 2040.86660311 1905.14519911 1794.17044342 1667.39484768 1469.72002995 1338.62368385 1265.84699127 1236.24364463 1240.03038889 1248.9346109 1205.27051379 1163.15856513 1112.17738768 1000.91811747 954.82335401 877.489897859 845.890204374 805.282306014 773.560470546 739.455509109 704.062522037 673.807371932 646.860957493 619.414964547 613.547345894 607.127425317 595.149475668 562.506606505 542.789524919 526.869160801 517.412800719 516.880533121 516.904352222 528.754681141 537.263778082 543.877881654 546.828807043 545.498085861 585.111377975 597.786299563 575.572196254 562.490990094 558.895106586 575.579922103 607.091275945 643.660993031 675.261352608 704.90128787 730.808789712 710.014152665 654.259832434 758.495232422 916.612745786 941.960404956 1237.74648107 1256.14840638 1266.18212901 987.033864238 1255.63359605 1233.99361659 1203.63572562 945.194670156 917.980800216 907.995669547 806.948309576 787.249610267 783.350278198 773.570695416 776.864364712 778.927734645 785.603328611 795.334016932 806.535441994 645.769388865 647.803846781 679.823962296 683.079558877 693.984889976 716.241001511 728.891669461 743.785051394 757.478535539 771.825496612 786.422769948 802.778596512 817.745980748 830.422902715 846.419267403 852.394664014 853.209251401 858.176405628 864.243919651 882.648832821 891.341728767 900.502725133 915.931538248 923.37192833 933.135120673 936.389838558 937.355552748 928.234850792 917.425640409 900.244096725 875.651356799 845.167187819 814.136982865 794.57632261 790.52277654 786.593940442 777.763574854 765.285950255 745.658006097 722.812302063 700.741014363 661.338946607 639.448014656 624.327164895 600.652801128 558.31058744 522.170063897 471.920413121 449.360943426 432.735520593 418.86781728 380.876148844 366.787914535 353.281665056 326.07317343 315.669003388 306.357977976 292.499048921 282.320897876 251.077761342 240.775505577 230.040161495 220.35923915 213.796258632 212.116803375 213.779951944 211.822231853 212.041404217 213.786024957 212.980946835 211.380883886 230.523609171 231.2702848 233.304548018 239.89776281 254.911886607 266.667235993 280.471180159 294.268821237 337.465423794 341.950411061 350.765476066 331.812973858 317.047840887 299.701086876 313.715649333 360.558761552 444.269766647 534.452916619 751.947512051 912.090065644 1017.45425288 1096.10712258 1182.27226036 1235.44432952 1279.63946228 1495.21733205 1518.95530168 1530.45772202 1435.52294274 1289.69103411 1330.68437072 1423.79621364 1376.77423163 1313.46591903 1276.51233628 1293.80571198 1383.90444728 1474.30687592 1511.02903363 1545.75342755 1423.89217288 1287.22590288 1267.27486463 1393.88432055 1541.50606004 1647.65491991 1725.03511451 1919.25072071
5420.25333825 5544.48656164 5676.23721471 5759.4123774 5746.79349785 5618.69654593 5410.14326693 5177.47940251 4958.39566841 4764.83878933 4594.15863441 4424.16661352 4234.33370926 4054.57863151 3847.41593183 3678.00492394 3386.49548301 3216.23584577 3051.22806049 2917.23514679 2841.63440283 2822.22633919 2822.56297982 2676.9740432 2582.29046246 2393.06449634 2275.72634738 2129.26367166 2041.50939893 1923.67636978 1823.09946737 1699.90474128 1531.66340899 1360.38638459 1283.19074289 1250.09744055 1247.37392402 1219.3487836 1182.7994444 1129.3562859 1036.74438169 964.404929344 918.585797267 852.171561621 826.686336069 792.77163846 765.921822951 736.091441116 705.06789852 680.275779823 632.276849726 619.05727244 608.792262768 597.400900059 582.099333201 548.552984255 531.596139077 519.326731049 516.611521608 512.795169371 513.39950397 518.972743241 524.628778242 539.829375673 544.394360861 586.072653086 632.1909633 624.990340025 613.39323687 612.180906709 611.706704775 623.894452752 645.150287681 669.484544017 689.995765957 711.77310618 733.221482903 754.604372904 729.939340884 999.608926464 999.378377597 1218.60865383 1247.78390073 1268.46720809 1280.14224675 1283.22146765 1270.50385182 1247.75456794 1214.94701274 970.73992491 938.128825712 901.449728375 794.810344269 891.471979875 829.308583949 751.444126702 757.916989738 765.647002276 778.194825812 792.608547446 806.787888425 909.809760406 738.206141008 664.601120104 675.495051957 686.989691021 699.326535303 723.656480511 733.92116058 754.914079805 771.403914013 761.745352586 808.170847347 827.730773799 845.515592702 866.790428784 871.929333162 878.683016078 883.410828176 887.648511111 904.584604447 911.357210801 919.61334712 932.802565239 944.51988276 956.110260192 961.967302955 964.170861835 958.600182056 951.333342767 938.170733671 917.712792931 890.871610387 862.755119081 840.066337902 817.015019183 810.599909054 792.377754183 775.108319585 752.146242487 726.11137239 671.607866589 648.374843431 613.466694859 583.670075255 551.056350466 506.307229955 470.628224359 444.640518522 413.487640079 404.855381562 396.725029178 362.688044211 349.557314634 336.204236098 311.055203668 301.490699971 293.652961099 281.776742524 273.873171627 244.339738468 236.373014631 228.43237971 221.521604194 216.736282706 210.851969215 210.131579954 209.357731865 200.009486573 197.635679532 196.251021199 194.020317266 215.494594552 222.016417747 224.135405727 227.767524456 241.587955393 255.045058796 271.167484088 316.715793423 331.724548615 337.743834526 335.164276428 333.996590983 299.632238888 276.521948098 285.477745483 337.399461085 421.894145365 619.448603253 747.56089679 922.496798737 1025.01786645 1139.67917682 1212.68926961 1290.43674915 1338.4732171 1569.69743292 1598.06847407 1614.77890225 1619.37738211 1518.00334497 1542.27670048 1489.54010411 1413.00669667 1335.87368878 1212.63406702 1235.30228098 1374.68354269 1507.57287996 1562.90647301 1599.95716147 1451.54282811 1274.80585384 1247.90210743 1421.55185575 1610.79050819 1822.30707908 1917.25494272 2002.52162782
5417.04276074 5539.88191107 5653.77168317 5723.42275244 5710.72606251 5595.52026639 5399.91194104 5188.22509641 4986.40359356 4804.70999706 4640.88207723 4472.45488064 4279.41433536 4052.2474944 3885.11889286 3703.59551254 3376.61526293 3184.93291837 2998.47887548 2850.14768067 2775.6661058 2774.85512972 2766.04397551 2724.0759994 2593.43415925 2373.30890541 2250.07174015 2114.18222402 2044.51895494 1944.40710841 1860.20225972 1745.25135196 1608.49052623 1413.52768282 1324.31038328 1280.3866726 1229.74500025 1200.91523734 1154.17651715 1065.36044926 997.415553796 937.149948882 854.831187721 829.003231438 811.26111784 785.008670637 761.537203257 733.61686193 704.243726747 676.929603535 625.664453358 611.957406499 598.003924693 583.533280713 550.149109748 534.654065198 521.638337404 513.636642538 515.558680332 513.139582431 513.311645749 517.955202741 522.25621733 526.279491034 626.843147581 641.857975873 650.262841806 651.535445493 648.830347217 657.091506147 657.792643814 664.160342717 674.097931996 825.549456647 847.251933716 708.950679715 727.756266323 749.777571164 959.310794816 996.848594086 1256.05644901 1299.29422575 1333.01363444 1531.11124489 1550.39366594 1281.92916712 1538.11947921 1506.5838061 1459.64420014 1194.97023053 1136.67089783 880.322283255 836.287197062 849.027487466 780.830202649 767.419196751 784.432492374 809.448463212 840.109018771 871.052496019 898.053717907 912.032986932 733.920387926 744.666445773 666.902904171 678.793911294 691.544846212 705.56738051 722.579477162 739.25862511 758.187024713 761.939471935 787.512380764 839.170893322 863.808340099 884.167196784 900.320317128 908.474468947 911.488714683 912.456984439 926.371159065 931.41685769 939.296976878 953.268234371 960.171133387 975.714547534 982.794036676 994.237202751 1000.04888932 992.780862559 986.812230951 973.622283841 952.423482136 926.206006793 900.976057841 870.576889194 840.613365179 815.761805069 788.548317889 760.608424236 730.412681282 667.414868197 637.126138104 587.233029578 550.629683334 501.5938003 456.506444522 416.795990583 394.907981977 389.648782388 378.240874626 376.408652299 346.302294623 333.210846102 303.328477441 291.658751185 287.199210599 281.021515612 271.529456156 265.883813213 238.151772769 231.735644115 225.623310284 220.436462138 216.615206335 200.352011573 199.974490297 196.241884174 193.750824829 192.050565787 191.909138779 191.722251292 195.383803685 210.384634424 210.277779965 216.958993916 229.319995639 244.445093837 262.83900621 309.734346644 328.288565226 337.565046872 337.755423006 340.364198214 307.846987844 285.962224106 297.353433585 351.117561881 438.184478685 647.150134993 874.261102799 960.638864045 1067.03898787 1327.96725581 1262.80069377 1514.34426191 1574.0339965 1623.24469315 1854.50512098 1872.41763165 1766.58087498 1760.13651226 1764.00505647 1698.24481355 1574.50308493 1423.01798384 1295.35635317 1310.28078674 1453.18992611 1589.1198262 1650.76505454 1716.78196606 1601.56921813 1471.31225919 1504.62341787 1654.29407818 1795.92680601 1876.27411788 1954.88999058 2051.74782572
5380.1083588 5478.80627074 5565.99990548 5613.53409426 5596.34569318 5506.09287087 5344.86255026 5176.40269727 5011.16929489 4856.57404155 4686.21276106 4541.86092127 4334.82399121 4104.88816703 3936.79771178 3750.03397908 3410.72261512 3205.81093217 3005.91725895 2848.18803389 2770.80261729 2770.98691756 2790.36626487 2712.57714007 2542.11909023 2308.54389615 2183.25935297 2099.46529361 2029.21993439 1991.35533687 1921.36029987 1812.14645429 1677.09387575 1470.56018618 1375.44967736 1279.29022951 1216.65453748 1172.28833724 1116.03725438 1022.68525736 954.790083496 896.465444576 826.442864191 810.733534118 803.136730179 783.762523911 760.39579941 730.916941928 700.162769026 671.870673201 615.266377047 599.265268326 582.646452558 566.647254608 532.556410702 519.726292017 510.171902306 517.402013925 513.990469855 512.703395963 512.223282578 517.338830146 519.783935074 555.048599255 636.703451037 655.949470395 667.515621618 675.02073261 675.110968698 676.26255409 691.005979738 689.34096506 823.90676505 817.718727537 819.140504307 837.565370035 869.403305897 919.222801158 1150.44898287 1180.42149909 1246.26098083 1521.81154933 1570.52163352 1605.1692815 1625.20690865 1544.03977634 1531.68786709 1672.90501792 1622.65173459 1413.7649597 1270.20871346 1168.80151799 981.800307672 846.331470831 784.096817283 761.367274796 790.478044606 756.075026258 806.923682163 854.036151301 885.560385936 910.263576684 728.68010771 739.759975878 657.311678535 669.269450316 682.108116735 692.072923083 707.817922748 731.967384769 753.168732293 778.236352627 791.871288034 826.712304642 883.462264103 913.707287116 933.716360326 942.438885543 941.589017892 937.285743469 946.664654266 950.497070103 958.992371204 965.363415698 982.274559658 993.132710233 1010.66438715 1029.04625136 1037.54713717 1046.29823162 1045.17041742 1042.41351568 1027.96798238 1001.84427117 955.270369184 920.535603996 873.68139694 840.276692323 806.052080518 770.981769855 736.209130503 651.422010353 616.508797816 571.873690032 526.573959915 467.59550074 412.983362686 368.280906349 348.198356048 353.367598907 349.66616959 350.180859291 336.90795342 322.424247641 289.14205993 277.271004784 269.350630799 264.668740716 261.968220851 244.387705199 238.17607999 226.280163425 207.986622916 204.447477628 188.350756753 192.14585191 192.111456267 188.06688544 186.295032959 185.766221843 184.958021398 189.457310225 195.687997486 207.4801058 206.90316182 208.990251666 220.593608945 236.713952289 256.623072432 295.330289022 317.432125414 407.2837307 401.761160557 380.151084105 341.297259811 328.516554448 349.516418975 402.670368322 486.057175471 707.168382797 938.760678164 1061.73544976 1117.00648162 1382.21102497 1650.86182426 1732.33777091 1630.16410023 1683.6916144 1929.01547125 1952.7371482 1961.83328276 2025.62833017 2011.76096481 1939.86582042 1840.63837504 1709.64067649 1586.64094634 1603.73065582 1720.52351747 1843.66507417 1910.01428564 2013.82435233 1938.98881957 1857.42372876 1838.76207283 1862.33943613 1893.48504437 1879.15407812 1997.35869224 2186.71022661
5327.07996755 5398.03870369 5455.69527884 5479.99023552 5459.83548223 5390.92076335 5287.58614378 5144.62346904 5014.02653364 4884.43688922 4708.01826302 4574.89512059 4440.52922874 4204.41884645 4045.12240651 3863.51430342 3605.19135148 3287.65210679 3082.97141356 2920.21652888 2832.31961655 2811.70259465 2804.21053841 2641.86879768 2507.56394384 2326.56211586 2150.55156857 2063.61927165 2048.29211878 2035.54977589 1980.37645007 1872.44595845 1736.1759195 1573.30611267 1462.07059802 1250.44149638 1190.18918308 1131.76808506 1068.25958652 979.192648352 915.18088592 830.070785225 810.646160562 806.116361542 803.560402585 788.12552806 760.36357419 725.854382275 691.429085353 660.739664452 596.637466555 581.875791747 563.517446297 514.681409217 501.592889137 501.983662926 471.314504971 508.569582011 506.843995292 506.189816768 505.520469399 495.839235614 493.25459102 557.442078371 647.175828162 660.782700145 677.409143563 689.253865469 698.400637602 700.378894384 697.032600891 841.224603826 809.991290323 773.072397362 751.949053805 761.875058452 810.919965169 879.769917134 1111.55017436 1386.62892899 1433.5472194 1501.1880965 1553.89024621 1591.82550949 1613.9802983 1538.29688118 1692.43729649 1664.78523147 1616.75374339 1407.73823003 1450.57223432 1215.80847968 919.886313191 786.931464073 665.360905444 634.315692368 677.657246162 765.394975565 865.283552329 835.574261703 878.43060905 707.788102829 722.982705324 733.643914598 616.510750706 658.25353155 670.766341787 676.869390006 696.091956861 721.095661582 744.052633764 772.7040253 807.914461454 850.054229303 898.363563335 939.758768777 970.256498056 978.643905494 971.427617698 959.855924112 956.743223035 963.739836626 973.341494417 986.835337522 1006.37108765 1019.0138612 1036.46595499 1058.48566612 1075.98945329 1095.56041657 1116.97054492 1122.80115872 1116.26542739 1083.46267062 1027.78327119 966.654953868 911.052330441 857.713667259 816.443908415 773.865750102 713.733851775 652.77304796 614.61368672 572.230097483 515.488616847 449.535344958 387.06741893 335.971836522 317.068169569 325.849309422 337.828593899 340.261101368 317.158422159 292.329976612 276.786861642 264.326447565 257.859943579 250.631519302 247.64608048 239.853348445 233.265073079 206.850730128 201.030406535 180.521216425 178.130822303 176.195987053 180.344937814 178.643877555 177.742439645 172.21184166 179.237630205 185.727198087 194.173354668 202.037442597 206.194217808 207.387294883 214.232831365 227.175885312 241.168304155 293.392579828 318.008207816 337.261566348 428.791349828 422.50100389 440.109567787 436.871985801 468.754578987 479.358783845 556.860698909 895.725828323 1021.48880161 1131.50103105 1225.12049111 1382.51069977 1696.94180668 1779.55329804 1853.11229936 1916.33949747 1994.31411282 2024.01638323 2040.83349162 2109.35235259 2105.83834324 2063.43736677 2016.99837165 2041.52025814 2007.27234324 1989.56349403 1952.93102518 2031.88276788 2215.57551549 2228.78094022 2305.58870895 2238.25595502 2161.77314904 2042.02894271 1795.70708959 1700.90080269 1912.17120991 2201.76669785
5275.98997991 5323.93871561 5360.72744232 5371.80546426 5353.68540445 5306.48066564 5237.39022791 5120.3070857 5020.06508861 4912.45808209 4799.84854558 4631.50195412 4511.13716065 4294.68953368 4154.0299896 3990.07835846 3793.84629158 3448.6972358 3238.7537845 3064.05675166 2951.13716659 2891.32879334 2800.42026256 2664.6014926 2444.15473476 2291.05499142 2100.1571445 2057.64987392 2061.32866026 2061.62426483 2008.6428877 1898.02127515 1761.02144293 1596.53707388 1404.34540608 1208.11086089 1133.12217162 1093.27758542 989.90699289 927.863171441 881.704506647 809.119555359 802.185058574 807.61926264 808.292997418 789.643111427 754.570731286 713.873807968 675.571024795 593.452245463 537.434979076 515.547940078 504.96703433 489.719783383 477.145826445 449.911075468 446.510975842 465.21646993 467.236295171 468.819201875 469.063237092 468.564439823 480.209768216 556.744171541 647.439347851 670.117316945 689.786180937 705.017372582 717.006335781 718.76155183 710.51017963 829.643876834 937.716029396 813.690909145 733.390270771 662.066444275 735.963452725 835.866612493 1223.61022924 1346.30367397 1437.93589429 1471.25925547 1527.79540677 1569.64955595 1593.44792595 1599.66870087 1668.47027879 1644.79048922 1604.65894321 1558.98579186 1442.15749611 1194.31413838 875.927437625 702.256264239 582.313927501 515.282158515 575.65286142 698.962935404 832.006149403 816.923976161 874.308761117 702.836570086 716.91019711 725.95999942 605.465069938 613.913517306 649.351431277 662.336512345 680.918336802 705.585142429 729.095458522 760.253193705 800.908535485 851.361382223 911.515055622 964.762624961 1002.75262398 1010.21921649 995.401331747 974.397658527 973.550989087 978.427717514 992.816445801 1011.31678506 1034.13792427 1047.76708299 1064.94344863 1087.44625093 1108.4884419 1141.14987296 1183.0299555 1211.4521546 1210.66861008 1174.07657823 1093.17547801 1018.63599555 944.828561633 878.563023613 829.336743281 765.580231571 719.989083796 652.625215225 614.718911194 563.793314943 513.834234546 454.162468194 388.374903668 335.740288872 316.42242587 324.510239403 327.691540621 323.54717244 309.087097818 289.511531489 259.291066214 247.102337632 248.263678828 246.598919708 244.523816602 225.892744087 212.079492464 187.045694265 179.787815937 170.777738901 167.274649027 164.740301707 162.21260701 168.183147008 160.314237546 162.953339641 168.027011033 178.774020241 188.217684063 193.929972205 205.799384653 206.704756729 210.060255288 224.089456581 239.997185028 259.540758474 320.011392951 343.369251907 459.28615774 469.255763714 516.186703153 531.54822964 668.134629642 647.272643047 730.480224986 1004.90709332 1110.42909517 1203.70941967 1284.62720727 1429.75405292 1681.18271859 1813.64335994 1891.6987922 1959.99416223 2016.59217786 2081.82350546 2165.03125007 2200.2055291 2177.74373689 2144.92698924 2112.29479898 2144.95343588 2167.96118631 2190.46261038 2274.58616697 2508.71592775 2575.75728063 2570.27573332 2543.55197022 2486.61904874 2388.20523748 2214.84281095 1892.08704054 1766.29761877 2009.52488129 2327.10878641
5238.45435158 5270.10552084 5291.59161411 5298.56454025 5288.5716978 5262.11056336 5220.96796557 5134.93838576 5056.50321554 4962.38719746 4858.09358049 4700.17241803 4594.396758 4407.02480322 4295.05128085 4158.32127929 3981.85549361 3767.96092358 3423.20080738 3229.60442817 3082.20336586 2908.5231979 2803.80355529 2679.93822512 2411.16775187 2265.69295409 2079.3559163 2044.85166681 2049.87737418 2045.74333342 1987.91530999 1877.46278753 1679.94978247 1540.68041814 1270.72123564 1171.47614377 1089.93983725 1018.21997391 952.618542907 885.663034697 792.962333311 785.821917068 787.61605501 794.336804199 794.277883509 766.176731778 720.480992035 661.393909713 615.84226076 538.698966787 509.357549808 487.128652806 462.251098307 462.002750483 449.596067832 421.963736062 441.677900526 441.172126544 441.486871337 442.181294555 443.323070231 445.650540817 462.355630736 530.278133858 649.385336556 675.245579469 698.419901135 717.137212068 729.531773922 732.079931057 886.387046321 830.529555468 887.529034182 701.885545159 574.385159256 582.578906063 719.302414267 898.198733326 1186.75993007 1306.54269853 1388.12115683 1458.02055695 1487.44669977 1536.21789691 1561.01286308 1562.0952312 1621.71609438 1601.97410105 1599.08393419 1551.05732831 1454.40991917 1212.23158233 993.046223897 716.582788443 525.52810046 464.045812296 535.79329133 680.11167219 829.070180971 944.281723241 866.975040193 889.650009319 709.608337572 715.60835724 593.222333509 600.81289278 633.59809193 645.224842778 662.018739833 675.427017062 706.584693148 729.28617398 774.07129806 832.680611693 902.390960196 972.331817919 1016.27793534 1023.66914612 1003.69056799 980.414885851 981.024267293 992.29377428 1015.31519459 1041.80796976 1068.82859993 1081.94776105 1094.93475821 1105.07355432 1135.56687403 1178.5227311 1238.51654302 1292.35112019 1306.81054368 1253.82202396 1156.55053351 1048.88743992 955.343534471 887.194872462 833.128003959 772.141537915 730.363155715 661.246051416 626.245722402 580.032542878 534.558492689 479.417362237 419.208146816 364.444036186 343.65428008 333.906912744 326.293941911 315.256444661 297.312870089 272.744447705 247.480188166 245.991485544 248.227973714 245.956997457 231.371937823 214.008877432 197.862824018 179.428937645 166.541175421 160.188290715 155.846476261 152.821008277 150.095943864 147.699425275 148.679793804 151.564394689 148.054124997 157.508722782 168.841692334 179.269899564 202.218699804 204.873637526 205.940797302 213.300042931 239.389112994 258.470950562 322.529091143 349.336849335 489.379762763 513.750353042 563.707898711 637.490298426 790.981571098 864.897515631 955.13915661 1086.2582648 1193.15270274 1268.88901758 1335.44780822 1713.04516212 1701.80288388 1926.9248017 1915.92624218 1989.44298018 2048.70819132 2110.79998004 2198.5521684 2343.75707776 2317.58436029 2250.38500655 2119.21877477 2089.94934546 2167.51194779 2373.01547032 2555.16597984 2678.36001209 2746.54034569 2771.24314145 2738.58286643 2688.05012877 2635.20786205 2519.87442308 2337.68305233 2243.56093785 2375.13425624 2701.52122259
5214.46977936 5240.44032896 5259.85061509 5271.65833952 5275.7038568 5271.55213797 5255.88171783 5221.52220882 5131.36496585 5038.7160956 4931.09338067 4777.24509332 4684.82905038 4613.31107077 4466.1682553 4366.27285678 4209.68495339 3996.36523296 3690.53257668 3457.0790057 3146.71457894 2970.40481443 2721.17254284 2574.46581907 2425.06578481 2234.38532064 2041.56638116 2009.30247788 1998.33154397 1976.87421061 1912.58091538 1750.73145615 1616.03986626 1489.94742744 1323.73506714 1118.69172533 1037.52457113 966.611211463 903.725944481 849.832148757 723.806924233 718.36310308 735.091470493 748.631109036 731.192939038 699.726275506 651.367973212 617.066187065 576.343356941 492.613162054 437.242016114 414.879040379 397.956302293 392.229439917 382.362263937 405.049094578 416.331967332 413.87932995 411.92670087 411.115427643 412.708007867 417.951944886 494.871702085 516.459616571 643.77931377 674.717763874 702.207568825 724.970386291 741.498477866 747.604316691 911.41500915 859.706339105 899.294241246 680.995788054 525.592368843 543.746388798 714.46922886 1004.74124312 1174.86493587 1255.9251282 1307.88150431 1374.58824723 1455.86400263 1490.84826779 1515.55279924 1630.00774612 1593.0100423 1535.18745055 1534.37728488 1531.61481241 1483.65092609 1277.42252752 1080.01704919 806.786858449 616.882640267 553.071731157 637.632204815 740.853990142 878.433075429 970.275911708 1016.67203533 1027.36691874 867.325374523 689.078739287 690.893924162 586.155393703 590.205493352 625.962486118 627.695887953 640.400895329 658.438619847 695.314959244 739.709169042 800.697645328 887.236202226 946.719174422 994.469552455 1005.32025982 990.826063303 974.139442382 984.306151554 1007.06673139 1043.53316846 1082.37399259 1111.02788701 1121.29759909 1127.36412061 1126.80323569 1151.33928401 1197.0079737 1269.78157245 1341.62124357 1363.68533816 1301.562772 1181.36575323 1063.61775784 961.970076842 891.660073585 837.608602097 777.379876439 736.301525564 672.813510695 643.649664187 614.494315949 569.417401582 521.135930849 466.526135915 409.782843854 381.802749931 349.155865793 328.269406754 311.076103628 290.811171128 254.516571864 241.592624841 242.12092408 245.333741806 241.820420966 222.903093506 205.729440074 188.939040592 156.242431185 145.363043447 148.511506163 130.457131855 126.868083879 124.636314151 115.15598466 121.323083619 124.726202318 134.362454371 141.723419778 150.494485377 158.773171752 169.97657829 194.379789399 200.321490119 209.332391226 222.568294562 268.364045672 309.516073507 353.869550618 516.386568154 578.723900427 614.970980814 710.771544177 764.92285707 963.220200395 1047.77912933 1134.22322626 1241.75743151 1511.39114542 1578.60639102 1641.75181425 1783.22232287 1930.02070275 2189.28808327 2259.59265324 2297.11588208 2316.11922343 2404.03440795 2411.16025292 2356.49540757 2298.37592795 2175.08066131 2082.92477266 2214.87936763 2478.48537082 2700.02501756 2819.5601996 2870.32130421 2896.30543812 3019.27130817 2933.7112217 2792.04800443 2740.31703056 2769.8168671 2812.70510898 2915.77213929 3187.85327199
5210.66610063 5236.92833066 5260.44459201 5282.68808872 5305.30294168 5327.0436592 5339.10341127 5324.44270918 5267.78812365 5132.84748602 5006.29815062 4899.26655585 4773.14690214 4737.89832971 4657.54634796 4605.48415967 4458.14405716 4226.15401515 3902.88397359 3624.54711194 3248.8274075 2907.46158806 2724.33572157 2555.66069823 2398.11058631 2200.71089304 1985.75659984 1931.27129453 1896.25510919 1798.6873583 1722.71126287 1626.8584131 1515.17205054 1408.99027704 1251.48477687 1051.86992126 976.191569406 908.822072385 848.79172094 730.225870987 663.415953025 652.130186948 636.764243995 645.068594617 636.891406263 612.215508485 577.264388897 540.844196499 458.370980144 424.152835571 399.980174027 380.982981447 366.117954639 354.49056685 381.631736959 378.76516177 389.684906045 385.006258379 379.996430591 376.41963864 377.327768606 393.220510082 462.253103948 507.880360101 630.229432464 667.941538943 699.847436983 726.580782188 931.353082091 949.233856312 947.038555743 911.812828517 1005.75414559 812.523151591 676.229516422 701.554958407 888.878787935 1081.69389885 1168.54822359 1161.60274012 1164.50123684 1240.71405878 1364.7422684 1660.62548935 1566.36608453 1519.73681106 1435.36784933 1373.44941831 1410.8567474 1480.93392096 1420.49337894 1378.48996102 1241.80610084 1047.27610686 877.011108359 789.569962447 845.371177073 872.178130229 968.368806718 1019.21749309 1028.33896964 1007.37927724 835.134412777 666.35813041 667.600975684 671.920806816 671.147404207 598.268787282 604.199982977 609.506177487 620.759016509 643.908896194 684.773629681 744.410574472 831.420051854 899.536864004 932.904927561 950.916978375 946.284097293 947.226298444 980.968765355 1018.80351539 1073.46915603 1130.89423795 1173.7512019 1180.10224167 1160.93866509 1140.15564352 1146.25154241 1183.76675311 1248.70163035 1323.76584485 1345.6728995 1277.65149788 1158.69358829 1045.95336701 950.564990446 887.937899926 839.334479856 782.384325526 742.283533141 685.95665041 665.492865765 648.823548656 616.486715931 572.915495068 502.820862712 450.724286845 375.720071274 348.331808941 323.752454568 300.687167301 278.356973864 238.958373242 230.577771794 220.778207923 223.639297334 217.964681012 203.420007007 189.382231122 157.025405546 143.382654754 129.461677224 121.967148187 119.353334863 115.72188537 104.373280509 103.642515635 108.755640405 110.905577511 118.909949976 123.717784922 129.676483929 135.806747847 148.600626968 181.351485315 190.414235397 202.029177049 217.155559716 267.79064591 418.282902828 456.859633752 547.776363258 611.467858902 702.678572443 752.411115341 826.737654019 1035.0639431 1116.56305579 1196.03589065 1287.87236299 1500.69159356 1632.74417614 1699.74357801 1870.22856915 2143.34967863 2272.76535495 2246.67209219 2262.08759947 2248.95479974 2295.84438893 2457.95704914 2539.75421337 2520.54945588 2426.22119869 2374.65626015 2499.8324272 2693.07356668 2851.68048476 2909.14721036 2887.67543649 3032.32659634 3104.90971489 3024.02808819 2772.60545005 2631.05207652 2904.14071889 3210.07005885 3384.53296576 3501.39201622
5140.87329148 5181.67003318 5222.52926837 5317.71293965 5359.97314064 5410.86966976 5456.56900223 5465.53344996 5407.06644504 5252.81261288 5088.5904617 4905.1266474 4831.74262589 4842.23506814 4861.93718531 4862.08303093 4723.18906866 4451.26832744 4123.55228423 3746.66480514 3321.92236895 2933.45546521 2718.6408714 2529.7203542 2360.49652475 2211.67289153 1903.4480341 1743.94232285 1685.58236226 1623.57476964 1548.59664282 1463.80460042 1377.43303689 1269.8708625 1092.0867394 958.669780384 907.837902729 804.488412097 671.310064954 629.755198379 557.388477096 538.446754204 526.929313491 523.293731434 523.229947696 508.763869377 490.875236451 422.575856306 387.625673419 367.07986872 360.111732923 345.388006026 333.304855509 289.269386967 345.707494596 352.696568354 349.639345018 356.563900087 347.70209161 339.472860272 337.690804892 343.307510646 424.891846691 467.177123823 594.348157079 639.260764482 674.044621597 703.291754145 1053.56654484 958.408600254 982.230269986 1278.0003953 1186.10592056 1062.4288345 976.882080973 1086.62762147 1202.16350534 1381.39242757 1284.68798262 992.969309548 935.439355052 1051.92312075 1407.79641227 1597.83676233 1705.80002362 1538.76888638 1198.87226729 1146.94292744 1210.16325862 1387.85671378 1444.41655951 1495.86910109 1615.74451256 1320.2403228 1151.94204373 1095.91404013 1111.77747452 1166.068391 1062.42122896 1068.83731582 1026.63029384 962.711800198 780.509895236 756.528131679 634.797787273 642.454409419 649.496143344 579.771710679 580.005214917 577.223773766 577.763607264 591.878688401 627.344420765 683.555439988 766.983260656 810.682001221 859.371106845 886.47307143 899.527736278 919.646270159 962.260445242 1018.34320722 1105.42747809 1188.52413167 1249.55267338 1252.29668732 1208.49999987 1157.5343804 1130.10742049 1143.85614772 1190.11091891 1236.87268202 1246.46568423 1184.87106315 1089.50459388 999.61894968 928.261085749 882.476305355 843.190923573 772.029442311 732.946764897 706.077149366 689.72562138 691.052895333 669.057200632 623.392635065 529.019055579 462.377451769 398.574587123 350.789235408 317.928880898 290.630338558 242.63902022 225.814407381 198.513212761 194.676744818 191.639366213 185.046867358 174.738128697 145.124967436 138.304853049 124.784625255 115.880758645 109.75244833 107.846438217 95.0140216235 93.445294029 92.3236206795 89.2523377454 94.1920660803 102.831971582 105.007369827 108.335231243 112.725879127 121.777612441 164.062684533 176.628116521 191.430041953 241.440535646 264.723893455 426.367551393 468.250621787 563.428466777 613.605583355 735.995303533 791.717628588 855.435253764 1094.3420733 1297.01980363 1352.97317999 1533.82433913 1518.53200285 1516.5801227 1650.05674735 1830.33484858 2088.44820036 2249.46193747 2311.32569025 2262.55178133 2276.8255947 2207.62369412 2363.37663199 2627.15835581 2818.85143897 2737.64244705 2918.3177272 3030.92922388 3053.50549246 3159.13213353 2917.9709844 2753.91574019 2845.19829106 3163.69978422 3328.83287874 3060.74752317 2913.95632246 3248.54383264 3519.43696294 3639.63680629 3769.44955959
5161.87711634 5207.76361253 5254.38082307 5308.43578934 5379.1134306 5495.07268545 5576.67356975 5614.13659656 5539.33275751 5362.77187499 5148.39452 4947.51525305 4874.3883626 4923.78756208 5023.49088146 5077.08510723 4928.26889823 4605.49010086 4225.04207083 3804.56699656 3214.49286545 2930.78681781 2694.17746637 2489.0180974 2306.12384023 2141.98425267 1789.17037248 1601.99070059 1512.12229194 1430.99377766 1357.82196654 1293.1811152 1234.97177658 1044.75248976 986.584427828 848.533310086 789.595450759 719.326084444 608.305601773 563.128151187 480.742164431 447.774287205 419.582950799 399.316701545 393.968659918 357.820592346 357.136492798 353.261501356 331.144660435 319.920317638 319.862139563 272.173006733 265.347821115 260.643372234 319.275987696 318.78126274 317.242603275 323.499900204 312.568011946 303.838074586 294.342283994 305.739650784 382.802104076 432.392895351 574.501984551 623.324215148 653.776101857 678.036640664 1007.93423885 1070.85456701 1345.94302919 1392.85753936 1387.89620563 1344.78844354 1540.55056031 1453.32824565 1701.68723951 1508.43057708 1224.72544635 860.871568481 711.349065406 942.615592763 1346.02529398 1677.13017212 1659.08754687 1431.95428262 935.021100944 812.647273681 997.527506733 1340.16889479 1649.14716977 1827.14216948 1855.10672711 1788.92054213 1458.833297 1401.75084938 1376.29280451 1362.68317494 1164.40360454 1091.280846 1003.77449033 885.407581945 696.344495423 653.616303719 585.287861499 608.341588129 628.897523455 641.124944217 559.484603371 546.414168796 534.715183773 539.767093299 571.724839756 620.678924749 682.475776978 743.234702023 791.478391588 826.012520622 853.043745451 884.128526924 928.703920305 1016.68400869 1121.87904048 1228.65194006 1307.45522868 1308.67649051 1238.70434079 1152.69398602 1110.22823286 1098.68223806 1114.94176342 1134.21637602 1113.30214147 1070.29250828 1006.32687518 949.947397546 907.646927689 884.665601594 856.353467115 787.776168792 741.127859748 713.288888838 709.142202957 731.051459993 733.555693272 661.99243617 564.41110628 465.477077318 400.807600843 344.283417679 288.883667108 257.415356082 210.576903781 191.384835343 177.155476317 164.251446643 155.40788851 148.28678885 142.737083442 119.936915472 113.877087939 107.902497075 102.109952149 97.299928222 86.931220612 84.4330119245 82.9185334402 78.6445814679 77.776368612 81.3782797054 80.597857466 86.6355180453 87.5050247835 90.5896814821 100.351512005 143.781662472 160.128008416 178.395057193 233.61837561 259.099175983 423.265944499 468.242147511 571.5354244 625.499283111 734.700125799 969.498575142 1035.11070471 1102.99833208 1292.14082024 1364.55756508 1496.37625202 1430.94167779 1400.35030705 1492.37334474 1732.56308152 2055.94387341 2258.00449003 2438.44895914 2279.78577999 2001.33320042 1832.30793754 2031.1937585 2529.23235131 2966.17401043 3220.56783147 3485.41410687 3645.62068362 3748.77910634 3541.70280636 3158.75244041 2613.32296593 2788.30021799 3429.93798124 3694.71719192 3638.21476552 3674.96970175 3712.77396597 3611.13807551 3573.79136794 3802.05419144
5200.04777157 5250.74696495 5298.22084208 5350.32527364 5421.27372439 5523.22468162 5640.86702213 5705.98520131 5629.63626163 5408.03248075 5140.61653578 4948.34407756 4824.75964365 4900.04863768 5060.7057113 5131.65713921 4969.46323929 4617.92218048 4074.74077073 3668.15860156 3166.82520345 2814.21295541 2568.97538157 2356.45011729 2149.01785514 1954.63410049 1652.84560294 1448.6718817 1326.38006475 1225.70462641 1155.38913371 1113.98752078 1087.43236716 943.622225675 843.331153247 768.372712189 717.398331919 577.084297668 529.767246024 481.862917075 392.959765986 348.59159531 318.766105479 287.944258775 249.438183084 259.005634272 283.070139654 279.885116212 280.461240258 239.950955551 233.642094718 239.889771827 235.538710293 225.01635317 229.50438928 294.673686789 295.992983482 304.244180847 292.407032598 272.695976218 263.046907462 274.000762894 342.297744829 415.788379906 550.083893621 606.016128914 619.302017258 628.160273662 899.493032534 1003.19186959 1339.06052907 1483.15330595 1571.4049076 1918.7923339 1921.81514976 1907.64121687 2027.2992847 1937.30054148 1475.8387357 930.171021292 711.344270902 972.725380809 1434.99684394 1787.78419741 1835.07895692 1366.10542849 792.587147457 601.614607021 861.054051395 1326.74446196 1744.47904853 2004.32273405 2108.73360923 2098.32859343 1749.01459328 1682.36658148 1616.65047894 1361.02826026 1250.96500547 1121.48388639 954.612612558 780.455277627 640.096985885 594.056857295 587.166900519 578.88747073 622.675283056 626.461477462 597.28138228 523.95800985 502.428152123 501.461877197 529.798883081 580.416180905 636.76318011 669.798919283 736.220852022 773.988102277 808.551229497 839.881409797 897.454857034 972.03366273 1086.79448272 1204.01186659 1293.72450159 1295.39025075 1217.59884717 1125.63370844 1061.06786007 1047.69758131 1042.49067799 1040.66014959 1012.35139871 976.199726708 939.879931555 915.650580811 907.818674626 907.686976703 876.487259669 818.106493394 735.661860182 701.876774916 706.843091444 752.353738462 765.065211824 678.38723977 554.138395946 453.286197333 369.204667703 309.54817947 272.198335043 215.955634463 193.809664584 174.302577136 153.740163621 135.85669397 117.303223457 113.173070758 112.773801698 98.494812171 92.4839023484 79.7118620154 80.2358119347 76.8836537479 73.9349206094 74.2968855815 69.7171908604 68.724422037 67.4895753864 65.7414322272 67.257904515 64.2936820179 67.6287415374 72.5141357688 80.2581686839 122.129217639 142.593684344 191.631771992 223.847854299 375.342195036 420.580297242 519.094624144 569.938340487 682.996223496 740.12000052 979.454403512 1044.05088557 1112.06957162 1295.2001359 1376.50139251 1500.7862421 1397.26752164 1332.82595833 1434.28964549 1716.9298723 2087.5960141 2322.01022325 2497.56130622 2301.87146615 1938.76653333 1676.78676086 1924.89361855 2573.29865326 3175.74273714 3741.37047083 3980.92620421 4074.62845193 4166.82540381 4163.78832548 3869.81709839 3489.42775723 3639.97966817 4104.93736821 4353.8939548 4521.20074482 4436.68124381 4171.88840461 3552.50919709 3414.57371819 3875.00499354
5113.13720808 5189.55791229 5291.62065206 5338.53044685 5397.59942566 5490.14871524 5607.03354429 5673.00654679 5593.79126152 5369.69377205 5099.05191561 4885.457776 4766.83349567 4806.75235514 4912.58588853 4948.93035874 4743.90795988 4380.24811467 3917.39832506 3544.45313277 3087.03073021 2724.7874133 2491.003209 2285.94152717 2069.93372948 1723.78838804 1545.22468394 1289.320263 1132.08347223 1012.21146043 945.546122085 933.466434604 846.087431883 843.160908541 761.163524163 645.272858261 575.550789834 519.38643754 474.513386605 426.022200262 334.209467186 281.092185512 228.083770825 191.144479278 173.729100687 194.786240711 207.498001464 204.299485432 206.736574952 204.75116693 201.057528273 209.382509616 198.764758768 197.654413241 203.684975573 269.526533907 275.062334412 289.214619341 282.475574125 265.013426911 252.899535039 269.301082052 333.80749021 416.869575759 550.51981428 582.815127214 568.249943117 539.068026089 713.085258833 876.584076091 1289.39257559 1847.17889909 2074.34674268 2208.98242362 2481.99274645 2482.63016339 2558.1637688 2318.42646331 1911.63951117 1463.17931751 1286.13430895 1540.49191367 1943.88512195 2064.57859866 2097.48800897 1625.71889676 1061.95253106 825.935922298 1070.99277183 1551.44235515 1986.96920639 2450.42011467 2590.83376413 2396.85842011 2250.45167178 1952.05700351 1846.67437786 1717.58302637 1363.3732385 1171.93027738 941.231956221 702.461604758 516.494085617 454.363768348 519.765289437 619.714019597 597.643121319 603.997398915 594.42044225 542.789926031 493.406672102 491.375710273 513.631651258 561.907447351 604.281609124 645.878070923 668.392526874 710.134982108 745.049279597 790.102521074 839.585259971 911.622733546 997.469512747 1109.22112593 1180.66357716 1185.12426391 1121.41632173 1047.32949178 995.988541459 964.564914933 959.621633481 949.969973874 932.059587804 914.775665442 886.880538799 896.533550516 918.924075557 937.15364019 904.854918411 808.175158471 725.884654163 681.153834955 677.399263944 707.013093508 708.312158303 616.27625215 499.935356718 410.298306922 336.259451685 283.559253334 249.902472869 197.970261259 177.107393344 157.142731459 133.641425967 110.161377255 88.223670381 82.0756289682 86.4313816306 79.2486595188 71.8665080586 68.5488629244 64.9040743094 66.4494743284 64.0777109562 61.6240111375 60.7472355132 59.7943428745 58.6502571762 56.457963936 56.0748074635 50.4993945397 46.3856882038 52.5501979945 62.0754316681 101.445399834 149.019768283 179.03726974 208.252787734 366.350274796 413.55056786 514.832465058 567.098657593 677.568221758 734.124370524 972.47412593 1033.27271221 1096.88976602 1313.94930959 1547.52433404 1522.93676311 1467.45964016 1452.27559908 1565.12794478 1846.1205437 2258.88160455 2594.58589137 2661.77013896 2518.29310837 2232.08622028 2074.93456588 2376.79749451 3058.79995302 3687.46621839 4145.36794131 4400.06253958 4710.73859515 4667.77027489 4724.56263294 4767.22575495 4895.77440906 4892.54941517 5004.29685142 5090.64672761 5123.02413401 5074.97807499 4845.8831805 4299.73699239 4059.45565727 4451.14325862
5190.35111144 5283.58559893 5347.79308715 5380.4817785 5423.71523383 5446.62871036 5492.89137462 5509.33501059 5426.51870675 5228.46296307 4988.28048626 4784.35873476 4665.35128887 4587.27563002 4609.44866749 4526.17684087 4345.17824928 3984.57663007 3645.38609329 3198.36098561 2937.03052114 2611.32183571 2398.11012487 2198.63608332 1855.75455507 1642.24665377 1440.51851107 1223.15161713 956.316906389 803.377183899 742.82646101 707.731667475 744.056711069 760.366065374 622.521216992 585.717313238 518.30481803 466.480754193 426.675804481 381.951634828 292.759662504 237.34921217 179.67138514 139.680367504 133.401604923 143.014721529 156.895876462 149.91521335 162.960876253 174.087268929 171.492956469 169.307894248 171.467002253 170.957382826 177.088526603 181.209698252 234.899447479 260.49824634 258.032245988 263.022901076 277.191562509 296.259453851 391.705652319 489.517768555 559.771086386 576.027015738 512.061636806 483.317424579 495.140132658 818.146763996 1457.05405971 1926.65141863 2261.53815794 2471.69804667 2821.28036816 2861.62133817 2984.71201367 2823.98608747 2565.69316926 2297.29819918 2190.30715035 2327.39663011 2538.2060227 2682.54291621 2581.30379859 2232.44038157 1825.38741227 1583.28143056 1677.22808851 2202.54531569 2586.84946991 2837.3494036 3040.44872379 2712.53528226 2561.16419708 2196.35966318 2053.00908008 1880.95335723 1474.24871435 1251.74328605 991.107974608 722.612262385 509.465277087 444.840401925 522.990571039 574.622402035 609.814257063 616.405607851 601.775607057 520.862263689 505.093254315 504.829896501 520.754910374 546.903443507 587.976748794 618.602404494 614.223650512 668.304398101 700.254740165 740.905583777 781.782002216 837.264248132 893.856778143 954.336247629 1017.2675906 1018.20318496 991.433861862 951.650900244 922.377241533 897.91685694 875.937186389 865.79531765 859.096678608 850.446877275 844.106230033 864.606539858 902.4712714 926.246424886 883.771236961 787.237866328 702.452745208 648.8119408 619.709138956 612.192915791 578.200058146 487.708995533 401.199691192 341.830863182 291.244893294 251.622407702 200.235870798 179.088090242 161.608596143 143.836071581 120.261432862 90.6612412858 70.2769464263 65.3384569409 68.1095615855 65.6314052795 62.2753261821 54.8277197755 51.1195955162 52.0885593006 54.9880663335 47.5203485707 46.5595328887 46.2519097361 51.255909041 49.4304463505 43.9052434182 37.7951853239 32.2902942472 34.7197106608 45.5197135708 80.038307953 136.093658058 168.804497631 198.371179622 354.588032558 402.559172208 504.856277069 557.696464077 612.747567102 718.2143456 949.750916856 1002.83044281 1056.88373236 1261.77188286 1528.53135574 1565.44871171 1582.11599319 1638.97524978 1829.66891186 2081.87135555 2474.36797134 2785.20488197 3087.40026981 3051.02739977 2933.37539366 2918.05698878 3413.15057951 3863.74566917 4490.06263056 4876.31699703 5094.98215162 5084.88384294 5194.53509781 5192.621288 5399.85803305 5687.17432444 5629.35477961 5556.42676897 5606.4402216 5638.21822651 5674.33379429 5731.32327093 5490.39182943 5234.14163803 5222.9456749
5305.97025355 5438.45258318 5523.09366162 5537.2924041 5488.31555612 5423.24737722 5364.83279883 5325.78987587 5210.81730258 5044.0407571 4834.57452123 4641.34811271 4495.54032935 4337.54830721 4167.88006347 4052.83891044 3858.6983627 3564.19553562 3317.48729809 2958.89132433 2766.97353011 2488.35316546 2301.20247224 1965.83594188 1794.57863886 1579.15347988 1352.99490427 1110.89714257 819.999095741 642.909619857 574.479778342 601.551335124 646.531723743 612.129191795 571.44669135 529.010807372 462.269767766 428.760321598 385.117793415 316.209559485 276.248493556 218.945945211 166.868993169 128.37947924 126.099388875 135.07956426 134.063349412 131.252848911 125.232562251 118.72695254 128.024306982 126.611828381 129.502254632 134.189952865 134.571418848 138.133509455 196.245897496 219.79951817 245.507987002 265.081912937 321.073977391 349.58664076 593.447107421 538.596704337 855.890762004 805.969316047 624.342141738 417.385749705 423.228496525 800.126479896 1743.56905557 2360.98985475 2800.18394473 2956.22827125 3147.5007215 3226.81836939 3403.63305823 3337.99258635 3226.20614675 3114.27190242 3073.93676322 3141.00811078 3553.74128042 3627.87024995 3228.81084315 3036.77563665 2822.56254867 2782.04237302 2697.66555377 2946.93021323 3177.29911345 3316.21895183 3459.43252957 3324.57686693 2848.21026412 2438.56879018 2258.00511918 2047.66386677 1610.45820477 1388.25150667 1125.61105354 873.63780909 679.156833422 571.712546139 624.935851269 626.09318428 641.39518104 640.564551049 617.119313043 588.78631204 521.019233212 520.744563009 529.019502375 543.09359778 560.316087979 594.710706936 582.089138484 605.282802513 657.003418809 691.547297957 722.934958107 762.055616539 792.173391475 819.764014926 852.716337084 865.773719355 865.908824772 854.893291116 847.12823861 816.864293652 805.563602082 806.408462452 803.062154078 797.330765492 800.739519598 811.17393608 835.812146767 849.390691637 804.958722014 731.459118993 658.544188252 603.769267632 549.583545168 511.914002102 434.429540501 352.505622925 288.671584305 256.733270218 245.960505143 227.957872466 177.185573497 159.673843072 147.441953029 134.75442804 116.306219517 87.5279882148 69.2732088403 63.6240643123 65.4489279945 59.9010890227 51.2471858334 46.4081959316 43.6944274803 41.8321163944 39.0045627153 40.8577865076 39.8950328156 40.1412910741 41.0475285576 40.9919360682 37.7049416364 32.3053791739 26.6278177207 27.2377181092 45.7956222918 75.2762873625 102.22370698 161.572279797 190.141424748 220.174659998 387.513671569 489.066190561 543.461974333 594.622902553 645.297878647 913.073584664 953.091627876 1118.25501039 1161.5813612 1439.18810666 1546.18440112 1664.24357102 1828.95089613 2101.19793956 2348.8708152 2777.52218779 3328.09274722 3532.54534468 3531.39828061 3604.64503243 3755.91269918 4301.6986778 4694.28716773 5292.18449163 5496.06198991 5654.06229069 5653.99452441 5742.40040106 5671.1820604 5814.16719245 5807.51027853 5817.69851433 5991.30501162 6089.73574661 6110.54125594 6122.9162075 6192.71598924 6133.25345908 5943.6483251 5893.79899102
5457.86668988 5666.76048378 5814.17521075 5836.54920829 5715.35794302 5516.34911586 5326.31805121 5161.65974703 5001.61859014 4821.36061667 4623.03397393 4475.67033556 4183.98086708 3979.5218041 3814.5947386 3627.86830559 3409.37903378 3196.98913534 2857.95678625 2730.83200558 2605.47420254 2463.88922786 2209.09529741 1905.97200585 1752.2789927 1554.85587475 1337.43519833 1091.44327978 789.01498151 600.128862935 543.173958742 576.651046313 606.974053727 578.753091969 536.292655875 469.953074962 403.676388343 348.281120807 328.464486524 305.351374945 263.988149738 204.229999393 148.143462501 132.841397181 130.268802245 133.156456082 122.50567574 113.899055543 104.436936532 98.1298097107 95.7641948901 99.3768329246 105.76747012 101.924287104 111.26274377 104.510075062 156.863939096 184.72678644 222.104156495 258.017040642 346.48345347 399.00440412 717.707001824 806.7788289 929.24639477 1142.24619272 929.998577495 634.047514857 668.367319466 1075.63705911 2066.48479962 2639.63198078 3069.34522672 3370.39971087 3800.26402285 3886.87412431 3746.22992677 3738.31829643 3725.0583136 3731.74608717 3772.67867496 4065.56568646 4262.21332979 4319.48089382 4302.78007531 3881.0551085 3917.79530869 3917.26276309 3962.19372336 3762.30737388 3838.76061354 3847.82320324 3907.58277776 3697.64234066 3264.89289797 3064.36577249 2453.73887488 2216.76780475 1762.82504214 1548.44648478 1331.77774005 1116.8896536 950.946079492 871.937478543 788.754541977 706.502681727 687.412437539 672.123042362 649.357951345 619.56877146 516.384490532 525.579188162 526.788395012 531.805429486 540.641618235 532.001399553 552.112851063 571.259423581 585.73226221 645.353928373 670.245795376 692.806937727 712.967894218 720.419825011 736.955419714 752.839136516 768.219984766 773.672599917 754.387468735 758.319415204 751.443173773 754.673774333 753.456870259 746.271277629 743.769033683 736.684481223 746.961141269 730.456240594 711.230131591 659.403243953 607.83236998 546.88753781 471.890342017 422.360929517 346.351974084 260.809450716 204.568370689 203.778657024 212.535167856 184.747915887 155.147650003 139.953544487 134.345441031 128.464826018 115.82636155 88.1458461508 67.2081420217 63.1932028423 59.5983708641 52.4527649259 41.8043254493 37.1815949076 36.4675299334 36.4737114808 34.3934240417 31.6845652331 33.0231608225 33.8734406037 36.4005196347 37.4134006233 37.375445056 33.7043916985 29.3400496426 34.9218744778 52.1328589874 77.0899952287 101.024442172 153.04598267 177.24486603 210.036424238 369.581316101 469.035655937 518.998033184 569.49976091 619.148233564 821.773847571 882.655307469 883.803429442 1162.09167788 1236.23574753 1413.36944486 1648.81088437 2035.70111961 2325.63650276 2756.40797604 3053.86917419 3673.9767676 4083.94478634 4279.46335638 4465.60517394 4753.92814398 4999.64798754 5390.46452961 5640.74252941 5752.34692499 5888.90901666 5989.650667 5943.75977195 5974.19604397 6008.25891748 6073.96379103 6122.8952734 6227.08237886 6184.89798576 6221.91702811 6299.48051374 6270.95967989 6331.61302344 6477.80111921 6629.04953253
5619.71344182 5947.79001898 6217.998108 6290.73200752 6086.73579371 5717.91994758 5362.57818409 5076.36072141 4847.99842394 4647.45184926 4443.07971784 4170.87163429 3984.7192236 3733.24157775 3527.93664818 3291.08323853 3029.07749257 2722.10814147 2628.28904268 2546.22176613 2474.45097105 2359.3576539 1996.44885511 1855.6649829 1726.75514888 1592.44308893 1333.12550547 1117.80604296 874.469783035 674.174943022 610.03991459 603.554110203 605.651445575 571.558148129 462.432522531 396.601925628 324.187675832 306.52640421 300.048599991 289.330252527 191.474802363 171.54561405 152.996772249 135.73941667 129.635427577 123.3531466 108.315312461 95.6096395938 83.9686247434 78.188037918 78.5431774964 84.854356785 86.9860487864 88.6396056035 83.7346848666 99.6276910559 105.038917813 135.19087296 182.171123856 240.470489291 369.209215969 719.090520715 817.113601258 1253.39716679 1405.86430365 1393.37904138 1312.00492505 1247.81927821 1347.83412689 1783.27928284 2522.73528913 2972.25406599 3348.48540507 3851.51936948 4037.0513383 4120.56778559 4093.12561476 3921.75438397 3942.63870115 4065.87258753 4444.82594225 4764.66312412 4907.66609881 4971.63178966 5010.37660267 5012.53636068 4797.96643587 5081.96102039 4842.55944459 4888.58861756 4511.65765595 4505.46376898 4533.46773175 4081.94995401 3562.74877873 3297.95431966 3014.80283133 2376.0070992 1910.04010647 1701.67192231 1509.74513458 1341.58911755 1206.16638558 1114.69909089 930.427409103 768.009449212 753.140498295 719.055947241 682.195337225 638.302648139 513.686420208 517.841663604 512.633201588 511.349938266 515.462490181 505.668210516 523.773843843 516.226868496 534.628578849 570.797711667 594.681866757 647.196075492 663.920417497 665.112761442 670.594431417 677.108682717 691.686670786 699.182131894 700.732558698 709.361874396 705.778767441 690.881316453 691.869039925 701.608468911 692.061349542 663.188796449 664.431163747 654.315720984 639.197803595 597.493762578 555.679465674 475.97008873 420.969290849 377.553519513 304.415509065 227.712626427 177.922444243 183.957211668 194.675146943 165.562689103 137.243513428 122.524654254 122.211906226 119.094651551 92.054375509 74.9209032799 67.3544036827 60.1342962483 53.6398547441 41.45953847 31.8945316935 27.9945527424 30.1498635314 32.4705772306 30.8732236146 27.3240355874 25.040065735 27.651397203 29.1548686579 32.6726003231 38.2361305332 37.2023137293 36.5152891782 50.7326159284 68.8315977826 89.1494020971 108.950062164 123.929624768 138.211536604 191.164249174 336.736700937 431.261545237 486.307476138 535.659975926 587.018720284 768.919055419 809.008810664 759.669596003 868.193537903 932.184252476 1196.87049131 1586.15415252 2129.62125182 2599.66889958 2959.73285015 3319.01654572 4001.40488157 4421.70550381 4720.64201244 4961.46706488 5196.5271809 5434.82909816 5646.44542062 5679.4110786 5809.95011588 6032.27695894 6130.30148751 6070.80752589 6007.39532523 6321.08032579 6437.12182628 6561.37201968 6677.83521356 6473.33403938 6450.10274295 6597.44984225 6662.29053815 6841.70829084 7140.17830873 7150.52568648
5728.19430536 6192.03066679 6628.54999841 6788.89691625 6486.44545371 5916.74609679 5393.13960698 4998.05989578 4597.14272172 4375.73907375 4148.20869614 3947.23869977 3753.63253706 3481.76840804 3257.69975501 2998.46243719 2717.61602686 2519.73659978 2434.35211191 2423.98387334 2384.46287958 2162.83050445 1938.76955105 1810.20955519 1666.55949635 1574.07136194 1415.42052407 1229.62864217 1024.87325286 815.141030668 675.08950712 637.271745848 602.086930713 492.364172228 405.489694448 330.3586331 276.736817995 260.410391066 253.522711115 242.305543587 189.049240195 170.804334424 152.534969279 131.099153755 121.654895489 100.685331645 88.3602711129 74.5050657343 65.8968521362 60.8765264104 64.209653618 73.2745725635 73.56169903 79.4581136369 70.6964299546 71.1928099403 70.546496986 104.238626437 163.53379239 223.80891021 668.349703847 788.590692023 903.684611141 1399.8047595 1595.23327367 1661.98767985 1698.87469507 1756.79108762 2170.65095386 2553.70163645 2886.96574839 3242.81357658 3917.83975748 4040.25989511 4209.73607025 4257.50698225 4247.26372454 3810.94662001 3780.09538761 4193.27141059 4848.1797322 5207.16427135 5602.72608122 5734.30572485 5798.30734387 5655.77735938 5743.20578061 6064.25772211 5830.62995168 5616.54624121 5489.96946523 5199.62517438 4963.54039492 4396.92692099 3833.1049112 3513.55958209 3187.27762937 2626.35007347 2030.95298138 1809.44750519 1626.69613239 1488.9715407 1378.33161308 1134.83320379 1054.36524659 828.787312025 769.909403386 716.934260069 669.520343259 628.703217679 505.062165437 489.859765952 490.449841337 484.351439301 486.49077884 480.449235875 486.588676071 488.773565211 503.834898114 536.156359818 559.954188678 589.995044598 624.555179747 647.01805912 648.286655931 651.554191215 649.940424406 651.646811831 659.353436802 659.184656762 657.277415337 654.949030975 652.917964263 652.737042945 656.314698881 635.153548409 629.142524679 618.137085356 594.664676885 551.472329869 482.526111247 439.719742183 388.14947874 346.533761113 290.16616577 240.767963875 201.523876062 196.640613622 186.602142764 152.574410369 129.674177155 119.658772676 119.868228589 112.191548042 90.5890305529 73.0683204709 62.6150755878 55.7187502435 44.9068404403 36.4197665804 26.9590496052 23.3191505588 25.4451280781 26.7300481227 25.740777327 23.1481783752 21.4037604855 22.4047372078 25.4379790932 31.3562666626 34.8688174764 40.8064688418 43.4928772308 67.8049413389 79.2473668072 100.645079756 113.571009911 122.288982711 133.317901957 150.466793989 240.773902318 390.650376378 431.246616595 477.526217037 657.869849344 763.516968606 759.512815824 670.984674749 550.369707294 562.041184577 931.466955696 1491.78978375 2182.41554925 2656.5305215 3168.98368101 3871.59371169 4303.38996691 4628.07387138 5132.24724882 5508.57806169 5849.61493651 5897.40292537 5747.44038515 5607.31850607 5857.95188998 6247.69898887 6398.25938844 6190.73784239 6094.56252493 6567.60319841 6983.18870135 7180.13002557 7407.61844933 7329.26849349 7255.34950585 7398.7892399 7434.32015151 7459.22128632 7560.10304754 7528.07520538
5662.93937262 6185.26608865 6769.46715427 7008.67253277 6605.32899118 5862.80123224 5215.90723942 4759.80073406 4441.00843364 4194.44740775 3991.53708352 3794.1487002 3604.55820793 3332.75934931 3116.04845964 2856.94869001 2578.87960388 2375.92083974 2340.690177 2343.48737733 2279.44728847 2108.82863746 1903.28312836 1733.42014256 1676.48874787 1628.35771366 1508.15098706 1341.98908241 1157.96140067 845.274085704 749.517501883 668.624696088 601.22815566 470.332364648 384.730270492 282.602557776 253.414298932 250.365491899 246.854415943 236.879746741 183.865925228 163.57493571 136.503639272 121.231883083 98.8808815902 86.9554033686 75.8729750239 52.6842875577 50.5969683578 50.6397054734 51.5241206969 52.3649957969 55.0067143993 58.1418400103 68.1269449715 61.6585099904 64.6482129606 100.109468715 156.657009693 217.549471152 621.131313784 842.256128526 974.987505282 1518.55562034 2059.93574881 2253.59135804 2332.08511113 2396.96122968 2744.38365919 3056.33802034 3500.46306836 3953.34717807 4038.29945902 4268.10911959 4298.65151109 4488.32198819 4211.80638411 3620.76632831 3361.24766565 4108.23469496 5053.52934924 5774.54155812 6099.64299078 6230.73400439 6089.21494728 6229.15976257 6477.90543896 6570.99701201 6635.49265874 6394.96209529 6210.51478189 5872.12843306 5287.63889723 4680.42174545 4072.62418671 3712.04720342 3344.79308513 2748.82294947 2119.08232431 1849.85383307 1647.90655697 1532.75907534 1448.86554874 1227.98068951 1120.21632541 875.383336986 794.568957966 727.731500922 641.408125417 594.933743054 493.16434951 474.318813572 447.465505108 441.300641998 440.542879408 442.964528803 455.803992703 467.304415363 478.587342064 504.185463727 525.693905204 558.901670918 595.294645626 630.020580665 643.192162615 629.846987981 623.841604626 618.708200786 618.763393932 627.514014987 627.680569329 627.70112622 627.835997304 606.095863028 616.747719049 631.009260569 628.132719752 591.47799382 541.680007994 497.311864053 449.168592302 410.754525818 363.138740796 321.005670741 290.520345341 259.958617073 232.882179856 209.351646912 166.89693544 146.902158212 124.917324838 118.433261443 113.745521209 92.1625730497 79.6120435713 62.2652190134 54.1900158203 45.9808527722 36.9372375385 31.8227233258 27.0991552251 25.1320630114 26.3736745048 26.8456211686 24.5825263638 23.8144296143 22.1327635071 23.0488957698 25.9214048822 29.0706660201 35.2340183352 39.2195198982 44.2302683527 79.0737697756 89.887211156 105.37594769 113.291106992 114.776636213 123.050231532 165.413904446 284.661720652 350.66323198 371.471881665 406.743894014 516.75968889 719.949982679 748.158255468 649.055424772 461.272804903 431.421950638 882.569894911 1671.7194014 2336.01789023 2857.93725464 3279.65627808 4110.40405248 4585.60549027 4949.13997488 5457.61069918 6065.83458828 6403.10405626 6361.27533512 6209.27367982 6011.9312009 6225.86574253 6555.88468719 6826.86147407 6884.23950041 6937.34963948 7385.40198271 7731.46553556 7780.98492197 7865.0226534 8025.92813667 7910.0596408 7852.67040169 7937.61067932 7811.63115382 7648.65249959 7698.62247275
5239.11274044 5857.57091778 6385.01223471 6571.3940497 6178.35515868 5506.01768352 4943.6900167 4545.3683765 4259.99891737 4031.79125877 3849.20865981 3664.96993283 3491.31602557 3239.21232282 3051.28016148 2829.5036004 2581.84284143 2374.5818771 2349.78739218 2324.67298509 2152.35833138 1987.37264635 1821.27625173 1691.96129166 1685.44559978 1670.62991797 1569.90496951 1349.5025876 1164.8859775 911.34652795 802.850301189 685.390808413 599.098890821 412.708044523 343.755069206 289.128250772 257.610617021 249.554229166 241.495397714 188.630434095 160.868754979 130.053739373 112.512471472 84.4367452725 63.8895274396 55.1394672148 51.2505575629 49.1039783113 49.387244124 49.9418512547 48.6448851534 50.0129235409 52.1553217064 54.9523412053 64.7522145674 67.4732621867 90.6451664035 118.926459376 164.169325755 216.820070654 648.606934486 878.734562401 1024.618597 1590.99046816 2202.16206793 2347.57129014 2527.23057602 2847.14820135 2672.13717178 2674.24300177 3113.33406748 3833.74224272 4316.08531623 4416.01457263 4310.56668761 4517.4792311 4497.60343875 3820.42513254 3550.53319608 4548.70771604 5690.27924039 6323.75009945 6601.17636587 6692.65265567 6524.37269231 6727.02358012 6859.8068939 6870.44107283 6932.05295931 6781.38683531 6520.58951764 6200.83427111 5779.23329073 5185.87123945 4286.63672119 3899.72723633 3503.94531527 2909.41404626 2461.05266424 1847.01973725 1570.54029133 1476.35366925 1379.55033188 1279.67568895 1150.56966847 879.337214779 796.416757066 721.878328521 629.863382607 580.022938631 442.369946745 442.808349194 426.75721117 429.07137843 422.759695886 410.948048385 432.501739429 434.783950135 447.531465605 464.512959394 477.587765112 503.647486696 542.346419244 581.571298799 593.012829414 580.82396177 559.321727258 553.342008062 568.850981465 585.330289579 579.818428447 584.818648984 587.909346334 573.25933463 586.557364928 609.88777077 608.768115767 565.120955475 506.786990547 450.147663575 417.980023434 390.160028878 332.816175688 307.466622436 291.758143945 269.616816546 243.494492377 188.888402996 158.282794563 138.078458404 122.196464145 93.6843322627 87.9723720374 80.2655230131 71.4617715438 55.9346427894 49.5547448779 42.2260368306 34.9974310964 32.0085101961 29.4786524889 28.0381505725 27.8226711058 25.7703764449 25.2061315833 24.2588849561 24.7518409352 25.5368530345 27.5044204586 29.9459833347 36.032565126 40.3704400174 45.663760284 80.2182902618 92.9712052413 108.278041245 109.46699543 106.803413591 117.519775204 156.759221468 270.359463229 310.812260922 292.542166663 306.748346953 430.117393474 679.265856265 788.646266294 784.954295836 723.374689996 754.580421682 1235.42432158 2008.26511754 2643.34105997 3132.46475719 3581.77838066 4229.72779778 4796.21381103 5189.30119809 5747.91804249 6434.95962304 6749.95172194 7096.48476791 6989.97545129 6921.72590998 6970.72039346 7271.36194919 7585.53534202 7575.43899888 7864.55092023 7970.40995742 7939.39239116 8060.45588989 8137.10149823 8099.87119342 8187.57163428 8294.55434846 8277.61969848 8208.51144421 8068.95721634 8083.35260501
4798.23175568 5176.25916639 5492.44996016 5565.73596358 5322.23255656 4896.97259168 4547.21587928 4285.97876309 4068.99733703 3875.769543 3706.9785148 3557.79993566 3407.70123866 3189.65119374 3047.3902187 2731.79445713 2582.22976497 2461.08047532 2345.14298527 2219.0742367 2086.09146188 1929.02992132 1783.39692118 1677.6299682 1695.92675452 1690.23929129 1540.5450839 1338.19413019 1149.89119018 891.048263405 766.10608465 664.469582396 490.730562088 408.537112844 345.763711706 298.757094973 271.675718298 220.963079894 204.881026234 167.271770144 144.904612882 116.682275082 100.980838739 74.9121842515 54.193714207 46.3773961148 43.5468151853 43.5773746975 44.4845110364 45.2266634921 44.0388844597 46.4154493124 48.2353318779 50.7110488573 53.4184705613 70.5084277841 111.87404299 138.537143116 170.252990231 212.374518596 660.534484518 891.997553829 1185.93579287 1468.77703051 2276.61294004 2444.0037079 2922.69752702 2891.54543689 2514.62366659 2190.16034514 2725.91338998 3810.71784419 4393.29959385 4062.11250873 3854.29951197 4537.45910281 5076.66069934 5069.95697322 5156.96958162 5885.9370396 6869.55490886 7016.91747085 7110.53699867 7142.05311735 6922.32775871 7029.69435958 7186.65483985 7042.42637274 7023.57365734 6961.70516566 6652.52352889 6305.15385264 5891.10527474 5327.70441118 4684.85834026 4094.50121788 3694.68972635 3086.14379473 2560.12856707 1985.54122267 1494.56931168 1407.13108308 1394.17428153 1286.6650941 1131.28742167 855.27253316 757.09699556 697.672298234 606.558848485 446.346771254 430.693687516 422.548812301 422.608150032 429.309024433 427.019532376 407.813952144 402.401077791 432.169980313 452.492546753 458.71382407 454.863144173 460.729387676 484.881621776 508.59535087 532.923261153 531.35619878 539.793694338 554.933337352 557.846109063 535.292285081 554.199226346 575.743561224 583.413031164 573.345196152 563.526748981 564.24520765 545.421763004 502.794860039 449.928317258 414.631851273 395.034379477 373.023075038 320.239431241 296.927494052 291.499861018 262.451404005 224.903132245 179.860674947 144.490200375 106.772723588 84.4492582943 76.7987738243 73.0886707238 69.1211968616 55.7530479736 49.5972356098 40.392286772 34.7069067009 32.5844725688 31.1240185367 30.1102613317 29.2737829993 26.7070959424 26.2385530533 25.9189577965 25.5443948723 27.0500760921 27.7123015155 27.8636423264 29.4215739342 36.1900956047 39.653151515 45.3145308608 80.8853725207 93.589494058 103.545330612 110.896529786 106.989648052 122.083140439 164.440449489 273.309289896 271.950446947 213.979616066 208.615165503 354.354235329 561.950843608 854.918298638 991.054811979 1036.96898881 1323.50772401 1855.45108941 2489.81131619 3088.23844485 3459.91909435 3820.80159087 4197.64453899 4855.35402012 5374.67074799 5830.23071274 6898.48957129 7504.87876269 7840.32750035 7875.39456796 7739.1927423 7775.62990768 7991.0244479 8133.06589568 8306.63300768 8461.26822148 8301.48103896 8033.91327515 8283.57292515 8473.62954832 8482.21825358 8555.42460045 8485.27220523 8283.49650975 8543.70337108 8583.49982889 8557.19616237
4317.33501291 4524.27041877 4652.75151037 4621.71774406 4466.51186155 4269.45061054 4111.47111453 3956.26578184 3897.36493845 3737.8163258 3579.82670535 3447.59138998 3328.96430044 3174.60792388 3087.70432224 2870.5307549 2698.3199943 2454.70020484 2341.55015433 2149.27095525 2009.14950564 1866.22087425 1750.04292325 1631.98166302 1601.31442013 1579.4825453 1454.9059413 1285.63818615 1051.27896593 877.529230002 758.316416005 594.739036481 483.123708869 407.355437168 340.735281903 294.062109153 262.929160331 191.924141585 165.477452313 151.871288098 124.760089668 84.2538645119 72.7930197734 62.6879162116 44.53707169 40.0603678297 34.6188074724 34.0699245411 35.1471328307 31.7357200033 31.7970172255 34.8896791789 35.9869473434 45.4161161916 54.4918055237 70.1265852027 74.0771991284 77.9498959862 149.456122238 194.459852727 640.712334112 925.078811402 1179.11468587 1475.53713533 2102.2284121 2455.62424338 3222.54750041 3200.46921176 2828.65839445 2579.11747381 3155.82374865 4303.51266923 4550.38327529 3629.13210695 3043.69039904 4479.55969969 5899.01137871 6401.68731732 6788.28813352 7415.59182216 7781.42250816 7770.5464882 7752.72394725 7760.99465405 7477.93456746 7537.7789234 7356.96093542 7128.98156183 7043.59670957 6914.68190405 6620.05712952 6290.3023465 5989.15903883 5516.33548274 5050.28237274 4311.89067744 3934.4472675 3343.49585312 2821.20495615 2179.30747422 1658.32884873 1459.27413844 1395.82309891 1237.55613464 922.665079347 785.127269514 702.075364807 642.069714577 571.593948048 427.749298355 414.796228154 409.179862373 404.855691687 412.022593658 398.298710877 391.547337385 391.093004124 415.3733074 452.179828905 464.73794178 444.568817007 428.755645952 426.388693679 448.412354454 465.090962122 493.554789126 530.372169343 573.434898823 575.633699989 542.514423547 547.997797029 601.701944319 616.235139218 577.699728395 534.396203304 514.562849823 493.540893868 459.495935357 410.615661073 385.565507185 380.577398409 359.554114079 311.646703096 290.939950401 288.913683354 248.624799634 200.017904019 138.774762798 114.297057581 94.5701253764 72.4532764393 64.1279530422 63.5373492389 55.1958875491 48.6737784753 43.657222861 36.5553239391 31.6832893323 29.869463422 29.4574979492 29.4700579432 27.1892640412 25.6117991116 25.9984053586 26.4567935733 26.429605881 27.1428973317 27.713862887 28.4440401115 29.5107038073 31.3030571025 38.3636507605 43.327848648 78.5934206487 89.9681170787 102.1600459 116.170361995 120.661963013 152.645635959 192.594922304 227.624251825 286.127738773 220.778071282 212.444902132 377.621990743 603.394588668 945.109049768 1137.09265304 1372.4755037 1777.82727433 2484.89239817 3018.17198766 3476.36857093 3739.52817748 4046.52853657 4336.91349014 4982.20976367 5554.7678952 6084.655749 6796.73497194 7823.73609135 8417.66294372 8521.29293655 8318.6657537 8368.21522984 8539.75709528 8723.78776584 8962.19589946 9226.66664165 9242.46235905 9100.78663202 9113.61061784 9123.5213091 9129.47249633 9168.77750318 9126.98839421 8958.10215279 9144.47270703 9214.18582491 9160.08265923
3902.1790599 4018.99389414 4088.0868907 4083.53850782 4032.14815979 4000.73497212 3935.96428568 3816.87237523 3661.96083378 3514.11184631 3490.69711547 3378.761284 3285.93089611 3190.40720619 3108.08486867 3043.86119689 2757.14400963 2523.33952373 2330.79902006 2091.98174107 1927.53781117 1791.86306935 1576.87754284 1444.89442561 1436.44264633 1400.43499956 1306.88940436 1103.66354734 990.313708606 841.235438094 734.995989853 580.33183605 469.070877362 393.35664167 328.056437037 272.104374123 190.380791252 150.209963506 143.964224821 109.077989495 89.2253026959 80.656491355 60.9582100507 39.0154286532 33.6286009863 28.9729249639 24.6627727325 17.3612317852 18.8861345421 21.1572610646 22.8938892674 23.8726721336 30.4534236928 39.590533418 49.904832469 67.3533482593 66.9902952028 66.1337988355 70.8499405191 151.079717508 580.855006573 879.927180933 1314.29587586 1690.81044493 2179.07084921 2591.59949041 3129.85682377 3310.90438497 3462.5178461 3787.63072603 4275.69503433 5188.93715006 5471.15475433 4672.89062066 4277.70494106 5639.71452131 6976.261203 7448.42552241 7847.90306893 7968.55748932 8036.2076241 7983.45177608 7911.047046 7917.75002057 7991.64941305 7746.98302611 7630.93086476 7423.61032138 7152.90969001 7036.99570032 6512.69712861 6220.63268022 5990.45348534 5635.5566606 5052.93900528 4564.12962471 4014.33879444 3780.21435698 3231.50778738 2565.82566104 2013.75296647 1523.04092755 1360.52891427 1108.02477874 877.671128849 668.730013898 624.822031546 591.107534384 454.486594293 404.823256043 385.771611148 380.808752948 380.88298369 369.659215668 358.368173539 352.691517394 367.158890884 381.227513661 410.161556282 418.881439931 384.348651332 360.49556927 343.348678659 358.843644652 378.695399109 406.670109978 481.898139496 551.641219401 559.371355018 525.495171294 530.950059643 582.251061442 599.983880613 541.615539619 490.982708317 481.370848412 459.58874089 436.261946795 399.519083671 379.685950677 379.333971335 345.841201831 306.199415038 276.941522247 255.346493546 204.3388188 154.428866205 119.385811821 105.332793333 88.0596920514 67.1902817953 61.201009744 60.35929922 49.2410453148 41.1014822279 35.7491549868 32.1775062696 29.723872885 28.3366922863 27.9710348698 27.0382435846 25.6456809652 25.4304731007 24.6660679284 25.7188206456 25.8131502885 26.001510808 27.9834848533 28.3176427064 29.1140424631 30.2000571586 33.0914295685 39.5891551922 69.341495913 81.103316819 96.8487148555 112.464883885 134.900319301 157.977261375 225.067435103 258.184977764 349.165814128 329.164936026 377.018472213 509.797849879 699.403113046 1030.83087297 1315.40496325 1598.48517795 2103.63780705 2644.56584495 3404.9140895 3869.48799121 4028.48467384 4136.91346958 4725.42452889 5206.63626578 5607.72473719 6058.73039245 6918.68959167 7787.13631035 8466.55003562 8581.85638136 8496.84156978 8722.80702661 9070.79160805 9361.00208423 9769.7830498 10176.4236962 10739.6478479 10835.8094717 10314.4743857 10003.550308 9923.80186787 9946.71546695 10337.3324456 10729.7933787 10321.4609672 9874.86482947 9404.71093018
3587.46093085 3672.99081592 3754.33678297 3840.00278597 3939.87956778 3996.48775145 3898.72928256 3648.00603565 3462.90277356 3351.36951259 3365.90362001 3257.18618759 3164.44370419 3146.14039792 3278.9320158 3221.96653185 2917.00496033 2561.8254147 2210.27247926 1873.86180766 1715.71830328 1571.69767446 1380.86738125 1309.88461189 1264.30067643 1215.94389382 1154.74368572 999.982171378 890.835286154 799.608845505 648.40815641 562.455686648 453.607077043 381.421801117 302.392235406 228.039319313 135.909390151 98.2441894916 94.4754546434 86.7142543018 73.570530495 67.7554218592 49.777658027 30.2854735554 25.3936375759 21.0177247396 10.6623660676 8.46156933149 9.46129331955 12.5032969032 15.6806470535 19.2497018071 23.5449693071 26.2002570655 40.7157603808 55.3071889849 51.9488274853 47.0785833241 87.3276506783 177.364171347 594.483426453 1186.30397859 1394.68803561 1588.04656794 2112.57837897 2169.07849791 2632.33133705 3097.50252328 3976.60241255 4895.96255855 5675.77600809 6527.30583074 6896.13182372 6999.10568476 7190.57741122 8053.48869399 8557.51926203 8786.49890598 8746.67149627 8420.74924808 8164.99229545 8072.80511991 8002.09055463 7972.38867725 7976.05441538 7850.63219592 7688.95808977 7545.40082166 7281.2608831 7062.54611805 6544.19812626 6136.03493814 5949.65300792 5796.14383208 5174.27323853 4478.42920706 4213.52302284 4106.04844586 3650.02167716 2901.97734681 2164.77466706 1573.2261348 1277.74342766 956.53542008 637.417459246 527.839738575 541.346631164 537.361511562 485.138982576 388.651883041 364.331347058 356.677125366 328.932039586 322.752503334 318.239565591 303.31617834 319.946618913 321.406812091 332.725976106 327.422863003 303.008795732 287.891434145 285.16693902 290.30809742 305.938054008 335.382987751 388.876530862 455.971517217 481.434374798 468.739768675 483.116940277 509.006977192 507.373654156 481.075781579 450.447459089 432.862035195 418.86688388 406.812680461 385.472523257 372.037035002 360.098040256 333.487180539 283.678690307 253.070940172 215.070732546 160.754388752 117.441958803 99.5930055927 96.8960019497 85.2307370686 66.649610888 60.6266426731 52.8608524351 38.3240393033 32.5182690716 31.9680950997 30.924687358 28.7622830996 27.8522812695 26.9010845452 25.6121688306 24.4544493451 24.5333956835 24.9440569345 26.1261417289 26.069332973 26.7688747833 27.5143262168 27.9521264322 28.3482079056 29.5927177111 31.6702822994 35.8561297408 38.6945915333 66.9242506921 87.299926069 109.681532613 137.312567929 174.166214275 255.696813914 296.84261969 433.523931577 515.166589456 577.767501346 690.808874072 830.056208998 978.611100577 1410.83136087 1677.18411243 2265.02160707 2741.21771717 3518.04186268 4035.82520804 4157.28656968 4155.09098302 4567.23304647 5303.3836611 5672.92201994 5895.85162768 6278.32949954 7284.38072357 8007.17455587 8256.56632096 8566.02746181 9018.97773642 9620.07654356 10054.8089796 10189.0301147 10700.2216933 11621.446873 11929.8054734 11030.0580139 10627.2073062 10577.3904968 10479.1944614 11098.5849488 11845.2751765 11023.0574953 10269.1015021 9913.10644884
3194.29788054 3350.85512178 3440.47942338 3587.52544883 3842.10820215 3928.79573596 3770.66027833 3509.70799447 3377.38142476 3399.32676474 3361.37999042 3211.73836672 3068.66170795 3126.80879957 3314.17669311 3295.64611022 2862.08613041 2393.38850213 1972.32867905 1763.21510032 1576.16739201 1456.37434963 1259.46259571 1188.22744518 1126.01071561 1078.10932599 975.226175205 927.148357831 774.870801814 705.231132677 624.318441078 522.581537302 453.589576695 379.351557453 295.973838371 163.220735765 77.4521776035 43.5219365238 61.3306826629 68.6635188873 69.644661192 52.5202013667 32.3207304726 18.9700039447 15.8000013319 6.80638533515 4.50157695346 1.95947808079 2.23287961379 5.54141799571 8.30691055314 10.2951185811 17.4920111582 22.0657669666 37.2685415642 39.3991744469 46.012426016 51.6528749578 28.7823197651 291.806519028 656.118052742 1040.17815965 1185.95960847 1740.21413789 1962.19167097 1877.03839761 1586.96652627 2377.0046112 4060.23590092 5630.86006572 6651.08281907 7561.82384133 8333.80902778 9259.85026382 10380.3531465 10597.6935968 10247.6542802 10051.7907129 10076.123397 9417.11314631 8692.1995428 8131.77253618 8019.18897288 7955.11091684 7936.09612569 7814.77310192 7681.73031256 7659.24928277 7388.64579508 6862.67708513 6528.88115638 6055.51340632 5972.85083165 5888.6202416 5280.26004492 4481.76592645 4225.94348859 4206.90806358 3769.13211401 2890.332242 2021.95300276 1533.99888971 1192.84348505 877.119379777 551.77797725 457.524657568 499.793709745 507.312222775 395.470488862 369.132839191 364.671709914 349.954059049 301.243129157 279.413546946 268.845913107 261.836919537 260.855928388 263.690840533 255.813612467 235.694712062 207.339662955 204.165053652 226.608384283 226.798150656 238.428254679 248.212134305 285.018143821 337.513103264 376.516697001 399.721786353 414.614650562 423.649573386 431.088693454 431.437627615 423.112849777 413.825097597 408.082636701 402.351371526 398.783020547 372.849880858 344.225801086 315.758574646 268.73341256 229.173688164 171.026122665 132.841366113 101.365818727 93.0433900707 92.1372287578 76.2599762809 63.4390353827 51.8357416165 39.2445493783 33.4916464529 31.4245533752 30.5665726507 27.4129159953 24.3273040928 24.732804334 24.7859434939 24.2175965024 23.7837118461 24.4202533634 25.3106668295 26.0432650276 26.4379236708 26.4470323395 27.3891147018 27.8309717334 28.1261036959 29.5567795896 30.9662134005 33.0554245185 33.2464900944 52.0251364415 76.9097193595 108.891891981 138.444374935 173.013165556 267.104503613 332.818057179 398.312760701 596.808456253 742.938871559 850.249768145 935.899742426 1046.15654948 1447.64252648 1677.33896486 2042.1375704 2610.7148836 3324.71489225 3821.25951084 4005.2373776 4059.02011446 4510.36628381 5216.60397272 5754.80520949 5808.72845731 6014.21328851 6503.23470514 7271.83624934 7848.7688382 8388.13007871 9354.28509116 10309.2354621 10926.4798342 10650.9855655 10628.9536024 11185.4376545 11369.7846352 11060.9534205 11186.3550784 11289.7491031 10863.7760826 10800.6195457 11104.579505 10715.8662931 10391.9371568 10066.1899673
3141.52133134 3253.14503987 3320.7982739 3357.87337727 3479.46272391 3558.3646001 3466.53603381 3322.54538385 3344.16970638 3525.6609043 3550.94627341 3287.31610744 2905.42685097 2882.05629843 2996.77509836 2926.22919104 2550.73787774 2067.17635961 1781.9967476 1616.520004 1451.45269706 1238.20859391 1160.55035608 1103.32110367 1029.56927272 1004.14379335 954.385989632 862.882936703 752.30634082 673.694953958 612.399412967 508.979061766 431.913519966 368.640403014 249.16181715 154.610708053 52.0450413805 17.6927723768 50.2887545151 62.1666353455 58.5794635383 50.5319585747 34.6684499564 13.5921512949 12.2123211752 5.42089624389 3.4496294591 0.567524528611 0.772686028198 3.53746117157 5.85037867119 7.2794315996 13.5245517868 17.9186299675 33.0754074806 36.944979874 47.4000866377 75.6542990674 87.966610231 373.141420441 769.537086234 762.899189265 767.591673247 1368.78060594 1861.34062571 1505.87744338 512.558161312 1736.36845188 4270.67221106 6078.60233403 7558.6835902 8599.14590568 9403.47644464 10723.1597129 12434.3939077 12735.1931166 11121.0792855 11160.0652638 11940.0984461 10607.8002127 8847.09769519 8275.15090052 8003.87702417 7810.37541059 7807.38946475 7755.22482498 7694.73125561 7644.92352037 7373.57950335 7026.17745893 6723.19277552 6169.525389 5995.21224297 5837.04503335 5235.07275604 4477.15603451 4046.07650433 3892.43470893 3341.01538214 2642.49663982 1860.32292461 1421.11354623 1124.21047883 774.608619289 607.390299611 524.658371509 516.656536801 418.368157344 377.861118927 362.948242497 355.280765512 313.92711739 270.657704827 243.478039054 211.556456196 202.724175811 202.624542573 198.033937963 198.015519248 169.136197776 139.519368807 146.438124503 169.386701528 185.056060196 172.563898405 166.053275801 196.450987622 252.216266347 283.087630086 305.030081821 339.091578374 360.526948068 390.86229505 430.267035533 429.144531518 402.0223396 393.264486931 427.005503675 436.810438722 376.063905088 320.63014077 281.058407089 241.555826551 191.352101324 148.842494146 120.725588317 100.13905775 89.4406081636 82.2252967326 63.726389043 51.9369855112 44.0134384294 31.6735573334 26.2380138796 25.3238062577 23.9946303553 21.494665586 20.7760534961 21.7714762283 22.7908162941 22.9725389812 23.2762637217 24.4537279827 26.1364060869 27.0707505173 27.029372594 26.3993468738 26.4914670449 26.5902906605 28.1794867444 28.4748611297 29.9054513502 31.4017480118 31.8723754136 46.7825855942 71.390203577 99.1364253952 135.570267711 173.747265359 272.761663605 340.250305924 434.478018601 583.00733392 872.314722175 966.790629686 1006.3030621 1134.14256243 1431.27036275 1625.94309271 1887.08544724 2304.62186953 2744.6288155 3369.03340887 3665.36782296 3905.32635088 4426.60069772 4994.85601332 5599.10799327 5757.7483215 5912.1772131 6210.09082345 6881.390128 7248.46282165 8157.53667056 9248.5997766 10441.9192069 11260.1198424 10745.2950214 10351.3280459 10476.1618994 10564.7866189 10725.6963398 11597.4554251 11960.3234368 10875.9730434 10302.6080282 10285.4636829 10324.4930845 10708.1742514 10449.4447825
3204.97801699 3431.24452204 3362.44586982 3194.9568759 3125.7059151 3118.88064771 3093.96558546 3093.20721078 3235.7713491 3523.75448459 3560.13658396 3140.04432745 2752.43596407 2529.36822732 2459.79734601 2332.8063794 1984.56459205 1712.65360397 1544.13823077 1434.96072379 1325.05537221 1144.9730853 1082.37360109 1031.38790678 989.598446783 989.793790132 964.544984539 850.796586355 715.167777911 639.595168567 578.61500398 505.226562339 395.324915041 356.165083656 302.041359765 214.017685515 107.523314155 70.8233400633 80.2386217428 61.6573300092 43.1132082249 32.0833577091 21.0309824574 13.4562159824 6.89323775461 4.03584891641 4.05925723912 2.60751507083 2.64160294738 2.6563921988 3.14744742486 4.7481197474 5.74186449884 13.5121450671 26.3184394164 32.1312903358 131.803929475 146.233555936 314.136596413 406.544769713 819.226837425 556.886709132 225.081716923 1002.72046111 2022.11103629 2221.73217159 1724.90707671 3161.72377941 5551.83636249 7201.80216728 8275.70930156 9249.87627889 9877.52418356 10878.5258687 12211.754869 12383.7158853 10881.1815705 11065.8370376 12190.1941468 10412.2285163 8770.23634063 7966.81760534 7589.02918283 7558.95148939 7663.59277121 7762.26359875 7734.59378883 7242.44230022 7401.36528442 7366.98867229 7018.11178516 6519.27011028 6165.21192421 5829.18367471 5146.69917516 4388.73314441 3738.37237282 3212.96999043 2738.83753091 2195.16413869 1600.21339091 1266.04850932 909.489589271 776.467503901 675.885414893 598.267831826 534.013985165 395.190048156 353.844535875 311.327896213 271.866293011 248.913303712 216.46488159 176.939836006 167.237700838 164.81792715 146.424481754 143.610652828 135.679214249 131.656879741 115.645493095 123.028768695 142.77121585 150.535559885 144.760727411 126.079121619 150.627773809 186.677274424 216.602712006 248.374904226 270.548209488 295.166904897 348.907580086 434.687649862 434.631074577 377.144060316 372.871959158 421.593865024 434.986316563 357.958562898 281.308520578 237.04928546 203.401273677 169.333774528 123.297692464 99.719442645 84.5292680052 72.0113523215 56.4362983605 48.9693904879 40.9509582958 24.7735540874 21.1371203344 17.9273657664 14.9384008934 15.6661352815 16.5142837792 16.9932638113 18.8152124817 20.4640153023 22.6610877847 23.7817612387 25.9546242066 27.1098203338 28.5862141223 27.6769652699 26.3620359023 25.6245590609 29.8684871589 24.9277586838 27.1448210101 28.2209641175 29.5527625612 30.8362369128 49.0524773896 69.0193405681 92.8604831631 127.776990861 163.703285683 209.247279857 332.033799225 439.998431615 621.794293955 900.733697116 1064.190491 1048.54585832 1127.90871877 1288.23316148 1574.30602578 1663.95839879 1936.90480067 2318.8380974 2757.36261366 3096.58511845 3625.65245618 4184.4982908 4637.68578935 5023.30657446 5556.71940751 5676.63744966 5843.80943357 6106.40156693 6850.01547766 7412.81317719 8663.31782992 9545.59059212 10127.4716334 9864.20369995 9598.70708505 9544.72948462 9946.73644213 10212.2780136 10767.3914216 10850.3404953 9922.89407584 9405.81391391 9415.99415474 9946.40813778 10803.2152521 10322.9291837
3186.29429644 3578.60194578 3437.41555322 2992.32991256 2812.28501689 2737.94764945 2740.54846748 2764.27926678 2778.5417881 3010.62859896 3020.95987147 2707.63205938 2371.47527841 2182.22592819 2013.95942354 1740.31019207 1521.85539841 1361.10509388 1299.38535193 1265.14423079 1124.1063351 1069.13016656 1022.74138575 984.191697172 936.533507529 939.30197205 909.352173791 794.531673572 658.141114417 603.131625363 560.99935848 493.977756279 414.351244379 393.416376473 358.304513018 275.645033653 192.381153928 147.937547476 105.861036058 67.3893920877 23.0455091199 7.58646820574 13.9161244467 10.4369503287 1.01603367611 2.62167772334 4.04522562683 4.21180568309 3.81593862861 2.23673316261 1.67948436567 1.67263803864 2.83420943716 3.53650936552 13.7824524033 20.9515334797 99.3816978492 270.89370912 479.982453856 712.268432388 1113.17775503 767.827823084 506.792558424 1325.59659738 2600.59666942 3368.00396507 4253.4680378 5651.59900565 7674.73229663 8796.39653764 9227.5411097 9636.5570332 10378.7241514 11071.5322515 11053.498919 10409.1071377 9702.69469414 9358.29550578 9100.57710078 8411.03865869 7526.12687057 7297.19558008 6993.45780549 7662.59739504 7944.79248686 7715.35667864 7430.09441006 7359.8077078 7350.71741514 7709.74826103 7781.90167292 7197.84755846 6562.02331165 5721.95722895 4869.82183489 4208.71074349 3179.17864425 2625.89890115 2091.58015901 1682.16902704 1334.82518027 1113.68401157 831.467482716 747.518996318 693.77730566 616.596748368 511.164354777 361.768713255 277.043061926 217.755959678 180.906526279 146.997373719 115.45139095 126.082886268 126.6937516 113.083027995 115.051728075 115.032405243 111.320594346 108.121329844 113.617095364 116.929497146 128.101543528 132.93067964 133.767481873 132.896523004 140.939175573 162.126194391 179.141204449 202.263838458 219.337263147 229.802087417 246.136466626 317.297304977 337.595776484 319.768820459 316.134604488 333.360749443 315.312767614 269.780726223 234.409360426 210.173117138 178.526957141 135.220836209 104.251815459 70.7976446346 47.9191937296 42.9108603672 40.7284816362 36.712676599 23.7175592286 17.2077971511 14.3825610872 11.0615387077 6.89153957424 9.23368039385 12.3443222478 12.9169320251 13.4252533192 18.9814815402 22.5180220957 24.3972430604 26.5765191814 30.0366608153 28.9032950588 29.6685525212 30.045872144 30.3101299414 29.6237903692 29.5348489084 28.3869705747 24.9663625243 25.1919665514 26.1215307493 25.4901883423 57.8555964273 82.8871379379 113.68479051 146.049838774 185.711524701 292.805884318 385.452985567 558.312669842 867.724205224 1066.04676904 1035.12005355 1101.81672698 1279.77654062 1471.9829612 1588.66200833 1671.1762758 2047.95490231 2462.19084683 2794.44487338 3263.11436942 3879.42223241 4298.93161864 4763.2577884 5282.73307356 5646.91500028 5695.79567255 5724.79777481 6076.8921613 6886.89196205 7375.68634707 8139.43480756 8412.22676733 8498.2868652 8450.57361639 8729.33766438 8666.92729536 9104.33301548 9084.06086655 8770.61867407 8557.99948663 8543.09398107 8591.09868966 8814.5180121 9312.71520449 9146.99628942
2766.61025052 3055.78456891 2936.00939307 2587.70766918 2370.97161101 2287.64681472 2181.04657727 2204.43010461 2294.10351013 2342.52824639 2306.12366287 2139.23930284 1907.59597195 1777.36419229 1524.56970862 1387.51529865 1287.87518786 1200.90462767 1197.06540264 1118.42024651 1010.39000942 988.237550779 952.824058907 917.012020321 813.544800141 813.406650598 778.336464077 676.549476628 608.394601687 570.907774634 548.022754929 475.332140691 421.939337896 418.477143234 397.023945079 331.152869721 255.771319393 205.174880628 135.956354744 87.6834806465 36.6493137602 12.9974750667 18.7442235015 15.8460353244 6.28030436809 6.95781784909 4.98178769341 4.74356681923 1.88158629959 0.716955014525 0.293570873486 0.283957525261 2.21903558164 2.50044411388 2.52597480092 8.66677430177 182.969564039 447.986645001 578.301096895 874.879393742 1149.16896595 1376.20747474 1587.90977488 2249.81089373 3569.50423516 4636.7909727 5749.70204728 7862.30649206 9827.47454068 10175.7019021 10058.7588398 10426.7125264 10969.8324068 12248.6500725 11580.7678768 9082.05125833 8054.52044739 7188.87989268 7030.49792868 6896.20516226 6765.52403416 6449.02899032 6618.68993221 7416.50531573 8015.09964288 7576.94560161 7286.77668049 7408.13275805 7769.36518151 8519.78482935 8901.28983372 8076.27346671 6874.26565176 5839.24482105 4520.45898808 3797.43319485 2838.89085477 2172.85762488 1529.8998999 1162.56730857 1159.32291692 961.342695666 771.049721848 727.488912993 694.821411512 486.908696625 345.730843188 269.709990476 218.294091995 148.786843813 106.904995686 66.8249862222 61.6194893818 76.0759983518 82.7082447554 84.3592141616 83.2242469912 86.2597263666 75.2150409757 75.2897961328 87.9210716631 112.589749921 119.398460298 123.749932188 127.237972554 123.41277178 120.284301327 128.922109694 154.216805834 165.41153046 174.899985482 165.826725404 140.581903023 181.985158181 239.456359412 257.114799061 249.258016278 244.300615981 215.443519648 185.419682295 187.335295024 170.6196171 145.088670358 118.543435867 86.5663244292 44.1438425799 24.5461938676 26.800042808 24.5581757556 20.6093588235 14.3109039359 11.4474998171 9.58158563779 7.23706582064 6.96699144068 8.80643178205 10.4913675396 9.74218329293 9.65829409044 16.4812597976 22.8145565913 24.4627529792 26.5825037077 38.1912947963 31.823110929 32.5490765081 30.8406957423 30.2918222787 30.6132299742 29.0666806139 26.4940985421 19.3089573376 18.5987118036 18.2087893453 18.7436065963 22.7496095693 63.9142414883 92.5201023725 115.967293315 152.598128621 197.129865633 282.291768133 371.608723704 619.448393816 803.179649207 840.316206346 985.808594105 1225.76261991 1427.00975722 1566.47442394 1605.82814311 2003.0306851 2312.18368858 2539.94571563 2798.04922592 3342.84675491 3786.24000716 4502.74615758 5582.10597466 5951.37759298 5597.42207347 5527.2313041 5805.6598296 6106.10332627 6763.88552843 7059.79413559 7302.78041579 7230.49550875 7228.39631271 7382.85009504 7728.68322301 7915.24724751 8080.21719791 8036.49887627 8009.55256628 7872.89802617 7937.99528509 7953.78775268 7843.2352185 7690.68460016
1977.68444721 2004.47413018 1978.50108224 1899.04902779 1807.98665825 1758.64828394 1753.18000853 1835.68947418 1809.00995982 1767.60501215 1598.21232353 1533.6829029 1511.53009127 1351.63321864 1280.41155063 1209.77080741 1175.45406495 1177.93415966 1150.19240081 1006.94327051 967.060536275 1020.98942914 951.923802903 795.249360157 735.687866023 694.385596738 622.450275152 575.611053529 567.037607788 589.419076309 563.635254407 477.376129928 427.952542562 413.984834716 397.688674829 357.200280083 298.466575393 233.778649563 171.596072295 117.995871729 83.440075855 63.4639858051 33.5043316773 27.5621257421 20.3559246116 11.3148981292 5.82497421571 5.05707694758 2.09349733498 0.877011645937 0.485908522922 0.684031923307 2.65501711342 5.22187596653 4.35497516227 40.4243518617 111.104642973 341.746814817 785.908598758 1123.87354331 1202.00717336 1369.21456877 2047.48365578 2826.66480411 3805.24666 5243.09570094 6414.11340751 8551.11324144 11526.7475069 10912.5004 10640.4866423 12302.2777413 10988.2456633 10982.1855916 9874.91261769 7433.08015352 6653.98883105 5998.30953715 6275.69120298 6481.23569302 6005.73251954 6416.05923194 6116.45073212 6265.06052025 6617.56239259 6986.49297344 7778.68279784 7739.3146525 7940.44088298 9575.53911755 10677.4523611 9193.88746791 7086.82135806 5604.45916726 4338.53482169 3526.84474691 2568.66328629 1934.82309003 1329.05708335 1055.03183333 1044.44581708 918.948364889 773.080307014 706.293239894 585.353525836 417.044088444 283.256350474 217.519947018 146.62696162 112.162113166 66.4319964492 28.8141666516 35.6576301239 42.1696081845 50.1285716231 50.3846408096 54.3843921305 53.6290598681 41.3436082667 46.7425236316 63.7265464099 87.7086724895 102.077685928 105.335424077 104.046154175 109.387825968 88.229269242 93.0286283179 118.74710666 124.473052546 127.052260425 140.751275839 115.467633434 143.207552165 188.709762024 207.250493678 209.451592181 203.335709035 180.361843146 161.154277722 168.185912967 142.964424091 116.961826103 97.6897753879 75.6862586084 49.1422661397 27.7560087115 24.7210549705 18.8088228715 12.5294256996 9.19210344915 6.92641578925 3.45602651559 4.56548449968 6.48328007487 8.60412209019 11.2469548958 12.1677992721 12.1458471806 18.0920911406 24.0750725446 36.2443674472 38.7566381654 49.1858721541 40.1101692652 40.7402823107 43.3914854181 40.4914978036 30.3986097118 28.2120711806 24.8729949823 16.7404047982 15.9267182852 14.5141805879 12.7253301787 18.0407483857 52.3588722153 73.1606676827 86.8424137367 111.272086936 145.016808864 146.029859172 171.953139927 346.107836181 534.555498798 651.061257817 755.923896641 1115.01482755 1317.89227714 1541.91143296 1672.14045123 1924.68218827 2192.57028437 2376.325707 2580.23532394 2854.61567362 3438.15045993 4227.34776374 5824.0699991 6215.21148229 5110.13429467 5330.08204851 5590.78820412 5774.72794078 5915.34841834 6850.13782485 7198.83745226 6821.62203449 6551.78431218 6376.45341023 6399.95935333 6424.40897822 6523.63586452 7419.42903624 7540.20344103 7182.84129389 7656.12969935 8000.02117907 6973.1630797 6401.67265547
1472.48620657 1414.70170811 1454.83086567 1484.04046709 1468.07942622 1451.03360138 1448.12573774 1448.41027503 1390.05229029 1345.89149149 1183.20088632 1159.59423084 1168.81365109 1139.63967215 1092.59388736 1056.22572765 1063.76963488 1063.16106912 984.193522621 906.785366981 905.464524249 995.884638045 919.441710285 712.208782706 603.940187291 556.793528899 579.559642121 503.984036836 516.138338642 568.698462035 554.761889736 465.176484195 430.972869522 398.603897077 388.404048382 364.67378982 313.852190784 271.940020576 218.087630436 146.494462746 109.63994461 95.6366748994 73.9412826207 37.9015830597 18.5617008687 9.84341353129 4.66516530497 2.76027863901 2.09335395487 0.971345383396 1.03805091885 1.28893760832 7.27291505558 8.92730604117 73.2618972659 92.4203297958 137.429437359 355.669854458 831.74354593 1147.78770274 1375.63592523 1226.20356653 1694.98009323 3012.54723768 4179.75196793 5111.67186247 6464.14850223 7633.88298139 9057.51575996 9165.8734269 9560.37431721 11654.6987163 9902.67415327 7932.74154547 6553.35520973 5776.93307472 5541.25875204 5247.49111803 5199.45303036 4875.64435551 5012.51620369 5951.64066282 5274.92611252 4573.23486175 5207.49258032 6735.81281757 8973.31428329 8084.10939097 7555.42107181 9369.65652803 10859.9952137 8955.31684647 6478.43132212 4984.11051698 4005.77317883 3275.7203447 2419.08987111 1915.80186196 1421.12396455 1121.65405463 994.867191094 856.544110283 717.003235683 498.348227474 369.871957769 232.086819348 196.196026664 134.189459387 106.095503659 88.6824137338 68.3685029612 41.0020647215 33.3299604808 35.1271796966 30.1839654292 29.2243647746 30.2156876645 31.2402101742 24.8928099911 26.5903977228 48.9824978619 74.2849218293 86.6570200893 103.197598043 106.413394203 100.667923406 82.7707362997 79.6611795759 114.424118174 101.722573527 95.5552087044 140.326590072 152.011442857 159.319442834 172.998008755 184.556314636 188.60772628 182.940659295 177.493602344 166.254565917 154.201763706 119.594021508 99.1511345463 97.2633718406 83.8729062892 49.2801880351 34.0830691337 21.9239011365 10.8109331315 3.9254035321 5.44082066916 3.57457296742 2.36694749758 3.54606904375 5.49096169233 9.55541438811 13.9148395728 15.4301754788 15.9258778797 20.0386294856 35.3549285965 40.8751332794 56.6848702531 49.1602714525 37.2860241966 43.2508855008 52.5499269551 41.4954434547 29.2180795741 26.4627414931 22.5307164803 14.1291341549 14.1870251543 13.7273956712 13.4582633892 19.0811236992 29.0957876897 41.6777725849 58.023288617 81.4506046008 116.526888205 109.103786866 90.2611691144 198.603139164 388.991326176 508.797697316 625.783199361 863.102802283 1078.51672584 1350.98991129 1834.76084824 1999.00568181 2035.02361123 2125.62448341 2326.88242287 2537.06793922 2924.32202188 3278.65975288 4193.70553043 4748.51695125 4442.22308424 4867.44118263 6179.88684962 6025.79947133 5517.70517655 6145.39118315 6415.45465953 5748.0548111 5580.30801917 5726.39892498 5445.8874765 5495.15731292 5374.68806872 5703.09680367 5990.75926345 6260.84327217 6482.0828117 6256.92720231 5328.91464791 5163.65384177
1291.686749 1344.78408776 1298.89713881 1176.59040261 1207.88234092 1208.75126723 1086.63907023 1109.97642423 1103.93505738 1037.4141867 1051.35349972 1059.58779698 1042.37475526 996.384751294 951.339038867 930.568805454 831.24282933 812.067151223 776.386350817 728.101101084 688.322221476 713.360467724 643.01232768 532.644590761 480.444081365 496.962974496 500.617181028 502.101383634 484.803303271 500.251244283 513.886183253 490.658424628 415.318201493 413.296512203 400.250687471 392.877902374 342.712482405 301.760151047 247.242105828 148.274039026 98.6150582197 95.9329602436 80.2350254851 50.4372528434 18.1613705062 2.75026300477 2.08978310793 2.55140097452 1.42374525767 0.848913056607 1.11818850923 1.87722608841 9.9857323462 19.7295806048 110.325382555 109.528397145 134.06143203 325.704790046 769.281917275 1061.03692396 1251.97750403 708.658679441 880.686519936 3242.2140069 4530.64895536 5368.90393988 6294.83312983 7182.56010726 6856.76556308 6337.12574398 6594.76691624 6586.22924776 5806.89514642 5109.71388691 4398.77549712 5039.74223825 4457.47698978 4595.895964 3605.04622133 2941.08934693 2930.96186835 2595.90517221 2871.78697302 2968.187313 3440.66919997 4940.62111761 6953.35276083 6725.58879847 6310.30685982 7147.16190535 7666.13244179 6388.45013691 5056.31207019 4150.72222897 3573.00471054 2721.37559187 2247.62164356 1711.11147026 1299.7704329 1180.4728272 951.989275549 687.489365909 543.634575868 349.193944046 182.430591923 91.7881934956 119.508169077 93.42980428 59.224283598 57.8269172959 58.2405291278 34.7133837324 32.0325052653 28.4159205704 19.6700527054 19.9385919808 27.1885436082 31.8447063225 29.0017899025 35.502133023 51.2479188949 81.8153793975 91.2013596793 103.93151156 100.33639987 103.11838819 109.215306238 110.688875125 131.866141303 121.138047511 119.603315362 161.015955436 175.172188226 171.196036042 155.432559282 173.504954182 174.261892788 169.777800139 170.76618696 158.283348467 138.974565674 115.534286114 100.675477151 96.8406648335 74.9846956267 53.0486153491 35.6136935501 20.6976259383 8.77438775634 3.73749977165 3.82669651091 4.05307119131 3.26742918748 3.55392717164 4.57948233855 8.79421776268 14.0094094795 15.765256977 13.1054448619 25.1631980343 45.2452730914 49.7913148118 60.9347894822 53.3335055236 35.1231523922 44.3273836626 51.0683664456 37.6041494517 36.2481941136 23.2634856863 18.7175854069 16.307581153 12.6188288044 15.0879653815 17.0414020416 23.1840862397 30.7410624449 42.1223875705 43.9758028069 66.5022179288 102.561041045 116.26681909 123.883469402 167.019586981 253.433489865 401.875777417 504.172961371 627.606669346 905.905546761 1242.99461009 1868.5555064 2186.32587843 1957.34752647 2093.38378358 2353.40694148 2326.2484898 2783.71745097 2883.08506246 2778.64169486 2925.24072849 3340.64545445 4182.90915949 6044.02794012 5619.46198694 4448.69707702 4712.60124682 4814.19234205 4871.98217215 4999.69041636 5382.63689822 4969.25916224 4987.7267487 5241.12337584 4976.60878191 4670.44903886 4849.02856137 4699.84372489 4470.40440403 4079.84787264 4147.5915798
1048.91550025 1097.46427051 994.226660985 900.73131461 887.161325376 865.195275077 860.521255709 882.784410798 929.50027068 945.375420599 982.063588508 960.670888211 882.245048848 843.602919441 894.670956287 875.906971675 688.272979694 572.603717614 482.301522641 453.103830105 447.677979384 415.418798501 320.631324246 324.031795141 398.126739925 411.244261104 499.663778136 541.236268965 419.353459097 419.905667859 457.261598142 486.15117702 489.649094368 408.954094881 420.467763999 420.674257035 380.318325754 320.497029821 285.152303394 179.491288765 111.435798568 90.6874554348 68.6557628869 46.8153494835 20.1436926893 10.1668684504 8.03639605264 4.9607028315 0.811468077125 0.471228780593 1.41250025424 6.9817446956 11.5135644998 25.0971360074 105.135614439 73.3371153242 58.771390006 354.345077344 591.044134324 539.728633737 1354.41739949 1596.67542043 2424.15396453 3935.46578567 4451.27917383 5529.5124685 6069.350497 7599.20246265 5697.24841286 4712.9857279 3904.3404257 2915.39106226 2928.01790219 2927.61214941 2201.33397492 1875.14004003 2454.70354448 1808.86400569 1432.99895863 1652.42063168 1294.96319417 583.764048049 1188.7628978 1501.74912117 1808.84872561 2244.45095226 3259.46645538 4052.69330158 4439.84403672 4857.54273257 4660.55318102 4131.77121468 3759.97735621 3409.8063802 2885.68451226 2264.48841333 1869.99215629 1524.70708548 1355.88096322 1162.61144369 821.864140663 611.388481438 386.470761912 272.24009717 150.622472811 81.0310417711 84.5324160211 68.6131912231 42.7176504104 44.6574928845 29.6675932498 20.8277749383 18.5879417502 18.2542317032 19.0828656758 20.4614727257 28.0583077709 34.3859935216 46.936571263 58.7186519315 56.4253468936 74.451845876 85.1284764908 96.7942721286 83.4761171878 98.2227878099 128.462274852 151.779370449 174.033995393 174.838159177 176.8709842 185.381220334 185.900622528 185.556830095 171.64736596 173.008040722 168.809441183 168.731957819 165.823182366 148.608280211 131.88342153 101.335356965 91.9180527806 84.8187414191 69.1062826141 50.1104944829 28.340556759 18.3215034234 11.3424727192 5.10777210164 4.08783305257 3.81584118194 3.29852081076 2.23213889755 3.47923447728 6.96925219413 11.1876927333 21.4473748513 28.7484734894 46.6321884347 51.081720961 39.698682083 71.8001494802 80.7445807946 75.7945883426 71.5467069488 42.2792366702 28.8806714431 31.6182815925 27.4240930303 11.7450117978 10.3400043978 11.471540776 14.8416352254 17.9028249926 22.3110834693 28.7593606958 35.4098397641 42.6191006228 47.3516643788 57.133887626 80.2499956228 134.452647043 171.628774787 188.767878539 274.885556223 396.99081747 488.840924756 639.423436562 848.578415016 1298.83890179 1648.51275066 1601.95877899 1904.05634381 2439.6718135 2086.75919841 2169.86958247 2230.83660786 1865.83561465 1891.07301575 2035.64963783 2635.89680274 3087.73942059 3272.03146451 2987.62618515 2983.67855969 3295.51115464 3555.87625241 4471.30043725 5082.84706196 4172.35133642 4108.90195861 4147.35898071 3759.62594151 3312.22231594 3276.60311144 3343.44736018 3389.35338337 3775.93127314 3771.79852836
804.535193686 826.862487512 808.334861923 802.072229323 809.03508037 762.118324168 756.931913329 793.524092877 866.37971998 819.748786937 837.165294933 712.998824517 678.856606947 664.662496777 749.876632409 725.169138498 541.695400985 427.380092315 337.126838964 297.351511803 267.922679105 213.016118141 100.883898488 179.32399711 288.703919034 374.880859537 480.163415422 419.880089683 225.406351538 347.212216672 509.092099918 524.766514274 488.31393126 403.670933213 411.947917758 413.263435576 386.730993893 322.273059159 304.802206714 241.069013664 161.488212935 61.9001686513 32.0442645768 45.3325281926 12.9848577524 19.0505145295 17.1093031972 7.63483092735 2.93954291485 1.94812375595 1.75880355421 7.34998832051 14.5531192229 26.0910661628 28.3542510756 99.1115291815 124.608689608 360.105552798 506.476435478 91.9448650362 1334.53548132 2514.91461956 3552.99469045 4213.90622067 4447.52501949 5369.77999689 5227.80355856 4594.82601923 3659.39566828 3288.96192265 2921.61014706 2204.17923653 2042.63285745 1457.21587241 1218.59360359 1094.87739172 985.167573086 831.068998184 611.884706098 576.14630233 635.942273995 649.935829528 570.495394494 618.653850315 893.059293544 639.314171716 1299.97853772 2177.45002137 2716.19248192 3159.89345974 3366.40300798 3529.20120086 3564.72874258 3099.25785383 2478.45768428 2287.23236059 1909.94400786 1401.36859437 1383.93221656 1062.49534565 718.113762197 517.531432156 321.799528675 237.972405443 163.355444938 101.328157393 85.5316623727 62.277803856 46.5698654496 30.162878275 19.8585787596 16.4366439067 13.5078934332 15.1848758562 17.734070409 19.8751624959 28.7665535684 40.5881989428 66.1672581673 72.1101345251 66.5147058151 51.2471577318 82.6500610758 106.905755141 57.9073056808 67.5104516497 151.504942718 191.033756798 211.007972614 212.023856997 179.921705065 192.823122981 193.626474966 186.763990735 198.137754767 186.822105073 176.885034531 161.115328761 152.39947695 140.234437935 112.40809039 98.9989563384 91.0726219969 80.3073386207 61.9892159898 43.6316716293 27.9144666841 16.8660071195 6.73643302744 3.89838175034 4.03636121945 4.17695470311 3.75836341159 1.89514263921 4.27688024628 5.56937034575 3.3770324117 30.7955960814 56.455889228 69.7642109641 70.707190683 63.8305428239 113.31908935 131.899025818 128.583731465 103.177758667 43.865275851 12.3815764799 37.8790524561 22.9488201076 9.72707007908 8.24805036084 10.8499522731 14.2766249388 20.1777713131 23.7118883506 25.0105598495 28.9145344852 35.6338398589 42.4574253348 51.2081302637 73.557176776 102.524001802 168.482855865 185.672555056 183.842674667 274.982691683 320.274890107 410.523052274 449.040073479 719.704776865 989.658770502 1121.54956626 1250.85099756 1328.58617974 1219.52990799 1299.43087588 1147.2380997 938.883585493 1149.05401701 1253.29634838 1408.25227318 1165.06244624 1425.37724906 1857.57959615 2018.88776121 2148.13364511 2446.68387818 2503.67498452 2765.95361827 2922.19730036 2756.6916839 2738.22643225 2784.09928521 2461.96890308 2656.42071671 2544.82832009 2390.20589036 2836.14297152 3021.86953184
576.446434992 627.256506241 708.557626781 687.325808878 697.931013371 831.535007679 769.815926993 778.875987406 922.850709871 818.882497608 661.52244411 586.487347297 520.517632508 501.60591863 460.387574576 356.904427624 274.899268614 244.587103247 217.425616781 198.603931824 138.717676477 128.29179057 92.2218416694 182.261618124 316.332884796 245.446632907 360.616176539 478.102465964 267.374429974 468.521450856 597.299618047 564.647411246 532.770755897 424.578388912 424.383544492 401.997597077 384.405534419 351.072586457 332.573673298 284.600233114 195.031007529 116.257780143 77.5789000164 58.131208693 26.3652275673 25.3291356875 22.3269930235 10.7424985412 4.53264343005 1.88620227639 1.31390863259 9.28571367488 14.0110321929 24.0076328502 35.2640840305 143.131184152 246.879905872 572.480970579 893.907214081 1150.40648168 1966.58605833 3127.33070083 3976.33003988 4556.96976694 4581.49268862 4373.92110641 4107.17782782 3286.96463617 2925.93413353 2696.53297129 2821.72741906 1772.60706727 1242.82407615 1173.50151012 899.52986563 712.174116461 570.293918975 536.717037628 486.966723024 397.479818667 284.841873725 418.698906966 309.192282301 391.084990599 571.531637462 634.274582721 692.896811997 1336.33901067 1734.07063643 2097.63481139 2426.85374146 2945.51566297 2983.70603761 2499.29746568 2378.93707479 2497.2781452 1842.7771433 1344.45748028 1143.39799732 778.551521982 493.562333666 342.662466754 260.482361867 173.070914769 142.50550047 106.404245946 58.9490609498 36.6755291773 25.4240878129 15.2992740704 11.5155415319 10.1550482814 11.5596129067 12.3671662159 10.881477766 18.1615040822 34.2858156789 58.4612969981 82.6697009919 94.7964749744 78.6324210946 59.2668340901 97.9655095592 127.534390405 122.641616209 139.054302768 206.427722674 234.044854589 260.407617117 265.0218028 245.764753922 231.455727309 227.042306209 225.834160106 227.005068378 207.87907296 174.324545623 159.105491806 149.973661814 120.936575705 104.537539963 95.4587265316 96.5402919719 81.1032152947 54.7010379987 41.5904184541 27.4843992169 17.4828299743 4.24380669012 1.46919937884 4.7202462028 2.64332555347 3.63890279334 5.63858768998 11.1807388074 16.9976501187 20.7404495463 38.7056632316 74.5000343457 100.801443634 118.069349148 132.900141142 164.993525951 194.143318834 192.296465488 158.905274735 101.630658421 61.191948015 56.5070949384 38.6500072789 20.310456802 11.2221029317 11.2334629356 14.9232533089 21.4331502487 24.5224453528 24.433911673 25.2925097994 25.1967483238 36.9841423568 44.9448132523 59.6575461509 73.3639238052 120.041837949 154.445949846 194.356939223 286.731897431 280.059315034 339.984059934 371.15614769 446.64960621 518.100773074 573.937569452 685.906861581 483.025193645 545.760029884 625.836657122 661.039797005 755.959677736 728.695438467 823.694046601 889.272586263 956.851873805 914.469641466 854.548887713 1324.04754598 1422.64060954 1265.95999495 1157.67521717 1132.8943411 1537.39111367 1684.47183684 1737.46222767 1902.47909718 2184.51924448 2310.36426846 2194.64496696 2213.70309571 1967.6184196 1902.66610199
410.511263345 417.503051533 475.894759007 512.205289136 569.665459018 654.82936772 612.080683301 625.255635017 694.275543653 617.583239093 534.506043751 477.797729415 398.649861917 333.032499999 241.333227501 89.2170713264 74.3744565385 90.5027710018 74.8295187836 70.8198299927 75.4876943738 100.819940534 160.534749486 291.077008682 354.742959459 154.748850815 377.38869962 723.446700524 753.161484782 749.94417784 536.064510808 576.424685501 449.354235845 474.199784165 425.818799144 398.280783362 394.208435496 385.752007479 431.77035888 323.60078062 241.686232434 205.210662116 145.891159388 76.5641579192 46.3393954325 33.6773205727 17.8923947244 11.5863598029 5.23483489934 1.06423303909 2.03086659231 7.94642344899 9.04813656543 20.2799551555 2.50154902028 112.679064122 302.573558556 697.861776468 1169.51902969 2130.08867564 2591.49887012 3285.69477877 4484.33007199 5962.41393268 4627.80023295 4055.45065173 3838.50688786 2889.8407456 2169.67228594 1349.69988397 945.929604681 1011.5753398 646.134762288 381.535362384 316.273160255 234.764758254 118.197070302 175.228492754 141.548457361 105.700086753 84.9261712952 104.32835885 103.022892395 128.243121846 194.184439714 197.124284618 254.594677997 579.804852352 757.103113645 1152.62741044 1117.5466682 1564.23407146 1847.49188268 1868.52087918 1805.60681113 1989.635068 1521.10019489 1102.78938893 771.27110391 506.84781338 300.376058828 267.351646125 213.234089631 159.017143998 132.633299825 76.9913268779 53.855535545 29.5746718731 17.1828454349 3.86009419681 5.82388312547 6.20601032008 7.33946853086 9.92415695284 4.2181486796 19.5571691123 36.5088765656 65.2121305119 93.8728098901 117.64082128 131.077828298 131.469786363 152.324339171 185.742768625 210.355818161 249.628975251 286.198385504 272.670190535 295.399229805 339.660742945 374.828354205 285.798645394 274.942073555 323.114971509 262.438641309 214.516343025 178.535908455 157.672797113 134.441505934 108.201875469 100.230977183 83.1897383056 80.3001300727 62.1560578758 45.3991278963 38.1872245658 24.8983112673 19.2833819503 13.145431249 7.69816500504 7.34729862219 2.58294642375 3.89465880498 10.9205572426 16.9647486429 30.1624084727 36.3871230457 48.9723547876 79.8702666923 108.055108318 122.44551537 155.568697518 247.632294142 256.494896033 235.49156585 202.814290507 178.078325344 131.30824454 79.4883349821 49.3027275444 26.7628975904 13.0521078923 10.5863805437 15.817070674 20.6081703277 22.218496932 21.2583933773 25.8215676487 26.5838822342 34.6585362966 41.4155949056 45.796323699 51.6815542024 67.0487920496 92.0283664885 140.113889206 196.523152754 175.470349477 170.012364837 240.877024202 205.311165089 258.809836999 314.305522544 261.205976991 319.854815164 396.534113437 401.81342311 383.505685909 480.126729968 501.480691678 547.63316742 501.774233265 683.724758438 571.093786436 569.710340993 510.573467485 687.905398773 743.595381582 836.135515058 943.975394184 1084.54692089 1068.84409732 1111.3706086 1000.95284495 1272.08278679 1525.07309274 1558.90187159 1535.16215664 1226.98062554 1305.03713266
377.064053339 370.847724756 326.019903914 328.770996822 339.961336557 349.505285984 379.817892366 425.974951191 460.954431462 432.409818467 403.317589608 369.423332409 315.318616993 226.581197533 144.083008741 62.830772144 53.3580217944 56.8263956254 25.3583424888 40.801495039 29.5961971246 75.4569750594 176.730668704 367.341278281 495.976039829 665.605969704 822.279880759 1095.86975922 1201.99720591 1066.37904277 526.152365037 658.128026308 493.71097453 521.585916822 434.745609058 419.330803536 390.122212045 373.488643407 383.315249161 318.73950336 311.103884839 201.875542541 134.80631039 83.0393973904 39.430380817 32.7470139133 16.8076839777 10.2111450076 6.03152902024 4.9050691107 5.21549082601 8.52920938977 4.33131222944 30.7949554445 45.9915235458 90.2726658219 295.394368515 487.739130215 1071.48051482 2245.20575956 2524.68104326 3792.25094529 4317.73924995 4433.63910669 4293.29418637 4229.77000749 2329.56059039 1538.56601649 1120.44714572 824.638548567 543.296201735 254.765718599 216.607964749 79.4213512461 83.9061561709 64.1992827311 49.2785754477 42.5737054808 49.6886818692 23.103385468 24.0374366662 22.8262692129 44.6937151238 68.4264224434 95.2063355792 147.06447493 166.676535262 243.086092969 355.87238706 425.227082797 413.869889225 653.656523324 839.757495258 911.067660914 1003.51104325 1015.75951427 937.02942354 673.603400669 541.791924481 415.559906873 275.853742037 251.324953358 164.27076701 121.817000699 83.3540317724 40.8939118371 34.4019693619 21.0452933584 12.31041069 7.07696649894 6.38973861238 4.52488731383 4.56938070513 12.712461279 18.7694130542 30.6320016382 41.9690221757 80.4705551135 117.033518234 135.476522167 131.659930613 149.78639207 195.789832532 230.556334578 243.15951215 308.832840647 342.659528814 289.583193006 314.395837956 317.006827628 325.871620816 311.807762946 304.612452572 275.100827263 240.996436157 254.912767064 187.660572406 137.452294688 117.054226636 106.929199162 92.5132348451 63.7391556133 54.1095895131 42.6245988441 38.3522751203 35.1216861267 25.6629027214 20.7114466038 21.1369610799 18.5545539826 15.2876575762 9.2221547859 8.97857689278 14.3134368779 17.9409849582 24.9050124891 38.9757190595 61.5162431879 78.8920700585 106.5286039 203.162932648 276.38648756 316.053347924 314.372175958 296.130438088 221.02172401 202.918366134 147.593892705 72.3772561683 50.4679670221 29.0029863288 12.7773417266 2.35557654395 16.4778567591 13.4912304703 20.1021585863 9.73444405367 24.5281559155 30.8666033524 32.6713965219 34.2704402461 36.3863526125 35.1582433099 38.9328741679 52.5573781605 59.9135461375 66.5844317399 82.9787512865 85.9451797768 89.8158643154 94.0543991164 98.1184704307 100.574961099 110.023943903 132.023418325 173.776480525 212.416709841 222.663691752 239.916356002 273.930778581 295.407015662 342.295788902 364.377558013 435.766352833 468.402846037 523.096430379 525.205650615 576.085598389 686.857368885 750.556557219 770.746237525 724.258502919 713.686735639 733.605734514 803.291563215 861.02942329 990.136856146 987.668357579 1086.58708199 1088.19227632
227.048769149 187.487711183 167.331346851 190.78549953 208.144367349 193.429878341 249.047917105 295.45244469 334.516922092 353.361111478 366.114238271 285.141018718 215.207635592 164.36895109 113.877974529 102.401229566 45.7056344624 24.6463694169 22.0003190452 42.0238958558 67.5791303057 156.465281134 225.104662645 435.579833012 655.233203239 918.409410957 1157.59797201 1485.91195246 1676.18149649 1868.86294121 1605.40989386 1083.56814471 720.11181712 562.366713057 448.980373852 413.843303215 358.453336667 346.260409426 249.236731533 220.50800096 211.64988257 141.736610264 93.6847019361 85.087190228 45.4248747969 18.5591267352 9.9553598758 7.62903934333 5.08143408504 7.17367741882 13.9081016969 17.1639588913 25.2888172287 49.8791860945 75.0978518686 142.83551507 228.10629441 348.009946818 606.664658963 949.855837652 1805.20410148 2798.980847 3106.34392284 2618.80172087 2215.62357993 1061.69762696 996.170234268 761.308200327 615.616947116 416.388033277 211.001654884 149.794250147 91.9511702945 72.3863152694 28.9018828507 18.6062504368 24.0231656669 13.2698346112 6.2585510087 6.22070047426 8.31504156352 12.0492093615 18.7327092828 37.9492068178 64.0003178663 113.969576476 191.904503859 273.914594693 268.680673975 373.560979775 384.777843526 382.899948228 487.308678976 513.780870972 467.283120606 355.456806958 459.626546282 449.741450561 397.60984021 276.122418255 237.100080599 189.891340066 134.470522337 101.778158635 53.037675036 17.6514845037 29.0186275273 12.4831271117 12.445981646 11.3933893576 8.99234811444 8.15076385379 9.40113937376 18.5197052439 28.810827542 29.4002806797 38.6862877863 86.8943110274 112.614668212 129.620328696 149.304216483 181.023761677 252.853374963 262.743143357 265.895129195 268.393130232 271.849605846 268.28208447 316.830699083 256.912345948 234.576953258 281.949762008 275.333941902 197.300495528 176.530764278 176.814151195 142.561522907 112.739475209 85.8427878982 67.8308337023 59.6715586665 46.8778651367 32.6683429996 32.0697868159 34.3469801196 30.3194550071 28.9429837834 27.0595255223 27.0428202241 29.3361159443 24.119950576 20.5763578765 9.94355675815 16.8760389885 17.5951072254 14.8376301831 44.434340444 88.3951273575 155.67406085 195.921074285 266.700146144 302.701383975 329.059424637 326.861600261 322.162021933 249.272351427 166.954257422 98.259314061 65.4720609666 47.5402934851 23.238382546 22.2293297946 22.9311566386 29.5789443887 14.8231045062 33.0028646213 38.5625427704 37.062398144 36.4282453236 29.744897019 23.9594515708 23.2571525485 22.5068795882 23.2881735863 25.1950280512 35.7582696597 33.6461735454 35.4110593259 42.0689887908 37.2108221066 47.835746327 63.8031140806 68.4215915949 70.0782595805 65.11167998 73.6360948813 88.0828746251 129.926535458 161.553295157 160.947696645 213.364774138 282.27087334 323.571136741 316.403391054 382.470252397 440.96853407 465.276764476 507.336603524 496.830563818 500.924954478 537.065795122 585.611598337 603.559620507 592.613870886 557.999368137 573.327359354 576.462746965 501.423131332 614.485997199 724.780949271
120.725879406 112.06588721 112.102134148 124.257396168 131.848725347 179.145268787 223.862903829 244.963352402 285.39675765 289.994237284 298.663466859 240.74982991 224.701392945 149.74692819 113.672240373 88.9082113949 40.4881678788 21.3832415059 21.2327720198 34.3805536954 77.792813492 181.567606902 234.04422206 409.112174099 661.823642722 945.454405649 1577.05831482 1914.87005146 2088.20182579 2498.82312585 2425.74255247 1341.32479872 900.639522627 579.361982944 441.097297319 353.133212356 235.366042064 131.085229644 122.573069384 97.5726121079 64.887018619 68.3998667471 54.029962258 46.2627042964 30.4775607098 21.5649032023 14.73121121 12.0685159616 8.02435588305 12.3369100038 19.0064426929 21.0739910471 24.6068727065 51.4545170671 67.9571327925 112.256064045 168.073712685 253.596775351 440.801446065 712.675889389 989.173957361 1212.5373362 1286.0383697 1272.6809135 888.492781473 632.585057135 544.839007941 296.505831475 224.611643885 158.907467188 113.856367417 101.777234587 59.7038188919 53.16651762 31.1122180198 6.97848212924 6.35361249529 5.53986866976 3.7871317479 2.07251252722 4.0519832881 4.44145545351 11.9146941338 21.6781044718 34.3571006657 181.13645852 271.632075824 250.265515598 267.271015114 243.259217606 225.444012242 212.812960357 204.146309198 249.528160669 285.643229305 287.581947455 305.001266939 232.310461386 230.094607267 245.640586747 306.608823706 175.408023896 113.131817318 88.6952337087 73.4807038495 45.9651846124 32.2203107758 20.6399788852 17.1076376354 14.9525719719 12.3825657421 11.3346141902 5.93068532073 18.2197750931 21.8727971445 44.3522820101 67.9548202898 82.994239141 117.576812684 119.886875956 194.801803882 242.648202717 324.166876838 285.200484082 321.532196259 256.244793354 181.977306186 165.409844766 150.711288224 130.520895973 130.947445079 100.902756543 74.7221208756 105.51195111 86.7653482314 36.0407869771 80.4431145708 80.9726123142 64.6692389595 19.0371777345 28.826214518 25.3096888885 23.6551364217 15.7106426027 24.4093492351 34.8940493456 42.7041328147 31.7757728201 27.7193105957 37.2020932203 31.3701168685 22.5599538009 29.9695595724 29.542748335 28.1851273063 39.1187302984 65.9758463424 98.0100271063 166.343025049 228.421780842 301.107050133 326.224002415 370.178969927 417.577821429 364.329220768 268.044146575 171.189913574 68.2089970985 46.1990437595 39.3481604024 19.6295687542 27.8340756459 36.2767036169 52.7431969905 60.909443492 74.8524430185 69.6087408019 47.0940032042 42.2647425656 33.4564865064 24.7414300123 18.3380696534 21.5474315714 28.5228091556 27.2301337139 35.0379951267 32.672603638 26.2031119745 22.6138977422 24.3497109105 24.1521411099 28.244643966 30.1857395992 27.5298090286 24.2500667872 26.8180617815 36.2383894513 51.244043678 75.6412784464 107.262874628 117.822490426 159.48740288 171.654475013 228.363692876 282.886716363 304.967704002 369.447487744 424.261097404 464.50974488 449.564133523 457.566259869 416.701208939 390.823150851 362.516248535 381.1775993 405.537929565 362.099783073 404.459604362 402.259600752 386.709057867
52.2333291195 66.0581725228 89.0462462017 92.4913463579 94.3850311535 116.251067852 183.115666296 219.36290418 294.366308019 260.678076354 258.766770079 248.795261917 224.29538406 178.405192214 122.350505658 80.5932335985 35.8424935573 17.495236687 9.43758733317 25.4948748825 44.9633735028 98.2644555203 225.813873632 416.111510522 561.972836353 1007.66403349 2054.19398948 2130.02004537 2714.53695706 1890.63729573 1482.53672278 1631.26058529 1090.83068705 740.541606897 312.885001015 166.550071486 142.2724307 92.2730567392 64.6250671413 55.1539190878 46.3352034337 39.2005772955 33.6687999806 25.8941609256 21.7320369859 20.152177658 17.3299653644 14.9791034015 10.1198416173 13.8098923554 22.0088242946 40.0863170796 55.4005520786 67.5636094985 56.6503434839 47.7630520241 44.9665439373 67.4816344546 210.559029386 561.427290618 786.12137707 892.043437802 821.282337194 401.69698896 300.445710656 215.508188173 162.007237205 155.546857432 163.316007224 177.201345921 181.501438968 115.89453691 104.72104567 34.8069907716 32.4807556761 23.3626438845 9.88357128436 2.09711512448 2.23139018245 3.11395195846 4.07628890172 7.81569863955 16.3369543521 38.1788693972 113.740026067 229.790779316 361.276916056 290.60628595 376.345528649 234.634696277 190.688892644 189.280522491 183.68602573 205.541073467 172.953880471 190.71588553 278.191019379 238.488741352 289.423105783 199.926689335 162.8668469 124.944775122 106.027039393 103.265559819 82.0607633765 47.4213950585 36.2658605198 24.3681512973 8.72003199315 18.7168736388 17.3538635245 14.7279025386 18.2212222978 27.2786342772 22.534544358 67.3978497904 98.3578265258 122.334089581 156.165190667 212.120009851 276.788657771 275.650821701 272.961051784 214.863223183 205.610916599 133.340471454 96.3242063538 81.3562397575 37.1416164207 41.6012026032 46.9882151403 51.542654105 45.5935023839 32.1106369728 66.6716223264 55.7274075276 58.3945731701 75.2002308272 60.2611281418 36.1904922122 33.5099445916 10.8531222069 18.7723226628 13.3266502622 29.1141354099 49.2488950361 53.6581114123 50.3864316565 38.6716348565 36.7844802674 36.4600306428 43.3912638089 40.3543717145 36.60609083 47.3992054414 57.0955604961 71.2949210494 90.740342168 114.0738133 193.751433774 311.398597672 419.937267964 424.438901449 470.685858215 364.807889373 285.450903325 270.551366813 124.414752038 72.6700969493 49.9070568235 36.1266767438 29.8060334343 44.1097302811 66.504761691 69.0312567246 102.243053267 100.80051181 84.9486449122 57.6491283046 38.364943435 26.9710088951 20.4561371689 20.2472191245 29.069630767 25.3477577185 50.1888746491 39.807029171 38.817761217 20.8606228046 22.4850454356 14.0522304442 20.991887207 20.8100939696 8.15259832639 15.8875529872 15.0073303593 16.5343458353 20.910399609 34.6765028135 56.4569975106 78.7185857056 95.0192706733 154.582510073 208.04208372 235.528626152 286.285816227 340.309681211 365.0538768 379.037621194 349.853539142 341.428050014 303.730933082 278.783691692 256.233482222 254.854581313 251.747631681 254.479102674 252.07281236 221.885253915 215.815437255
42.6779667119 41.9535617176 43.5646782935 57.5350366852 57.2883371658 73.457189768 70.3727146951 130.754576109 186.364014726 218.556401313 243.759599265 252.349862668 251.115193406 202.917903473 116.307499909 50.7759400925 35.3896950005 12.4691671872 11.2288230541 18.6196574705 33.1922997564 88.6488166594 213.547797078 449.628446406 543.815354486 679.231484469 865.077697391 1129.09478679 965.445883256 721.165418968 647.388734713 588.859167322 489.662467921 335.579958121 250.445606913 147.822476498 83.4257183089 51.976116588 34.1129783717 19.7149236877 19.630384425 13.6326082338 14.854981379 17.3368469558 18.2090049993 16.9671027498 16.7652298054 17.562867528 22.0497198981 30.0296763997 58.9402577579 94.8228068023 112.453611639 78.196884669 32.9928017356 0.730391490818 2.52467080293 12.437255839 37.7294002239 139.589391576 445.018020926 479.999627645 327.055244746 174.866674796 102.449401124 71.608130728 79.9572578565 120.215111871 194.982264592 308.838554122 275.288400908 277.734226373 379.735994369 217.925932738 113.964367722 11.4319155284 10.0358375985 8.71371428996 4.28524508486 4.23941619442 5.98205362037 10.7971422477 22.9670162229 82.0046880783 298.708670184 311.269337864 514.218570165 414.587069701 337.486563985 211.201940551 147.233044546 136.318758354 124.87475724 117.517524129 113.580682949 110.020598653 138.23593489 144.681134762 145.320797239 102.575875821 63.5200580356 53.5363557264 56.41686556 47.0621613477 35.0743981658 34.8262784701 33.2298972661 32.4813245414 32.39325729 14.8285903419 20.3615539935 14.0736968893 34.9582937739 52.1861083428 70.7144263092 91.3609135324 125.152620195 160.487220327 161.691639643 221.598257395 345.114320312 269.607556597 243.026895189 112.298364041 77.1526244757 22.736692293 39.5215549288 32.5554045386 38.3523371593 55.8000235345 34.9070696742 53.6314341356 74.1128156904 83.026049024 103.703069191 111.812491841 62.8856873158 84.8426211753 66.7714147744 86.0896821572 56.7901167663 25.7494196075 28.0543932037 32.6627539748 27.7863630291 55.104770912 58.1736505888 46.2445715021 77.2748466352 83.5010648932 88.589685504 78.538089018 70.9709571659 59.7791857085 52.1149166348 56.8592971341 64.9386096886 75.5677004952 94.0528678892 130.467581538 182.793811388 293.930517614 363.573576056 254.0932273 229.651350985 209.851951665 146.73575953 110.938104799 82.0709811957 52.4399856498 39.9733946418 36.7633434983 42.6061241826 62.9016332222 123.847149058 163.92185068 160.993565889 114.288083162 73.9176390375 46.4815295231 28.2906322266 20.9080906276 40.4936329684 59.4966839263 104.024835858 86.0637517715 92.1045300537 59.052024303 47.2040026639 10.9590510543 38.6257029404 44.1983458606 41.4876088419 32.9685761704 9.60915796994 8.93434131722 14.0565490916 16.3450565921 27.161443552 33.4859084143 60.210116336 86.8707830428 120.525624465 189.245534356 221.213464569 281.117227319 344.473545827 326.580108439 327.350622189 279.103951915 262.988869172 260.017569854 242.735614715 211.017126308 218.016440172 131.088888203 130.747750006 123.761723642 156.638128021 172.058089337
20.3619330972 9.40034981584 17.2393355718 19.5339693671 21.180629599 47.1931339703 62.7201096801 78.0864914982 118.720537722 197.226323396 251.681869994 273.069003297 227.916037436 218.246052253 186.890731761 113.378512984 38.2764672574 15.8172364227 9.2772229025 11.6327814824 26.1727770109 107.827428231 212.226393576 272.936811641 510.259916483 550.230319635 491.39877307 365.203488957 265.372864555 177.341687447 115.866963488 104.870590018 81.4922767759 21.5410590068 45.7550581278 25.1047204704 24.0071774152 22.3615509526 20.6766916276 20.5401480333 7.43380182345 12.463304103 6.99472922659 5.92449285802 9.21068249961 13.4899921219 18.561123716 30.8667239124 31.5881570251 51.3143554405 107.241261807 148.089265027 172.885859809 81.9439489159 12.8922841658 2.3854061539 1.53766469482 9.42931100952 45.2949785133 215.711653752 275.781794839 140.676646428 78.477132511 15.1327373686 11.3792053983 6.1942153845 40.5824477371 122.04753649 303.156715703 602.389952232 818.759911898 969.22416043 606.915381495 401.611789139 188.521524163 98.5120649679 27.1567721193 12.6013867876 13.8094367266 13.352887405 15.1834387392 22.7126133069 140.328657948 367.500918682 952.013156877 1411.00796304 1204.64349149 643.586523392 304.699914664 200.994295519 134.586219205 108.207009858 99.5277113785 90.6719266995 74.7032822802 64.3768662783 57.2726180077 52.7860658839 29.4795980978 23.1561392489 15.9353679596 14.4049474278 11.3076679823 13.2240175669 14.0269815724 21.7532789395 38.7445423357 49.3941795086 56.4981268205 46.4734674787 43.6585221469 43.9463065239 42.112636922 55.8950480349 68.270757999 99.09303601 113.067836144 135.536784496 161.895013851 162.991925496 167.96025109 106.629409797 48.7278730479 37.2998247801 27.1767659902 27.7318227982 25.0546574973 40.858448142 56.6449717179 85.4809837263 104.400644717 99.4018905436 93.0557624413 168.549598561 161.098534285 201.653197099 173.967375456 157.315284826 188.30145625 141.802772554 97.0950721607 10.633065369 36.2617137181 29.0004239484 60.0020387442 80.3663882638 98.6872178968 107.317437373 109.335208604 105.479696226 99.5121682536 104.946120856 83.6877724178 73.3759130023 68.3907509442 64.327842123 67.0580094924 68.8869873496 71.3805431654 101.06781658 107.491596115 109.429341057 104.66844694 88.4520372385 76.6571642718 72.1307506806 57.4714101853 70.537040579 68.9049819045 57.2923396331 44.2550580651 34.7872970534 47.3292524214 112.549624301 178.485882703 237.931227308 241.102008936 197.274871391 144.030373852 85.7153105242 66.8085391462 55.121531941 88.7843647249 126.483032055 170.431930722 246.25437199 199.288111883 142.227945035 124.451600926 89.9874698964 143.986785566 130.686999693 101.441241364 92.8818172309 69.4716792432 40.9583802781 33.0981670385 37.9322389526 37.1915900536 38.6899205224 41.5691722213 74.101311514 111.415630167 153.212663046 241.86589991 293.431898602 309.4238961 250.130914765 253.182978442 243.790703695 232.773976699 197.379644792 164.59717047 134.93974735 86.4398244585 52.1059999124 43.8078480096 50.7619748593 39.1777726977 62.0730144968
11.6718189489 8.31135174008 8.5485857685 7.34573991813 12.2468402052 22.7557532282 28.5929313783 55.303681508 69.3667322123 102.387817755 135.391779639 164.862689081 174.639489111 195.870195127 245.413724801 161.784997619 65.9326308393 21.9335658285 7.69687226393 6.3318772404 10.7095947548 27.9371985776 57.1765091709 102.516520688 100.894894081 166.485306426 136.205642159 111.245603025 76.0012625657 48.0246562216 20.8732535046 22.3392611464 17.474258482 20.4578009323 16.393553713 23.6495204707 26.9491470893 40.9019695941 50.552343195 46.7099317136 37.2701608087 43.5908392904 34.8612222764 15.2520733959 11.9312947873 15.8784043414 28.4432613298 48.8460878033 75.3216840029 86.3601324691 145.326576905 244.91775267 258.245222091 79.4372919006 19.1008550802 2.87791821767 7.30824039056 16.4276237864 55.8303570174 93.8222250278 103.243446027 85.7923208853 43.7118373404 31.3249839549 10.137388836 14.8116250968 42.6527195753 193.621675617 340.661205602 588.040719563 1701.31297381 1852.35831485 1595.44173782 897.286311399 424.486939103 58.8488879506 27.7207778366 32.5123979388 43.1496147627 35.4439911471 24.0384963439 67.4522889357 191.800191226 910.314803494 1753.87754586 2009.80490712 1357.66347797 790.871708565 389.719319569 112.210876689 77.3190703989 71.1266758674 69.1054167259 60.0627921726 52.3386562329 37.9735628787 24.0415683824 21.1334736969 28.0911225059 42.1641201413 50.9178666567 25.1576275924 40.4133886774 6.61902418332 10.9535115902 23.1140568138 39.9840078743 68.7632201071 73.6126687076 57.7067276663 52.1341128183 57.8099873653 70.5908583 73.0450671221 78.8838951046 80.0137250859 92.1985425669 86.0374746123 94.0045514151 85.0019813863 59.6405470632 49.2911745662 41.7668323635 36.5050312399 32.7847146845 33.1655867716 40.9995899064 86.3044677071 112.41165983 113.950754696 113.637929498 101.105953307 92.8727050576 102.373460661 121.648877376 146.85703801 186.399417897 183.942213068 186.287472814 180.964398919 147.27431758 120.583976137 44.1662931372 53.0558059389 102.518123523 158.682858883 166.820639051 161.46463104 110.466292461 81.5337053468 73.8521854234 37.7062703311 38.8885331232 48.8293754714 61.6486655828 71.6400088026 66.1981316833 37.4431168052 33.4046613716 31.46974115 45.4756904761 68.2994388446 72.4427782258 58.5154972654 58.2035396743 44.3198857535 36.4643747714 46.0113905478 62.9482746617 65.2018686909 54.892282651 51.853210708 58.9749853435 95.454706431 156.874123668 200.481356289 224.09453705 194.145516334 148.968210723 133.098266107 112.040838572 113.980772304 130.115014762 213.203166169 319.12154093 353.590737292 281.499802211 224.584793904 192.073668258 238.545941045 172.2990323 177.458961906 233.337063879 207.423338138 185.546876176 181.161488362 115.596206299 180.773756706 147.608772019 68.8267845662 45.0881254845 39.7654618908 52.233041761 85.0315311363 162.265483437 230.58001746 219.405154715 167.832431151 124.948953155 140.608647938 174.754311566 169.214201306 139.166095171 77.6386739955 60.2800501014 35.451837061 27.0143048206 27.4881141035 28.9561902231 22.2799780074
3.2464855769 7.57310913692 8.68644395688 9.0517064162 19.7639083152 16.3794850585 34.9023972754 40.7357483952 35.5713186172 38.6983975463 66.4325993304 88.4853327147 96.2153941034 118.174768731 154.487836021 155.925768519 77.0247512426 35.189968987 8.94883048505 2.12877282859 7.6771017475 21.5945853709 49.9778957455 56.1181818719 44.5135333173 39.2881603568 34.7094070429 34.397278112 28.6214251286 23.4077130661 32.5608949077 22.6685870974 16.0269497238 54.4282613131 69.8162014092 52.1960202916 86.8628509797 97.2573978209 103.428598434 99.6822937424 81.8549554143 80.3419603044 64.2913886416 53.0111656904 41.2219639285 38.440591089 42.974059688 69.0615645763 106.442657197 81.9265819364 79.7481998413 235.296352112 197.342447608 101.394563942 20.7835499104 27.3678377872 33.0380252323 38.0999967727 21.6545489682 22.2101777822 65.7949515959 88.779749445 75.1526211729 33.4177460421 31.9084049133 20.8677265988 37.0955016401 59.5163880998 145.056389726 424.05051836 395.20337837 327.594130436 456.858300404 390.283416226 290.904424973 119.297484504 29.7370303891 51.9762475504 120.23002309 157.413348053 66.0353400258 76.3964208701 333.7606718 880.206056223 971.860649764 703.0345348 391.103099801 248.597441048 101.676362084 56.1027996581 51.6526253977 52.893044902 58.4766007912 45.9045387983 30.5418292256 23.4057917204 21.4899389241 44.0510742404 50.8339053185 71.5582937535 127.85034808 115.393782384 122.419499446 76.1171164445 67.1497197759 46.8760961804 48.0797586993 74.503171661 84.0057419583 68.346770706 47.1396616867 44.3647251234 76.2320792322 88.8450456778 64.4065749873 60.9800222291 56.0643054419 46.7060812501 24.1743580336 28.7741052655 35.7869134719 53.5720820568 43.1625336739 46.7769050691 34.0938236374 49.3790936711 86.5442005513 132.961582061 136.10121631 93.6307828876 89.2643434567 138.647404616 209.825696808 140.70241293 83.5144089928 79.0169511667 100.621876661 132.170913498 137.553325815 125.088941586 165.60168125 175.985816778 166.178409589 106.972208535 151.611945184 173.610985587 181.593109694 121.431693539 75.2809237946 115.738417415 110.229156123 96.7335508303 56.2998283128 33.5594691844 55.05714609 83.7763983495 73.5864754165 43.0316251396 30.554467402 28.9464822955 54.7962184735 79.486134874 115.87562368 116.547534644 56.5642306766 72.1916336771 26.1668170101 36.6646362044 79.991181618 97.5774273891 91.6697572007 77.7033557599 75.4580477299 74.5269091626 126.763331136 159.349734045 161.392728749 185.93050904 148.40832264 147.097549267 134.907603791 149.774729592 164.310793596 207.64054414 301.268380258 227.451837775 208.73298823 176.788512766 324.279213917 400.837163256 334.25848397 316.800814275 347.745944711 276.655071731 355.057542273 361.255287418 391.763554641 387.193641156 207.478600744 145.416142989 72.6421625046 51.8515455365 48.4757732488 69.3233388714 117.648212094 187.217764193 196.801441533 121.105085146 71.1694538825 71.2485659099 111.100223693 145.57226054 118.988189619 58.9776383944 20.7176547849 17.0320218454 16.8947693733 12.1641587799 14.4697554576 17.4947559447
6.51049930711 5.11706752548 7.22672253466 8.60074595024 16.3871023227 24.6114248264 85.252802298 92.0175204068 24.5006342931 15.5731464005 42.1569058897 59.1750207659 36.0942290788 56.6199393241 112.603194224 98.5854412255 71.4239384019 89.0253267574 69.1900548994 38.3569965556 83.2294129353 140.120756154 106.922346075 60.1573504772 25.7933992497 24.3157120458 26.9060790351 29.5360757642 53.3315127431 64.2605015442 61.4334626232 61.9680354084 101.226832421 139.193652165 185.38688103 220.523804326 152.661155049 131.535651398 202.091119197 152.067534633 130.807061074 144.846498504 164.237307355 129.507559039 102.622120544 118.013776731 65.3415340875 82.3149147281 116.249242609 94.5444240953 40.8103319402 117.128370896 133.394296926 96.2196920694 91.7717369035 86.7819058059 92.0252787047 74.4254169014 32.0822565863 27.8638942286 95.1032976592 91.8163480395 102.034929637 94.6994832153 69.9295691004 30.5154483404 39.6928243081 33.0095171802 49.3710183838 44.8629648164 40.1039719305 36.1706685264 40.0185855171 54.1890263796 26.7006124863 25.8727197393 13.428473905 43.4167838457 96.0774720823 76.527280809 66.1883062058 51.5743633445 137.578455037 175.645558905 230.035029399 95.321898876 44.61439149 20.2348379506 18.3089404221 15.2162301823 33.6232285519 35.333144406 28.1597837876 32.7680968985 38.0464083075 40.1586029391 45.6563173524 92.3723374864 147.047570731 266.841344566 237.534228041 230.989367653 250.925424669 232.564144034 190.115149556 153.757493253 86.7920908658 68.9694948241 91.277653814 83.3953049053 66.0517470941 67.418174279 59.3129689877 91.4305790183 58.6624425456 54.3369389144 60.9511311871 56.6967528591 75.8549958075 93.3893069847 93.2418646315 104.725105243 91.3305429042 83.4954822206 47.2955689788 64.974768039 110.093812547 96.0313625227 93.0808550836 68.0520542895 69.8065908027 164.875460834 257.209710811 294.250508386 246.817291498 153.817652553 115.53951456 129.119495388 136.645785837 117.719364858 144.862391957 277.564038058 225.393764797 189.858966787 217.732161356 162.712650474 133.10030124 74.9698431244 114.798132657 195.927150406 270.193091823 209.709258187 97.168394468 59.986026017 44.6085133239 98.6328947259 92.7216079254 73.0570897896 49.3262596153 43.9046894159 85.6206120199 110.467566779 147.196959376 235.962371408 214.063247228 190.363290625 125.118617794 67.0110822915 91.8392655798 153.970077268 161.013625084 133.086701117 127.465427984 104.900278928 103.573269737 94.5862397998 78.5020684746 80.1750934679 96.3551032977 113.033327669 87.8363863884 115.36982847 120.636041527 118.434261861 109.978461762 117.942560715 107.093544668 114.164076529 197.013196221 169.006091055 137.819483582 147.110021673 117.05598796 121.328397623 206.8568957 266.055814288 406.577222347 450.233356953 240.425219902 185.823564399 114.779087188 75.7775316686 135.356335427 145.827651977 81.3944493727 181.106080084 146.252878187 99.5102039529 47.8214701437 32.0615661222 86.0194223189 114.248976415 72.2929264885 33.7333916782 11.8345860476 7.49949357592 5.88805692061 6.85237624881 8.21112199432 9.37314157174
8.35425203529 7.19533789985 10.5949189475 15.1044581755 20.8028957573 55.6674415026 84.8712025744 113.690460363 97.1180903805 31.3208249319 78.1036724299 161.914850399 154.839763206 92.2626355324 139.763989321 162.073350063 227.068373806 230.789016666 214.669953896 229.3549095 291.888241532 99.8382013438 45.5308789966 36.2974537918 29.0834299837 24.4430673397 25.6197289642 30.2677130774 45.4914656501 76.9306059146 100.095228059 117.238516303 135.938477492 135.269590231 99.6387503429 178.002306754 140.034464708 79.5365848081 120.633759742 147.675058583 139.914931632 118.266374599 108.519550003 103.022011954 95.489894142 141.705707651 99.4179839812 75.4776767783 117.667598069 195.723782114 189.054211833 153.916753204 188.746417849 118.560231308 83.6995683862 71.6821264819 108.774444887 111.681365285 101.144140707 67.8513232563 46.3882800101 9.22344984693 38.5229752701 52.1113834967 85.8369119929 96.8596425981 75.0935322847 139.111241643 162.968457465 69.9382688758 62.5155570375 138.168549776 150.890484336 215.946266753 39.825323495 46.203815745 34.6964062768 20.8544692439 23.8981418787 13.2345306133 15.2910149411 17.0523116971 15.6358737843 15.849806551 17.3564769256 14.5105136956 21.4331829631 26.0992520519 55.8786411031 37.6980645657 31.7487475267 38.5735760399 27.3046148269 35.6068973238 83.8495805945 124.053364181 90.6452515485 80.0646692904 72.4025699565 118.168366981 102.046314794 90.5533921125 141.715902344 157.173371736 179.996400516 162.739833247 221.937374093 221.245929808 184.836136807 195.537198023 170.90094809 178.697361959 118.802969679 132.909139006 101.824637835 109.491017993 93.2184198829 104.671905118 106.854150509 99.0603328108 53.4524554238 56.3542186801 89.3020604136 85.729809234 107.917147306 63.5562556251 78.2571814878 67.3831413731 51.7061805101 50.8072770774 48.9519276271 81.4778732221 117.893469355 82.6757955847 126.361144831 151.003166078 168.39459084 110.517244809 119.821805126 133.002366538 320.768186713 317.339731983 294.445349096 389.056131941 301.975367693 157.847320864 72.717099446 144.013125469 133.924198612 129.820851631 110.759826574 68.4189384878 79.0790218596 67.1109254842 34.9114156094 87.2123842083 113.879707202 117.628199461 76.6599458641 97.388338547 75.6655917207 59.3842019498 39.6096947211 78.0330686767 65.073190455 73.1189753369 110.926924015 103.585121348 86.3461298994 103.281865194 91.8346113782 155.456528051 243.971799363 225.947102592 166.158349005 142.481965966 96.0192691421 102.038736757 82.12970107 104.732256863 93.2193129994 226.203368225 204.999793551 113.432300866 98.4851693235 136.066097971 147.902586672 154.446077331 135.649649703 91.6134027338 104.908041339 192.642540612 119.184041055 100.794858472 97.7095636728 125.069669365 158.190165397 139.429575731 92.8004817046 75.3356958767 96.2301607096 150.432249086 157.55141128 139.600566043 159.606485907 164.927796391 99.0490184289 68.796749926 107.281817638 61.1243091708 58.1485634245 63.4060088798 20.9114889044 8.55525484408 8.86219980984 4.10203182018 5.2508453851 5.93756942762 8.29314154332 7.9091861753
