DSAA
220 79
-53.7994932458 1725.25055045
-633.666666667 -0.975556903113
0.372755873983 16787.2039071
3533.73217063 3529.72070322 3528.18910643 3528.74148213 3529.3134698 3526.35478334 3517.06885615 3501.61692418 3482.17968565 3460.53214717 3437.13678864 3373.68696021 3344.13282454 3312.90325146 3279.60462672 3243.49864383 3203.58476624 3159.42748617 3112.85701911 3069.73181346 3039.10900417 3027.3995985 3031.84309746 3042.04551692 3031.07487427 3020.17015544 3002.22956289 2980.3264168 2919.21301329 2894.71517174 2870.54556512 2845.06379773 2816.4565313 2783.42490375 2745.73953614 2674.39959391 2637.82996116 2611.88348704 2573.18251892 2565.45474647 2561.44660745 2552.00175211 2538.96405788 2517.02958629 2487.71891589 2457.54497463 2421.11873149 2384.4257953 2349.1254674 2316.22053486 2286.1251755 2197.35921504 2118.68245881 2093.45226905 2070.22932668 2048.68315557 2028.74754227 1974.23374635 1960.40048846 1949.70990157 1942.44275985 1938.53251729 1924.68314479 1927.31366668 1929.48374426 1929.35425445 1925.43013672 1916.90108875 1903.76599444 1879.89238376 1824.15287133 1821.68777301 1797.88556534 1775.14070257 1754.18965476 1735.47357617 1719.2080803 1728.2866092 1716.6729696 1707.28545344 1700.05881896 1640.26286527 1681.03959918 1647.53094815 1650.68184773 1656.19831819 1664.11461506 1699.96363164 1710.72754863 1723.61097272 1738.40999918 1754.71370433 1775.80234637 1792.25917502 1807.01687052 1818.81145388 1830.70706938 1833.3853411 1833.62807615 1832.72672572 1832.24558015 1833.55015771 1837.46835981 1844.20033809 1853.43616941 1896.29204156 1896.7101154 1910.29495936 1923.83589397 1937.34672661 1951.10337787 1973.07496295 1988.44904737 2033.61015149 2052.52505156 2073.0604297 2094.70702376 2116.50952315 2137.1165494 2154.9696931 2172.57890274 2180.22417146 2183.82157097 2186.41132474 2186.60108289 2187.70473848 2190.78018893 2196.19492583 2203.74878056 2212.93179101 2223.17295607 2234.00877404 2268.92367006 2281.25943307 2293.75104801 2316.312112 2328.452794 2341.2503036 2354.90696059 2369.62862164 2385.67521402 2427.61166848 2446.75507116 2468.65478524 2494.09174759 2523.75343132 2540.34446428 2580.43270229 2623.06261606 2664.23035221 2698.40923062 2720.03959425 2725.68022644 2715.53716414 2693.28320582 2671.9335728 2644.95656174 2620.78921059 2601.60930538 2571.99200807 2560.30943751 2554.81258063 2557.06227709 2559.3908079 2564.30266278 2571.32695982 2580.36829393 2591.69173523 2632.45318198 2618.06120398 2638.8364251 2663.72931204 2692.20584601 2722.89688576 2753.5768624 2781.39388644 2803.3801783 2817.14631918 2821.52711318 2831.10860076 2820.44746915 2835.68753901 2823.66833494 2812.58892542 2803.7139054 2797.68564504 2794.61664344 2794.25924826 2857.26793887 2861.0691063 2865.93429329 2880.1069546 2887.07659302 2895.3391354 2938.86008497 2948.93097328 2960.88891196 2974.85979679 2990.76965551 3008.25635455 3026.58695266 3044.61244772 3060.81648382 3073.523451 3086.32490395 3088.12119614 3100.60038297 3099.4967982 3098.2109344 3097.17115294 3096.62507211 3096.64481523 3097.18136996 3098.12843632 3099.37186265 3100.81788772 3102.40326309 3124.0945523 3127.47107289 3131.0008701
3537.53981911 3531.95347091 3528.89146514 3528.18707489 3527.88652619 3524.2613498 3514.37951824 3498.7994683 3480.17847683 3460.17774635 3438.69926902 3379.21517699 3351.08070595 3321.17186355 3289.49506472 3255.32449178 3217.0660429 3173.21094802 3124.68868958 3077.69982593 3043.28214128 3029.75409095 3034.03837761 3043.94648289 3048.2716805 3017.53327301 2997.01838885 2973.20522044 2914.87769541 2892.37958391 2870.91241476 2847.95725048 2820.89540806 2787.93920223 2748.7549799 2684.84395552 2643.31418125 2586.94436592 2570.53617066 2564.00866896 2562.24323311 2558.34437954 2544.39426069 2519.79356871 2486.77386632 2448.71162655 2412.85635533 2373.22661816 2335.86060043 2301.82517454 2271.46848467 2186.27014567 2111.18104564 2087.03001103 2064.64677448 2043.64151693 2023.98808508 1972.26610213 1958.62187763 1948.52086279 1942.45262799 1940.45629059 1931.47635679 1937.31058996 1942.45893865 1944.47833234 1941.40979415 1932.27725088 1917.24323371 1866.46723748 1836.53483979 1805.13977676 1800.97385614 1775.42251961 1752.2450021 1731.83947493 1714.33938153 1722.14058921 1709.9400343 1700.15736011 1638.10133558 1634.2860143 1639.792402 1640.48220975 1643.60016985 1649.17292261 1657.27061109 1667.98913881 1704.50631123 1718.3132536 1734.40562959 1752.3995799 1775.2192276 1793.85494182 1810.71895849 1824.19559861 1834.91588235 1837.46888702 1836.8835616 1834.78946905 1833.18602896 1833.79608553 1837.61735378 1844.82430682 1854.94232508 1874.82732191 1899.13966795 1913.18560533 1926.78385262 1939.936993 1953.00373674 1973.49889112 1988.15778462 2004.9859022 2050.4356642 2071.96967602 2095.23150875 2119.11869059 2141.9885027 2161.86296458 2176.87031066 2187.30476775 2190.11422151 2190.43804682 2189.37705761 2189.68426012 2192.63352694 2198.53360238 2206.94999967 2217.09196291 2228.15462112 2239.53162804 2272.95941456 2285.14734324 2297.31149836 2319.01522543 2330.74664372 2343.16229523 2356.44590731 2370.74497662 2386.2448949 2403.27037723 2444.19877021 2465.27451107 2490.15772461 2519.89544052 2537.94162791 2580.51069238 2627.09810546 2673.15261093 2711.9650486 2736.54707986 2742.52167184 2730.18867117 2704.20493033 2671.30031177 2647.86769623 2621.6549017 2587.42730866 2572.24827258 2561.63045518 2532.1792858 2561.5064944 2565.38809905 2571.42808533 2579.03919459 2588.16764848 2599.28156223 2608.20996003 2625.23402503 2647.18008363 2674.523472 2706.89037108 2742.75996292 2779.3668786 2812.9542115 2839.46155431 2855.5395465 2859.53753955 2862.09056543 2847.17077446 2827.62427505 2837.09794091 2822.91720604 2811.89246277 2804.6533005 2801.12543967 2800.78697532 2861.59239219 2865.48192187 2878.03809787 2883.6379844 2890.10509645 2897.76029786 2939.37667261 2949.18554905 2961.16939967 2975.56852952 2992.39707522 3011.33432372 3031.61160666 3051.9273777 3070.4635599 3089.69417845 3096.37732007 3103.75463934 3102.89197404 3101.16767185 3099.28780467 3097.80189184 3096.99753284 3096.92115177 3097.46640635 3098.46788423 3099.76744621 3101.24749409 3120.60155751 3123.81821289 3127.19328503 3161.65775506
3542.89587137 3535.68336463 3530.62455698 3527.40160694 3524.57438211 3518.82059829 3507.72494802 3492.3656943 3475.53905232 3458.34982933 3439.76267352 3385.18375727 3358.62286545 3330.35368387 3301.25015678 3270.931307 3237.29114685 3197.55852264 3151.31828303 3104.22876437 3067.67228839 3050.31558771 3049.31461306 3053.14893011 3051.34083338 3013.40463976 2989.47352497 2963.52795683 2909.16165972 2889.88949962 2872.44305399 2853.13754048 2828.42047132 2796.14221772 2756.14118575 2691.59396349 2647.26276449 2587.96800714 2570.38689091 2563.75926955 2562.47310022 2558.17755645 2542.59750596 2515.27669788 2478.93100312 2437.47270168 2399.05320127 2357.0826323 2318.27210651 2283.76759569 2200.14472238 2173.45750713 2103.15299605 2080.61881619 2059.39716186 2039.06871806 1987.10862463 1970.43782619 1956.75553576 1947.04536392 1942.05364099 1941.96113575 1937.60948632 1946.84822178 1955.18502519 1959.45405203 1957.14469658 1947.10769844 1914.49638635 1880.72775585 1846.18741311 1810.48283546 1775.87972172 1773.37104632 1748.16906498 1726.31543906 1703.97100316 1714.60900919 1647.39985494 1637.94083234 1631.34083611 1627.38835439 1592.51357077 1632.47073938 1635.45118131 1640.91600014 1648.9691874 1659.7604149 1696.31805259 1710.72827742 1727.77386201 1747.11467503 1771.50377323 1792.10975751 1810.95439444 1826.09459523 1836.90712611 1839.58772242 1838.49553886 1835.58080428 1833.25365147 1833.57049929 1837.68510357 1845.74393949 1857.10760827 1858.70228008 1902.84293931 1917.42417332 1931.02187095 1943.59291764 1955.57226386 1973.98290108 1987.30999554 2003.1024046 2022.23598571 2068.704572 2093.1806283 2118.8120632 2143.68786908 2165.44345222 2181.77061798 2191.77216715 2194.18368119 2192.90432213 2191.02581073 2191.05089492 2194.43652721 2201.37624935 2211.13828399 2222.59757522 2234.68130879 2246.63126204 2278.43623348 2290.22617687 2301.78207522 2322.33482975 2333.46429332 2345.37460981 2358.21342292 2372.02214811 2386.83776213 2402.84140489 2440.71521317 2460.13169857 2483.29649748 2495.5989181 2528.92079239 2571.5961556 2619.58425879 2668.05159985 2709.50126629 2735.95568151 2742.39888892 2729.2029579 2701.66569327 2667.28868784 2643.15578573 2604.87976853 2583.30665695 2569.99631909 2540.15818189 2535.52958524 2538.59718649 2573.06377595 2580.55176502 2588.69345882 2597.48630061 2607.66381898 2615.06895265 2631.33930519 2653.53160545 2682.61842022 2718.49793838 2759.55645511 2802.46050494 2842.40828737 2874.01451444 2892.72948882 2896.80726375 2885.92695355 2872.14630713 2847.20228089 2848.67755637 2831.51140047 2818.68970079 2810.76416587 2807.38502001 2807.66284985 2866.6266976 2870.82473546 2882.83930196 2888.02244211 2893.73315347 2900.39997298 2939.61535474 2948.71447719 2960.24228745 2974.56291452 2991.78399017 3011.63516689 3033.33342692 3055.46353455 3082.27626998 3095.27549586 3103.03521527 3105.67666855 3104.42027274 3102.16829225 3099.81146702 3098.02169001 3097.11432837 3097.09059103 3097.76848879 3098.91201206 3100.31618768 3101.84424465 3120.42252772 3150.20558206 3154.96888405 3160.02456308
3551.39477734 3542.27787919 3534.52226056 3528.01331741 3521.39359779 3511.9627267 3498.6469168 3483.35461113 3468.93064156 3455.55521256 3440.72641235 3421.84459341 3366.49232292 3339.57906106 3313.48836702 3288.55941388 3262.18740152 3229.97164226 3189.58062107 3145.3023086 3107.47062125 3084.06184899 3073.36894571 3066.59544749 3055.3094642 3007.66188853 2979.79949343 2951.65568199 2902.7829199 2887.86011051 2875.55906242 2860.67091688 2838.63509015 2807.25167872 2739.07422886 2693.28483293 2656.53724753 2592.24306909 2572.54601227 2555.73685821 2555.35195662 2548.72799261 2530.85168481 2501.19538584 2462.49442566 2418.78974686 2374.02059415 2335.60138517 2296.16696864 2212.68407018 2183.55310954 2159.33738009 2095.25929716 2074.81429251 2054.96506216 2035.31400902 1986.0163632 1968.82406214 1954.72230941 1945.02759679 1940.7644904 1942.27217626 1948.80182246 1954.12211483 1965.45490155 1971.78672666 1970.01856957 1958.83173294 1927.21307007 1889.92853011 1850.98060561 1811.32477595 1773.53148422 1739.1666857 1741.39763132 1718.52357904 1695.27012981 1678.74434834 1639.77751553 1630.26032119 1623.62315406 1619.61373653 1585.1607335 1623.54426101 1626.27083138 1631.43964641 1639.18281797 1649.69828244 1685.93549905 1700.51100074 1718.01206283 1718.78033469 1763.67749647 1785.74223207 1806.1268696 1822.65150565 1835.02085179 1838.19452915 1837.19784677 1834.21146051 1831.92959747 1832.64213756 1837.62353905 1847.01455506 1849.02614681 1863.85680337 1879.94429337 1923.32853867 1936.95792991 1948.77793081 1964.87061095 1974.92151884 1986.21848636 2000.20366812 2018.03934622 2040.31525864 2088.06898339 2114.75396797 2140.97511748 2164.09052091 2181.50085486 2191.95184263 2194.47736908 2193.0808586 2191.27793607 2191.91033881 2196.54510044 2205.223011 2216.88864417 2230.05339779 2243.34855848 2255.85260929 2285.74743616 2296.78585541 2307.34634047 2326.36026162 2336.66072884 2347.96290774 2360.36624249 2373.75223869 2387.91743066 2402.78101035 2404.3443607 2453.98735232 2457.82140443 2483.4803393 2513.69310295 2553.48926137 2599.39993838 2646.66077454 2687.66536331 2714.27969712 2721.39306058 2709.3429117 2683.39914038 2651.0334792 2630.19434077 2593.52668637 2575.21987795 2542.82068587 2539.7422673 2539.81642219 2547.17666108 2583.52633297 2592.85579668 2601.43975559 2609.32413023 2591.61496589 2600.95173965 2636.3754625 2657.3917685 2686.93069522 2725.25962041 2770.73930767 2819.49295716 2865.63582675 2902.35399689 2923.76975924 2927.11285782 2913.04673573 2891.97373886 2861.91137033 2856.85262094 2837.34566907 2823.53193349 2815.81994467 2813.50586183 2814.84789768 2872.79881454 2837.82691779 2889.14699522 2893.80421311 2898.45501529 2903.67052974 2939.82015536 2947.66123545 2958.13567995 2971.72857278 2988.62566514 3008.59123873 3030.82997647 3064.32300412 3081.74314353 3095.62940368 3103.95822792 3105.98922614 3104.55050855 3102.03647746 3099.49216208 3097.6855641 3096.93801764 3097.18763723 3098.16379617 3099.55402997 3101.10946757 3102.68519133 3143.95865485 3148.36954517 3153.13776304 3158.29269195
3563.58307226 3552.61515561 3541.9977821 3531.44952887 3519.77326614 3505.43271349 3488.63996359 3472.4614239 3460.46124643 3451.77772321 3441.65751992 3425.68218655 3374.16383485 3347.72992635 3324.40168697 3305.63376366 3288.1989923 3265.34678768 3232.05688789 3190.93186456 3151.23559136 3120.52832843 3098.74284764 3080.14111461 3058.52513394 3030.68764409 2969.22482594 2939.08092106 2896.88102534 2886.96404194 2880.28608149 2869.79407722 2850.01310446 2796.16867122 2752.10755601 2704.84013751 2659.62889127 2598.10598842 2575.34496637 2546.06744262 2540.46618067 2529.64277289 2508.87542256 2477.38519302 2437.46329291 2392.84087591 2347.39711225 2309.17893131 2233.44757525 2191.59709897 2165.56065712 2107.22511973 2088.46110955 2070.41293661 2051.94261408 2032.75726177 1985.70582919 1967.46574797 1952.40117978 1942.15531975 1938.00302329 1940.41736692 1948.60550687 1956.76847757 1970.28451708 1978.06101413 1976.47734815 1959.69732618 1929.30183196 1891.03743879 1848.60884483 1806.00091041 1766.01064652 1730.22036323 1699.25718277 1708.17700213 1684.50791767 1643.36613225 1630.85718969 1621.5378738 1615.0331514 1578.72522025 1577.12230856 1577.99926191 1616.16554334 1620.84064093 1627.98873744 1637.8469966 1673.26284583 1687.48675173 1681.56431754 1705.15988567 1731.15028321 1773.90019738 1795.15519467 1812.60110032 1827.94350692 1832.07610352 1832.00938218 1829.99832133 1828.81059429 1830.81077994 1837.34538966 1838.35868689 1852.7871351 1870.235335 1888.80856209 1931.11837431 1944.96429679 1955.98518702 1969.27423354 1976.85415755 1985.39143464 1996.74598776 2012.39386753 2033.07295344 2058.55922707 2106.67622998 2133.28424409 2156.95623617 2175.03946635 2186.95779999 2191.08529961 2190.73120205 2190.27968277 2192.69217606 2199.54818966 2210.73641815 2224.89953901 2240.17716537 2254.86755322 2267.85390655 2295.36460853 2305.16569126 2314.19708056 2331.15107956 2340.33436407 2350.93708795 2363.01112834 2376.22395029 2390.0244227 2390.70397911 2404.62200547 2419.10131705 2448.77372813 2469.37516097 2494.26369701 2528.27237183 2568.61800931 2610.96723735 2648.33448131 2673.31002602 2681.22621844 2672.23678832 2650.89277217 2623.84948537 2584.63347388 2576.8575918 2542.13174095 2536.42490813 2539.68495791 2546.12382137 2559.23666136 2598.11897111 2609.80918549 2618.74668323 2625.00394332 2606.25081652 2611.19190553 2640.64992119 2658.55836589 2686.61912947 2725.50427623 2773.58615413 2826.52078576 2877.46659839 2918.33214887 2942.03904998 2945.01825927 2928.51226466 2902.41338484 2868.6299427 2835.77733135 2839.47443226 2826.00497473 2819.81163787 2819.79716312 2823.39072887 2842.54154658 2849.24461977 2897.68713543 2901.69969929 2904.92516425 2936.36708654 2940.36187321 2946.30613915 2955.04416613 2967.17006896 2982.91364175 3002.03391302 3023.70234536 3058.10300171 3075.54087001 3089.54344684 3098.05331878 3104.04072204 3102.76107268 3100.42593596 3098.1551499 3096.7554488 3096.52515212 3097.32693294 3098.79544271 3100.54087973 3102.2784603 3138.15293915 3142.05176821 3146.35509556 3151.14403041 3156.43509462
3580.07432067 3567.44365495 3553.89120675 3538.91734348 3521.50054147 3500.92598749 3478.81854336 3460.31391992 3450.01663816 3446.62870514 3442.27287195 3429.64030147 3381.01095435 3353.90935739 3332.38802869 3319.42843013 3311.09163679 3297.51340585 3270.46978382 3231.35126148 3189.20976324 3151.71263091 3120.19287689 3091.27758112 3060.6430852 3025.75625031 2959.86362328 2928.42090639 2892.6203001 2887.39819766 2885.57274017 2878.29897607 2846.0521965 2808.10783772 2762.42459689 2714.51419602 2669.31784907 2602.66954328 2546.63922006 2531.81573783 2519.36897375 2503.1468717 2479.03857191 2446.02741193 2405.73995772 2361.29952103 2316.27964799 2243.2426502 2207.4014829 2169.56232503 2122.80111213 2099.02133282 2083.98169251 2068.35060173 2050.95292948 2031.73217355 1986.29615184 1966.32174927 1949.62090713 1938.10252611 1933.20050107 1935.44309564 1943.97960461 1952.46950111 1966.66987046 1974.79033465 1971.10683644 1953.99081241 1921.63914535 1881.39595717 1837.17007076 1793.2416181 1752.53073519 1716.59358209 1685.93763838 1646.80415681 1627.12130126 1632.67158188 1620.76406651 1611.91534339 1605.72182358 1570.2078059 1568.5902025 1569.25850853 1605.3217871 1609.31439193 1615.58933537 1624.41313462 1636.12982611 1645.65455628 1664.87474066 1687.32644133 1712.32260264 1756.52357497 1777.97232215 1795.89721729 1808.49283627 1820.93861271 1822.69886213 1822.75860607 1823.73874565 1827.91627816 1836.66090753 1839.58466749 1856.97907684 1877.58241987 1899.26922805 1919.63354143 1955.17765636 1965.54628273 1975.71097419 1980.33603051 1985.42873188 1993.36726204 2005.97842152 2024.11712216 2047.50042107 2074.71372054 2103.33259592 2144.56956426 2162.94954366 2177.15890472 2184.41741519 2186.36611835 2188.62558019 2194.0327427 2204.08642264 2218.5565793 2235.83687918 2253.68606627 2269.99534229 2283.37183111 2307.83388585 2315.75394829 2322.52995044 2336.72203251 2344.39733982 2354.19307842 2366.1350878 2379.63158293 2393.66872445 2395.27053825 2407.76426542 2419.06000072 2441.63926074 2456.01697932 2475.85060597 2500.01218605 2532.23109424 2566.99494751 2598.4337281 2620.39366001 2628.94477659 2623.97559802 2608.95302681 2576.36845191 2552.41112478 2535.01304879 2527.40942994 2529.601631 2540.88154094 2555.4295109 2575.97646491 2596.12265087 2632.96381571 2642.22226322 2646.01359682 2625.20391181 2623.66040919 2626.76498823 2657.26562423 2681.40058889 2718.2048217 2766.03204021 2820.18009058 2873.15865915 2916.06564567 2941.08433477 2944.25130574 2926.89564174 2899.57072001 2864.70769356 2831.67163683 2837.34983143 2826.0324093 2822.99813862 2789.302293 2798.19154351 2855.47834904 2864.33564613 2909.33699884 2912.57029234 2913.92371332 2940.27217023 2941.70601577 2945.03593593 2951.30855583 2961.21299622 2974.97987464 2992.31222451 3029.78652581 3047.39944217 3063.89613048 3077.23156124 3085.54203415 3099.66040957 3098.9466953 3097.31939677 3095.86821612 3095.36492315 3096.05351534 3097.71218088 3099.8751997 3102.07221309 3133.02727658 3136.27257106 3139.90960585 3144.11255608 3148.96005351 3154.44505264
3601.5273902 3587.69317724 3571.47166077 3552.10229246 3528.69003717 3501.20802194 3472.54790815 3449.69356288 3439.65749573 3441.04520433 3442.69334098 3433.67483725 3411.51985937 3358.13107435 3336.99319617 3327.97676852 3326.72682932 3320.38552215 3297.94334656 3260.23267546 3216.3926234 3174.13038492 3135.67167089 3099.30296171 3062.2185174 3022.66361854 2953.74804747 2922.29711674 2890.30029825 2888.09070529 2888.76108162 2878.40105313 2851.91592586 2812.56132895 2766.41687656 2719.01837659 2674.58201361 2614.66752217 2535.60175858 2513.74559202 2494.26705514 2472.41771578 2444.86073386 2410.50265787 2370.35741349 2326.8577048 2283.11530398 2213.8934986 2181.41473771 2126.0564119 2111.48660215 2094.3587124 2083.102251 2047.94698407 2028.91502258 2006.8035561 1987.66032618 1965.17367233 1946.12079575 1932.55714709 1925.93029519 1926.70432359 1933.94190467 1939.87296245 1952.81532371 1954.13293744 1950.92324396 1933.29452216 1899.91782381 1859.73852379 1815.87251429 1772.64021877 1732.96509485 1698.34705697 1669.18749282 1632.54393704 1614.37964113 1620.66063118 1609.73495179 1601.61968533 1595.90798758 1561.38945112 1559.80799451 1560.27684714 1562.69494518 1597.16042888 1602.32141349 1609.77878331 1614.07683908 1628.14856927 1645.50963056 1666.12833169 1689.38636772 1714.94720029 1755.6352468 1773.80751599 1787.39897318 1805.53493087 1809.85707873 1812.83286398 1816.78587156 1823.79356981 1824.49162694 1840.28267671 1860.94409162 1885.08039581 1910.43379694 1934.13238558 1967.13585727 1977.24320935 1984.25158814 1985.6227153 1986.74548244 1990.64254346 1999.54196061 2014.3951414 2034.82877825 2059.32852802 2085.51167114 2110.49954249 2152.03580746 2164.23801798 2175.7112598 2180.9678594 2187.02023153 2196.41040932 2210.49768215 2228.97883511 2250.05331568 2271.06464265 2289.35652903 2303.09422358 2323.71063789 2328.94293605 2332.51040984 2343.01922968 2348.64667146 2357.46424266 2369.51887941 2383.93603756 2399.13318224 2403.02054856 2415.09423078 2423.75756611 2417.75861712 2422.74045873 2457.9636999 2473.32012106 2496.09345962 2521.98064624 2546.3714969 2564.45460022 2573.07442729 2571.88909789 2545.97455458 2532.22145555 2502.05239929 2510.37988082 2511.69024432 2522.97191434 2543.68597719 2568.07133104 2597.93579202 2625.77140475 2663.41318173 2673.08591516 2657.7777671 2649.51040941 2639.20740088 2633.1081672 2654.11141353 2671.7056673 2703.45999547 2747.61350472 2799.23116811 2850.60644435 2892.70969156 2917.92996513 2921.63912976 2905.56768081 2881.65146543 2849.14624475 2819.26251248 2797.64116407 2788.1349288 2788.89310915 2798.74456879 2814.1792849 2872.27838678 2884.15469937 2924.99949304 2927.2987735 2926.23094796 2946.23055959 2944.31440663 2944.2473668 2947.32247246 2954.31257793 2965.40613101 3002.31115237 3017.45433011 3033.29796144 3048.20789659 3060.40212662 3068.36325505 3093.2996678 3093.52616001 3093.0843535 3092.94826632 3093.79342203 3095.78246253 3098.59599073 3101.64949276 3128.78223746 3131.34094974 3134.14101811 3137.50344145 3141.63324584 3146.59783849 3152.35283379
3628.71291097 3614.63322446 3596.64770859 3573.6700516 3544.87923267 3510.88275234 3475.73289259 3447.99166438 3436.32373983 3439.64601026 3444.87486151 3438.53900258 3416.63397637 3361.74784029 3339.70817806 3331.36322099 3332.72603357 3329.83836842 3310.4758643 3274.81491934 3231.22701894 3186.96217011 3144.76728547 3104.16114399 3063.61159901 3022.206615 2980.76665854 2899.63909728 2888.52145015 2886.51581962 2884.09199957 2872.70518671 2845.49317997 2806.53210706 2761.83903096 2716.34203622 2673.40708595 2590.92783453 2520.3086662 2492.46477439 2466.84632171 2439.98375651 2409.33640294 2373.91357017 2334.31134162 2292.35759105 2250.65407568 2186.40338404 2157.95710601 2113.25509142 2104.69623 2081.07874045 2072.81006713 2058.08816012 2037.0919715 2011.83162473 1985.13154422 1963.48764196 1941.47259287 1925.19853437 1915.96296048 1914.04668482 1918.40269092 1919.22587781 1929.03851715 1920.82363389 1916.17128316 1898.51344865 1865.07142373 1826.92335 1785.52262071 1744.96150704 1708.0364522 1676.1571056 1649.63196989 1616.41355848 1600.41945793 1588.14181136 1598.12120942 1590.95953632 1555.99164517 1552.54553964 1551.05322514 1551.36263318 1555.38196049 1558.34515791 1588.65329621 1594.49768281 1597.52645337 1609.41707375 1624.50467369 1642.86496566 1663.97817201 1687.67847782 1724.04258359 1748.38897545 1763.15127378 1787.23390922 1794.52282625 1800.82417243 1808.11050999 1806.97751349 1820.74622108 1839.65090423 1863.53184169 1891.21934176 1920.45999718 1947.98493847 1970.00155715 1986.30697242 1994.00599924 1992.15368762 1989.11952259 1988.6834854 1993.52125949 2004.67758645 2021.69544946 2043.01031533 2066.36743262 2089.24493532 2115.61414157 2150.11903884 2166.25702758 2175.35122371 2185.78305959 2199.74751764 2218.45892225 2241.59323765 2267.20656463 2292.17018264 2313.06418808 2327.24164798 2334.87001105 2335.39729818 2332.95996355 2349.86515781 2352.73784886 2360.28830239 2372.64975725 2388.67584099 2406.15043039 2413.98227352 2427.12441838 2426.30320031 2426.77411892 2423.68530408 2421.7942115 2425.10114844 2464.45220942 2481.17388797 2498.21299617 2511.91499513 2519.79541444 2500.96360534 2496.63820978 2490.53908208 2466.36037296 2467.16289642 2495.32110374 2516.22902724 2547.32525517 2583.01747591 2624.08524184 2661.55593168 2688.39323873 2699.20906624 2695.71940801 2678.87133067 2657.66743602 2640.1979935 2633.33232348 2658.43388437 2682.49633935 2719.82730225 2765.39814986 2811.72783306 2850.32345521 2874.46723235 2879.18486929 2866.41505568 2850.0895129 2823.24594827 2799.69895467 2785.91082474 2782.94110596 2791.76382634 2810.08969428 2833.86988636 2893.43322948 2909.34017085 2918.62061252 2946.48363392 2942.34001516 2954.60837786 2948.45290461 2944.17344925 2943.36740369 2946.87952836 2954.81454305 2990.50913518 3003.48558966 3017.27522677 3030.41074391 3041.42458533 3083.18546733 3085.755259 3087.1888109 3088.25708776 3089.7820104 3092.31621104 3095.92574918 3100.17262402 3125.40620537 3127.51389684 3129.48535322 3131.80150706 3134.88614887 3138.98177005 3144.133677 3150.24339234
3662.35165164 3649.67203183 3631.73114002 3606.99379424 3574.60702489 3535.79058703 3495.69480936 3463.7762414 3448.80340705 3449.52219634 3453.07668824 3446.07166724 3419.51625105 3388.02135557 3343.23734818 3332.23312429 3330.83738845 3326.81316821 3308.81628095 3275.87976194 3234.42732863 3190.69172079 3147.63927995 3105.6891959 3064.32422413 3023.4043869 2984.02390259 2902.4398381 2884.60723638 2868.84740546 2866.54187389 2853.11097506 2826.4465476 2789.9679827 2748.56113841 2706.14435229 2619.35002664 2578.42633376 2500.7223417 2468.37998229 2438.00847914 2407.22200017 2374.22106547 2338.24862024 2299.69818012 2259.95930365 2178.95071759 2150.24641412 2113.59503859 2105.55949509 2103.15873054 2092.73876765 2086.30128791 2070.29703006 2045.93535826 2016.44206095 1985.5173181 1960.29346514 1934.99902934 1915.62931795 1903.19964226 1897.73510127 1898.08478207 1877.89435484 1874.4221293 1877.44376206 1870.85492183 1853.38940418 1820.57113398 1785.84116817 1748.47140477 1712.10980898 1679.29941882 1651.30844872 1628.34380672 1599.36120723 1586.01639239 1575.78813013 1586.3795338 1580.31060291 1547.04334515 1543.96225489 1542.60700566 1542.83319361 1546.17297851 1548.46068373 1552.0051238 1579.27872351 1580.99571228 1590.50736935 1603.12805149 1619.07441759 1637.94912859 1659.72137579 1680.34224651 1715.23005907 1731.06182518 1767.43898522 1777.71903174 1787.30137249 1797.82498745 1798.30317585 1815.03405962 1836.64626829 1863.23574369 1893.92813846 1926.61865992 1957.81005801 1982.95960685 1998.86167832 2002.59960464 1998.04508172 1991.24726609 1986.75126421 1987.67717421 1995.17246484 2008.74436091 2026.85410825 2047.44419455 2068.37598973 2095.30835043 2111.47068709 2156.75558453 2169.71681207 2184.58507704 2203.24869872 2226.82115538 2255.02697448 2285.85255476 2315.8382211 2339.93388048 2354.98603795 2359.63291908 2356.41699842 2348.13043502 2340.64945029 2356.15290711 2362.00961202 2374.67132069 2392.76729811 2405.22544413 2426.64396515 2441.51441342 2444.98011578 2441.43156091 2430.50827061 2418.29357189 2410.14302777 2408.4818194 2446.43402559 2456.27351034 2465.35959523 2448.02508763 2450.27478345 2450.27056742 2428.84561734 2431.07446767 2440.28026931 2477.55644203 2507.81748986 2549.44275997 2597.14464533 2650.73892018 2699.50080655 2733.70823944 2745.98063346 2736.89639175 2710.19950943 2676.71487131 2646.67058527 2628.03958902 2642.28512093 2656.9964661 2685.4185787 2722.58469688 2761.58345727 2794.89989429 2817.14670143 2823.13719783 2814.99250806 2805.45390874 2785.72401902 2775.0712629 2770.1961649 2776.34748153 2794.67825174 2822.89857055 2856.5385834 2918.31831317 2939.34177276 2950.71726212 2969.85444287 2975.68448774 2965.19693792 2953.89422957 2944.64593714 2939.41014704 2939.07959964 2969.50320852 2978.03114637 2988.8177915 3000.63061988 3012.17625746 3022.28468684 3074.24487864 3077.71546965 3080.48674002 3083.21065932 3086.56739774 3090.99700987 3096.47170529 3122.39145997 3124.67632918 3126.27042176 3127.63434336 3129.43091484 3132.23020865 3136.32533263 3141.72843693 3148.26878474
3702.7269659 3693.80817316 3678.7065464 3655.19038356 3622.05050689 3580.85965868 3537.59594 3501.87105729 3481.37854762 3474.61074732 3470.95999214 3459.50211066 3436.37313683 3399.74971209 3349.28567003 3333.6539423 3325.83971644 3316.90130517 3297.90153857 3266.99201038 3228.27976171 3186.5960409 3144.72475668 3103.53787261 3063.13813384 3023.9091843 2987.13182423 2898.17672834 2852.07143292 2846.68848708 2839.07124922 2823.49757044 2798.28327738 2765.46976849 2728.27355124 2689.4563249 2601.09359249 2560.36244828 2522.58459169 2441.83073123 2408.10975395 2374.58724826 2340.11960135 2304.2579639 2267.37250128 2230.59654574 2153.96351384 2131.17942349 2103.05901489 2101.92549349 2100.01438935 2105.06830831 2099.1503075 2080.60411403 2052.00911906 2017.90927462 1977.14829045 1954.19465596 1925.76653035 1903.32322265 1887.5414822 1878.19138996 1874.06159747 1842.31663112 1830.16381796 1828.88000717 1820.15658429 1802.93517201 1771.1408269 1740.50289482 1708.01097582 1676.75112316 1648.91522383 1625.56665509 1606.77455221 1582.61770308 1572.15493231 1564.06803048 1575.05204072 1543.00664075 1538.65621455 1535.89758672 1534.7113008 1534.96902536 1537.81126952 1539.65640251 1542.33752301 1526.94422844 1551.43991763 1572.604104 1582.75797119 1596.33268956 1614.32005786 1632.98276774 1652.36660839 1688.71634589 1705.54128331 1747.25148732 1760.21178407 1772.66651347 1772.25709627 1787.67831523 1806.70678604 1830.23214373 1858.54344757 1891.05306227 1925.90513889 1959.60818638 1987.18403822 2003.70057547 2006.28906981 2000.12262046 1990.72590902 1983.20134437 1981.00636565 1985.40037198 1995.93758124 2011.19853341 2029.37707277 2048.70614255 2076.21330945 2093.59300765 2118.39693997 2163.64916843 2182.54068087 2205.53778433 2233.71432307 2266.9207815 2303.33993152 2338.30919987 2366.86887081 2383.7352487 2386.52750863 2378.00617747 2363.04149453 2349.10565786 2358.1460296 2361.82847269 2374.43735631 2394.44252688 2409.2812606 2436.11743834 2456.1820479 2463.01445536 2456.42763163 2438.53812875 2416.90471377 2398.34831344 2386.31703471 2380.89834183 2395.23817049 2398.24905141 2401.47796898 2404.22590462 2384.08455842 2387.61615965 2395.85968826 2411.86099294 2417.26464157 2495.02852181 2546.08516809 2604.98466305 2670.88793223 2731.29178766 2773.31182865 2787.55374502 2772.51185785 2736.4789176 2691.07512541 2649.06442353 2604.27775089 2589.25741992 2628.12975063 2647.01061187 2674.95382783 2705.8270688 2734.88268697 2753.35063297 2760.73116642 2757.69068133 2758.37585969 2747.75310093 2741.68084507 2752.25573168 2768.15911905 2796.4958906 2835.15197635 2909.74719771 2944.31046789 2971.36493743 2985.3734051 2995.40718879 2992.55616201 2976.71369702 2959.56328548 2944.85318684 2934.92893775 2956.28406627 2958.90944836 2965.19264041 2974.00947164 2984.15371844 2994.4827234 3004.0667761 3065.09269724 3069.49650935 3073.59935826 3077.95916731 3083.15166943 3089.53962512 3118.61347684 3121.86623607 3124.09468289 3125.31445611 3126.09855772 3127.34679337 3129.83718641 3133.93978541 3139.628353 3146.64459004
3749.15433314 3746.82917628 3738.12655184 3719.68536948 3689.19716189 3647.83023867 3601.88260344 3560.91127194 3531.84479698 3513.80760878 3499.31794334 3480.53768046 3454.28595258 3422.83900293 3385.20083213 3336.36551517 3321.21748082 3305.29038427 3282.87462764 3252.11630797 3215.40962908 3176.17320421 3136.58269538 3097.38319351 3058.75628108 3021.23259966 2955.76289895 2926.57486723 2831.06108035 2819.41241332 2806.77841881 2789.45879307 2765.92525602 2736.78028761 2703.60073328 2619.4710106 2578.22448601 2537.86231046 2499.02537405 2413.1533755 2377.21463997 2341.97093715 2306.83151797 2271.67975682 2236.98675384 2158.62705156 2131.35950437 2114.63998458 2093.00012566 2088.84617134 2103.46551088 2110.96461043 2104.44737775 2083.03474037 2050.63566632 2012.82388569 1968.56365752 1931.91277061 1912.71535516 1887.65925663 1868.80869894 1855.7499933 1808.3108091 1804.49104084 1784.49617698 1779.2308441 1768.5702966 1751.69017894 1721.22638788 1694.86998525 1667.54881959 1641.76674703 1619.31000845 1600.97545053 1557.62910726 1547.16008707 1559.98177131 1553.85598752 1564.73678057 1535.14727861 1531.11205783 1528.5350986 1527.51751949 1529.63908418 1530.58815491 1532.37657496 1517.09695156 1521.91678365 1526.33847256 1556.94901517 1564.7716745 1576.10283709 1591.90995251 1608.91757657 1627.086232 1645.12888976 1681.79133278 1697.77594221 1742.50268917 1742.27628059 1757.58030119 1774.88228672 1795.29975066 1819.67434782 1848.38239547 1881.04429632 1916.08194803 1950.24222729 1978.59090758 1996.29638641 1999.24046373 1994.94754794 1984.79584278 1975.98017961 1972.06629826 1974.4139098 1982.71791478 1995.77442493 2012.07265956 2030.19385592 2058.23162005 2076.69448085 2104.79848514 2124.44390833 2178.50115147 2204.9817654 2236.89441485 2274.40237969 2315.04199949 2355.22829671 2388.38621071 2407.55833126 2409.0654995 2395.30926894 2374.47158253 2354.41724395 2357.67873307 2358.88477258 2370.73197307 2379.05375036 2408.59477925 2438.96164559 2462.19588498 2471.26797377 2462.872611 2440.03051625 2411.33995515 2384.75079998 2364.55721271 2351.52199652 2359.54407235 2358.17052724 2359.11341087 2361.68684085 2340.6230403 2347.32810894 2359.71670011 2380.4554363 2390.15504352 2436.5732922 2498.89263437 2599.54509636 2674.9962436 2739.70589408 2793.82451918 2809.85823272 2791.03779313 2747.430208 2693.16239979 2629.99434659 2588.20453569 2564.07881576 2557.96481494 2606.07254264 2625.3439257 2648.54363447 2672.38894883 2688.57521862 2697.35881019 2699.25326728 2709.75133144 2708.0238809 2711.48878677 2731.9358099 2757.07803124 2794.71835714 2843.04107329 2923.80610724 2966.22827215 2999.54456579 3016.49305612 3015.90496018 3007.76719156 2986.3740629 2963.28929987 2943.21626751 2952.05234104 2947.26354256 2947.58132415 2951.96991884 2959.2095259 2968.10820958 2977.63632444 2987.03568776 3055.78304432 3061.05277819 3066.35087545 3072.17323002 3079.03542333 3112.76427615 3117.32905979 3121.17562234 3123.73261751 3124.86414071 3125.20190809 3125.91855103 3128.0734131 3132.16015072 3138.12514246 3145.61760319
3799.46698758 3806.4204149 3807.77846816 3798.48109337 3773.92465664 3733.64860505 3683.90270779 3634.97788454 3594.50910353 3563.23315178 3536.53349356 3509.00511332 3477.97182965 3444.35088349 3366.29411705 3339.80002622 3316.66240125 3293.35948034 3266.14577959 3233.46498299 3197.44756674 3160.43211255 3123.66936567 3087.1392979 3050.45592626 3013.85919098 2947.05944332 2867.494934 2807.13246746 2790.25470362 2773.94036619 2755.67845491 2733.74053339 2707.49590705 2677.26514954 2592.63986891 2552.54140102 2512.1505463 2472.35409669 2433.48768616 2345.22477917 2308.9605464 2273.67738886 2239.56701378 2154.9116777 2130.99704014 2108.58610841 2067.30406496 2059.63863998 2077.62921805 2094.8769618 2102.4291165 2094.89440703 2071.71465504 2037.51418486 1993.21622612 1952.10685163 1914.23585619 1894.90750203 1868.05201839 1846.7671717 1830.57096244 1774.38927721 1727.83413797 1722.23804448 1731.03872655 1718.99941757 1702.75604536 1674.0337479 1652.01040654 1629.92823904 1609.74491596 1592.81764131 1553.14840936 1544.94767905 1538.35907049 1532.26265998 1526.05134579 1541.71619767 1528.76255924 1524.59707735 1521.93691511 1521.03434533 1523.16681914 1524.61504123 1509.37473006 1515.32578526 1520.28639477 1523.83614984 1533.71766985 1550.39901454 1559.59087738 1573.20051772 1588.47264795 1605.24453321 1622.39943701 1660.27087481 1677.05085744 1724.91099498 1725.00652535 1741.62215716 1759.87803423 1780.68679985 1804.76280958 1832.45925579 1863.50268791 1896.57644138 1928.85281549 1958.04812775 1974.34406738 1978.27819596 1980.38873532 1971.52862729 1963.46038234 1959.55702056 1961.2221163 1968.35252672 1980.03076597 1995.06967057 2012.37369983 2038.51557118 2060.12531725 2090.7017936 2112.54282508 2138.10631088 2186.87226372 2222.56123223 2273.76655025 2317.32710467 2360.86363914 2397.23851558 2418.32491276 2419.37831904 2402.80257219 2377.29128475 2353.85505623 2353.45527466 2352.34784728 2347.17734209 2368.57026348 2397.79767959 2428.52732121 2452.50679335 2461.00035342 2452.10062856 2427.38219695 2395.3959137 2364.40286881 2339.20401674 2321.14951277 2324.67612498 2320.03818889 2319.10494289 2294.62892263 2298.55767285 2306.98381255 2321.61884334 2344.76043491 2355.72539605 2404.45363175 2469.25943205 2574.42627865 2642.05825494 2722.0811332 2778.72980149 2798.46328715 2778.82198942 2732.99567519 2666.37921942 2607.73298617 2561.46906466 2531.7457191 2518.76084604 2520.10627856 2574.87002603 2591.63303352 2611.17728053 2625.56769725 2635.71040607 2642.00020201 2661.16247693 2667.32305529 2679.16930655 2708.15338231 2740.96820223 2785.96742435 2841.65007047 2928.32431819 2976.92957874 3015.40966509 3034.98597692 3031.63641643 3016.07664112 2989.97222765 2961.94685505 2937.54355707 2943.40911287 2936.40401589 2935.0309621 2938.08784204 2944.27218906 2952.39924081 2961.51685133 2970.97728564 3046.15083858 3052.12326191 3058.35880713 3065.31961925 3104.03323239 3109.55205126 3115.05250002 3119.89104569 3123.26528491 3124.77220744 3124.98691969 3125.32816049 3127.18901387 3131.2483035 3137.46119015 3145.39912995
3849.79753504 3867.53643384 3881.47884934 3884.41625168 3868.16056753 3829.34359616 3774.25868231 3715.36217363 3662.42925173 3618.08579364 3579.6962001 3543.30128849 3506.39620469 3468.7739812 3431.82348913 3343.55381413 3312.0441226 3280.22700113 3246.36995507 3211.04058995 3174.4227166 3139.43448387 3106.1624892 3073.08942034 3038.47974921 2959.9932864 2923.22631165 2847.51852613 2782.13401877 2761.64579075 2743.57465502 2725.55522772 2705.09990268 2680.54890173 2604.21422722 2565.98447291 2525.45211384 2484.14687415 2443.11792092 2402.87723951 2284.74906864 2275.01583236 2178.22531122 2148.30678094 2122.32373079 2051.55973021 2042.42001477 2042.07669952 2034.04397103 2052.26717849 2068.87317193 2074.80485874 2066.6500689 2043.8174823 2006.27252473 1966.70377276 1926.78603738 1889.58165465 1856.81749073 1844.11400756 1821.22581255 1707.84178895 1695.21370593 1685.46818272 1664.25925994 1654.22598345 1672.77472147 1657.68035846 1631.2842432 1613.75281612 1597.03672028 1582.59440983 1546.19102952 1541.33413372 1538.13016444 1534.99756229 1530.70435853 1524.84101913 1517.25814738 1524.08466382 1519.14252922 1516.00260079 1516.82901019 1517.38359057 1500.50175469 1508.16616979 1515.75070701 1521.71314012 1525.13760781 1530.44273104 1531.90506982 1548.26760157 1558.78911601 1572.04446724 1587.04906666 1602.85881636 1618.82612254 1657.97604994 1682.26292081 1707.47042914 1724.53429132 1742.86068837 1763.13078212 1785.87329904 1811.33804622 1839.28342537 1868.64111073 1897.14197487 1924.51310964 1939.76842029 1944.89217334 1940.84835596 1950.58000746 1945.05281685 1942.80460281 1945.17633232 1952.25994037 1963.44176391 1977.85797326 2003.00241457 2021.00196109 2040.61883382 2075.42117851 2098.37876299 2125.12646328 2174.82820276 2211.185604 2263.58417555 2307.24997797 2351.00237684 2387.80635019 2409.42244738 2410.86745505 2394.40159154 2368.70673898 2345.02706818 2319.12137595 2312.41013759 2332.12498736 2350.4210901 2376.15324997 2403.51554518 2425.03005149 2429.47726645 2420.86282769 2397.20920785 2365.85191498 2334.3832503 2307.64712431 2260.88099596 2243.96495601 2233.01707095 2279.97531373 2252.9174176 2256.99111574 2265.90281212 2280.99050157 2304.15941213 2313.18336516 2360.01305938 2421.83022051 2505.82025023 2588.07942401 2665.57091527 2721.34176594 2745.88654538 2729.3352287 2688.12073384 2622.87434152 2567.13717122 2521.72925363 2490.52750079 2473.91010821 2470.02562722 2523.4248593 2535.34655676 2551.76139254 2564.93958378 2576.36757271 2586.35235439 2612.71926612 2625.33221422 2651.81866624 2679.42553395 2717.58696762 2767.03899707 2826.4903609 2918.11302909 2969.52809591 3010.48315637 3031.48321957 3028.13849348 3013.75445144 2982.89327316 2952.19800866 2945.73230635 2930.89125965 2922.8214141 2920.68320371 2923.16487209 2928.91828524 2936.77337678 2945.83332264 2955.5167106 3035.95185555 3042.38510326 3049.19491697 3092.37152039 3098.15943995 3104.42749288 3110.95072877 3117.0482215 3121.7007417 3124.17159669 3124.83572978 3125.23139856 3127.05240411 3131.20225337 3137.70009097 3146.08019173
3895.05715685 3922.71730994 3948.95252065 3964.4995141 3957.07626858 3919.84383622 3859.50873736 3791.55533136 3728.18228807 3673.362972 3625.48033789 3581.26711493 3538.1999176 3495.24211501 3452.45818966 3347.55797971 3306.87682796 3265.42994737 3223.08358603 3181.58178864 3143.91900306 3112.22352058 3083.90128701 3038.17754377 3006.60736941 2945.25480752 2904.00202604 2824.60563611 2791.90689399 2735.59887508 2718.17212613 2701.86799415 2682.64467924 2635.27987379 2581.28217674 2540.46494593 2497.50234216 2454.13962296 2411.44005738 2287.38849079 2247.46379082 2209.8924825 2141.52195501 2112.14417651 2087.29554305 2017.03853017 2008.72801447 2008.63400938 1996.8746627 2012.27864818 2025.97746502 2029.44184519 2021.46686424 2001.00771281 1965.45122423 1929.73296005 1893.04529382 1858.10426014 1826.53739752 1765.62483509 1690.58184801 1671.18454882 1656.07145612 1643.80077763 1618.88877132 1607.9105896 1596.40356932 1616.76255137 1593.38455372 1580.67266886 1569.62378976 1535.44881079 1534.82015678 1536.29844998 1537.97881272 1537.78318089 1534.35247457 1527.61512273 1514.64635997 1507.96017451 1514.54541779 1510.43733245 1510.7348304 1489.80199972 1497.43462057 1507.21188167 1517.0184669 1524.67446656 1528.6437424 1528.74496125 1529.82600634 1530.14495825 1548.55169017 1559.40273778 1572.19383115 1586.16845647 1600.79009041 1623.62660473 1632.39494015 1689.78319016 1706.55722899 1724.22592741 1743.22378638 1763.86298361 1786.25134016 1810.15073775 1834.75065096 1844.46912514 1866.0364931 1896.75343119 1903.06265464 1902.65832051 1898.25458019 1921.24334811 1921.90466029 1926.15271876 1934.20236626 1945.70332665 1960.08158699 1985.20914594 2003.14856592 2022.84659922 2058.56847139 2081.58718448 2108.25262451 2138.83050185 2174.95983662 2243.45970364 2284.33667357 2325.05667003 2359.3350786 2379.92220508 2382.51160914 2369.09731224 2347.19143951 2317.38887564 2301.03755187 2293.79809901 2311.54713939 2325.55682831 2345.68987657 2367.06725657 2384.19996571 2381.34555084 2372.91156866 2351.84229073 2323.7017613 2294.73780082 2243.89019482 2220.88377565 2204.15876113 2193.04257125 2186.71385176 2211.75116174 2215.56553023 2223.9717813 2237.96107409 2259.01676394 2263.27763044 2304.38292346 2358.25853447 2433.09496582 2505.26182455 2573.90812826 2624.77475236 2645.99171047 2645.92495028 2602.97034425 2555.94580271 2508.71198968 2468.79885972 2439.88358657 2422.75577045 2416.31818467 2418.37156266 2482.00046284 2493.61579378 2506.15341912 2518.77433291 2531.72058551 2563.78812013 2581.27478276 2612.91219907 2644.5230535 2685.39631008 2736.02335177 2795.15666073 2890.34211581 2940.30478328 2980.08776158 3000.65133366 3000.12763953 2993.87076858 2967.88604727 2948.71263591 2927.82023418 2913.41287214 2905.78914467 2904.05027437 2906.85909626 2912.877587 2920.97362764 2930.30074256 2940.3192473 3024.96389456 3031.56522941 3078.31276104 3083.81379251 3089.80620797 3096.52176156 3103.8684004 3111.21134639 3117.40688187 3121.42295949 3123.33261022 3124.57859484 3126.98138514 3131.62528352 3138.63674484 3147.57384951
3930.4104068 3964.15067756 3998.38597388 4022.73100607 4022.10902635 3987.21820815 3925.18505705 3853.43756338 3785.23462613 3724.87950173 3671.13109752 3621.12824246 3572.41783105 3523.50722023 3473.60837599 3352.52803975 3301.61068103 3248.90533857 3195.69624216 3145.9018308 3104.95872169 3075.9137606 3041.45008745 3020.9787485 2993.42193066 2931.15068894 2858.36178916 2800.98704638 2763.24328154 2714.27719863 2700.28433408 2687.08204871 2650.9392255 2620.41397672 2561.93899848 2515.45036608 2468.01928059 2421.57308043 2376.93569733 2249.39317882 2208.71347709 2170.60934336 2103.53887892 2073.93093644 1995.11743019 1978.58323583 1969.24374261 1967.35382722 1950.45215652 1961.41121406 1971.29166209 1975.11856402 1965.31838254 1941.52269294 1915.59828128 1884.89952305 1852.4987516 1820.74695298 1791.20116082 1730.78941181 1652.76514972 1632.56771559 1616.15455696 1602.55390902 1575.12471916 1564.22655744 1554.13068391 1544.87365086 1559.70055944 1518.38409524 1518.58361984 1522.37251726 1529.18191747 1537.20850079 1543.69811444 1545.91248513 1542.36325444 1533.50499712 1507.07985396 1501.48502444 1489.04877641 1479.96279439 1479.25333285 1484.00587588 1492.95865857 1504.75352511 1516.81929924 1526.38074385 1531.2850801 1530.94141994 1529.13713521 1526.93871969 1526.50887504 1549.6484389 1559.88366892 1571.64895799 1584.51110063 1581.14045627 1613.78698004 1627.88815044 1643.01783524 1704.48546571 1721.75612578 1739.86705198 1758.77488344 1778.24549605 1779.6804964 1799.32307688 1816.3594254 1849.7217297 1857.08143009 1860.27041334 1860.92702382 1893.21043202 1897.56641765 1904.52689098 1914.32871464 1926.80996382 1941.63075745 1965.50680669 1984.7869344 2004.25753493 2040.11846291 2062.4541626 2087.00338031 2115.26453802 2147.9439931 2185.13172685 2250.63155333 2286.1407481 2316.09367947 2334.8493374 2339.20514419 2330.73728648 2315.12925849 2288.4754644 2273.43745566 2266.42964702 2268.32764813 2295.64349526 2309.6291285 2325.18434816 2335.46849735 2324.67656368 2315.76414211 2297.24279435 2273.07147399 2223.00850089 2198.01425887 2177.93883432 2163.14910479 2153.18437285 2147.39590307 2171.22727354 2174.52749663 2181.69167337 2193.38993407 2210.67439685 2208.22705269 2240.85920915 2283.3969642 2344.95418032 2402.89667814 2459.11262433 2502.93428016 2525.23365252 2521.70101997 2505.10759867 2471.65149014 2436.10078925 2404.61587341 2380.65785177 2365.46869764 2358.72869821 2359.15070896 2368.25347164 2435.88990065 2448.28218165 2461.99163672 2477.20963092 2513.58402727 2534.43814651 2562.2446057 2609.87689754 2644.07002614 2692.92359142 2748.16020264 2845.58742842 2890.29768249 2925.58931569 2958.09753954 2948.24159491 2957.49380251 2934.52626172 2920.2760775 2902.30972691 2890.45323545 2884.9341796 2884.87045377 2888.97778788 2895.9854602 2904.83187164 2914.73183672 2925.18171613 2963.71080813 2974.53135079 3067.62067557 3072.72390379 3078.34317853 3084.90853723 3092.54954169 3100.8009857 3108.54919676 3114.5941702 3118.6742183 3121.89152881 3125.89971018 3131.80670395 3139.83840733 3149.63651882
3971.7799984 3998.86722508 4022.23004352 4048.08861739 4050.21018864 4019.42044881 3962.47717846 3895.57386654 3830.50203485 3770.85416548 3715.55598233 3662.29339804 3609.02097876 3554.23109886 3496.69056197 3435.1146383 3298.22699856 3232.51764979 3165.58129312 3104.0605285 3057.55670268 3032.10248862 2999.08016014 3003.81394731 2982.68147706 2893.68975091 2843.08856485 2779.90849123 2720.96684008 2702.30404748 2688.01723858 2677.10660733 2648.22352833 2609.81929681 2543.2858058 2488.3268607 2434.92305396 2384.99834937 2253.52118194 2209.41260997 2168.5024773 2130.0416006 2064.36489641 1979.55220409 1955.30395567 1937.03200905 1925.43576309 1920.64970023 1885.01033353 1905.71759105 1911.985162 1914.43952171 1897.33521372 1882.68183653 1861.34186181 1797.26384807 1767.70099141 1738.26813308 1710.55802827 1667.62062622 1612.27066675 1592.11273398 1575.31881186 1544.40985414 1532.26393802 1522.20763418 1514.09831757 1482.48788966 1481.38839403 1493.62915841 1500.84199079 1512.17668655 1526.45047982 1541.00374419 1552.09098376 1556.20687311 1551.76847376 1533.17147348 1511.6344081 1489.27591699 1484.78960872 1473.52808948 1471.94148005 1476.03178235 1485.71692958 1498.82989677 1512.48133815 1523.50357397 1529.31941959 1528.99879753 1523.75347861 1522.88651454 1520.09222332 1519.79333474 1548.94759123 1528.52614579 1536.85217211 1556.72211582 1595.66278977 1608.63236053 1622.62765864 1637.63395725 1699.57061423 1715.08737304 1730.52313376 1745.64700563 1740.12868333 1754.60702932 1767.44981403 1778.04171472 1810.33997272 1816.76456833 1822.14334648 1826.23742408 1870.85581739 1881.03891422 1893.11713012 1907.04172617 1930.20495811 1946.70070194 1964.4617626 1985.0235295 2020.57063491 2040.75479831 2062.98318714 2087.86675385 2115.91252929 2147.14941388 2180.55215102 2239.20245479 2264.52348573 2281.56122144 2288.09149286 2285.13910686 2276.50505553 2253.24634863 2242.24165792 2236.71545038 2237.14599241 2242.75214364 2270.91378952 2280.21981792 2284.86315401 2266.624685 2256.65585405 2239.88121604 2193.66155761 2170.84879838 2150.60730222 2134.44913728 2122.59604307 2114.57881782 2109.79673727 2132.0487004 2134.63905601 2140.05722215 2148.6939311 2161.19290303 2151.26055504 2174.13023646 2203.95205086 2250.46423209 2293.06341833 2336.18475801 2372.62905593 2395.79880275 2400.06705025 2397.74266081 2377.95196453 2354.5937097 2332.47076093 2314.74058272 2302.97797235 2297.51159251 2297.82468632 2306.65476016 2316.289402 2390.43180646 2405.12106203 2422.01455162 2461.66434403 2486.38427366 2514.36501976 2563.17631538 2602.2704253 2646.67091324 2694.96154683 2787.32894824 2824.47997155 2853.31516965 2892.12185221 2890.61691354 2906.95660512 2898.80233987 2882.32782386 2869.51636183 2862.14352908 2860.3121853 2863.17284532 2869.53281366 2878.2291994 2888.30545832 2899.06256937 2938.68805922 2949.78903063 2960.45470932 3054.76557291 3058.81478329 3063.2417862 3068.75918802 3075.86515087 3084.45250346 3093.62922925 3102.15663838 3109.40541534 3115.89923026 3122.80433061 3131.0295782 3140.83437312 3151.9803044
3984.82977095 4006.72611913 4029.07977268 4043.34078503 4044.49401762 4019.94305339 3974.98900207 3921.23211708 3866.60858475 3813.18303472 3760.04548279 3705.74231991 3649.07824242 3588.99197209 3524.16383317 3452.76516813 3300.70658294 3221.17389842 3138.34670918 3061.7636481 3006.7820445 2974.30287494 2974.5081762 2973.90883164 2955.32163216 2889.88824099 2833.54715619 2754.42181969 2715.32693064 2691.58254985 2691.12204397 2681.31400518 2647.28827753 2597.34283072 2538.8802087 2454.44618405 2394.84820667 2342.26313046 2232.17347348 2188.24701823 2094.80321238 2058.33387081 1970.79412151 1941.00591904 1914.85277143 1894.27975645 1880.05497405 1872.35805233 1834.69429814 1836.17410306 1837.85103275 1836.83477128 1799.40710746 1786.18489389 1767.1329814 1743.85291174 1718.28172398 1692.21322759 1667.04951066 1557.03568701 1569.56511545 1549.97247668 1533.41936439 1501.08187952 1489.52706149 1480.75133757 1474.87412288 1445.56890884 1403.97421213 1438.89627913 1482.74897964 1500.97456224 1522.02720971 1542.42156338 1557.46904981 1562.98221123 1557.39321888 1537.26586279 1511.44583904 1485.05618036 1454.85334518 1440.30384675 1461.51021894 1465.05451009 1474.65477047 1487.98681234 1502.05041161 1513.59498909 1519.94237501 1519.99667934 1514.7571218 1515.62441385 1511.49712828 1509.51427522 1482.36966924 1513.98005725 1520.57815067 1539.05070056 1548.95908958 1589.52531348 1602.41095554 1616.16292105 1630.44642311 1690.63367245 1702.95290971 1691.94753746 1703.03039872 1713.01102686 1722.15318697 1730.77846668 1739.09901359 1774.34103353 1783.94357969 1792.28555503 1801.99644044 1856.64905987 1871.2770057 1889.09111933 1910.88438675 1927.78987945 1945.45910193 1965.79878671 1999.75356252 2018.05683638 2037.47108988 2058.42860807 2081.34264137 2106.33528414 2132.80677833 2159.02119851 2210.34055677 2226.28036451 2235.14768342 2237.35528315 2221.39342562 2214.59357714 2207.52409976 2203.7877663 2203.4657524 2206.05876151 2233.06796396 2235.99089683 2236.0598817 2211.7503823 2200.71052013 2158.12528604 2139.49855213 2121.26781473 2105.62971118 2093.55305977 2084.90388823 2079.01427157 2075.23660746 2073.22880955 2096.96296484 2100.3047328 2105.53611668 2086.22531042 2095.99612474 2109.35688427 2127.05366102 2158.89849123 2187.36993723 2218.67673438 2248.34611712 2271.67981919 2281.80540107 2290.71797343 2282.31815025 2269.54633422 2256.01068161 2244.47452053 2236.65123441 2233.30246215 2171.77124854 2244.0413769 2253.95530985 2331.91210663 2347.47753292 2387.58670362 2409.58169089 2434.23336786 2462.57394265 2495.00488878 2547.89140008 2587.56187749 2628.91640728 2669.42960189 2749.49359565 2785.05815485 2815.88762273 2815.44349398 2811.20305209 2846.11503652 2836.50353632 2830.45934832 2829.12528276 2832.35401437 2839.26578461 2848.74412791 2859.75080193 2871.46975114 2912.21828756 2924.35873259 2935.65358745 2945.98170898 3039.78047677 3041.99484734 3044.16880273 3047.42630636 3052.89198167 3061.12660768 3071.68454811 3083.32206761 3094.88520031 3106.05309107 3117.22911601 3128.92592464 3177.68799004 3217.70296111
3994.00598673 4008.90899141 4022.96944269 4032.13670924 4031.42574536 4007.88637708 3978.55875574 3942.18994379 3901.77902007 3857.35579645 3808.13372272 3753.79364513 3694.42749664 3629.8703789 3559.05123395 3479.72199335 3314.8613058 3223.07672145 3125.10758709 3032.96574041 2962.70517124 2945.49861525 2956.49279359 2966.96734283 2954.26390756 2881.36484906 2831.4259341 2750.22065042 2695.28638353 2690.42712914 2691.73683722 2677.36003224 2636.0022149 2572.98342579 2501.59179444 2407.86542298 2343.77681156 2207.83482413 2161.23157188 2120.53291726 2082.34613595 1969.89988016 1935.13674498 1902.99189019 1875.72894436 1853.06996337 1836.82496065 1827.23458226 1792.34414854 1790.41949788 1788.42844093 1784.28464416 1745.38440826 1731.42626744 1713.25307849 1691.86521889 1668.60142217 1644.79987162 1552.43307424 1508.54430469 1485.66071054 1506.28456402 1470.71743682 1456.8518108 1446.15541132 1438.76237218 1348.8567787 1356.03086543 1369.37589606 1410.40324385 1434.58411698 1464.5140991 1510.57226215 1535.25146973 1553.08210734 1559.54607394 1551.00616746 1530.27495465 1502.39591377 1474.00206949 1442.29086584 1426.51529824 1420.73895215 1450.50159879 1459.28675072 1471.77195799 1485.06855093 1496.1423983 1502.52382902 1503.14244157 1498.75576061 1503.83841323 1481.77742914 1476.53772986 1469.86071201 1469.64088325 1503.91501002 1521.2489053 1530.07209507 1570.48082325 1582.50129884 1595.37539945 1608.58428352 1621.48503802 1653.31991513 1662.64921455 1670.21521542 1676.47714752 1682.40954022 1689.15659909 1697.48140419 1734.54179692 1746.77926856 1760.0152882 1773.64369784 1814.10372848 1829.25329151 1868.70694723 1891.82286026 1909.18368324 1920.77266086 1946.36998544 1968.35797867 1995.3971423 2011.87932774 2028.81636893 2046.63649233 2065.70887438 2085.99095382 2106.6387426 2125.91808031 2172.96676405 2184.1626849 2190.78763431 2177.09605232 2175.11597738 2171.41257651 2169.42053701 2168.88398823 2169.54379145 2170.46014402 2194.22900914 2191.09133715 2162.09696693 2122.24689984 2107.97894095 2092.67319712 2078.5005509 2067.03862102 2058.6994356 2052.87646785 2048.61718993 2045.24284686 2042.56352857 2062.55322853 2063.57728823 2065.44999523 2041.95525318 2045.86237533 2051.4551867 2059.33799386 2041.89537031 2095.48669262 2116.98533063 2140.43248943 2162.45137077 2175.37607727 2191.04961185 2190.37771367 2185.28380723 2178.41274403 2172.07132448 2167.91080475 2101.41622284 2101.90579368 2180.31946405 2190.93397511 2204.62000883 2290.35160273 2310.44411292 2278.51962683 2379.60428405 2407.72311942 2438.7125911 2472.19799124 2524.74390288 2559.72248343 2592.50033812 2671.64087284 2703.44417165 2710.17277653 2736.18937178 2737.79688271 2786.6655662 2784.63362481 2786.40554166 2792.30526719 2801.74537672 2813.68152668 2827.01076261 2840.8198864 2883.03300418 2897.04247246 2909.90286212 2921.42163055 3021.54729648 3022.92505134 3022.46548651 3021.07886165 3020.4763928 3022.85051874 3029.96727322 3042.12522402 3057.93425554 3075.29806273 3092.66623924 3109.45597195 3162.0648 3202.95465523 3284.41131945
4026.74563872 4014.43880268 4022.45621695 4027.36581845 4027.57344808 4022.66496082 4012.97875197 3973.61271067 3946.92637138 3910.75340547 3864.46762857 3809.21399348 3746.86472863 3678.61879983 3603.97856535 3520.42417924 3389.30245455 3280.88110486 3162.4435121 3023.17402168 2959.93080662 2941.30974104 2955.30803045 2969.20349606 2958.20582823 2884.02016466 2824.56888199 2743.79366994 2690.30472998 2681.7141894 2676.99543978 2655.59463585 2601.53250544 2526.48624271 2404.3215304 2322.21362632 2205.64655195 2154.24425329 2114.14694255 2079.23463416 2044.93374203 1937.29171442 1902.26414972 1869.04984337 1839.61851865 1816.70916559 1800.12367834 1790.53832456 1763.00404633 1758.20345954 1751.73263383 1716.12578458 1701.27172609 1683.67356283 1663.68356815 1641.95060514 1619.31241766 1526.59620657 1502.72521576 1458.87681667 1437.05475402 1418.08387602 1367.71923166 1357.56815989 1351.08272256 1334.50187121 1305.59331046 1314.75449544 1330.51245908 1353.60527028 1403.26928752 1436.06164946 1472.65000133 1514.52644676 1533.73384602 1540.94148597 1529.38614577 1508.98384832 1481.8054214 1454.20650474 1422.9040376 1407.49407992 1401.35155558 1432.07589302 1439.66810885 1450.65225241 1462.4339202 1472.39407761 1478.45864014 1479.71455732 1476.71014594 1468.47292553 1463.01112849 1459.12288059 1452.48844234 1452.51727035 1463.21340015 1503.10343694 1511.15194919 1521.25939492 1562.93243112 1575.45640345 1588.31942866 1575.08050159 1587.78545102 1637.85204568 1643.01309064 1646.43726751 1649.64331033 1654.52613767 1662.44395663 1673.55083335 1713.8256739 1730.73452213 1747.80234253 1764.55970909 1782.94132839 1833.74995133 1850.03734141 1885.11124868 1902.46651571 1932.92077683 1948.3678759 1963.23793271 1987.57252738 2000.75202375 2013.86163826 2027.63603431 2042.68025728 2058.96986739 2075.55896593 2090.85377252 2097.27416312 2103.69099041 2125.54647673 2127.58374531 2135.80749474 2135.29412357 2134.86036479 2134.44659523 2133.52325133 2155.85909099 2150.90727537 2111.75582968 2079.32446806 2067.64582074 2055.95945285 2045.88583059 2038.38597411 2033.23095375 2029.28884254 2025.41605027 2021.12825194 2016.63830275 2012.51292561 2030.57511573 2029.47308428 1994.81833736 1996.44858617 1998.69056768 1980.52583331 1986.76798117 2002.70750729 2012.48791299 2023.82006625 2033.90815042 2085.27737021 2091.86083381 2105.43110083 2104.54945579 2101.86823946 2099.18715611 2030.61845964 2029.04872257 2030.9425525 2036.50559998 2127.0498177 2056.67560148 2137.50358762 2191.69933631 2216.68758548 2341.10365014 2350.74239059 2380.42665613 2411.40481351 2461.18190898 2491.31854159 2518.34054712 2615.76135865 2624.3920488 2628.45793597 2658.24595709 2658.261592 2722.48893383 2728.24793681 2738.54359455 2752.66481465 2769.32644586 2787.12497543 2804.87662906 2849.46280748 2866.40346979 2881.6590181 2895.26471359 2907.12336797 3005.20898404 3004.74594489 3000.86834414 2994.40025009 2987.82340282 2985.11610067 2990.20725654 3004.60934895 3026.36544736 3051.58406501 3109.72318733 3136.24414325 3160.8359263 3264.81376724 3293.18616447
4047.37189097 4051.27563561 4055.31802242 4041.27363976 4046.47483661 4051.45239693 4054.83941326 4052.46594519 4038.79024474 3979.96434483 3932.95139396 3873.82179615 3806.99732961 3735.59399236 3659.97331996 3541.75733444 3447.79727846 3340.10119848 3220.91485873 3075.11003298 3000.23177331 2974.17675812 2978.99575249 2984.46339426 2935.35133545 2888.17260855 2800.77334323 2745.11201983 2703.83019313 2660.01284272 2641.47739726 2606.53999999 2532.77207465 2446.46099724 2323.36151648 2196.45365483 2135.53436101 2094.48751948 2064.9823225 2038.61059489 2009.7822593 1908.17043304 1873.18693678 1839.63329654 1810.37234474 1788.41653081 1774.17684503 1754.03847268 1749.56223878 1741.20913155 1728.09663143 1688.26475487 1665.15743454 1641.32223108 1617.3116701 1593.4813099 1500.4567254 1475.45822717 1431.7532454 1408.31037458 1387.39543971 1369.18887556 1321.65844055 1312.00275467 1258.4736564 1258.53309241 1259.89171441 1269.74140663 1286.17393067 1309.78415849 1340.50564496 1397.55716663 1431.75148849 1463.10332272 1488.06277225 1497.4372435 1492.58680057 1472.95889022 1449.38234954 1425.2720425 1396.33879988 1382.87628043 1377.32800567 1379.12925192 1416.18179598 1425.55171045 1435.6508759 1444.35676877 1450.04604218 1452.01570211 1450.66440203 1444.59300574 1441.64873453 1439.85645099 1433.96414219 1434.90646514 1446.3140893 1444.78089589 1450.39114207 1502.01269524 1506.59798995 1556.37828335 1542.33913184 1556.73297876 1570.41590821 1582.34909466 1622.23674157 1623.89958553 1624.9660593 1627.98882558 1635.0114375 1646.47337933 1685.60571271 1705.6148811 1725.5197847 1746.49517279 1764.22358362 1816.9972494 1850.29772823 1868.06534871 1885.41687495 1915.25393788 1930.06002606 1943.68104702 1955.81344556 1975.70832563 1984.70097575 1993.88582562 2004.5841237 2017.53220083 2032.30711367 2047.46853373 2055.01274252 2063.52275473 2087.28815219 2091.81394699 2102.18447052 2102.75539147 2102.5277682 2101.61131039 2099.80271387 2085.47011655 2082.16551076 2075.57365296 2045.39260601 2037.46773415 2030.46228874 2025.3213057 2022.08462578 2019.55964785 2016.05044745 2010.57787222 2003.37257755 1995.46089325 1988.03172522 1958.94959321 1953.9742783 1963.42426652 1964.72315639 1966.87131754 1953.0163288 1957.34678318 1965.64875505 1967.39267877 1969.13486457 1969.96885189 2012.34692886 2015.58941233 2014.23362958 2013.77233459 1963.32538347 1958.73211134 1956.06866863 1956.07849195 1959.21950219 1965.72894751 1972.74148786 1988.88708934 2073.94804907 2059.08755067 2153.64998631 2182.03131139 2311.89889248 2340.92860856 2350.87700345 2379.89844376 2426.52650421 2473.77014855 2490.03666661 2574.93112078 2583.79110018 2584.70101987 2587.30806438 2641.42655902 2668.52959006 2687.93260297 2711.22605872 2736.07568067 2771.2166201 2794.18491552 2814.36382277 2849.63018579 2865.87772394 2880.14017113 2892.54059819 2987.99761303 2986.1057598 2978.5109868 2965.45449546 2950.24802016 2939.718684 2941.62787392 2959.50250798 2989.92942062 3054.68654874 3093.67926508 3128.74473482 3235.52000164 3269.36487653 3300.50518526
4075.34707848 4080.38110066 4087.07449939 4096.52615547 4087.84038915 4104.82263901 4121.69429764 4130.90024694 4123.44066747 4094.10755626 4014.53078477 3946.87851682 3873.07591069 3798.82913026 3725.54367477 3614.92192706 3530.61561162 3433.1078954 3322.62587122 3167.50218041 3083.64789228 3042.77139474 3013.44751444 2980.12427807 2944.8738378 2893.40750712 2801.66741681 2742.81882086 2693.81464637 2626.64559008 2590.29883334 2538.66137204 2430.40357391 2313.08933778 2186.78004514 2109.74836099 2060.31552338 2033.53374764 2017.51027569 2001.20215024 1978.41682573 1883.02163691 1848.18427425 1815.22332801 1788.00543996 1769.6033759 1756.92350946 1753.85569994 1749.94228765 1736.18927243 1713.53294722 1666.07624199 1632.61550635 1600.91902656 1571.67034383 1477.1488421 1449.05522378 1423.80278734 1379.58112776 1356.92087981 1336.82861258 1252.13136136 1274.71837014 1265.32936948 1210.76210298 1207.74110298 1211.46834054 1220.69836413 1236.14129475 1258.26612675 1286.87769535 1345.1957903 1377.07062103 1406.32791062 1431.91470061 1425.10779818 1421.88580731 1404.00081614 1384.34645546 1357.12100223 1363.17319485 1352.89679735 1348.855129 1350.65089015 1389.34811011 1397.43733882 1406.16680612 1413.90810694 1419.4614785 1422.33178676 1419.38412346 1419.48923821 1419.39098454 1420.13240458 1415.5090418 1417.82587982 1430.08329319 1428.13581802 1433.59687118 1441.42761521 1451.93407012 1494.08436216 1524.57577177 1540.6437259 1556.52766548 1570.97134939 1582.72066946 1590.90355888 1608.99811063 1610.30229965 1615.91849695 1626.84040654 1663.37093525 1685.6941855 1709.48098794 1729.86446021 1749.07020705 1766.83031051 1783.94865797 1852.42286799 1869.76056902 1899.10264743 1913.79446182 1926.90937858 1937.84469749 1946.33129733 1960.50235234 1965.82309706 1972.91279977 1983.25600764 1996.77686688 2011.93832819 2001.27914764 2021.29488724 2027.85031452 2057.58614648 2055.32002716 2072.71597816 2072.61328684 2071.47471283 2046.39438539 2018.55610989 2015.37039408 2012.40361683 2040.08403142 2015.89729855 2014.93635873 2016.04883475 2017.78294446 2017.38484955 2012.56437895 2003.13700103 1990.79411296 1977.81470716 1955.75255602 1934.310954 1928.22788112 1937.30067995 1941.63057692 1932.1285948 1944.90669503 1952.31465869 1951.61589101 1948.20335143 1937.59671836 1925.26214595 1912.35803513 1947.38922841 1944.34298552 1941.81070026 1887.55103658 1883.35705096 1881.642823 1882.75387976 1886.93002058 1896.619559 1903.69451904 1947.74854391 1969.45048533 1994.24089155 2099.65091436 2129.04697769 2253.79549204 2282.9221579 2302.90330792 2331.78031212 2358.59304713 2414.27076765 2429.99781525 2512.42988997 2518.35449978 2518.02427592 2521.43835512 2580.85780994 2606.70134076 2635.75706975 2669.21060107 2713.96003564 2746.27209036 2774.06134238 2796.90907306 2832.62008576 2849.18128758 2863.76553798 2876.96558326 2969.9041104 2968.06558254 2957.589746 2937.19455819 2910.70159654 2889.05026268 2886.40842176 2925.181412 2973.07001926 3028.15150053 3079.6223901 3191.45435702 3235.54225067 3273.29542902 3306.92019387
4109.67836928 4117.12997602 4127.78863189 4138.17119875 4160.2282148 4188.52684443 4218.23551241 4238.52710895 4236.4073659 4204.87681789 4122.83709982 4045.81957368 3966.04256677 3878.81643577 3764.50808057 3701.05372552 3635.032352 3535.12930631 3439.50737009 3267.15832371 3180.66007551 3116.89714833 3071.15756749 3028.97707686 2971.26665039 2899.50085682 2799.94412159 2735.30009069 2676.51815556 2621.82749676 2495.16971186 2427.10380777 2339.77772 2197.25300755 2097.08897389 2028.68132071 1991.96848533 1980.17646888 1977.34878217 1969.9126887 1894.61753131 1861.31225766 1826.35812563 1794.69983851 1770.97742467 1758.37702923 1756.34618435 1758.45879054 1754.00732864 1733.01055942 1698.9360156 1641.25457364 1597.22697512 1557.73982365 1523.46347471 1425.44655128 1396.19649765 1311.06964614 1286.61395253 1265.37677351 1220.08159232 1203.45284509 1189.78512974 1166.66922222 1162.12459737 1158.09080151 1160.57867986 1168.02074527 1181.07664392 1200.16551318 1225.08993099 1254.58106474 1311.77624818 1338.56926061 1339.29823337 1353.62871096 1323.01818979 1314.52923095 1323.02674288 1309.08486684 1297.19207031 1318.31424686 1316.4927202 1318.9964292 1324.95506712 1367.13286873 1375.087132 1382.41837033 1388.29357726 1356.48016209 1359.28713336 1361.05914029 1397.9115753 1401.51565229 1398.66943885 1402.71004129 1417.11459516 1413.55199396 1418.64610047 1425.84736553 1435.85564566 1477.44044137 1507.47051118 1525.62986469 1544.45514297 1562.49351527 1578.00641336 1589.29748336 1595.44123895 1601.27321587 1605.15212475 1614.67262009 1648.16818563 1673.26519317 1696.37805525 1717.9514597 1737.22762891 1754.83673596 1771.60380032 1788.3832858 1841.69411261 1884.38236511 1899.55941953 1913.06734442 1923.94285985 1931.54306816 1936.11474065 1944.54249753 1948.63977942 1956.83031837 1963.0860735 1977.01930548 1985.16983284 1994.49454666 1999.05888241 1995.05676824 1995.46252983 1994.6005255 2020.95106685 2019.81214073 2018.21520276 1989.72216724 1987.81454742 1987.31198737 1989.0228984 1999.37661685 2005.08318751 2013.15279275 2020.15824783 2021.2803504 2013.71987303 1998.70645503 1972.64008211 1951.59396452 1934.13843149 1909.94428977 1862.65096094 1870.4971964 1901.28600915 1924.4516433 1947.44411057 1961.28191243 1959.07925342 1944.08111248 1918.79695178 1890.58068999 1863.6865373 1854.32215107 1877.9751653 1820.87659836 1812.8482126 1808.33233826 1807.10520563 1809.05124449 1816.56237938 1827.55633652 1841.70194615 1880.68978789 1903.37074299 1929.01868957 2036.91074756 2067.20546341 2099.82642119 2216.52771886 2247.42899868 2278.04407453 2307.12205729 2362.8304594 2458.68519045 2471.20576094 2467.97765602 2464.56441822 2462.95812418 2512.72309606 2540.11253854 2581.36232392 2638.56919187 2683.79705411 2723.6388167 2755.92447876 2780.51470723 2815.03626502 2830.54650603 2844.63731919 2940.48714909 2950.04014316 2951.38543908 2941.04522662 2914.93184543 2876.49057423 2848.17041708 2838.4552467 2872.92960965 2937.92308178 3009.61110971 3072.77581098 3189.62854963 3237.65512504 3277.50588557 3312.6447905
4198.39600044 4202.98365209 4165.9802511 4186.19170437 4215.12904954 4253.13052518 4294.9931979 4326.8598457 4330.06765475 4293.87288241 4224.24408582 4138.30816187 4027.18617404 3950.58220418 3841.6417747 3773.01986116 3733.86119117 3679.90639116 3599.25707907 3419.18395761 3311.23259017 3216.77015689 3138.38223432 3068.46999017 2990.63170217 2870.20570519 2795.25727863 2722.82942558 2608.92362525 2540.6873827 2468.20844524 2320.97514005 2229.79353148 2121.76491597 2030.54786223 1971.0787833 1945.33630164 1944.71057348 1949.973679 1946.577616 1876.56525172 1841.15186579 1805.50785429 1775.11091795 1754.69156446 1746.91813092 1740.7834562 1751.78601594 1744.78649218 1716.26656626 1646.83460893 1585.03379251 1551.85356215 1452.54354414 1405.09828666 1369.75195011 1286.56459293 1259.24764241 1235.94353519 1215.83363251 1170.70690308 1154.79818299 1141.43467123 1118.2746243 1113.01763755 1107.4474221 1107.93127978 1112.64106785 1122.26400041 1137.29591912 1157.69812009 1182.51564392 1239.60434435 1264.37559578 1260.69107528 1238.92570748 1245.46673433 1244.35673256 1263.7563367 1257.25714022 1251.5328536 1280.23398656 1281.08072577 1284.89264132 1291.15104397 1335.28867935 1343.15302243 1350.72756577 1317.34331981 1324.05070048 1329.96967847 1335.72536779 1341.94972996 1379.23362359 1385.11773238 1391.29865088 1405.59559382 1402.59127134 1406.77784347 1412.52529348 1421.09532911 1433.65537468 1459.58830022 1510.22878987 1531.95843494 1553.76463549 1573.44910536 1588.49011158 1596.90113993 1598.67288022 1601.21378442 1608.91350138 1627.67691781 1644.09896677 1689.01122301 1710.40136236 1729.21729049 1745.9790534 1761.70035746 1777.55039938 1794.5382562 1846.91078197 1886.91654807 1901.72171285 1913.77606561 1921.95719655 1926.07649658 1927.59825496 1929.74691165 1935.20568876 1945.03372046 1957.81590128 1955.86305029 1963.37634253 1977.31946171 1972.57712611 1972.51782517 1965.3318415 1963.62502504 1961.75947041 1933.6391857 1963.9258011 1962.92538033 1964.23137402 1968.8907114 1959.97570515 1978.14426374 2007.79845507 2018.7789995 2020.52615376 2010.04413033 1985.03873061 1957.69544213 1931.5233669 1867.32734774 1838.81665373 1834.11019133 1844.34761806 1869.12669998 1911.39486038 1943.80739124 1963.92058653 1960.6568005 1933.0551332 1896.62331784 1852.97938606 1812.66536691 1777.96682598 1764.1162819 1697.97124558 1686.74666509 1681.20457513 1680.32864642 1737.33063508 1746.2921613 1758.35730186 1773.41176643 1813.33014384 1836.90641393 1863.32000807 1973.02316034 2004.27755605 2038.15395319 2074.60968564 2192.22823241 2226.25429084 2259.92055525 2345.41824767 2378.76704278 2429.52528474 2425.42907657 2419.27565169 2417.96424079 2451.75700725 2489.88898931 2534.44709717 2602.09714828 2657.78443087 2704.93468475 2740.78571161 2765.47523397 2781.41360599 2808.29135626 2820.21003774 2910.32290933 2922.93312447 2935.45268874 2931.36871255 2905.60788513 2870.81497665 2817.72654775 2803.18051272 2845.49909554 2924.89423512 3008.68814017 3133.06454985 3195.07688499 3242.41069655 3281.57184374 3317.01756396
4243.49921672 4248.56652931 4257.20463356 4230.37257763 4260.89839481 4302.33691417 4350.45954656 4390.3985827 4398.95365817 4360.63891975 4282.1340827 4166.06591015 4068.80768152 3994.78396366 3904.7299572 3889.24190105 3883.24636342 3819.51769545 3748.59422698 3633.2100729 3487.62619637 3319.98139152 3206.72773925 3108.21485345 3018.10323387 2894.48987393 2787.09964381 2656.49844811 2576.66947952 2497.97740567 2416.16532792 2258.27084039 2170.18840301 2066.33302631 1993.99161828 1946.06556927 1928.51790453 1931.39174687 1935.90903152 1929.54629864 1857.94621194 1819.35424175 1782.52388651 1752.46471526 1693.66937672 1697.86752407 1709.7160293 1716.25667294 1691.33572892 1635.77165938 1590.59748986 1524.45924831 1443.76126536 1390.00264457 1346.76963656 1261.05799306 1230.86758011 1205.78752567 1184.42992624 1138.81704071 1121.5346472 1106.51776945 1093.52869328 1047.91265023 1064.13759721 1056.67239005 1054.56916752 1055.84267458 1061.32098958 1071.73888436 1087.3882068 1107.74155078 1131.23112264 1110.25462476 1135.0481644 1159.03018877 1170.26066308 1175.64851312 1176.7535635 1204.03189941 1203.98493789 1205.04979067 1243.59780196 1249.12490737 1256.27693694 1264.58246477 1310.80155367 1275.34818217 1284.7267798 1294.00114697 1303.53710753 1313.84242088 1325.27905415 1366.64487585 1376.35857495 1385.3889225 1399.44670534 1397.19923917 1399.6361284 1402.62954672 1408.26812711 1425.82255477 1442.82429221 1465.39043641 1516.8626071 1541.51846162 1564.53969406 1582.81564491 1593.6271816 1596.3801351 1593.88818773 1596.13218198 1622.83700345 1641.40622002 1686.57534234 1707.42662422 1725.31964874 1740.62360271 1754.51472678 1768.57483597 1784.31582341 1813.24527895 1833.5225724 1891.82018739 1906.0951882 1916.25891575 1921.51492816 1922.91922104 1923.43060361 1926.76103362 1934.49375762 1945.49799045 1942.14244326 1932.99309258 1939.85906597 1940.1611732 1939.2964137 1937.60667613 1943.99916213 1941.58099944 1912.82037982 1911.10972251 1911.71694092 1915.61123699 1908.63009127 1923.77733888 1957.17970301 1978.95988733 1996.18096876 1998.2698207 1988.43383282 1963.38296504 1933.5903209 1864.24766328 1835.33027644 1804.82417164 1799.09448494 1809.17261065 1834.85889165 1872.19021613 1915.51440908 1937.40383521 1932.27857374 1898.05344974 1826.46646127 1764.82496664 1656.64600137 1648.47655061 1611.7835977 1621.6430376 1610.53810373 1605.86184958 1580.24134804 1582.87044676 1675.80561694 1689.01915029 1704.99259718 1745.66192219 1769.99992544 1796.99433321 1907.63234772 1939.65410505 1974.68931549 2013.09864183 2152.89153413 2190.19614771 2213.93499926 2320.65255156 2348.17551473 2367.09726048 2396.14799849 2388.31677714 2383.39628993 2394.28529147 2442.60303832 2500.98267193 2568.00932835 2631.67670084 2691.93880166 2729.65844512 2752.03390767 2762.37865819 2780.17412646 2786.84364173 2867.05757196 2889.80503541 2947.30033632 2955.79365523 2935.86268463 2887.33970257 2836.17432337 2822.60389411 2867.17537845 2971.4292731 3066.75642939 3152.19934194 3206.3578022 3247.15054506 3378.84605181 3426.04338183
4291.82578671 4295.97323825 4301.91160134 4311.68501293 4294.57036935 4330.25120026 4373.91140804 4412.47171906 4422.56408405 4382.07161596 4295.57522435 4189.48158896 4092.65017693 4025.37326946 3997.34119101 3972.89428182 4004.25192065 4009.39490441 3922.85024677 3801.83078173 3616.23205636 3452.1395743 3285.46757357 3162.18429812 3053.90451579 2901.22235569 2722.56071288 2630.37505249 2542.63407916 2456.88969392 2370.40814386 2207.98782464 2127.28967351 2036.87257939 1979.89017133 1944.30982286 1931.33408275 1930.57143962 1927.03857668 1912.42279072 1833.28022101 1792.17320985 1754.23121333 1669.04139341 1654.55860648 1651.60379325 1653.82244672 1629.22881704 1607.76245443 1542.18155592 1476.21957259 1397.27026785 1334.04510606 1314.18389587 1217.32431109 1198.07746726 1172.46890315 1150.98562352 1132.36889473 1088.57700059 1072.93052588 1059.04226535 1046.60888159 1002.51652309 994.176483698 1006.83704247 1001.75652077 999.102589551 999.981463704 1005.55678495 1016.62713213 1033.1596532 1035.9079919 1033.00678204 1057.82226548 1084.90593361 1100.22523679 1110.97161647 1200.78393541 1207.87428966 1213.55392083 1161.15325761 1205.01881192 1212.44382119 1220.86651357 1230.14178995 1231.38604967 1242.23627083 1253.6607766 1265.94346987 1279.56884884 1295.0464483 1312.59253381 1331.71903273 1373.19428241 1382.43804134 1391.13801187 1399.20283828 1398.85273623 1397.39060212 1398.14670073 1410.85543041 1425.02265266 1446.02837525 1472.71651479 1502.75865567 1548.30532151 1568.49229186 1578.24591834 1583.2905665 1584.09698396 1591.91794007 1599.62014347 1642.29609885 1688.52018197 1708.98455972 1725.96621922 1739.42917094 1750.65821287 1761.80578014 1775.1235264 1801.97957925 1822.64470092 1846.2332434 1898.83463378 1911.80678475 1919.4263234 1922.0259015 1922.19862518 1923.93060763 1923.95949519 1918.83766319 1920.4558415 1922.5401454 1927.85602518 1927.03557637 1925.11446971 1922.37666849 1927.70092897 1924.39490714 1895.0869534 1892.83440505 1892.79122963 1895.52942665 1886.78566682 1897.5763455 1913.83007825 1932.67995133 1956.24856502 1956.61725371 1941.83679134 1896.23006392 1859.41896095 1824.092762 1795.50422719 1777.05974678 1755.47465365 1762.05238723 1772.81536118 1806.2723402 1839.93010176 1869.04838011 1859.52818526 1804.78973925 1711.40133757 1635.54332717 1567.61388234 1512.88166895 1529.46822906 1539.52642478 1531.08148418 1506.07236107 1503.78137467 1508.12367143 1605.12261593 1619.58745071 1636.49308061 1677.70760085 1702.62320381 1729.9074635 1754.52859146 1872.61128791 1908.21121037 1948.01708641 2093.49317758 2135.49417135 2217.81380073 2282.58814326 2320.01980032 2348.24000272 2381.5598351 2373.90735831 2366.13608336 2372.29254861 2402.39969787 2479.12915687 2553.76899021 2624.00835334 2679.9617569 2716.97413615 2734.56101925 2758.4939551 2749.41544804 2797.5008761 2808.29461769 2869.95337974 2921.39191791 2957.79217094 2966.17506533 2960.63146298 2922.03959117 2915.91970343 2961.36923799 3038.9353367 3114.49864937 3169.58698808 3285.57873532 3321.13502148 3362.42582976 3412.43529748
4345.11705405 4347.78541868 4349.46624934 4351.65453424 4356.9307131 4368.21892414 4371.15576032 4397.280469 4399.31995231 4362.22468107 4284.20994508 4187.32831271 4099.05194472 4041.66999956 4028.46313005 4058.75515786 4097.22284698 4120.20426976 4061.39001803 3915.52061807 3729.17183225 3545.36929405 3355.7599928 3213.89101967 3090.80589297 2895.33240459 2792.15972738 2600.02526934 2506.38321005 2416.19259172 2267.98889528 2105.60365384 2042.03912012 1989.39819785 1969.19999822 1942.89458841 1930.71844499 1922.92977621 1909.87109026 1887.88026021 1755.83834793 1707.54490254 1665.77312444 1632.98732249 1603.96046283 1590.299765 1541.80306045 1499.79427988 1466.91788684 1414.95459823 1351.49218857 1289.36177468 1228.40918804 1172.21552186 1142.28929658 1131.73311993 1112.57202872 1095.72461722 1054.32883566 1039.08152378 1025.30732357 1012.8203367 968.690811313 959.388079795 950.316055792 941.353873676 950.896227811 944.004387363 940.002416093 940.702289755 947.599821883 926.665764461 938.370665878 963.180857599 988.482575459 1018.27749931 1036.957283 1037.44231922 1153.59119817 1165.34563504 1175.04285964 1183.48464238 1191.29852355 1124.03319101 1245.20657372 1147.33716592 1252.62556022 1209.78394024 1223.46197497 1238.93465544 1256.88309342 1277.94845144 1302.35611815 1329.35800486 1373.28757058 1390.43902732 1402.79943248 1409.03694499 1404.89355385 1397.16574292 1390.98090255 1396.88456097 1406.39106466 1424.01738882 1448.26563789 1476.4696472 1517.28742483 1539.21504342 1554.50574248 1562.24759378 1566.53443322 1581.50271741 1593.20924142 1612.538332 1661.59309383 1714.92843839 1731.7174793 1743.36189769 1751.1288393 1757.99318873 1767.33338647 1790.57411834 1810.33889445 1834.32104307 1860.30314485 1905.48203061 1915.81226452 1918.81571878 1920.40071602 1919.92061328 1920.90569536 1913.27746486 1913.97391317 1915.45627523 1919.79592422 1918.11900256 1915.08919538 1911.01758489 1906.51105922 1880.78227301 1880.60789966 1877.84879749 1877.17809872 1878.39398278 1881.4753386 1871.70772892 1878.74537204 1887.2947221 1892.67322405 1903.37222648 1854.3299489 1825.54940515 1806.98087287 1774.92238443 1701.88439733 1679.94318253 1670.11909534 1673.20843007 1701.869043 1721.7454814 1740.04739214 1699.48287798 1680.09443915 1641.65447287 1582.65145763 1515.34338974 1456.91920751 1411.62990283 1390.93630652 1372.24532748 1425.70937307 1423.54403918 1427.12372628 1433.66404945 1534.39820128 1550.17508758 1504.22370392 1609.54138137 1634.82543066 1662.02844607 1685.13044843 1800.88982828 1837.495539 1877.34789752 2026.82873803 2111.46291007 2164.20151562 2238.1406006 2287.58850137 2328.07413736 2371.80048315 2370.53870147 2364.99386795 2370.64976682 2400.373254 2478.16604734 2555.12699619 2627.44852727 2683.73982793 2717.87638591 2727.97916317 2735.24946944 2707.21038233 2717.29284629 2725.45233816 2803.93595695 2891.82601672 2964.75203956 3001.79994169 3036.33672035 3027.41707256 3034.42343656 3069.94912769 3121.35356558 3165.27764116 3252.97950649 3266.38921664 3286.5060565 3328.18472163 3387.994946
4406.07116478 4408.18965411 4405.94444998 4399.95713836 4392.44242601 4386.87601171 4378.84674056 4359.14616656 4353.13664781 4317.37655956 4250.89157315 4168.50979962 4092.57196735 4044.46737941 4039.27918935 4078.48357429 4135.04728276 4168.363557 4110.01314456 3956.85085541 3759.92061912 3565.02687493 3366.41050479 3215.08511439 3084.12304551 2854.27677884 2743.63212253 2593.16394754 2388.13977372 2298.52768703 2125.71484529 2056.77910477 1997.58097487 1951.08560458 1919.34192358 1896.97865511 1884.48615042 1892.80266967 1834.24137701 1779.6994092 1696.10380969 1650.53925297 1617.11122732 1581.8336515 1551.76713299 1473.77687949 1419.13427608 1387.59126498 1342.95476082 1286.21865817 1225.12166163 1141.20717803 1097.98369502 1047.71559887 1065.05636499 1021.54491148 1053.17759407 997.296446949 1003.6741619 990.828266189 979.017147947 968.22423227 927.82824458 919.161068137 909.768329415 899.266377312 903.483188056 892.233818561 883.209663898 879.121079364 853.898414779 865.892639849 877.654932249 902.089565006 928.124666656 945.285999626 966.108395304 983.709269047 1110.47746184 1125.94000268 1138.83632319 1149.89855667 1148.04717779 1159.27217472 1170.30593817 1217.63522255 1225.55155613 1234.15224025 1370.7680603 1211.61693432 1233.64967489 1260.15902323 1291.53671656 1326.94036278 1376.53482306 1401.51641568 1418.77807773 1423.69011441 1415.15972711 1399.91298734 1376.13421725 1383.25965199 1386.8163724 1399.75053282 1420.18964688 1445.21063847 1486.82830195 1508.04835543 1524.42830995 1537.6789174 1546.56159284 1562.19431344 1579.75791213 1605.94017416 1671.11410667 1700.26011723 1723.6505334 1753.10660197 1756.82167983 1757.93115857 1761.53580773 1779.43084977 1796.73009765 1819.43650041 1833.89425828 1883.16563094 1901.56260291 1910.54009633 1914.12827529 1915.1995944 1907.97544666 1907.84483236 1909.55969944 1911.94889666 1916.15296082 1914.0126787 1909.72578537 1903.80307752 1897.29233288 1870.9174838 1869.52887281 1866.96211715 1866.87496021 1867.81655132 1868.19827875 1853.960186 1850.51002231 1846.97852162 1841.85221968 1790.57357545 1788.82262341 1732.05158555 1699.32456717 1664.8044016 1646.3058953 1623.53502897 1609.34423354 1603.86207429 1605.3366648 1574.2918183 1577.73446802 1546.89885719 1479.74615154 1442.88423226 1381.2376876 1321.2266869 1271.30223247 1299.66165867 1291.46201709 1283.91403234 1255.14223085 1343.75114496 1351.13717175 1360.08424711 1397.90943016 1415.84800272 1435.96335609 1462.01919965 1566.77463025 1593.51971497 1614.4552416 1642.45320682 1760.58795769 1797.29168069 1863.82138014 2038.47635721 2063.77657599 2180.30372759 2242.8252645 2295.6992314 2334.94434845 2359.71739281 2375.14825631 2385.53160856 2416.51685681 2519.52833499 2602.08347032 2678.0618258 2734.22296939 2762.49096077 2759.06010853 2740.94291219 2681.70176075 2644.21755016 2647.93339708 2736.00815594 2863.25494727 2972.89525166 3041.32422236 3111.72851639 3127.80341401 3144.37915014 3168.78884714 3265.47701704 3263.32226065 3236.38442699 3212.87866687 3221.97220339 3275.35212571 3355.96437564
4477.55620234 4481.90134969 4478.3703223 4466.30189371 4447.24039601 4403.57844056 4384.4949204 4367.06466136 4315.41874162 4275.77646692 4216.08126223 4144.98978139 4078.67864059 4034.99690882 4027.78779864 4040.59070921 4098.11050094 4116.55889949 4057.69176602 3911.62981366 3723.13853101 3534.29424142 3364.53095847 3189.98713356 2929.35917377 2740.29146706 2624.91586754 2517.99578625 2340.1347199 2248.17125577 2072.50387698 2002.10813705 1941.94566029 1894.49995631 1861.02091065 1794.15420991 1780.39356988 1763.26427824 1766.67872795 1671.91088488 1634.10966981 1594.60628599 1555.62708232 1518.23549431 1383.80577056 1351.53888007 1326.81339696 1280.98492488 1224.46201197 1160.57716227 1098.77279858 1024.49631453 994.961628779 964.414512276 957.474550514 962.802393946 961.709166215 950.267564045 937.179838775 944.148681718 884.080097254 876.823698785 889.708906012 882.321291566 873.277008081 861.832322222 848.039376694 845.637353489 831.667329291 823.022581195 802.868093592 813.141519968 826.121713733 850.659200517 840.480465488 862.583897986 973.342431705 998.060257573 1019.26503518 1037.42142926 1053.14912285 1309.29820311 1329.82853234 1131.98559456 1143.78521149 1403.85746237 1408.70274293 1411.48337487 1354.06772523 1360.58692166 1367.70045741 1238.59710854 1274.81236676 1318.4392272 1361.08078227 1402.15018941 1429.70188889 1434.7484558 1420.42380658 1394.76341024 1368.8708042 1357.11608464 1365.25078897 1373.13303433 1389.27212023 1406.42868692 1430.41149625 1453.27067286 1466.92100301 1508.99413203 1523.98605868 1548.17614025 1573.92212387 1609.00314362 1652.0717856 1716.49370491 1745.42514998 1759.7579908 1758.30680817 1749.39205725 1739.61886335 1745.19643887 1755.0689312 1790.12756395 1814.04689721 1817.64038055 1863.19122248 1897.43132676 1885.2072341 1886.20286489 1900.24564417 1903.37011071 1908.23310192 1917.13193814 1918.28360966 1916.01529192 1909.97131163 1901.17084077 1891.57110895 1864.04059693 1861.56341476 1860.55415525 1863.63888147 1867.46464607 1867.56038036 1838.73101948 1822.622012 1803.75185549 1758.25935964 1734.08182206 1693.33780766 1664.17104812 1633.34659357 1600.82365898 1585.81381155 1561.75172067 1543.0966957 1529.23371856 1473.40296578 1463.95962154 1400.62817997 1350.88150987 1309.90550789 1273.39013794 1219.08988118 1174.0603671 1143.21358523 1124.73032835 1071.14646259 1120.42266874 1176.891558 1180.83811661 1277.07935058 1288.14764951 1328.72148659 1347.71186462 1368.68076251 1395.13642111 1418.12750119 1504.16593568 1542.99843983 1567.73537175 1594.84350337 1646.28309924 1776.24796709 1894.2209271 1975.91442723 2048.46426775 2131.72293958 2210.64663931 2306.90804599 2343.36942235 2365.44109644 2422.18705608 2442.63326076 2560.16305208 2636.35385472 2706.50445939 2757.97552478 2781.83115923 2772.5232225 2744.24944316 2680.17322437 2607.49476029 2609.88853242 2716.63480526 2870.17392556 3002.49451825 3090.41359658 3184.59507603 3215.60641348 3235.80125373 3336.08933535 3322.60576906 3275.8329224 3198.56577148 3136.05157149 3141.88067805 3219.91406498 3330.36452208
4561.54416602 4572.746754 4572.86012125 4529.90500793 4505.6302556 4468.53622837 4427.93240163 4387.71761971 4346.27588532 4298.35264317 4192.92173208 4125.01041903 4061.42595568 4015.17509198 3964.17789273 3979.34045508 3994.71409072 3998.03604389 3937.62017108 3811.75825702 3650.40535068 3471.4257799 3220.87671667 3074.38050795 2881.84549988 2692.35251445 2578.57984848 2439.10634943 2335.04475726 2235.42389516 2015.68736211 1940.10335771 1873.28166708 1762.97548935 1724.97424388 1699.65365302 1683.179463 1669.61413315 1653.58166798 1595.54344185 1567.24551488 1534.18683633 1444.05681523 1408.25818018 1315.82945982 1275.93628634 1230.19731978 1186.88435796 1120.02067499 1048.0082864 960.221263521 891.267096428 875.052233356 873.013180416 879.849768193 878.561027468 915.480311123 906.818578846 865.559823451 853.752684201 843.932924291 839.70034267 805.561309218 800.580050254 841.347474957 829.893711824 814.570992356 819.194094374 787.890350006 761.589207724 760.849976433 793.68587276 819.928257859 845.435707751 805.39505262 908.942870374 939.038467103 965.378296696 988.113133446 1007.72093366 1024.7695536 1293.188434 1315.70355823 1334.82713204 1383.62613353 1392.58549384 1397.34702454 1399.71338969 1400.3357581 1400.05396546 1399.89668542 1327.80552791 1220.01323485 1274.34555324 1332.84848896 1392.87698215 1424.69296232 1430.64231606 1412.18616669 1379.3460587 1345.18824228 1336.02889816 1327.57269664 1330.056906 1341.9206258 1370.171568 1391.6870985 1406.77329714 1426.72430759 1445.96600686 1475.99310896 1530.48144599 1563.41764101 1606.20552799 1657.83345462 1711.993727 1762.34067009 1778.93348317 1774.24598137 1756.24194291 1737.80359743 1735.31218305 1739.46257984 1743.93954653 1764.91989261 1788.68806366 1810.8743922 1853.16580068 1866.29303822 1872.08579164 1872.68600778 1880.0857179 1890.36804895 1900.89974613 1927.89160997 1925.69822563 1916.85077829 1903.41710764 1888.99910706 1855.91747177 1827.4184617 1857.62982811 1867.26358984 1878.4541453 1868.51888663 1856.84709437 1825.87718328 1788.58117828 1716.7014149 1644.20775049 1605.35723286 1536.66503928 1499.21826296 1534.51159664 1507.39139298 1496.62368021 1474.08890377 1342.39416106 1328.04448828 1309.88764908 1277.50045645 1210.31277692 1158.95800858 1102.54511847 1068.00168883 1035.1935397 1022.30389682 988.041680575 990.293025731 991.272504109 1031.17516675 1033.60072986 1120.93561025 1162.39232344 1261.09409595 1280.67816698 1302.40051262 1329.38243572 1352.76752001 1434.90115763 1471.75407979 1491.96925853 1530.73722518 1558.63904989 1611.52599581 1724.40942342 1795.88597514 1884.15245778 2038.88575689 2132.06740766 2253.68764238 2310.4992821 2352.21794836 2449.91903463 2499.69909132 2606.76467906 2677.61288995 2742.44613969 2790.5224258 2813.48197077 2805.73199276 2780.73800938 2731.57005022 2666.95207758 2681.42583271 2788.31224525 2937.59339467 3066.58782982 3155.62407147 3258.99691135 3294.88993422 3417.62278064 3411.05242929 3376.07175814 3299.32128792 3186.57775625 3092.82194553 3100.18907527 3202.14448366 3336.6072513
4646.90640078 4672.11112493 4660.24687222 4652.2677643 4621.18725437 4572.27121748 4508.78478926 4442.4840741 4376.79762653 4310.27338872 4240.76301966 4112.08531463 4043.49605644 3947.28474074 3911.33174061 3895.70844696 3866.54232618 3838.51071337 3767.75890786 3653.10298322 3448.49573539 3297.70522826 3158.29138231 3031.63263884 2817.88070029 2700.05345988 2498.94853452 2391.22907574 2286.429847 2183.66620954 1997.49973004 1812.15614 1737.82683884 1673.33194732 1622.98817199 1590.32842792 1574.71491574 1569.56935501 1565.53824562 1485.33876651 1445.44906281 1417.66145375 1385.20628379 1298.34702871 1252.1170168 1208.43326207 1157.71845804 1096.95733951 1036.19561083 925.099067365 850.606513093 819.461780465 812.532694133 821.402770858 836.52470205 840.849528473 847.13926252 840.224493331 827.625417486 778.782383859 772.220033889 781.657894924 779.138912692 776.634108778 772.717756267 766.366516118 757.190843732 764.914505878 767.157560233 748.010083631 740.007427443 758.027694526 788.649583568 814.21966652 852.223564282 881.167788845 911.944667859 938.813326926 962.100457351 982.318662169 999.978857468 1278.93196212 1303.0634417 1323.40614091 1329.35980808 1381.61630987 1385.9413824 1387.42813951 1386.83250187 1385.16967307 1383.72568207 1305.9548756 1321.9560993 1235.66093118 1293.45876272 1349.83127054 1386.49078363 1396.58046579 1379.50273662 1347.76003618 1314.20623837 1288.21464593 1295.84503853 1295.93303128 1305.01325889 1331.75642818 1351.51307863 1364.46694574 1385.40152631 1407.5917073 1440.42238247 1507.07371069 1544.8898164 1592.353063 1648.69277113 1707.89418852 1757.39642685 1780.63442208 1775.13196363 1752.79420545 1729.01508844 1714.0448476 1712.3102652 1721.99517893 1739.37341762 1760.31449809 1781.25860463 1817.24433759 1835.4635461 1854.74443805 1866.40608424 1881.96247406 1901.32808127 1920.63269753 1932.6708763 1943.36339454 1930.22239202 1909.86068928 1888.49839938 1851.41463016 1821.71486018 1832.89219173 1855.64514567 1887.51110672 1900.44815728 1879.45547786 1833.84357247 1752.1170387 1685.63055458 1595.68336742 1514.8736742 1470.40432597 1431.48979395 1396.92660167 1317.02576274 1364.23924739 1284.22115962 1264.28163659 1242.90722736 1215.84556972 1143.59180253 1095.05762093 1036.42264627 976.308436078 928.906822997 916.574866292 894.836174743 908.093111509 923.104763871 933.42742034 975.220089417 981.551884091 934.263718961 1015.90842026 1112.3431929 1128.91201752 1149.05725477 1172.57761692 1216.28404462 1305.92636975 1317.88306623 1355.23065438 1377.13193493 1480.72830282 1559.22113806 1601.88456339 1667.31588445 1757.088351 1921.63480095 2032.03801701 2180.74973527 2261.99788007 2327.2964298 2468.90089962 2531.67176669 2652.0948256 2721.2001073 2783.63021407 2831.394769 2858.05397822 2881.30439483 2855.90939679 2845.4503143 2812.03895242 2897.94570511 2999.88868619 3133.5525182 3249.25520137 3286.30313833 3340.03583834 3488.51174913 3493.9334402 3482.05751855 3442.61490937 3365.02638702 3254.29657018 3160.4724218 3166.07489024 3265.73689018 3397.65640801
4718.88656954 4767.09505804 4799.47016575 4804.3860557 4775.86839684 4688.32595949 4596.67341296 4497.17943636 4399.69140362 4306.74846014 4217.4670003 4115.50906475 4033.36127862 3873.55319487 3816.71686188 3771.48046539 3730.55960289 3669.46219262 3582.62945416 3404.85217965 3278.95604624 3157.90610846 3047.18028246 2943.98255218 2746.96688784 2639.66425283 2436.11615088 2342.27486977 2237.62414148 2132.21785312 1929.63905283 1748.79422529 1660.78089829 1579.94344221 1515.09172061 1475.9398201 1465.13355251 1472.8362963 1415.21478203 1365.88424125 1345.34772587 1316.73985879 1273.94657266 1240.46373389 1194.01747542 1150.18698635 1099.33836329 1038.41729978 937.69937474 851.863809267 804.145957715 777.287622552 775.890780147 790.218998923 808.100220216 813.15177751 793.555451635 779.049044916 758.715720248 749.528621406 744.487313371 754.6487891 755.086358691 755.41992317 759.851300534 756.897527914 749.647952742 768.881140992 746.118235479 722.923104306 716.956274402 732.949360544 766.242741182 807.73749265 813.947734678 861.335526852 891.370519388 917.639793169 940.609173386 960.762275815 1236.77993713 1266.40308584 1291.84129387 1313.14953696 1318.61177561 1327.83012869 1374.46939761 1374.5237651 1371.93611913 1367.84445044 1363.75372008 1277.63716632 1290.26875001 1308.38098415 1348.33340547 1277.02634609 1309.57290513 1331.56131662 1319.2512275 1294.12399419 1266.80205406 1245.19007652 1224.34138618 1219.77905704 1264.37383927 1278.37985545 1323.88989494 1311.68003099 1333.98026463 1358.72960659 1402.99749512 1437.33066362 1515.90737605 1563.94528447 1619.59596864 1677.46472994 1726.16393249 1749.79202724 1743.16349282 1718.32990217 1689.62876463 1692.67338903 1689.87581812 1697.91525247 1713.511985 1733.18774794 1754.16775867 1795.02697841 1811.96439501 1813.87138556 1861.47869855 1884.77992199 1913.37569973 1942.37128096 1961.28677923 1959.79680666 1934.63868479 1917.32121343 1871.07235141 1805.47567065 1797.73131833 1823.83403298 1854.22234984 1895.33920985 1913.27973509 1881.9592487 1807.29758104 1691.47053461 1600.88022566 1489.98490477 1428.59216218 1379.81068127 1339.46244681 1264.52894077 1232.52665956 1225.84800014 1142.06278007 1192.04600054 1167.64986273 1136.8861687 1059.26161133 1007.84820075 947.044733576 886.047483028 840.565919672 818.057156221 827.8209717 850.359849836 872.765205076 887.980090016 928.521599631 890.837601488 892.869403463 894.848780946 980.257350847 1072.92081761 1093.83839033 1118.96727302 1079.58848034 1094.40619297 1192.53053736 1213.4921846 1306.92041814 1313.66211478 1437.11227459 1462.50911081 1518.89780984 1610.53070504 1729.87819769 1901.9951172 2184.23870255 2203.26368894 2294.57017346 2373.48833418 2557.67461175 2818.31144944 2764.84952894 2828.46016314 2879.30005558 2939.04009406 2954.13618511 2953.02736635 3025.38100686 3018.72010724 3129.69281798 3202.16111662 3287.88290739 3362.38701071 3419.67603043 3531.45594111 3557.15942505 3563.3281152 3631.36406047 3592.86404924 3532.33412933 3449.07578022 3378.323679 3381.82212763 3466.66289734 3589.68642678
4822.29050551 4896.96293209 4956.07579291 4980.45980566 4953.12460093 4856.29640178 4732.82413162 4596.0992568 4463.90015261 4342.5744997 4231.64498456 4112.45247064 4015.24174836 3925.51627896 3747.01282037 3670.20488365 3590.35845046 3499.28817734 3350.4700258 3210.43615593 3102.3125142 3009.5863639 2929.38482486 2852.07099242 2675.87126783 2493.14599537 2383.1851253 2282.35243395 2191.11981771 1986.70208075 1882.48156948 1694.93943484 1592.85973539 1494.57181795 1414.6068132 1370.43683981 1367.69685303 1359.81989368 1324.81575918 1315.74495829 1294.40311485 1264.46565543 1172.53188364 1137.00097987 1096.55148635 1100.45630991 1053.95753187 949.878667756 896.17910469 828.098897469 787.499228681 765.460873955 765.592230392 778.422502484 771.682323671 763.164752561 756.638322454 742.412245265 710.507870288 723.221706558 719.878494355 730.267647359 739.101735004 744.498924608 747.657335456 747.109377293 742.091249799 763.674005329 741.023025151 719.137661067 711.451387005 732.430868929 775.018201726 800.952096417 804.350426899 848.275177914 876.071653048 900.749237948 922.761775248 942.423291632 1224.41635279 1255.28277512 1281.84678516 1303.960592 1308.8222439 1317.64571795 1321.95770695 1361.01671874 1355.54762775 1347.74015872 1339.23722561 1242.53760995 1248.89435513 1260.50543095 1290.79501601 1307.12697336 1211.75112012 1333.61483422 1331.61741807 1222.39828939 1205.23844436 1191.51318864 1174.36238807 1172.25525454 1176.91554006 1190.66798865 1245.71880568 1265.68869813 1288.29259519 1313.85044133 1360.24371546 1394.8591058 1436.12560661 1485.27621814 1541.63469287 1602.4260137 1647.31095709 1672.08504897 1669.22708419 1646.16219748 1619.31262017 1634.96304597 1661.8101494 1671.01628044 1686.96196791 1706.98186049 1729.0396822 1774.51474612 1777.93309053 1799.63823791 1826.79555074 1883.36511522 1918.46710054 1954.67349357 1979.02365861 1976.30189404 1947.2817166 1878.97872358 1807.51923325 1765.7935769 1752.0560373 1768.57206518 1811.67093474 1854.00350631 1872.22883353 1835.05013518 1738.52027858 1632.20300953 1537.03315302 1421.62367074 1360.4706238 1313.05849859 1274.40410577 1199.59013805 1168.6499064 1103.55758563 1080.71403373 1059.55873909 1028.57953942 1001.40574715 936.311128466 898.82205026 890.885438132 834.479994589 793.33732412 779.422092547 792.158119867 816.509738878 839.482960481 854.379285234 821.440354541 855.007735359 856.120770506 857.459501514 933.820488649 946.238411759 911.537524926 933.757686365 1024.64249264 1055.19662866 1082.74208906 1164.61023076 1204.0033394 1200.72365686 1195.8977324 1311.80926732 1357.05702422 1452.50880255 1579.95588418 1731.91443913 2102.10538149 2249.85134691 2260.16126833 2361.10668974 2575.02480299 2876.50745179 2955.08550279 3022.79516014 3073.76759593 3030.53467134 3060.04694827 3055.20439521 3171.66679245 3188.42286123 3322.01281755 3366.54492356 3411.97059611 3452.60334637 3551.93398094 3590.3811877 3613.22700428 3613.79942273 3670.09172333 3635.49843766 3610.39230693 3592.49891381 3581.06602443 3598.68119749 3658.07957638 3745.38294061
4915.79002078 5018.66823033 5108.25072971 5156.65352388 5126.30309902 5024.10811471 4866.49652521 4690.99699001 4523.9993978 4374.85543638 4242.60544169 4113.06749053 3967.39246554 3857.21716747 3749.27958823 3576.9509695 3464.17054548 3264.7140166 3138.92228513 3024.24956699 2928.42448401 2862.74588909 2814.55145279 2698.3843392 2528.89632727 2440.33644841 2332.96581366 2234.77051933 2040.3174995 1916.78329684 1813.59464594 1731.59629544 1545.40360606 1432.57120141 1324.25963273 1287.14065393 1290.67505764 1314.01225185 1291.33729566 1277.53638908 1250.39351582 1215.61898858 1121.96050053 1087.02548774 1050.07230124 957.351767492 925.187286983 890.236274543 859.725456611 820.679764206 790.60688386 773.547764905 767.233197503 767.452788116 761.862441385 748.194970125 710.325483817 695.937540824 687.207253505 685.74975731 683.697343132 714.882562711 723.311344254 731.380076919 737.035861158 739.099331251 784.041158188 768.11397624 739.860679123 738.762002896 732.622671055 752.103200312 790.589306994 835.823874145 873.688212561 909.37965609 864.110370069 886.624958843 907.454583749 1030.31986023 1212.98075455 1245.09180428 1272.787448 1629.00055874 1299.96668285 1308.24190065 1311.09902955 1347.07569385 1337.81096787 1324.85280847 1309.84713342 1222.49832536 1188.53212086 1191.85949757 1223.1857422 1234.01477021 1256.15422917 1264.07967211 1268.40765966 1269.87720714 1270.32795459 1091.77163695 1118.28993109 1120.17587884 1115.61884704 1142.43653256 1156.43327738 1217.77460782 1240.3215539 1265.77232334 1280.02903681 1310.07793824 1349.7647996 1394.4843321 1472.6695396 1520.23924145 1556.27109081 1577.90481282 1581.57045269 1555.92603473 1561.62308758 1551.94103777 1584.68736293 1594.64226096 1659.54816632 1639.70375791 1676.57013884 1701.64069262 1718.19990236 1745.0915849 1778.91903738 1822.26924285 1890.43514912 1936.59214229 1967.64784092 1965.69414794 1924.17074562 1864.355 1789.3380664 1742.88064564 1720.9224413 1724.42297471 1729.44224998 1752.03979846 1755.8667023 1710.62065698 1624.05469793 1533.82274421 1408.79258091 1337.43906902 1284.42124273 1243.38491446 1209.11000634 1136.33227223 1106.94288257 1045.31501094 1023.9034838 1004.70908896 976.122304591 952.974065851 892.480099563 863.019779537 830.38112322 799.625971444 779.877016128 772.858093232 783.302355054 802.297591726 819.516259905 797.568495255 795.825497965 824.136124854 823.723835843 826.704472369 834.469561229 849.85900731 879.792869974 903.451195098 932.422305067 1019.40443941 1048.86076775 1142.74337143 1153.43622314 1134.84225754 1110.01785467 1163.29640979 1196.92026393 1293.29517002 1446.93100035 1624.11526226 1972.36178185 2208.05985791 2361.08567196 2545.57439756 2751.4487156 2852.71324427 2941.82140976 3244.90651434 3146.40531181 3099.24069001 3142.353916 3179.154107 3292.78237962 3317.98912489 3448.50538501 3461.81858025 3473.15051066 3533.64999006 3580.26481309 3630.41593315 3657.67722518 3727.37197036 3668.34106133 3605.61586928 3594.92909527 3642.6466276 3703.83078233 3761.1135426 3823.17609634 3893.56628635
4975.97234824 5104.84289278 5222.80092089 5292.24220608 5276.93235072 5160.60517008 4974.60758587 4767.99301314 4574.08477811 4403.82707813 4255.19526644 4082.1642714 3934.22976316 3827.42899954 3699.31489425 3442.19802962 3274.17092597 3127.27171534 2978.78915792 2849.6251072 2753.43479029 2727.32468715 2712.24801844 2619.92624209 2489.20706079 2393.41324329 2222.7062264 2096.68155197 2009.03601747 1894.84874507 1797.27622314 1684.19918872 1517.59709382 1379.71450768 1301.63541855 1266.29967951 1272.54952422 1294.58493578 1269.62666275 1245.73627575 1208.98121297 1112.28272916 1071.96892941 986.122335756 959.066065736 925.845532701 899.908700857 872.088241888 842.839712863 821.238763425 797.369461473 772.605140033 767.054053094 760.725795219 749.186831489 712.549029923 696.323625414 685.810946539 681.871328553 685.037320614 684.530086211 700.772252447 710.86581074 720.393495513 727.638631515 731.809112452 786.73995212 804.220321699 786.486460648 777.064248443 774.090778234 789.878949349 819.485839881 853.905769098 881.445166091 909.576144774 934.961747556 931.971389011 893.460053373 1016.84684297 1201.57201479 1235.26397839 1600.69571036 1627.00016441 1643.76046184 1299.66994011 1637.39976133 1616.97299107 1586.89388905 1299.63376646 1275.84393145 1240.18325041 1130.05786001 1120.47464621 1126.72041256 1130.42290683 1167.10256457 1180.22431695 1193.63836264 1205.51855382 1215.48146001 1025.57725504 1018.26637814 1056.49513778 1034.02192892 1046.82007575 1108.50722308 1129.64217716 1152.49326292 1177.82439316 1206.28635682 1256.37876041 1290.82384697 1327.12470375 1363.88278496 1432.16080904 1458.64671759 1459.13433279 1468.88458344 1471.40166301 1496.3476984 1499.89015873 1508.70147249 1561.60502437 1582.43998283 1614.56109114 1639.5509414 1658.91465853 1698.73824469 1725.63032053 1757.55234983 1796.11525173 1840.8572226 1898.475352 1922.81396001 1920.17699732 1879.65333224 1813.44351008 1755.08316514 1708.54410756 1679.41456392 1667.7507269 1642.86095504 1633.17010008 1613.47417482 1560.09649758 1459.81900573 1369.5759146 1295.83766712 1242.04365831 1203.70944564 1173.22435869 1105.72105339 1075.89788299 1047.95276749 990.663636015 971.063367394 954.690202702 929.860939762 912.172066937 857.3265305 836.789246672 815.116570047 795.551218538 782.445838451 780.311046061 783.453334486 773.888436957 769.918858644 777.254261739 773.314247268 762.912594487 798.894255936 801.994087714 807.794792431 820.683820038 848.371637779 873.471505633 905.105690416 940.116776216 1031.31094818 1054.64977804 1116.31414143 1086.33451712 1051.96803129 1022.51582934 1055.3661701 1150.06552943 1345.00731197 1545.04295482 1918.98902458 2234.64656808 2429.66947372 2586.95483562 2788.52064115 2899.23671663 2995.44383544 3323.22881176 3387.25047056 3436.19942762 3379.82228391 3266.81749925 3388.05232365 3532.12747505 3518.18364478 3489.64376471 3478.58778583 3495.32475358 3573.95557503 3658.45377507 3699.93738111 3754.47735219 3644.79162115 3517.00739008 3498.54751123 3622.44828104 3768.91719739 3875.61204855 3953.4529927 4154.66396838
5001.85425752 5142.84066005 5273.49814998 5355.64614053 5343.69517422 5220.91355379 5022.23192614 4802.24707815 4596.98996675 4417.57145781 4261.17116574 4109.27244684 3941.63085259 3784.30580647 3571.96388456 3418.88680367 3162.60911289 2998.1648445 2834.89372841 2699.42858943 2622.0076267 2610.28505371 2622.00725916 2518.74311988 2450.58341743 2282.70353795 2182.72318293 2060.75239119 1982.91041664 1885.2183638 1799.79833204 1694.67679412 1536.40720705 1394.09906657 1318.14617721 1283.31158658 1283.10140569 1263.86931655 1241.16667876 1201.60729888 1111.18125741 1063.13356616 1021.17788724 947.400385585 925.687260873 898.902512001 878.554887101 856.197799332 832.720350183 818.879724249 777.963082504 766.989727485 757.752839387 746.816317465 732.296043594 695.309928783 683.442000709 678.538579119 683.89261811 683.75177579 683.404620996 685.219031245 686.221480978 711.686540599 719.135529391 767.337073635 826.297344501 824.29197918 816.804733231 819.637540115 819.422979769 830.109595791 848.558936017 869.700034718 885.263466915 905.270819091 926.408200806 948.592549994 943.649976005 1277.41833254 1255.31808135 1557.04846455 1595.23529154 1623.48607959 1641.21992368 1645.25517741 1633.26199453 1609.45944079 1573.67487176 1261.3582459 1228.35154511 1189.64294465 1064.52872451 1156.02261045 1091.74450887 1026.95248559 1062.96915664 1084.67011414 1110.63942381 1135.57954058 1156.70356252 1230.93221934 1030.86059712 971.435671511 983.465843069 997.624039141 1014.38182298 1080.52255716 1095.54036413 1127.00283595 1153.93217626 1160.9451507 1231.65543128 1261.15994815 1288.55991286 1346.89806207 1344.17788454 1361.50200774 1376.83132536 1391.00115652 1431.63326974 1447.88555414 1466.84746537 1496.27218592 1554.62137588 1590.99788468 1610.91240552 1638.91341204 1680.2325118 1705.76154353 1733.49210271 1763.85759131 1796.07834398 1825.75930192 1861.34604465 1845.82581123 1817.93997367 1758.92904441 1709.46801328 1665.43617127 1631.06139513 1573.97398933 1553.97828541 1515.8457632 1453.65440368 1390.94770375 1310.3334968 1233.34048514 1176.18531866 1144.55161651 1124.7262097 1106.96840286 1047.32190984 1019.80076813 992.346438101 939.665057319 921.813507036 908.509838419 887.959766101 875.714709453 825.962050244 812.640693424 799.657822648 788.682819698 781.220859343 769.182081146 765.610332681 759.76197574 721.956651932 711.436242155 706.470393984 697.68275389 747.828320649 781.592051379 787.191562968 794.871070761 819.031586893 845.059552177 879.074993331 970.532544828 1010.9163068 1038.44776723 1056.47889689 1072.91311258 1018.72046285 979.472453435 996.900290951 1097.91622083 1265.90582653 1601.42198508 1841.03323789 2170.1318078 2364.61160552 2617.76176454 2761.21545613 2945.93669012 3048.1321369 3398.47001604 3468.58895557 3524.51234497 3567.02708741 3506.84189389 3612.49710993 3609.85416609 3567.59103741 3530.98584482 3430.6107904 3450.17952884 3573.23192555 3697.77536666 3757.36833812 3814.26923368 3676.76068012 3506.78976691 3480.88848184 3656.66758212 3852.44224195 4074.70084563 4171.31183972 4254.78480148
4981.00889738 5115.48897155 5239.84885734 5315.77211139 5302.25830105 5186.77132271 4994.05519601 4784.35425843 4587.35773786 4413.25348257 4259.40891512 4106.80393892 3935.49455665 3700.94839467 3552.78222961 3391.85497896 3118.47703718 2940.77038645 2764.97346907 2622.41401715 2549.28099884 2549.13941246 2551.20816355 2526.44466455 2425.52538058 2246.07120785 2139.4951181 2024.28427544 1960.78910336 1859.57623096 1790.97224606 1697.6887905 1585.27822841 1425.3822765 1356.83552414 1316.66917378 1268.88530095 1247.59476079 1211.24016156 1125.2715909 1066.05440614 1012.0916223 937.221940173 913.221556501 898.06799386 878.057784297 861.283010022 841.343814754 820.101484981 800.109466055 761.119712411 752.005436838 739.97499114 726.786325013 688.523085762 676.646921886 669.720473025 669.983604996 680.950007566 682.740380898 681.833184952 682.088620893 680.643668686 680.364385529 789.504586699 824.110188763 837.265557769 842.853405308 843.432238229 855.556787098 855.658923832 859.595669131 865.738347947 1045.36360267 1066.21187486 889.855591446 909.309195516 933.38810516 1215.33988037 1262.50357838 1558.51096171 1611.3333209 1653.03983576 1905.45339791 1930.55034551 1599.59248246 1918.08773264 1883.0899822 1829.252972 1490.72936794 1421.71854433 1105.03515966 1065.63786537 1055.41061932 976.60864348 963.88208853 989.813733226 1034.05240592 1082.81001511 1129.58979493 1168.37961046 1184.9570515 980.661002607 993.808102078 933.595080093 948.688772782 965.650181641 985.042493589 1006.65429637 1029.43548671 1055.09271308 1106.52674461 1135.68043932 1201.75480469 1222.48655159 1237.89702845 1263.60287 1278.68261014 1297.58734516 1320.41817582 1372.21534249 1399.8519437 1428.32074982 1465.1482457 1471.00312495 1542.57961798 1572.40030965 1621.89769872 1656.63470399 1689.22946267 1713.17546453 1735.74471274 1755.996875 1771.84467624 1779.12645205 1763.7839895 1736.09811522 1697.15079341 1659.93940325 1618.39715531 1580.45944339 1508.76766794 1473.08103445 1389.64145148 1334.3999925 1255.2013042 1174.98620638 1109.74685506 1068.47511445 1054.80781266 1055.33459251 1049.64147348 996.683658398 969.353092523 899.66547011 876.662441099 876.57092408 866.300447517 850.028373923 842.047490913 795.988731252 786.577800412 778.320735745 771.835880886 767.014485848 720.679768089 717.856719159 705.178173415 695.006711094 688.884874082 690.261286453 690.73563871 709.147671303 751.017283028 756.211906731 775.75657623 794.890196915 820.487016391 855.586041032 947.408347665 993.338146878 1027.10426456 1051.71286151 1078.03028214 1030.1609782 995.22560247 1017.81863103 1118.80404895 1285.49519754 1631.06241026 1972.16669076 2204.60821757 2400.79218555 2799.65184818 2805.42686363 3172.50295855 3287.42576798 3388.11977574 3732.11778277 3789.76237404 3725.87396622 3757.75976267 3839.69532462 3811.28518384 3730.68803754 3608.80250319 3502.40045568 3516.75082431 3647.89038753 3779.51684024 3847.33798437 3934.17910878 3828.51620786 3704.3315027 3744.64312769 3904.98924398 4061.86483442 4151.30274311 4229.37319391 4320.49284566
4919.55470462 5032.28599888 5132.20912695 5187.23959082 5167.95770865 5066.03224071 4896.79557262 4715.97058284 4543.14816947 4386.62575548 4215.85616609 4081.3033501 3900.55817974 3704.88546969 3557.49595141 3395.40841018 3117.76357527 2936.1657507 2757.46123922 2614.64917086 2543.45301327 2543.9872984 2565.08949531 2507.22752234 2354.63052559 2159.7901822 2050.77196644 1976.32394621 1904.83568891 1873.22101316 1828.7550212 1741.48945597 1632.36320921 1466.06295898 1387.10331244 1305.41688104 1255.80430939 1219.04991801 1171.47646379 1079.47631156 1019.34147371 966.629211641 901.929825993 886.838724599 880.787889797 866.28690747 849.306650224 827.647997489 804.889592528 783.855151434 740.565497945 730.154127214 716.205579885 702.264199856 663.583838559 654.951931793 651.503650806 668.707615605 672.055878563 674.671325016 673.284841335 674.991668206 671.82255344 702.118602495 794.339378171 815.736892157 847.141425187 858.143737072 844.763209843 847.004196362 878.375481976 872.98442082 1033.94404855 1021.75769167 1019.79830201 1039.78615901 1061.5499931 1119.15609872 1383.74425627 1440.06588733 1536.90362606 1853.62618585 1912.87772178 1955.64639369 1981.28369681 1887.17445738 1873.77794809 2009.40431085 1950.30715947 1720.96427229 1507.90500006 1381.06811868 1131.59797785 985.924314231 911.879991004 886.26707261 923.732199462 922.279162347 996.205052584 1063.93034693 1106.69139738 1140.95115506 934.120934997 948.790049642 885.047781837 900.384121484 917.120341444 927.767196854 948.211081419 979.710174459 1005.59511189 1034.52000427 1085.57571374 1114.79553157 1170.74902586 1193.43087342 1203.04810631 1214.97931901 1234.68001516 1262.84123471 1321.4167382 1358.85363783 1395.78751889 1405.2710957 1449.63019492 1481.40544852 1556.13023056 1615.4035824 1644.05060474 1672.49526965 1703.15126816 1721.4932999 1733.26101601 1737.8826549 1703.45646859 1688.33484389 1650.92787203 1644.51051738 1603.74139104 1572.46052619 1532.09968256 1409.21218706 1367.284284 1310.28411976 1246.64857996 1161.53280084 1078.99832137 1012.14658147 984.487821477 988.944118373 978.428789831 968.600375425 946.102610802 917.014246012 859.613894674 837.797196805 823.532194781 814.740317191 817.671332932 761.328997771 750.01100528 758.151247074 702.89887648 701.010907576 662.509853021 681.415277354 680.618144639 669.390953176 663.792987865 663.70907838 661.558906692 683.341882131 713.140782351 753.763464345 760.668907682 760.98025423 779.171445037 802.149115156 836.050225136 890.472363629 940.900791493 1066.45587501 1085.89297191 1081.39407911 1080.03675957 1063.5475446 1108.51622361 1206.61576045 1362.22664214 1717.18670288 2052.90633209 2263.70542955 2454.77997926 2855.82929918 3244.7759026 3384.70798553 3337.86759446 3443.00415955 3804.45758214 3867.81645158 3915.15361447 4064.02098723 4092.59889353 4043.4775928 3968.0073855 3869.91008783 3765.47708878 3788.46656469 3905.98317293 4034.1005064 4110.8369687 4237.7812365 4172.63744823 4099.53535041 4091.51078686 4134.57246383 4186.43293941 4180.90712484 4291.43833526 4467.82279713
4832.28474814 4915.89667115 4984.33834487 5013.98901664 4989.34706736 4906.6715662 4784.83602192 4606.9698862 4463.97386239 4329.44905874 4164.32386113 4038.69795402 3916.27127518 3717.7150444 3580.34326065 3427.59893436 3222.91117965 2984.51500404 2810.63120504 2671.66573219 2596.21546922 2578.82260463 2573.40432872 2429.57901848 2314.89810689 2148.11905562 2013.33134091 1930.28737819 1919.43990299 1908.98333074 1861.13689392 1768.94947793 1654.44783668 1526.64458732 1435.23632156 1257.09937649 1207.11749202 1157.40575975 1102.61206476 1032.83436189 976.533528635 900.037417742 882.582650109 878.298406575 876.119955454 863.989383472 841.618096018 813.944374258 786.625705113 762.522541579 707.674612332 703.266489157 687.952253108 631.018310272 621.235983893 628.381972806 602.28152341 649.332450878 652.767949502 655.035828348 653.707763006 635.809893628 627.911762994 696.455087317 798.583882092 813.232832891 832.489677444 847.092940131 860.266653997 862.832540385 858.13971242 1034.65430418 1004.91415757 956.969267778 929.164536091 931.132577075 988.644023229 1069.62350936 1336.10099476 1665.73679289 1742.66876637 1823.92152031 1887.44626792 1933.46535513 1960.76329907 1872.32697125 2023.59019205 1989.81027893 1931.69670958 1700.37432817 1713.34899102 1401.64851555 1043.953372 888.716278572 752.53175819 715.752958329 768.214613513 875.193263466 996.34252293 1007.57035169 1062.19206737 871.379956531 891.86135899 906.109196339 797.268975841 852.788519187 868.782128985 873.466208567 897.786763291 929.429918124 956.119838805 987.713525574 1023.39036031 1076.06735548 1118.27142258 1140.76526512 1165.83767232 1173.43860176 1190.43181784 1220.14142055 1264.75998173 1305.32272516 1347.13862286 1386.95903201 1434.92524231 1468.67346327 1511.66582585 1572.03505186 1637.36756411 1671.05504463 1703.27908472 1728.0500577 1735.75287219 1710.53479871 1684.13422174 1647.27189585 1609.8183134 1562.07587389 1519.94605617 1485.01772253 1391.57450185 1359.01573172 1313.89239356 1262.25149129 1190.36656439 1105.70118883 1025.25147789 961.560163142 938.903045266 947.839472013 953.586637043 941.908229139 878.301356375 853.929637404 827.568662812 808.866161187 799.442382001 777.274258199 766.252233116 745.39459543 728.384777963 679.816948094 669.541097963 618.538895112 616.801147995 614.894334457 633.766463484 629.858325318 628.868290145 615.281980257 638.816580781 668.891902661 707.850897111 744.356282032 763.292190117 761.109151272 759.288595877 766.96534133 776.015258903 874.293958264 925.976435733 975.425512064 1101.22813278 1117.19363627 1178.35580089 1185.13390227 1252.66188305 1333.18435135 1475.89227442 1954.38134573 2164.26831548 2351.50445677 2514.19262123 2802.49097309 3289.16220117 3427.64710086 3554.14998548 3667.80527566 3864.05760622 3932.7212228 3987.43566617 4136.9149926 4172.76545372 4149.29119102 4118.11850333 4167.05796536 4148.06609592 4148.54788218 4124.49321341 4217.48146049 4430.07879318 4455.89637576 4551.3945641 4494.43620555 4431.50026268 4329.72882869 4110.08411878 4024.00605871 4220.3553856 4491.45171604
4737.70132111 4793.9403324 4808.34389309 4822.06576394 4797.05099393 4734.53110454 4646.56093289 4525.68978048 4416.41814122 4306.66246676 4197.64852864 4047.13554295 3937.84048793 3756.86950894 3636.08800371 3499.92508929 3340.99596328 3072.48703505 2904.95926632 2766.21353722 2676.19842626 2626.45482556 2549.51572496 2429.98193197 2237.45923756 2109.69743352 1953.57880102 1923.73250975 1931.64197804 1932.32788564 1883.75294993 1785.48608415 1666.74855391 1535.65547299 1359.57461091 1194.99391614 1131.59029001 1112.13892803 1027.66313784 974.544778022 939.805207953 876.375138567 872.506953224 878.937279435 879.689851917 862.726927513 831.310892228 795.664320238 762.934710408 689.149215125 626.518111867 608.515006488 608.369912353 596.145158987 586.604788852 564.968555284 565.24202531 582.658486334 589.160205274 593.236046045 593.212166045 590.195932726 601.607895668 685.849577359 790.31074308 815.286376605 837.810874507 855.892572649 872.239755861 874.667485111 865.012824027 1012.48294929 1157.70393896 1004.00142662 904.593965635 810.287385476 897.704666947 1015.78193634 1472.84541482 1617.02544131 1724.26216517 1783.84337867 1851.49151941 1901.58332242 1930.07276942 1934.77820181 1988.33305531 1958.20872137 1908.32903104 1834.84430513 1692.798807 1365.83182186 983.47259869 783.03203016 646.637892282 568.971192509 639.574366873 783.908457701 938.954007426 939.093098507 1029.0924275 835.414578375 853.379453446 865.090137905 752.384484144 763.042101956 807.312776112 823.338502032 846.356116346 877.155231622 904.219993745 939.007390117 981.765693076 1043.91401784 1096.94896814 1128.71378099 1151.41142342 1154.65427638 1165.64981898 1181.69737444 1238.40064994 1286.19806554 1334.06074343 1378.57215229 1428.71213736 1462.58641365 1505.18047381 1565.57897056 1605.21774647 1652.02781803 1722.76913593 1738.48639579 1751.59276426 1733.79945694 1681.81121553 1634.52137771 1583.42305902 1528.00986343 1482.53454771 1391.49832067 1355.52922196 1279.7042509 1237.53024213 1179.81723488 1125.05433137 1062.69892161 1012.01544798 956.473487429 937.26476451 940.150863666 919.873383489 889.868292694 852.317979484 818.410631758 778.047043115 763.806605434 783.454787821 776.419140436 762.711661728 703.058822224 663.194142656 611.787766343 595.180165216 576.817593156 570.978767115 567.269364669 561.797187282 587.393304968 565.986285186 578.291290508 600.852522536 640.207910168 682.434083777 710.105565872 747.872610667 744.080211565 730.022528431 743.696303285 759.228241042 789.458109439 910.584617137 963.980139382 1117.23606452 1154.16050245 1263.00808904 1299.57756144 1494.1260592 1516.03447468 1655.6724039 2109.74511444 2287.73719983 2447.67683738 2588.31583715 2841.37435605 3208.69627626 3455.30665968 3585.20632186 3703.29107218 3807.34138031 3979.29239901 4117.76321854 4227.38714883 4229.39818559 4215.0597039 4191.75625064 4236.42407521 4274.57831172 4325.54174284 4436.07055381 4700.99945969 4786.86649196 4808.19419226 4793.49944583 4748.65030747 4663.68355658 4504.41412075 4204.09772105 4086.39436468 4316.31172345 4617.18350263
4612.19123098 4650.60933062 4675.05556733 4679.07671649 4659.417912 4618.35419622 4561.86624056 4476.9427143 4394.705537 4303.3966244 4206.38965477 4067.77668006 3971.86233197 3815.31796758 3718.31220882 3605.23844957 3464.0940153 3295.89531901 3031.17602021 2879.38344511 2762.78233331 2606.68047968 2517.61355918 2411.18416352 2196.40958662 2077.89089485 1928.49055148 1908.18453595 1919.22834282 1916.38492934 1861.97721335 1761.06436656 1575.37429096 1452.62572194 1233.64420118 1149.2907039 1080.23031454 1019.59940289 964.740024284 927.513692653 847.70473785 849.542554359 855.719717094 863.288806952 863.832366117 833.736353389 786.352822931 729.085157994 685.599817141 615.673667379 589.67262214 570.641766015 549.443621085 558.361327338 548.328396646 525.27495072 541.228112027 543.612187147 546.140409348 547.9265015 548.928119051 550.310318146 569.368255002 646.380743321 783.294118788 812.467250975 839.194318576 861.33504064 876.580475846 879.856939264 1073.8701512 1008.36259984 1092.46684265 864.800626986 708.574637822 716.301814596 874.969236003 1082.97718889 1428.43635976 1569.42523828 1665.05373518 1746.54213956 1799.34862152 1857.14136877 1886.10040226 1884.17453394 1927.74794584 1901.62427235 1880.15654302 1819.13525406 1699.96120947 1379.02326006 1122.18582965 799.371419185 579.27070988 508.723376664 588.208307915 746.901949486 908.564234401 1046.72417027 973.544427345 995.875960896 816.73801522 823.96290282 708.650003496 718.127948836 759.003150172 773.072198379 793.408262663 809.699142699 846.749609133 852.910321618 906.903708748 972.867807692 1054.20550059 1121.21319527 1148.00137691 1151.30904828 1152.64736696 1169.72193159 1226.01207978 1278.77435387 1333.15638168 1382.80561443 1433.80345444 1465.01879481 1503.00834044 1537.37000418 1604.39598703 1664.84292618 1733.71438483 1790.95863808 1806.61114622 1771.25401783 1701.37419938 1601.31987492 1527.72568879 1469.80833001 1421.13916939 1361.49991835 1318.68869745 1254.08199787 1216.28866797 1166.12585668 1118.8514528 1065.00003993 1010.48338628 962.666922938 945.31471335 920.831073962 878.389251067 835.766809733 795.132117885 761.924339034 743.088769238 771.42506282 794.632438629 782.188780256 724.452362491 658.697265011 602.492716465 580.897877835 549.375058855 534.231238887 525.13333041 519.728112172 513.691318453 513.95674279 520.274179182 533.443499008 515.150962746 555.231546993 603.145353364 647.241124673 705.41206292 706.883584984 688.139221146 680.627718638 736.190298822 766.034823569 892.984510496 949.85496134 1130.20279946 1185.75393765 1264.98677736 1405.56312268 1647.87847205 1770.98436582 1920.81533076 2182.63241723 2406.47360291 2540.28883919 2657.36280651 3135.26926953 3223.37793597 3498.39598708 3599.40475019 3722.23167434 3827.2290864 3948.05681006 4129.99916927 4344.49110041 4349.68372465 4307.25567872 4187.27014361 4158.37499713 4250.37696475 4498.29004687 4717.81153304 4870.00265816 4959.34498529 5000.81879638 4991.84906087 4954.40161556 4909.70573955 4804.75895219 4632.59531406 4543.48489159 4669.79154684 4981.91142981
4536.44520333 4563.36797153 4580.14778898 4584.50352107 4576.3246927 4557.37732474 4528.51278325 4486.92656984 4409.88339969 4326.57415199 4231.68729305 4099.35406675 4015.23270898 3948.90176269 3826.41930145 3743.15933362 3618.7533685 3452.01272519 3197.58084169 3016.08927121 2772.97288906 2630.86711411 2413.19155154 2291.88825486 2170.09162374 2024.84688557 1873.19388837 1865.63582626 1863.24751037 1845.86542318 1786.04195042 1630.11269976 1507.07138077 1394.88755483 1257.03998951 1089.47191942 1020.75287411 961.250761906 909.342928288 866.505068261 763.714265993 766.36882316 792.644066033 810.952275065 790.36860544 756.257184961 704.096782164 678.936037322 639.440561285 560.958016035 495.420798759 475.176222077 460.571897429 464.677575306 457.192589549 487.352779948 503.483997615 501.938468565 500.235449879 499.195291266 500.537056203 506.017028553 596.127217888 620.491312792 767.821288754 803.420428091 835.394880508 862.395193911 882.764038987 890.939223774 1097.77885158 1037.77882752 1104.30321979 838.227356027 648.754488089 669.770265259 873.157016979 1213.40635717 1413.8866666 1509.43894913 1570.37360962 1648.2688883 1742.7519181 1799.352649 1827.46658197 1936.45567113 1884.41027962 1806.55685647 1801.28559924 1792.56139733 1729.6817024 1448.62915691 1216.96452078 898.925737486 681.88794089 608.705445193 702.639130121 807.580442936 952.559981235 1042.66558217 1085.30828334 1089.63328184 921.327716192 741.603189268 743.58703171 674.047861206 676.784266657 723.27798085 699.211303905 714.332770824 718.391982669 788.778814269 845.340727113 919.487061473 1022.90219946 1086.16917122 1128.74427124 1139.85188426 1146.52711912 1163.39406618 1223.29842421 1282.20978902 1345.61820938 1403.10318741 1428.72983795 1453.0201665 1505.1477673 1530.20441187 1596.03587201 1665.91067867 1753.7647933 1830.73254252 1851.81781278 1795.81102772 1691.8571317 1592.3464332 1507.76993563 1446.37029764 1397.32174683 1339.01337437 1297.39955357 1238.87131229 1208.08685893 1178.05744574 1130.33743795 1082.44010131 1031.00040562 975.795712642 947.178173602 895.843505552 842.126246087 799.86381958 762.439096913 713.39254673 718.063623663 752.154535618 778.727835153 763.272958329 691.190065412 628.494840168 570.118355163 493.570440988 461.986613985 489.631667918 423.343587187 415.165886616 411.297405439 384.900298315 414.774851428 430.051453463 460.206121938 490.928934754 527.173523545 561.040061609 590.41390061 634.768528119 635.834436965 638.971081146 651.541710577 703.829671332 809.387299427 931.365142813 1137.29536867 1218.13897197 1291.50274717 1480.4316223 1582.10886345 1898.56760107 2050.69397288 2210.35450242 2445.40380313 2777.97126254 2917.29873582 3012.25153716 3243.05819335 3490.54884018 3816.87423853 3937.34739593 4020.06713392 4079.94693106 4290.57969277 4336.53183654 4364.68008822 4343.69786734 4241.64069753 4149.18412916 4298.19914258 4603.30586184 4866.25782818 5017.13225713 5088.44854319 5129.12022187 5267.52639891 5198.47852254 5074.09262548 5026.25084777 5054.38627778 5095.20204952 5195.08867615 5453.85071872
4482.12347589 4505.25111176 4522.66645583 4534.88068995 4543.60780839 4549.67557148 4548.75606621 4529.23146374 4478.73534386 4365.43299249 4257.73664317 4172.12309793 4061.84641067 4024.32657357 3937.52044487 3894.24991627 3777.12813008 3593.56412223 3344.52613341 3125.32360475 2828.96536001 2537.89863843 2389.83635686 2252.9153258 2126.20268278 1976.96294329 1805.24359554 1768.40709323 1745.23736546 1652.47327845 1581.77099933 1504.08917991 1402.90436845 1308.90658059 1179.57253938 1017.02475502 953.254388776 897.035000493 847.618376963 744.702155795 695.554943745 690.755496191 675.973452973 689.695871033 683.295306418 657.799103259 621.094497345 583.447626307 503.966757329 473.985394644 451.208020641 433.939414973 420.923409401 411.103088245 452.609851133 450.884841778 465.440896288 460.01004485 453.481105656 448.284734646 448.541472833 466.158827108 546.293788178 600.473638262 743.927157236 787.736180623 824.934249628 856.598643431 1108.4230315 1131.89608266 1134.11263728 1094.76989652 1231.42186918 997.203548134 831.761516087 862.619713987 1075.89735943 1303.70019646 1406.26316308 1398.32331774 1401.6493131 1490.90082836 1635.7622301 2015.81188568 1849.74595859 1803.84537231 1697.57712293 1616.73626435 1656.11092158 1731.81225891 1617.70658742 1560.33370292 1396.99828903 1168.54567132 973.184272122 870.304782733 929.440390915 942.023491555 1038.78387158 1081.82089432 1082.82660958 1052.5765493 870.810949786 696.929340295 698.810338058 705.479187373 704.332364733 646.453144339 652.301651212 640.95255222 656.36413154 688.28200123 744.006142982 823.09038462 937.546945829 1021.9826584 1064.68924727 1087.61960143 1092.22445934 1128.55958864 1203.69306368 1269.80985788 1347.75352221 1421.77346143 1478.719759 1494.22215544 1490.21540069 1494.32400618 1545.16871697 1619.89299735 1705.20793412 1806.82662779 1832.35227162 1761.5920594 1643.85496987 1561.94098413 1480.62682432 1425.09466625 1380.10888166 1324.53911209 1283.75580025 1232.76997233 1212.66456581 1196.64167885 1161.81973385 1114.30046237 1015.55790288 960.432885643 868.727211293 827.765579746 783.013755602 739.58468214 703.270716343 660.070869018 666.335511805 665.447215795 688.125953172 670.081241855 616.902448403 569.184998566 488.840178487 448.183794142 411.093471032 390.453278519 382.069510723 373.316075016 340.436049475 340.786633811 366.50911888 376.657688925 399.33167686 419.111504388 442.984352172 466.836475847 496.033905195 558.833745432 572.369897997 587.785720311 609.867886136 671.283149375 849.054557073 910.719857095 1071.22731176 1228.39482711 1361.19633084 1457.44205074 1646.94971576 1989.21257952 2149.69766778 2315.06782586 2535.15193198 2811.80612014 2972.6852723 3056.47107879 3333.68642986 3661.00847936 3843.71240304 3913.32025558 3970.93048241 3990.25816164 4094.9864467 4330.8230364 4478.08998274 4542.88701107 4482.19025894 4452.55167627 4600.38085104 4833.55088208 5031.90807851 5119.04159737 5115.19622606 5269.86904368 5352.30219164 5289.72951999 5058.69416637 4926.46523243 5190.40108481 5486.59132118 5658.09368544 5768.34502696
4357.49545974 4392.34360388 4425.66788299 4518.42029885 4547.2121042 4582.15866376 4613.75074987 4617.76887733 4568.9555561 4442.13127229 4304.94486133 4136.76365432 4071.63340451 4076.18191157 4091.21494498 4090.56879278 3978.41881445 3759.4696354 3496.03177324 3195.90427431 2863.33007883 2533.2318401 2359.77680806 2207.16035674 2071.19392321 1953.10273851 1710.75232544 1566.00451832 1521.95602812 1470.2653113 1403.45525844 1326.45902112 1248.5847842 1154.71678697 1022.02836518 915.223557749 879.438721079 773.361737891 656.951654308 624.677282041 570.592476058 557.560768347 550.811916412 551.039845294 556.151825369 542.436280972 524.862291461 460.019711559 428.366655965 408.93788618 404.658060866 391.498447157 380.97055438 337.472796136 402.556715967 415.819688528 412.267577065 420.332726111 408.331676034 396.89865463 393.69090822 400.529758508 495.132266207 544.894179892 693.730523625 745.990232878 786.441302664 820.930110129 1271.37372853 1135.49669127 1167.39648995 1556.45758115 1447.21060088 1298.66401988 1195.66701002 1329.63388659 1470.23276255 1679.47274814 1564.22495737 1199.90485797 1132.16974576 1269.03407036 1712.17801923 1939.00306243 2041.05317456 1837.34594808 1419.68781132 1348.30317618 1423.21618128 1623.51351681 1644.63850115 1690.85652351 1833.38788299 1471.04037532 1271.63156495 1204.24051589 1216.01582487 1268.41859385 1124.86825912 1120.7194205 1066.21762398 990.132306604 797.311584855 768.110719082 646.059663486 654.992141032 665.820375016 609.426079418 593.106321401 588.662923146 588.850102659 608.704751558 658.854446347 736.83470675 851.854596435 922.50106938 984.51961939 1021.86558499 1046.45421255 1085.85637429 1162.77920119 1244.06729033 1359.51683092 1464.10565048 1548.38691369 1555.16683184 1520.95006299 1490.96084838 1491.67515499 1542.38445992 1623.4756737 1696.17572846 1714.77030235 1658.95940809 1567.36820215 1486.86536232 1452.19086015 1412.66793706 1374.65344838 1298.15647478 1257.05645039 1232.61606099 1229.42210599 1236.53007157 1198.71651673 1140.1003138 1017.76050694 933.163379628 851.150253879 783.743126643 732.242213296 687.638566092 611.489610637 590.435008763 552.17608068 560.182216998 562.517560264 545.444630757 511.631428685 441.904140338 424.455224733 388.016934136 363.712485473 347.054870445 340.579200374 302.879640276 299.711390877 298.266049067 292.622683233 304.006343715 337.488879499 346.53241856 359.322364498 375.176690698 388.210820243 478.682301198 504.050319451 531.357252176 594.494656631 633.853380242 826.449849577 893.070063436 1059.77575321 1150.23472591 1370.80511893 1478.97779805 1607.31195346 2003.27650877 2312.50726034 2477.37288931 2771.0529188 2858.30844758 2906.61144963 3046.91299179 3225.58639171 3548.68337895 3810.32966043 3930.89146964 3930.90482274 3990.12199431 3955.75140436 4168.72863797 4501.41865822 4768.22048683 4778.2931006 4995.78315729 5141.64098152 5208.79194122 5353.23667715 5141.59335253 4993.74438307 5086.01941784 5407.67345214 5582.32807098 5335.899267 5199.41087607 5529.48237433 5807.70344201 5931.96688631 6049.39826274
4335.48098031 4374.49115382 4414.69528228 4461.74223694 4523.22135776 4630.3501253 4697.76046759 4728.63340532 4660.77780791 4509.06640647 4325.254768 4159.87269729 4096.07538523 4135.20618112 4213.68481236 4259.76985317 4139.49958453 3874.35949429 3562.54938636 3222.54450604 2737.04503173 2506.76195284 2315.03398643 2149.02851799 2001.35199612 1869.12679545 1564.36074418 1416.71806198 1343.31825703 1274.90657737 1211.74260767 1155.6545901 1105.76404891 946.425238647 897.999001696 788.054512615 739.102217018 680.559134111 589.41046272 552.613962494 487.520774433 458.667066914 433.293097712 414.845577687 411.490234106 383.301423987 384.535824188 382.61888176 364.78942448 355.22445228 358.115073144 311.025851365 305.572520476 302.07005734 369.171408937 368.920452917 366.765088906 371.884177358 359.244105814 349.325872543 336.974776781 350.530018446 440.698533352 497.765726327 665.332802441 721.730493239 756.602818764 784.776962088 1208.15931584 1286.53384148 1627.57071932 1688.48034708 1687.59324698 1637.84856422 1898.96107084 1772.94607492 2097.95933021 1831.63388948 1491.05841601 1051.19148404 870.231091488 1148.65896413 1633.2819477 2013.10997999 1985.23163594 1750.22564751 1102.95080997 960.295017326 1166.61569112 1546.13627337 1882.12260479 2083.07580917 2101.26158086 2014.2729271 1604.66419248 1533.01392951 1496.13418074 1471.27764839 1219.82850765 1127.73393013 1028.06128675 894.803392168 694.11682102 633.253132975 565.724475238 591.407012528 631.57668198 638.012911264 559.539858409 540.487165587 523.205434475 530.499342862 576.993321065 649.57264484 737.174361576 838.320549252 904.757045548 953.853253396 995.166509918 1043.26073707 1114.58434877 1240.08313938 1376.32254011 1509.21778482 1604.67765707 1606.90877572 1534.55186528 1457.52886439 1450.62484698 1470.53500722 1517.59735509 1563.07666253 1556.38052508 1521.08573646 1468.28111474 1430.49582224 1419.01520418 1404.73926099 1389.96676889 1309.30411694 1256.17127162 1232.54522702 1243.45566598 1281.84890063 1288.32799434 1184.78097696 1044.42094697 906.878577999 815.955604314 735.224036479 627.259049405 578.817817909 505.446395106 478.82252504 459.65857768 450.337082574 433.807349652 417.151411389 401.843024384 356.134499698 338.236140296 331.781941631 316.222941344 303.694007047 270.773134451 264.750598412 261.348509303 251.451483089 249.848274843 256.229549132 254.392417825 277.737536383 280.910024078 290.93301107 305.330897385 399.765801506 436.052401303 474.001711245 547.695369085 593.363615764 773.609109117 845.676982298 1038.18535705 1133.69241403 1289.1599497 1590.34758745 1726.65629721 1943.10847902 2256.47240245 2510.7103029 2779.98782709 2818.95648475 2845.34923652 2921.82192265 3136.79230503 3505.96510256 3757.20524277 4041.46262332 3936.39207845 3688.83104166 3538.53054551 3772.73970053 4352.47321548 4878.7502985 5201.2671788 5563.90956373 5756.83346024 5891.9281609 5733.04836723 5380.23495083 4856.3589338 5028.65648308 5664.7868857 5934.89042472 5891.65524042 5936.37426693 5994.1364769 5932.11598268 5906.66522747 6102.83138463
4330.61872514 4373.87081744 4417.34289808 4468.19254099 4538.14633062 4635.84241774 4745.02192117 4804.08486574 4734.73077942 4536.36707685 4300.25973144 4134.98992926 4034.62343677 4103.07562487 4244.30833995 4306.18246619 4166.10916156 3864.31280453 3399.85516628 3056.80100604 2646.48475178 2366.68839734 2167.01331409 1995.12552667 1825.90688858 1668.69385668 1420.35890703 1261.30698206 1158.59115559 1072.92974889 1013.3379333 979.736410448 960.137400035 842.780678999 767.517756642 706.468205462 665.175638792 542.363866915 503.525591611 463.442091229 391.133274674 350.141435693 325.356794532 295.276270795 260.390460422 271.808470614 302.126977933 304.47381756 307.699769621 268.41722268 263.795331896 272.9355638 269.881512164 261.202289839 266.746568215 338.810503004 339.792733922 347.188208165 332.056925108 308.550858478 296.76281066 310.026144776 389.63211887 475.231617313 631.639961261 696.832317117 711.056867038 720.457387355 1068.54317235 1196.5809316 1611.68770132 1791.38648417 1901.18301837 2359.28750581 2365.30329873 2349.28718951 2496.60380577 2370.69031294 1806.08420156 1138.80348394 871.32272936 1185.04489231 1740.61378773 2145.31082721 2251.75705621 1667.24610595 945.758682767 721.644170269 1013.71801206 1532.71423444 1990.6975275 2266.54613173 2382.74502802 2356.05867649 1916.17696678 1830.7467215 1746.81175669 1425.92149276 1294.0774669 1146.85174707 961.843175282 762.801087083 614.608494981 566.080023226 552.540089901 545.085161947 593.656311159 600.141526946 572.221785546 506.143157616 474.988502713 473.648854434 516.514515317 591.821517301 674.430786496 737.616971241 836.329286295 890.924708417 941.379188593 992.234241342 1074.2413784 1173.98010107 1317.43925303 1470.79770426 1585.56209375 1588.49167742 1507.58056009 1420.23700591 1370.58745413 1393.35377817 1414.20404033 1438.33672111 1427.87551395 1409.14328234 1396.91760004 1408.13557343 1444.70304979 1459.84964552 1414.44322887 1327.33730006 1221.27785586 1191.74493185 1227.36553214 1312.52853032 1336.26202365 1195.98384529 998.941021048 842.691868432 718.825406058 630.36782633 573.328494593 484.441916479 449.721803473 418.391603197 383.061788078 347.659609158 309.852481691 305.216713497 305.963172825 283.855586331 271.529400922 233.99538725 244.304108352 236.325814481 229.164244938 229.074245105 218.157970825 215.449301373 212.178833572 207.119162407 206.295812926 196.864681664 209.891739173 213.211184775 233.816718786 326.185785558 372.775454806 430.44796622 501.44161541 669.579844554 739.707474556 865.768753338 946.991842918 1156.97279908 1260.48889065 1565.92887757 1700.88787622 1862.21335945 2231.197894 2462.41515118 2778.55288078 2809.22091229 2799.96261756 2875.02338934 3116.17010237 3521.8202485 3804.27111786 4084.97134254 3950.26726623 3623.78499009 3369.38574587 3637.84306514 4379.16797716 5074.0623059 5720.10687968 6009.88372924 6192.7668143 6314.82801693 6344.01728069 6075.63582197 5718.7251762 5865.22533709 6322.29452813 6570.05833063 6737.19681163 6669.13577153 6442.84717379 5896.49866833 5775.10602903 6178.72390662
4201.81757532 4267.51674305 4362.81311196 4415.7797477 4485.83263451 4588.12085639 4707.88570754 4772.42308427 4699.45352977 4496.16940837 4255.46236593 4069.66071966 3977.33338803 4016.76304597 4112.12176117 4145.19210764 3963.90878789 3645.83178598 3253.29375127 2936.16242696 2562.68815449 2268.58418158 2077.52400384 1916.16995201 1739.50028062 1454.4863137 1309.08972468 1101.56466004 968.518247459 869.633084362 813.41083976 806.443391009 738.841958799 742.484090005 684.444770814 584.649139299 528.479520005 482.964656402 446.247097266 405.408234372 329.724232168 279.876287178 228.63037978 192.297954534 177.87876463 201.446789641 219.044659684 222.38223976 227.856782362 228.095072407 226.114134094 237.270924799 228.734040501 228.413245145 235.511108792 308.33440963 314.176479407 328.498084137 319.536511752 298.791221294 283.983122871 303.263996988 378.433995664 474.256700334 629.063071636 662.822989809 647.412001424 612.352860177 835.168881547 1035.8483205 1544.11157777 2254.50749381 2539.51202961 2711.39139457 3045.9699344 3048.94715886 3127.97927955 2834.96940155 2337.72030931 1789.59935118 1573.00498985 1882.6323354 2375.35147 2475.66266258 2574.14750415 1985.87473777 1288.31087441 990.622189312 1250.95550329 1785.7641878 2262.62775198 2870.90326168 3017.62785951 2661.4002424 2470.5862622 2091.72982771 1961.86688856 1807.98805572 1380.78616456 1172.34280863 927.185472929 676.990885562 484.440747791 419.054857086 484.065796596 582.933054359 561.752122013 570.268808568 567.282832747 513.772099733 460.932781671 458.461528357 489.176193238 565.797403833 614.840053288 673.748114549 742.435144797 789.181898734 839.829221018 907.11270801 976.783004536 1078.75176043 1194.59420167 1348.04802188 1441.99656689 1450.70105092 1379.24218427 1302.6981809 1258.96794209 1241.6983452 1303.05227001 1318.77369279 1320.38275031 1327.37830661 1312.18261212 1395.91415159 1471.27094626 1521.59368194 1458.49254164 1303.15146373 1182.26211819 1134.68377911 1158.92317415 1229.47354205 1235.93505335 1089.39080601 900.88396518 758.383686536 647.224746284 568.22490649 516.153432026 433.247504234 399.801357562 366.13183627 323.300533157 274.644098592 227.568493519 213.402628691 225.322470374 217.755802471 204.447573478 196.952318526 187.785101531 200.750776119 195.402161884 188.716848817 186.296039441 183.716235632 180.402249266 173.658529336 167.518971554 150.163352589 137.42744998 150.428436363 174.868367493 262.636997359 328.215094383 385.24526806 439.362504637 630.447176027 702.800731392 830.963676332 912.498245651 1114.2841169 1214.21281168 1514.18352743 1638.57235435 1786.35355512 2164.08353663 2550.22546414 2694.12105562 2806.71887006 2861.37033393 2949.24336337 3181.67911938 3623.35011922 4087.06428477 4222.93684697 4145.52708204 3904.91199978 3777.18375025 4116.68120904 4883.4438987 5587.50268456 6128.59093014 6430.25392033 6779.80324486 6822.60903763 6903.76775714 6968.01547435 7112.42048322 7105.91315855 7197.49751157 7281.25135901 7314.92178462 7278.30432872 7076.35678453 6579.70804167 6358.50828699 6684.10810315
4234.42807116 4310.87737266 4369.49552905 4410.77537871 4472.70196271 4521.01576106 4585.44922819 4611.61394597 4537.09507951 4359.14771108 4146.72789649 3970.24402031 3871.15114231 3813.42718319 3837.08749411 3764.05168632 3605.76272579 3297.40818615 3004.32989254 2635.3749553 2417.2694206 2154.61142211 1981.41334485 1820.18819653 1538.4817885 1368.38867724 1204.65428737 1025.7057698 805.66913421 675.114353874 625.753031371 600.518041641 638.74411636 660.574624152 551.388605732 524.807107456 470.870942612 429.236657027 397.083864213 359.792346421 286.48799838 234.756866536 179.255396394 139.967037272 134.173739432 144.863432318 164.46422696 157.051279494 175.683701518 193.217645507 192.189799894 191.302915343 196.674004339 196.81265487 203.884473977 208.6361642 265.590008365 293.513554788 290.829898517 295.858764924 312.00415321 333.693253623 443.638266184 555.206631147 634.584201102 652.775097099 578.062541757 551.611102622 565.840503507 959.709045752 1759.85043438 2345.61972879 2760.144055 3023.30026755 3457.96054972 3509.78504896 3645.91071508 3449.59532777 3134.28893746 2806.73047097 2675.8635236 2841.9561727 3100.0668092 3302.42550312 3169.08168107 2730.46920443 2223.20136159 1894.70456457 1936.31732723 2603.4708661 3040.66134529 3316.08689549 3539.15783963 3005.11464552 2804.36023757 2346.7363237 2173.19848161 1967.68146342 1486.91380066 1247.15581761 973.043599677 694.760412209 476.00228652 409.469269449 485.94550655 536.023328551 571.6978752 580.651110965 569.117639616 494.878711009 476.547278552 477.009437169 500.087380631 538.373119545 595.755680245 640.667886691 655.800753542 737.830100279 784.0151037 844.563742954 901.519058248 980.41120151 1056.83897588 1138.25444065 1229.72545199 1239.41779814 1213.70337479 1179.77928985 1161.26029765 1149.9763008 1158.67848857 1173.40116907 1191.1093369 1210.70360523 1246.78326253 1329.21750213 1439.84128432 1497.72971179 1422.16763087 1263.77594769 1135.60922206 1068.69804226 1046.87159475 1053.27536178 1006.88265147 870.328971468 730.359402974 635.668882427 560.429093782 501.326148522 419.38978344 385.497061713 357.345066011 327.448640891 284.948591547 226.864348365 181.613509939 170.337537549 180.51284969 174.916401391 167.415870776 149.827184906 140.025757582 149.794779989 165.009910133 137.437801885 134.836825369 134.124275932 154.343290756 148.657486155 126.339758868 109.49173058 94.4717354869 98.666089624 123.84279753 179.10650062 289.429575979 349.584861719 401.849997821 591.5677851 663.6934291 791.230014415 871.293430077 955.203530822 1153.6841113 1439.01830259 1543.46349897 1663.27787167 2002.32656717 2394.60538204 2573.23313506 2722.36884781 2876.37603018 3098.70163843 3336.81578205 3788.91020982 4188.82041576 4601.01989366 4635.18810161 4575.09783506 4600.53516486 5161.49061591 5696.59607029 6371.3925144 6819.09572586 7073.25059082 7157.54430351 7302.21719977 7372.99737247 7609.6843505 7924.5518217 7850.53594858 7742.90214383 7781.13695541 7810.11445818 7851.53129432 7917.53844785 7688.77408825 7409.77024016 7376.16103007
4298.33555114 4401.50714093 4471.53454906 4493.67719267 4475.43244345 4451.30488702 4430.72564552 4416.88458845 4324.87104043 4177.41180301 3996.56182292 3831.58669698 3709.31658562 3581.9631783 3430.38408711 3331.77385653 3161.24152198 2915.19768056 2701.98056042 2410.07333517 2253.0066105 2032.13671484 1882.35558067 1607.70834863 1471.13679373 1296.01147027 1112.53486681 916.624422956 679.780698731 531.463682512 474.433931513 500.212061724 545.000937457 528.269384126 500.971944082 469.590419691 415.987161491 389.824209235 354.740104323 301.558621619 266.756785738 215.210061329 165.939596627 128.74725764 126.52339438 136.329033059 138.233671985 137.194110371 132.34318566 126.550678229 140.970171268 140.556496825 146.334704824 152.011611033 152.851480856 157.109460362 221.381358549 247.684765228 276.295653162 297.96783912 362.083570298 394.099032311 688.932232281 609.931828962 1010.20164683 945.58190932 722.098009133 470.853570908 477.857116428 935.380873865 2131.96948242 2905.40901778 3456.31573694 3611.74227834 3850.49211081 3949.67237995 4151.89119595 4071.07496145 3935.06264957 3799.93219758 3751.95507376 3833.35396721 4406.02546098 4490.20645395 3964.45650587 3714.41154362 3437.84707916 3353.6449903 3194.93395007 3471.74857815 3722.94933777 3863.86450684 4016.54641591 3835.95706742 3109.03291657 2597.24547947 2376.27991913 2132.54542447 1617.46688295 1378.82523739 1103.50828389 844.293653972 645.487245981 531.872602492 584.014458191 584.018442473 600.259563137 602.358650076 582.210289146 556.516937238 498.021577037 500.115078269 514.250312224 537.100418518 564.394476441 612.644788105 617.252082458 651.33728074 729.317739549 780.821475312 823.938698109 879.565815745 919.323217875 956.179868936 1012.92372675 1036.78732029 1047.67140725 1051.83544055 1060.09774018 1045.16619476 1049.61831362 1086.27328606 1105.46659728 1123.44953762 1159.99223234 1217.37475483 1295.37357278 1335.08278398 1267.34597129 1150.62107878 1052.84447499 981.054886497 918.130623601 871.596803571 762.292243315 636.225310249 535.425846598 493.278982245 477.267100335 449.61714269 369.84896099 341.176935951 321.637868726 301.057264615 268.593119378 215.986000064 178.145249008 166.617609193 172.186587581 157.393177662 137.799133883 125.777288415 118.80265915 113.827343796 106.728187792 116.734407774 114.072246425 114.718168561 117.184767851 117.087879667 103.424776959 91.5711050309 78.9959929085 80.0780444588 109.177297727 163.463980436 208.704442172 322.012255787 371.723462276 422.022993753 622.369439735 746.872553387 823.828579549 901.52843679 982.360671156 1346.88019761 1423.27694242 1670.43025339 1770.55740491 2136.73339069 2352.2379666 2582.65001841 2866.18433315 3223.89094078 3498.14983343 3926.96536169 4611.2960447 4946.2843829 5070.29133577 5215.26174556 5434.51557816 6042.14476035 6540.68457532 7188.43750645 7411.80328998 7588.58645258 7672.83307416 7799.91293862 7802.68580539 7992.69861394 8051.27876776 8039.5969245 8141.19772921 8233.87094616 8246.91030816 8262.32838974 8372.47317076 8292.2907891 8058.45757007 7977.00414897
4393.08828428 4551.27700572 4664.44429576 4686.75887481 4606.63150852 4473.21174735 4346.72563377 4232.01834136 4109.89278355 3958.71361488 3792.54925891 3671.57243733 3416.2900317 3249.47969209 3106.09283416 2943.17754755 2750.05222556 2562.32482358 2292.93347057 2190.28937837 2094.41747317 1986.18134236 1788.01039778 1541.35945212 1419.74728002 1260.73766409 1087.15436844 891.978704448 649.575080351 494.15408204 446.608701021 476.041501184 505.411534025 496.032124174 466.498304051 414.457111143 360.5278799 310.427761014 295.569771235 278.024051376 252.404001307 197.142219397 146.27680834 132.820362241 130.646092679 134.459161474 126.584113226 119.347749521 110.78639076 105.05223177 103.160922479 107.575053341 119.271422569 112.765191927 126.109863057 118.630452772 176.579879621 207.741165816 249.479551525 289.483337932 389.725651788 449.429998403 835.89252965 938.10800322 1078.5111924 1354.36837494 1093.30417471 731.232742 771.984458551 1264.92177269 2526.66913432 3243.24636588 3781.87007915 4158.88334139 4689.03607104 4794.30312525 4560.48190003 4547.52518568 4531.64167137 4544.44836183 4600.02344391 5066.98370007 5284.85610001 5346.37909938 5307.96552329 4742.31130341 4730.36906061 4701.65867162 4720.26850394 4415.65002889 4481.63572756 4467.24560934 4523.1346799 4252.73840911 3702.54619096 3445.12291079 2570.84527238 2296.33402368 1761.38344175 1529.98175808 1302.17828199 1079.03872766 912.355839917 833.955517488 739.568570264 658.522717034 642.086817089 630.89058766 612.293375224 586.55475285 491.152968445 509.872550176 516.033376923 527.305394127 543.283392503 551.211405483 581.16264884 609.447327953 639.149419598 720.641823079 753.877652961 782.271361151 808.705349765 815.624033003 846.983101917 877.184406298 916.233760505 940.812444307 939.585170455 963.100072547 971.498325245 1007.53056029 1025.23447257 1033.84353177 1049.63677157 1069.4926125 1105.94799043 1104.80462721 1083.76303663 1015.19947411 943.660055572 863.775742397 779.888248096 714.751006184 610.612334323 485.679259391 402.237674428 400.291294311 417.561080983 372.586547016 325.955215559 300.671878566 291.870680439 282.869366713 261.566706687 207.400816326 170.821750955 163.258051366 154.548410619 137.009073936 112.585355822 101.371458157 99.4197302607 99.090934203 93.9858185101 86.5294576685 93.9820836537 96.0913432894 102.545269346 99.4549286728 100.134161134 92.9533968326 84.1884865457 90.8532063824 116.796241568 154.005849515 188.373253728 282.603967515 321.055234373 389.95758669 578.807266191 698.01440236 768.741666154 842.27878761 917.607488141 1155.50002203 1271.89928767 1293.24774084 1643.09909147 1763.13606508 2024.46435759 2364.04033922 2825.2184121 3283.22619564 3751.30616265 4103.24053927 4786.61969508 5416.84189986 5694.99304164 5972.50997829 6424.49630919 6782.31630211 7278.62754383 7627.57797505 7723.64823923 7842.64699258 7977.16137338 8028.47944405 8084.16365914 8145.13974047 8222.96544825 8256.85620327 8352.6744441 8364.13409757 8379.18652657 8411.04910853 8408.36308764 8441.72157443 8526.34218388 8596.71457476
4499.88971235 4747.15969615 4950.83921761 5006.98252535 4858.1780626 4589.25808205 4331.44886711 4121.59331795 3948.88014996 3786.17793809 3619.68066325 3385.7143971 3230.53936738 3024.4275414 2843.7834138 2634.63589203 2399.3264046 2137.2329972 2055.62201267 2004.46742787 1961.55201255 1881.18339628 1594.11105656 1483.50787623 1381.38627551 1276.95921705 1065.04661278 900.131604219 715.858702575 552.825991533 501.213313841 498.376369701 503.628404776 480.397411041 397.602169078 345.600051811 285.993101092 272.198559648 268.244575654 261.17213411 179.584653285 164.081157895 149.186193369 134.785079617 129.644917416 124.319626061 112.591467 100.937514185 89.9674267398 84.5726371604 85.2638598979 92.2751186631 94.9492244873 98.3402029442 93.3565560342 111.07611078 117.128285474 150.342782219 202.15499819 269.449314253 415.968967799 840.053330869 952.820314662 1501.02608351 1677.31417556 1655.97007214 1551.86540443 1469.99356462 1587.41178903 2114.76949154 3079.03932144 3642.61839859 4116.13417455 4741.3642154 4970.39958434 5066.27719784 5018.96205499 4748.97477218 4772.99469146 4935.05528853 5511.24704332 6016.55951803 6209.71499321 6154.79501738 6177.57489851 6280.31499214 5776.29040095 6183.19385068 5809.86736433 5843.56320784 5245.19350103 5218.79043118 5378.43875503 4675.92156371 4024.04175019 3690.0743278 3341.84778724 2445.08181815 1895.55992779 1667.8497368 1460.00905491 1287.80653919 1153.62065099 1065.78016686 867.460849132 709.529885147 702.053900825 673.879192563 642.553765141 604.381297259 489.655838259 504.179696731 503.163298313 506.32537391 515.504465424 519.901910795 546.563620283 549.194669916 575.002935826 622.113939171 652.585852781 719.295435784 736.244985328 728.981300762 738.788375215 764.215768103 806.670858826 843.128829823 864.75275061 893.704204171 904.582330719 904.816249631 919.814022062 953.460917352 948.711093545 921.060759009 933.301674199 941.690886198 938.035729931 896.279875494 845.756284916 743.300177163 673.277669306 629.529206875 533.321900536 430.493199625 362.702026336 370.353703046 381.090092494 331.362628719 292.7273166 267.713902338 265.552853868 256.304978733 207.170826922 179.079217144 165.570431863 151.742349954 137.159552855 109.497018785 87.6529651942 78.9552655302 83.5949385743 88.4085089809 84.5253064922 75.9584119619 70.9622981074 79.0364320485 79.9599275631 87.8365299819 99.1210216987 96.8261816687 95.9251508761 111.669711165 138.957175388 167.768455334 194.415476268 215.252417179 234.42935547 334.506910973 505.563065955 616.845448246 707.333716793 776.278906832 850.264245487 1050.79767843 1144.52419051 1096.84604069 1229.69969735 1301.67706368 1636.14302906 2126.97302676 2747.6044065 3351.15372816 3778.16288815 4264.33958535 5015.46488641 5586.68715742 6061.76668162 6410.89882039 6789.16929066 7257.38730993 7663.15094185 7801.09564798 7865.76272462 7998.63352887 8129.24369845 8193.21176534 8181.13749686 8394.2256091 8503.13200386 8608.5018715 8702.22735884 8570.43700124 8546.74109908 8640.02929997 8689.63110217 8840.76568106 9075.2499615 9063.58629098
4570.68130114 4922.23391822 5253.08853039 5374.67179693 5146.54367603 4717.80099718 4325.05831139 4027.96827176 3704.30343387 3526.38311441 3344.76207255 3180.66441965 3019.37435905 2795.79037896 2597.89796842 2366.9220564 2111.38916572 1929.58910158 1859.76971679 1872.73628746 1866.60107386 1702.95147233 1533.34252963 1430.20455589 1307.77752839 1237.12663184 1116.89259463 979.684168461 825.27585489 664.102471871 552.220692577 522.381290265 496.504218849 413.437720134 346.133004514 286.695909784 243.61622365 230.426668234 224.538145238 215.68286718 174.949648367 161.255697715 146.851607907 129.118642817 121.157364774 103.456821846 92.203864896 79.3700926858 71.8659960431 67.0842367457 70.5536772025 80.1370776222 81.4082826756 88.3711404237 79.0713470811 79.9925034669 79.320475813 116.241356385 182.679730004 249.433519287 783.056071881 922.460263472 1054.77325004 1678.69342676 1905.10509578 1976.6290935 2011.05422818 2070.08841193 2598.86539313 3062.90227794 3502.23158162 3956.31056334 4822.45027859 4960.35139873 5169.79993634 5218.91347054 5233.7633727 4623.63289353 4532.79349042 5112.75989898 6058.01224853 6565.24342115 7039.41539467 7191.23882994 7233.36006741 7060.73034948 6989.21051156 7405.81579089 7031.88033201 6651.68491985 6498.48475402 6148.48153735 5848.5885042 5008.71920834 4303.62505501 3908.43739969 3507.95679047 2818.88469931 1998.25119314 1752.6584489 1550.85594103 1408.20922665 1302.21029756 1048.09692037 978.771915546 761.694913847 711.359071612 665.65767359 628.107331758 594.010157943 481.688256681 470.472881385 480.37559573 477.136280691 482.771419687 488.681380835 503.969223244 514.383041611 535.626717643 577.481834603 607.705681382 642.294130371 678.814238885 694.275786466 691.398625831 716.98298378 748.92045301 778.048612537 807.723619992 823.942552144 840.03864659 848.523348876 856.395007558 865.790091638 878.15584076 847.309559461 843.855057612 851.696109358 844.744324408 805.268035608 724.290903526 673.234543743 608.40082879 556.994633399 489.06192882 431.065093201 385.900697469 377.543904867 355.901987232 299.653370965 271.508593381 264.312011777 261.615765657 235.646587944 199.56953351 169.777027169 150.58711447 136.901597433 114.056575984 95.7976385182 75.9548644419 68.471764224 70.8455043479 71.0417462741 68.6036267418 64.9790969558 63.4373127482 64.1585786033 66.7249370594 75.5722442647 81.2416947286 100.154084283 105.315630655 132.419172331 148.925824518 181.655599934 199.581560183 212.499710353 226.969893688 248.716936602 371.264593644 543.778390884 598.925560019 661.73849878 870.280082054 997.137632498 1015.06311502 953.418287035 818.777813666 839.75647192 1273.05964442 1932.74856795 2696.11485599 3240.52273248 3884.73793742 4653.24927578 5213.57504751 5616.11855362 6273.17182962 6777.94021705 7311.65753777 7639.38751882 7796.20970644 7819.29543375 7925.90098928 8153.14027453 8347.32731908 8277.90063386 8242.47800952 8582.65173736 8921.81927395 9082.77743495 9265.24889335 9230.59599365 9162.52366017 9252.64985423 9283.01819704 9328.73130897 9482.64308946 9415.78251545
4514.94456704 4903.05366851 5355.4938145 5540.76083571 5228.57801352 4654.64012335 4155.79716842 3804.90898338 3559.67809926 3367.6837026 3201.43096925 3041.42355122 2884.19400638 2661.43530429 2469.56993285 2238.19842072 1983.43976117 1792.09156406 1759.95032315 1785.7913319 1763.95965122 1650.99479865 1487.35586038 1348.78575993 1297.05326519 1260.52261932 1174.98800443 1058.25522988 924.557332524 681.125131858 609.812894058 545.87217537 494.788795811 394.971184664 328.149648378 245.452060954 224.822548545 222.425729733 217.056554902 210.06170201 168.740118375 152.578355125 130.92274347 118.551972156 99.8549986596 89.5708966194 79.6391030314 56.6655580211 56.2104177499 56.8893392601 57.3568259301 58.3204254929 61.2370995151 65.0724608202 76.2430825826 69.5234715254 72.8608736892 112.319193932 174.983533173 242.340398599 732.321506126 987.513637574 1140.31485181 1822.91273694 2500.21699922 2717.08506908 2792.41308481 2862.68524888 3275.42821839 3661.47372848 4226.94064164 4820.95735111 4949.33105099 5239.0707464 5259.68719552 5552.53923505 5161.57158618 4333.62521916 3985.60553549 5011.34115187 6301.76393697 7350.25872569 7796.54212558 7819.21899015 7667.90562237 7768.1692136 7936.55260974 7904.8409348 7884.99620324 7559.65127799 7382.50830402 7009.9728361 6192.67599404 5430.07701045 4544.88943277 4099.41599554 3650.01250158 2921.73100763 2064.61823285 1763.97409394 1536.3658391 1414.00059578 1340.45850531 1121.86040688 1032.80188109 802.451509582 733.243010051 675.384349243 596.109901238 556.895228896 470.195261508 455.761588223 432.006327238 427.819168684 434.936186077 444.187999804 468.436359316 486.478598095 502.250579229 535.400380908 563.944174427 604.353663972 644.321030083 676.34941251 688.761256419 691.667897127 720.190105431 737.681996264 753.99666982 779.057191184 794.894796949 804.020601685 812.997705473 796.413740878 812.547183904 825.46637369 821.732915364 796.702262824 756.078835387 713.14443116 662.290178622 617.476398866 557.393564815 505.650684844 469.754790289 436.956412748 407.568921435 377.687820047 312.31923186 282.13454103 254.937712583 249.910032102 238.906484361 193.609077568 166.020322134 135.283077039 119.5711949 104.310468282 86.8126303667 78.6623321543 72.3600394392 69.9713635856 70.9254631214 69.7747229786 64.0633821219 64.9108804559 63.8285559632 64.2098360681 66.0899699251 69.0941719799 77.4811778773 84.253515747 92.8164057835 144.143465154 160.838691901 177.538840984 200.735177463 205.468634623 215.40312359 253.994858024 385.09118037 492.850706704 523.72623398 570.090427462 694.755295118 929.775517905 984.135654379 914.560138538 715.863848266 684.275944925 1192.13747587 2050.3297144 2784.31385077 3363.60526845 3836.5746681 4798.22744852 5319.68552284 5752.96232482 6413.66983374 7126.29232524 7667.13859712 7840.20159888 7978.09747446 7982.54648912 8109.62543765 8332.85927496 8606.67477399 8745.50301199 8822.21589577 9205.12406719 9499.01621797 9553.81863156 9643.76797921 9828.65717261 9687.84634651 9598.99141128 9639.06716158 9579.19728836 9521.68862009 9522.11471525
4164.1676985 4647.21257223 5054.49941802 5199.40013778 4892.11173171 4366.91610575 3928.86826115 3620.32314906 3400.41010459 3223.12934461 3073.84983494 2925.41965584 2782.19807828 2577.18433136 2413.70059048 2214.02333143 1988.16330761 1796.68431054 1772.67848079 1775.00767419 1661.83235234 1546.47718465 1414.06550891 1302.68717712 1285.84224273 1274.61708414 1209.30597832 1054.39285494 923.292587279 732.012988461 649.600634915 557.707386858 491.947829716 341.263542657 289.419738013 249.397668781 227.229507015 220.692062524 211.708430144 166.801325553 142.461192519 116.907288457 102.206255671 79.6612598588 62.5289768804 55.70599754 53.3709945059 52.9101757759 54.7988309867 55.984082466 54.4949635505 55.7277619237 58.1959604515 61.4801484111 72.2874619182 75.63856948 101.847846066 133.200919352 183.281400824 241.435646447 766.570276087 1032.58910901 1200.91435524 1909.05475371 2674.81065788 2834.07201149 3019.3672676 3402.82803269 3122.71149173 3097.89542549 3678.90817287 4639.14071139 5266.873864 5380.96208856 5286.53643299 5567.30187443 5551.10280083 4623.94116272 4241.75821852 5618.56895201 7180.6752747 8047.06314037 8432.19082174 8408.90334314 8220.72306307 8463.01478345 8441.05920859 8120.68047186 8036.69430344 7872.66321494 7667.87445059 7346.49963303 6846.54050553 6097.5271405 4745.3527983 4267.06649755 3784.43287775 3083.48333904 2547.26730026 1745.12938701 1419.08469261 1313.36753155 1227.36216719 1158.18130309 1056.15139727 804.033239198 734.536318517 669.838203684 585.329222501 542.283627637 416.360368527 422.728676157 410.831192803 415.29401191 410.357867462 403.701687086 437.824676647 446.738117952 461.521149817 482.868130356 504.254704946 541.033326722 590.828894638 635.483103235 650.203767439 650.561868815 646.827565533 653.98997259 688.604820113 720.116062485 725.464795118 737.973572876 748.544863621 742.239547807 767.889226987 799.740158107 802.824544776 762.729845281 704.616023932 642.578117745 606.420081851 577.046339112 505.131059205 470.518897501 451.602474283 429.584462292 401.964460729 328.396263113 285.998062182 256.424450792 233.821186062 189.293040054 178.789956521 162.834320561 145.081621676 118.059624718 106.351901261 92.7104353983 78.6896056524 74.4200017217 71.7387203226 70.2361661433 69.2613790609 63.4543512732 62.3280030037 61.8931877363 63.9057322814 64.207884814 65.3079839249 67.5851487168 75.9182985811 83.0688037877 91.5397822504 131.832146296 152.555580284 182.656735888 195.235441586 198.592694798 207.970224837 246.371782841 371.944617112 446.06490338 433.413148253 452.599942443 587.446762013 866.657982941 1004.87400122 1019.92080564 972.817864891 1008.85254579 1518.24612561 2368.33084983 3049.18958351 3577.75421429 4055.48342848 4751.60332861 5429.83469001 5879.45225528 6568.88508468 7323.90821926 7714.08496833 8165.20874587 8221.86235736 8327.69387153 8465.78821885 8774.68521423 9118.00552642 9199.1520504 9482.26314624 9666.42537523 9740.69336616 9776.80675054 9828.96198034 9854.69793362 9864.02370632 9921.66453066 9934.44401898 9845.34278807 9722.52995269 9672.58205798
3815.93119082 4108.2445355 4352.73875027 4405.50026095 4212.68232647 3876.71919738 3603.5628442 3401.70993651 3236.10563411 3087.14440429 2954.8923109 2830.22277362 2707.09908987 2531.43684072 2408.87360291 2146.71209722 2009.27416733 1895.19322648 1796.94637697 1709.62717947 1621.20357657 1506.3391007 1386.3271455 1290.28697207 1290.00766346 1285.74520698 1182.74032352 1041.42687304 906.651764404 708.079719344 614.674986487 537.606394223 400.020036847 337.156775025 289.387580402 254.275000048 234.489157341 194.617930559 180.116698789 147.373992824 127.752718525 104.433607564 91.1392868553 70.1081636073 52.7718324483 46.7491128687 45.0818721519 46.4778947356 48.5558660788 49.8428313419 49.1652605954 51.6311512862 53.8118810397 56.688666904 59.8630340636 79.9098161483 125.551733032 155.000432581 190.036629355 236.468371752 782.454786812 1050.56520349 1396.86277454 1733.86086078 2768.81811015 2954.18008226 3551.92929765 3443.16643493 2884.37326139 2422.85301707 3147.30936435 4597.24808394 5388.54172313 4904.83386132 4613.10653788 5555.856641 6350.17869496 6370.86437515 6467.37457378 7401.41965742 8697.80945573 8905.21499805 9065.97815224 9114.20711566 8734.71501474 8861.35267137 8897.19350141 8284.10581618 8011.66583833 8012.5775541 7782.67501178 7463.39997247 6912.5921749 6186.7666341 5266.43970905 4448.61944287 3960.2255045 3230.74923748 2623.6803178 1945.81824991 1322.23360882 1214.1329575 1226.08958502 1159.79299674 1037.42775139 782.56636088 697.757798886 647.476976434 563.524372309 414.928013983 405.006157096 401.965354855 406.906165251 415.756952309 413.919176695 400.573355389 402.110720931 441.66146671 460.618474373 466.500054801 472.647967017 492.521991428 532.986467565 565.02282134 600.251381433 613.569428563 636.723486404 663.063911865 670.155730969 648.893290228 689.528611852 717.984174757 729.791846891 729.773753935 732.410325668 742.906071578 728.435164923 682.923519316 624.736370915 590.560855297 567.911123331 543.645747258 479.624754264 445.491785993 438.039089028 403.263494599 358.308222657 300.426195972 251.714248616 193.110374847 159.147506429 146.304873465 140.729414752 134.84572802 113.357485281 102.005768761 83.6969378686 73.8603948362 69.7031363543 67.7136966239 67.3821445027 67.0845267535 60.7824999285 60.3722334969 59.7288450614 59.3431814598 62.1413843729 62.2430102819 59.936181615 61.660874482 73.0656309371 78.4642396475 87.9412083022 129.293556456 149.166597525 171.519314007 195.021606309 197.798385784 211.626093998 253.263086246 375.462754836 389.914627084 345.185238433 345.071664563 498.366363599 724.21173709 1048.34470314 1203.89908052 1266.87976272 1570.54076188 2100.61770539 2737.28823412 3413.56728261 3856.11885242 4232.77593328 4626.19596107 5323.68843006 5956.20720658 6456.90673125 7564.08621736 8164.5480521 8491.31236603 8616.72952241 8669.72520927 8864.84186406 9165.2650944 9358.74232531 9623.89200743 9865.80101417 9877.25534248 9794.69977344 9910.0814352 9998.7961969 10000.8839435 10045.3989751 10065.1826504 10027.6211782 10051.7814707 9969.20912061 9891.29621329
3435.79035933 3592.81640442 3687.46790232 3655.38272786 3522.62661162 3362.8833169 3241.08967902 3125.40524653 3089.34464265 2967.80170007 2845.85047674 2740.7958295 2642.73324488 2513.72277744 2438.48115422 2255.97279337 2119.33178733 1915.55865038 1825.02779203 1678.19004209 1575.97143747 1467.12799734 1371.19392764 1266.06706206 1228.36512302 1211.33999462 1126.39688741 1007.94864287 834.520285043 700.856421641 610.867027639 486.540700418 395.600312654 334.256613342 283.548647661 247.343719526 223.137653002 166.322874465 143.753763512 131.652129304 109.429375886 76.2593865898 66.4339190433 57.8785704266 43.1146463575 39.5695048662 35.5422740028 35.7711499472 37.6453592479 35.1996848127 35.4704667568 38.6513861665 40.0860904935 50.7448172454 62.9029965313 79.7003160284 84.4825425758 88.747104651 167.13537005 216.841674548 760.567261676 1098.7232181 1392.00797859 1746.3115804 2529.3371828 2976.49761279 3935.70428497 3849.89533643 3308.40981137 2951.50328268 3725.42802328 5272.78419023 5573.11391352 4294.80430052 3484.71380295 5488.1135328 7457.9938663 8231.95405764 8701.92952495 9398.27798758 9759.20535013 9830.54073998 9881.34371248 9899.41359802 9507.06948705 9627.44675383 9235.97210076 8553.86314777 8205.81373759 8077.08971348 7805.79389475 7393.33211853 6956.76686933 6333.82176996 5698.49305447 4659.33803231 4181.32080601 3443.54607409 2874.18491593 2158.1729199 1541.38896907 1286.21830057 1249.66549178 1122.80008166 839.25582771 720.351498197 647.889328255 595.239347268 530.717502927 396.93203897 388.616588346 387.392407853 387.988361808 397.974945623 387.904300035 386.739932939 392.272627135 420.420643627 457.372469628 469.328441895 458.808674574 457.656378463 469.963198918 505.876097962 533.225408061 580.836142596 632.805056726 687.905929884 691.216346163 657.387943672 675.351919572 742.42389632 757.952038397 724.735207229 693.82052646 682.221958625 664.094236587 628.607452451 576.682985477 548.740512064 542.898399826 516.567173588 458.513523853 434.359540143 431.818797022 376.107283988 316.854387053 227.810582858 194.418847703 165.72791362 132.221735424 116.677634682 116.85660104 106.653698429 96.354288375 87.7078258875 73.8930991123 65.2773542978 61.177315985 60.7333388239 62.0713733037 57.1191674599 54.2337234588 55.1734730245 56.6634287525 56.2877860011 55.6357521923 55.8254629775 56.4158241636 58.2453269652 61.3829874694 73.4758039407 80.9875911212 120.262210035 138.898198903 161.66155411 190.765535081 202.195092444 235.754797699 277.097199721 321.260453213 401.48438992 350.767480605 344.777014231 515.113744778 751.356203196 1117.33264546 1329.84721697 1577.06248897 1982.49989622 2706.69564996 3261.9360041 3742.64292562 4013.19816281 4367.47549472 4707.88419702 5380.92686309 5915.50065222 6541.8587343 7270.01798824 8332.8858185 8861.91560083 8956.62668129 8916.92414078 9136.72403033 9387.16000708 9688.3830183 10000.478991 10313.552793 10387.2881721 10319.9191385 10319.6467295 10301.5382985 10281.0930442 10309.9721339 10307.4292405 10259.9701986 10293.7711815 10241.6229643 10144.4996023
3107.09156773 3191.93672408 3236.71081558 3219.129234 3161.87530951 3127.74377712 3084.65664202 3004.30798909 2892.43727871 2780.57700009 2767.36942799 2679.52509174 2602.32202947 2519.15411656 2444.05946888 2392.66361721 2169.85537974 1988.24546184 1839.09706835 1656.80282584 1527.57248813 1421.9954888 1244.07986878 1134.90323904 1123.62018523 1096.25316134 1029.47102226 879.311316849 795.052157427 677.658589921 596.020812469 477.077502928 385.191865322 322.703885324 270.816814286 226.115188207 162.91890103 129.056941114 123.577083811 94.3966169289 78.5542870983 71.1135992243 55.3031909071 36.6281846631 32.0382787336 28.0852096963 25.1117992803 18.9822053701 20.7721475818 23.528882199 25.5353417699 26.7061721348 33.9298528142 46.2701923044 57.9854931738 77.2671924146 76.7532413583 75.6357309612 80.7437827537 169.21532224 691.338988279 1046.80689385 1569.52371232 2016.17953467 2627.87111583 3152.34299192 3845.24268476 4043.97928874 4190.56840901 4592.36447475 5273.20349313 6468.59006643 6863.62144955 5740.38471578 5188.26497235 7091.4539895 8942.75797466 9654.18963279 10187.4113493 10096.0103281 9905.92823861 10000.8116668 10107.5775579 9986.3724602 10075.7856051 9901.14563451 9749.36761137 9310.38733251 8732.15169878 8543.96556576 7726.53313904 7171.44496227 6719.21910455 6284.63039806 5546.38839419 4923.97940593 4137.15006776 3850.43709627 3257.2897193 2584.20578693 1990.07403833 1399.25166269 1257.67671987 1019.30963065 812.518970317 614.972334083 576.802238519 548.011048722 421.084069246 374.481731496 359.426473892 357.832358336 362.084592759 358.566095445 350.483202184 348.642814015 370.120525041 388.402665441 418.378267186 427.574341243 398.373407099 385.682643628 379.88309392 408.413730595 440.285132648 482.188227844 577.853746024 663.017035411 673.102631435 639.079302351 656.734512281 718.816618619 739.590955771 680.403542055 633.307561655 640.952834976 621.785562624 599.289409502 560.291500575 539.596480114 540.818168804 493.206383749 442.990359782 410.420437248 382.226635075 312.826471704 243.485648736 195.102490244 176.005737509 151.893724874 120.513615743 110.209556042 109.282402827 93.7012828307 80.0776473558 70.0458027865 64.1397581667 59.6414483722 56.9654922085 56.1704208478 54.316363624 50.9535759933 50.4642441162 47.5160301553 48.4566870946 50.1143728389 49.4786071568 52.433816542 52.8848739313 54.8403206585 56.6780499269 60.882719235 71.1595379362 104.402016511 121.410413415 145.183708338 169.352239154 203.630797947 230.08447618 301.591803594 342.337818256 452.586558273 443.714548925 491.253986949 618.167585553 803.304440357 1146.27283847 1435.66176892 1775.22119405 2280.51122835 2842.24191416 3655.68272377 4168.83238789 4342.44387053 4450.45963786 4985.18549969 5466.17158008 5883.80976437 6342.73741615 7266.66343625 8197.25993012 8869.77188406 8983.30437964 8951.39227664 9253.19858282 9617.75283158 9990.25894898 10406.213832 10764.8872815 11200.7383962 11297.5568377 10971.5337953 10752.0876516 10678.762406 10636.7081356 10866.0620146 11089.302863 10828.961304 10511.5618405 10081.4798636
2857.54671748 2917.32798921 2970.4622998 3019.63310601 3073.31737619 3105.14800094 3043.577489 2862.13298538 2726.65001471 2641.98044544 2658.55668725 2574.92857733 2499.87513335 2472.80924152 2569.17425919 2524.77835123 2296.787497 2029.20752912 1762.16500166 1495.64519293 1374.77934436 1258.49828489 1110.15916291 1049.36810417 1013.32634682 977.222205444 930.806944925 812.355594209 723.386503541 652.647453212 537.917284167 465.204692643 374.092613893 315.800993863 249.5855976 189.298158063 115.926702407 84.2740998507 81.3470260149 74.143327248 64.3292026606 59.224289658 44.8847295887 28.246995007 24.0002462068 20.1291684123 10.8243959958 9.18635337193 10.3718161739 13.7494755251 17.5290309098 21.7909900386 27.0943138819 30.145403371 48.3340442894 63.9400638652 59.9714672643 54.2176627135 102.588941679 205.036979135 710.205633221 1422.98348101 1670.25175165 1896.42066858 2554.98499809 2606.10947079 3235.43707465 3814.88363642 4915.20509533 6137.44525128 7150.03426248 8336.11215785 8816.04093065 8930.55091759 9231.55801 10400.0438957 11116.4137901 11600.1164323 11497.5966195 10880.1745098 10308.2570881 10314.5665984 10291.6163668 9901.89457616 9823.13791821 10037.864919 10065.6061392 9828.94243406 9310.81256029 8837.89630613 7827.37784467 6811.5863762 6277.25169974 6199.56274945 5583.80388678 4731.93615609 4198.56104906 4004.28064888 3642.18027477 2942.08826242 2197.2902791 1498.06457304 1214.8108294 891.009496078 596.716859466 483.798763912 499.121390484 498.0080239 451.157865565 358.943498904 336.041469573 331.924354517 312.734895166 311.155788323 311.969924873 301.989484935 325.7977041 332.583947436 345.998857259 343.309334482 323.330558133 317.504293687 322.374896954 334.517681975 364.200656831 403.187380367 469.455830533 552.138367701 585.855035632 578.999588656 604.056735161 638.489836918 641.985342762 618.89666567 590.208516819 576.478932957 564.199410686 554.283155927 533.914306041 521.138640168 508.634685881 473.453564294 409.930814635 370.971978933 322.607903516 249.277171255 188.96204034 164.159664646 160.82067949 145.00789652 118.18716879 109.027171168 95.407531749 71.9737505166 62.8167031256 61.7302875637 59.5708603304 56.8927494181 55.140743024 52.4670637825 48.24747576 44.2992470263 43.9325805882 44.4533284645 46.5691021 46.3424590653 48.039839048 49.9150273761 50.757326661 51.7296342198 54.0265552517 55.8881539014 63.0284138109 66.9052078252 99.021755893 125.419603166 154.072703654 186.615481405 234.512301156 320.561835647 367.414105754 518.355891769 601.679616042 665.00249441 775.303927003 912.636812869 1064.60827111 1507.97758054 1786.37482757 2369.30378854 2886.90424376 3745.0274417 4353.32416303 4503.33638209 4453.50400707 4810.34472411 5551.10273267 5952.15529462 6175.26373181 6539.31680414 7596.07618981 8379.45414055 8639.37334829 8951.34984039 9366.52660263 9922.13166258 10383.0472543 10528.9787728 11063.587045 11766.0702603 12009.5616109 11303.024427 10960.3163415 10893.5102909 10815.3661564 11221.5950413 11723.8524227 11135.0282656 10544.0520146 10242.8766923
2541.3647249 2657.54399729 2720.31082067 2821.56588401 3001.77672233 3057.12918506 2946.68434868 2760.79469114 2662.55870739 2672.08771771 2642.46961602 2531.88194688 2421.39485535 2459.62885353 2593.36223226 2579.13068755 2255.03518674 1903.60241097 1584.07767652 1425.37136405 1276.87811146 1184.97399532 1030.45277362 971.097299892 924.225213353 889.049768303 808.569059054 768.356116934 644.685227125 589.72854543 522.568073276 435.701055022 379.460004746 315.863314897 247.391909904 140.018627592 68.1318042674 39.5854303059 53.2488781178 58.1126598859 58.2048569834 45.0252178321 27.8122271984 17.3151203319 14.5499050647 6.57926771812 4.44482726742 1.99778200854 2.54271557758 6.3670425327 9.61192494101 11.9333330211 19.8489979682 25.5424574383 44.5634187318 46.9722639356 53.3889109903 60.8222415985 33.7279863372 351.549343737 784.649272504 1246.5833324 1419.10115038 2110.37961785 2367.05418312 2272.35107393 1911.37436961 2912.20226961 5059.79949593 7142.95973977 8487.4078356 9687.96123197 10841.0255817 11993.5733503 13485.0656453 13843.8539184 13473.6033996 13336.6537273 13364.2253461 12486.7947366 11502.8738345 10829.478022 10612.6676897 10196.7850962 10082.1231292 10305.1213274 10390.9509212 10329.2020618 9797.15626075 8824.09005925 7904.28645774 6576.91296432 5999.59431654 6122.94616699 5721.10847561 4737.14846151 4139.8566098 4038.58888071 3776.55486808 2978.06512063 2013.19616772 1497.43415367 1159.95176174 846.445411256 515.09671199 415.164983267 459.439664855 472.254288871 366.059031902 338.748861174 333.381274385 323.24222017 284.814455522 269.108704238 263.916682262 261.992160287 265.607871247 277.703093688 273.754140162 257.918685678 234.371025986 234.698663572 263.720730902 270.920932226 290.81442549 305.415599805 350.567558902 415.462619801 469.740408714 502.837832751 527.49137723 548.33966995 563.879094519 572.448098731 566.035049121 557.451924799 553.005497634 550.1528485 547.535280091 515.416101354 479.868376666 445.536422844 386.688525762 333.960300702 259.238581508 206.210861491 165.010954146 154.536168142 152.511916694 129.711536212 111.046055097 91.4514873937 72.2480516037 63.2663526108 60.8305214549 58.7437759519 52.50862215 45.0105132607 45.1504966755 44.1989180177 41.6916010297 40.7463773919 41.6289715712 42.918022779 43.8301240122 45.1123942649 46.7564019603 49.2793383029 50.1646140237 50.5935367571 51.4897575351 53.6814608897 57.4781337023 57.6436248165 78.6397299737 107.260625464 143.116174587 176.77112956 215.01053865 310.466705356 387.365420976 455.761588508 664.783999063 803.697176391 908.656658028 995.339238222 1110.71985135 1519.23449553 1760.0019365 2134.93184911 2719.24754448 3505.64262081 4081.5009885 4289.87741217 4288.18285303 4676.86742552 5449.01352849 6059.26689831 6122.39046017 6248.18004014 6689.46270108 7461.27357355 8079.72781933 8653.74365937 9575.38093349 10467.5777775 11043.3859015 10829.85161 10819.9974228 11331.5968448 11510.7234772 11193.3877434 11244.8189856 11336.7808125 10979.9978515 10880.1043725 11108.3050192 10737.4853135 10384.7474698 10051.085274
2496.88686343 2578.23415532 2628.55889945 2652.95741881 2737.36630573 2793.89166704 2728.77476557 2623.454239 2634.43515755 2760.28355436 2777.15855713 2586.56501918 2299.7971083 2280.13800828 2360.5070279 2306.43369537 2028.51655587 1667.08818306 1453.01834674 1327.29736457 1194.55014654 1028.8583954 965.839944251 919.906322571 860.876547527 844.068160469 803.906220082 727.661874908 635.622478325 569.813970827 520.603809453 427.388015187 363.518886394 310.797468002 214.060111504 132.658951416 46.6906833126 18.0483115386 44.0307108365 52.2751675414 48.6008289482 41.6902101886 29.1376973723 12.3446611469 10.3499948698 5.13495290947 3.32851992113 0.603782410078 0.883304892213 4.00153482041 6.83794549091 8.52568239783 15.4037660201 20.8986983493 39.8734828476 44.3628492246 55.274847919 89.4145727262 104.291874275 449.492995186 927.214498519 913.211961183 911.915333305 1656.520882 2255.56832141 1809.43735457 549.330728585 2099.36332217 5337.31260406 7730.33060845 9694.74288318 11145.5867052 12328.1351743 14010.2692368 16129.2784746 16518.7070236 14651.6111321 14791.9168033 15714.2999361 14168.7304183 12060.0535406 11505.9541217 11133.6853087 10913.8662798 10862.3142921 10911.748172 10888.2353945 10768.0127254 10228.2363181 9415.71033885 8509.59698978 7116.37790731 6431.87611928 6374.80929152 5919.21057012 4916.50215431 4156.32671885 3932.69349339 3462.95368161 2794.04882275 1888.7095408 1412.86229713 1113.65641862 762.735999914 581.989568828 492.458523929 480.734974947 391.070780649 352.404616416 334.329385665 325.713511122 291.778339708 256.432797647 234.995754904 208.147498895 203.416944295 209.967883057 210.856058286 219.110391837 196.045998482 170.958449931 178.862099075 203.196844862 227.030212835 216.889157188 212.875225595 249.203157633 317.776662295 361.373527052 398.37062859 446.141056534 478.596885458 524.725904883 583.451033587 582.665271557 545.919724874 537.317565473 582.481920685 595.438909166 518.384761768 447.505825355 395.176681546 342.025805023 276.673537183 222.277879255 185.952423529 158.393875874 145.142995374 134.077805194 105.909541855 88.6796442843 76.6364799021 57.8535976226 47.6334715416 47.0252470166 44.321021924 38.3692805696 36.2335599218 36.7202654358 38.2003135974 37.9204946509 38.5021808643 40.1939377769 42.4825314783 43.9198933176 44.270689416 43.6156091421 45.1494775934 46.0663768465 47.9806531112 47.7348466118 50.5038828338 54.3977988124 55.4367953092 70.0964335898 95.3561221121 124.572744007 163.710715548 204.419672533 305.054043259 373.940062855 468.911095631 624.199524654 912.350849166 1003.49251563 1045.71106851 1172.56136194 1482.23825518 1682.02562597 1943.81534907 2363.31905059 2840.40457315 3514.13028943 3826.27348617 4042.80951717 4526.85246331 5128.33907955 5823.77118887 5984.00343343 6059.85344253 6285.80814364 6942.34528173 7290.11739657 8233.7520956 9321.54298802 10515.6037435 11336.2916554 10838.1079712 10424.1334177 10603.3007648 10665.2056856 10778.7985129 11536.8095322 11856.8499672 10858.821641 10339.7610441 10284.5716524 10187.907256 10422.9262721 10223.9317688
2541.16058266 2707.54804524 2656.61814154 2533.63166642 2480.53385213 2473.55348584 2457.1983316 2456.45558578 2554.95832184 2758.23672048 2783.85709992 2475.11873576 2190.30565763 2024.41752982 1967.07221918 1875.89786008 1614.97920708 1415.51370337 1288.5367198 1201.91321208 1110.73974397 969.124129743 915.876207766 871.398796589 835.156589379 837.775068795 817.478191496 723.464967786 611.010656791 550.512314807 499.826870048 434.373991714 341.753096741 307.387532896 260.842924127 182.189553609 92.6985289759 61.9492374143 67.8701606712 51.0714744216 35.5379200254 26.4498181217 17.4223023082 11.000422625 5.90895043173 3.80860343346 3.81997546317 2.48022227373 2.54055979514 3.11982851579 3.72007392153 5.6468680095 6.8521944839 15.934304655 32.0168841633 38.9497675523 158.417559527 173.823641308 370.871906134 478.883146283 985.794298739 651.234159423 251.316342631 1208.51937737 2461.07976709 2713.91931583 2081.77308011 3906.18250032 6956.37239458 9097.00982405 10625.0364615 11993.572256 12954.9956694 14343.5585938 15927.7647816 16146.0683314 14466.5017596 14738.2676315 16033.1142743 14120.2212165 12342.7749913 11555.4569566 11236.5340581 11524.3708846 11763.4758849 11715.7939777 11474.5957221 10643.1597041 10632.7584292 10352.5965731 9557.59623643 8376.15336772 7549.20769508 7026.76140981 6204.45630153 5125.02478468 4151.12563803 3506.67503994 3009.21171667 2403.05907804 1662.73118152 1282.39823505 923.065996643 784.391942979 675.757734365 588.99909419 507.676831191 375.109093643 334.330099879 290.483723368 253.263758906 235.00466357 207.361774378 171.111151836 164.550893823 166.745713238 153.289795568 156.350942591 154.374682693 159.926190318 149.293076948 156.226003982 176.36359805 188.608976999 187.069029388 167.510727958 197.808145042 248.027584286 288.685550788 333.389811117 366.763249794 402.660447008 476.68854641 592.146234644 592.008016348 516.752690582 511.322543332 575.539057853 592.943216188 493.554392487 393.711566351 334.603901354 289.632227782 243.537724869 180.134561556 148.379865826 128.845327465 113.081322068 90.5076919665 78.8781179791 66.5553721265 42.6962988224 36.5704882248 31.194929937 25.9840170439 27.2947603171 27.9115632922 28.1169649893 30.1638864881 32.8012139757 37.0257012407 37.3583199901 39.0012945712 42.926372133 46.017366359 43.9270273885 41.5501358999 40.9028410991 44.9088656245 39.007045193 43.9616789558 45.9061566341 49.1589973757 50.4483036658 66.7647911148 87.7266188923 112.065984364 148.594847611 185.14981119 231.642933433 355.84039164 464.292249314 646.570913991 922.05768661 1088.43545375 1075.29059305 1155.37124236 1316.69869082 1608.48731197 1696.30806393 1956.88369261 2348.83548831 2800.61010802 3141.55113779 3661.79297506 4185.84609967 4643.18024776 5043.54086703 5542.8810286 5591.95486166 5712.07104352 5958.06395887 6687.38281028 7253.27021075 8569.50239561 9497.10568322 10107.6659253 9832.90672733 9562.69745675 9486.80431891 9929.49314891 10158.3857103 10674.8450118 10744.901328 9809.82128268 9297.2167949 9279.66702098 9722.62755231 10464.069936 10038.7032941
2526.66091058 2815.94095389 2711.77360175 2382.79595465 2251.03803253 2195.07350891 2199.94157669 2214.38248536 2219.38774613 2386.68804224 2393.97934336 2163.00787744 1913.57278141 1773.76979652 1642.95083797 1440.51032006 1283.74510353 1171.02135442 1121.76039989 1081.72544152 968.124210192 923.674466294 881.520881357 842.462445079 801.559899528 800.518252877 773.65219922 681.210578726 566.436256731 521.09464939 485.848358215 426.923614594 359.106944631 338.749955666 307.088555447 235.864380574 162.784325944 125.157734597 88.9019272166 54.9038420767 18.9492443726 6.65698184684 11.4704650367 8.60031606227 1.15406867954 2.43336625859 3.45141066236 3.86508302775 3.54153245123 2.64397503626 2.01408554662 2.07771399976 3.84152043311 4.76501250964 17.1079706798 25.7701126217 115.07460418 318.005286577 568.05231336 822.213292742 1322.29329563 905.416183017 590.650189993 1579.28322615 3176.20511197 4113.68728337 5270.57766155 7029.11825443 9613.65512711 11141.0521127 11829.3782293 12532.4174619 13708.9700928 14774.8799472 14741.6739117 13980.2149786 13205.0298241 12929.0217807 12833.1758829 12207.0678785 11163.8688819 11041.9011865 10907.7387714 12364.4405148 13065.9667564 12316.7901312 11499.0500868 11256.2861837 11052.0132106 11363.5930385 11286.4193042 10128.0258946 8920.94706139 7591.87487808 6216.91324106 5255.50209253 3795.05009027 3067.13072942 2402.80624178 1879.71614289 1416.76059731 1148.38502983 857.793100381 767.20134672 710.223306643 625.659676848 495.919285894 349.880712094 269.879838148 209.64456324 172.444138843 141.041779089 111.581880068 123.276492746 125.523604416 115.679042758 121.757865939 125.620485281 127.809343712 131.755907729 143.835961616 148.059000853 159.359618392 168.576594722 174.094259873 177.166047738 189.081888594 220.958853527 245.881288546 275.769986129 306.316728368 323.495391309 348.911871495 440.184424283 467.562428176 443.752061646 438.143277436 460.159759301 436.351495393 376.399343202 330.35129491 296.712048108 252.637934835 193.35946846 150.686912022 103.508952107 70.8829086859 65.8259160445 63.8545533927 58.2104826447 38.7589529268 28.8849633161 23.9074326026 18.243890466 10.6712864953 14.6589119539 19.5806146579 20.035659725 20.0449937548 27.3966626823 33.1208065174 35.2618473961 37.8723800469 43.9675927742 46.0756531524 44.4335123991 41.2138809075 41.4679514817 40.4327201661 38.8039981844 39.122425533 37.4138222794 37.9784481775 38.0324450241 35.1368685986 66.8837196654 95.9839154932 127.16651712 160.457667219 200.517553412 308.492070917 401.456868473 575.83525007 884.890144353 1088.72888774 1057.3037613 1117.6342038 1298.1413906 1489.03646883 1606.11897928 1683.06876597 2040.19291658 2439.66779461 2758.71167745 3186.99262642 3786.72363072 4169.67002884 4574.3180241 4996.60928585 5328.89199113 5403.60011727 5453.91151723 5815.09772825 6625.98457637 7115.47005089 7877.62193005 8152.3993478 8330.50782165 8319.27273836 8595.42738758 8554.22847082 8954.27452916 8857.08894431 8513.45900881 8316.04832873 8327.92780737 8367.50104057 8571.75578519 9052.18351379 8932.36476569
2217.19905351 2430.79459959 2342.33039386 2084.5560782 1923.31117586 1864.25642452 1780.65609549 1800.02747496 1870.14537827 1905.55092848 1879.44602667 1752.3386853 1578.01537942 1480.89007809 1286.62014864 1185.96619237 1121.86563481 1070.86712037 1060.82709565 984.760122646 892.170451936 877.738382091 843.672261819 807.599641108 714.734336623 707.364583381 676.143206152 587.059309053 527.017615251 492.888096824 474.539621152 415.084926179 363.717965002 355.875274102 338.573153915 283.105290589 216.01216708 172.891363825 112.671473199 70.6632136899 29.8639915919 10.8854370208 15.2305855923 12.8392973216 5.23843595938 5.88724064147 4.19151226573 3.95321791628 1.66509445868 0.91876684491 0.379378133642 0.372755873983 3.0518599076 3.43319537744 3.18206098069 10.8506271017 215.87536373 510.540935755 685.966770759 1012.60653417 1347.82163712 1639.21991313 1887.71206308 2695.37179791 4333.36828997 5652.99768039 7082.55294788 9778.72907736 12202.6893546 12757.0736972 12863.2223575 13531.1933464 14500.3065526 16456.0070072 15601.6436516 12444.1776098 11340.5159048 10506.3593822 10916.2643742 11040.2543945 10570.6709144 10279.0817998 10613.1657113 12135.9335972 13312.7884475 12271.02175 11594.9707004 11531.6500119 11930.8615916 12988.7838336 13457.2191292 12077.4627048 10011.9574022 8263.79412926 6210.85047478 5063.73671666 3608.08279365 2656.06912524 1754.22949971 1228.68623701 1236.61545529 1046.15606688 800.12056458 743.065716396 714.729118455 517.35642721 352.551596325 270.115876807 217.403611212 147.249441938 105.097026223 67.4436073336 62.2516822771 75.9939775641 84.404909564 87.325007851 87.9701067694 94.8754456117 87.6207722144 91.7759698141 108.535994518 138.702415351 147.658853867 155.136823756 165.686987923 164.297496833 166.19074026 181.78754103 215.233911988 232.335157476 249.22439279 244.29690855 216.918391101 268.564542709 340.103857071 361.600746026 354.166198722 345.031778119 304.604615119 263.883749649 265.315801693 241.893677729 205.220604568 168.651334336 123.336253713 63.2896901558 35.4197302501 39.3303712629 37.6301165366 32.17432941 23.2978322442 18.7260082934 15.3595968897 11.3410969077 10.8081438476 13.4723822561 14.9721277846 14.1809853725 14.0784896389 21.7607899131 28.7836191804 30.8911410862 33.7368385755 46.8041113858 41.72057058 41.1795356424 38.1721974011 37.0224708297 36.942614158 35.2713783551 32.2676546698 25.1710636658 23.5453485382 21.2424407022 21.5447092075 26.1592659451 67.8365295636 96.9071720373 119.94680472 161.179504009 203.098699057 287.772141972 378.690261263 628.213977363 816.299239594 851.69827122 1000.91043761 1229.80314779 1428.95768087 1574.0294277 1605.09723768 1962.82821772 2244.32633825 2451.53619025 2685.37773633 3172.81864143 3556.62572181 4160.37378537 5076.74367689 5395.95674692 5164.49304198 5168.23813217 5456.41077608 5753.41903577 6398.78897543 6613.02699513 6824.2586071 6864.71989525 6954.92658043 7145.17818291 7500.96804248 7686.93218538 7809.7336422 7695.44122044 7673.20656983 7593.06265334 7637.69908892 7652.04357695 7595.74524421 7487.91329675
1631.90514125 1655.26441915 1634.81814212 1571.6334485 1500.44508333 1465.912258 1467.56253244 1532.49477034 1515.87724013 1493.07888717 1366.53641983 1312.34047775 1290.66799367 1164.19946214 1107.81168807 1055.01498981 1040.15427395 1055.2542531 1026.22683564 898.90004807 866.386973922 920.253969938 861.50078794 721.857767004 659.496052651 619.019073241 561.753790639 516.474144923 497.607201055 503.75854197 485.693535283 418.523899907 371.498248487 353.252164636 339.389793062 305.313760364 253.555970176 196.336085304 140.521613875 94.1019464808 66.7581423628 50.8839862587 26.7098127253 22.0407666349 16.2815556259 9.33808593797 4.82841921729 4.18963989912 1.83098383714 1.08311467632 0.630911049641 0.90465184115 3.70114509629 7.86827760848 5.54658862524 46.9465959019 130.995374678 408.123535871 886.786585247 1289.9406497 1385.98115122 1617.64535324 2442.34068884 3389.70556575 4574.89807157 6384.63955635 7895.10199724 10565.8935723 14233.4610354 13561.9939348 13605.2733833 15859.728923 14382.7671464 14765.1827306 13459.8875883 10479.421722 9663.02496874 9029.98263956 9859.26370444 10465.2250081 9770.94199196 10727.1125483 10079.0540902 10214.0067293 10840.6696855 11299.5784448 12461.3393089 12256.9856601 12387.2007814 14801.5205851 16484.1106137 14112.2665347 10715.6655294 8309.6064453 6240.71391067 4958.97117534 3460.4997728 2487.15565031 1525.6777811 1077.84563283 1128.41697549 1026.36273114 837.312213263 727.804572014 614.294173758 451.119746939 294.209387577 222.017793323 149.245899954 113.997236942 67.5660668578 32.0419460332 38.2114025332 44.4566310048 52.237082316 53.6604513256 58.8697706633 60.4604172253 49.4281825033 56.2148936089 77.4426780832 106.149212159 122.72458601 135.628776754 137.101810641 149.04748875 130.453428751 139.142383323 169.793681083 181.881896812 190.043084809 212.164000532 185.504633678 220.082194489 276.190343347 298.758292983 301.117911485 289.349738302 258.276286994 231.997914127 239.79006608 202.138149425 164.458552147 137.265011476 106.688049985 69.7236044808 39.7728683202 35.3535967006 27.5039250196 18.9760445551 14.5479258871 10.8996768651 4.95793457884 6.22661725103 9.00180950197 11.2146474957 13.7131738402 15.0052346006 15.2897354821 20.191145941 25.8149620895 37.3636304389 40.6673365156 50.714184716 40.8724341301 41.8195447756 45.8033586394 43.813829132 33.8453898748 31.2486333972 27.9558668475 19.8077380787 17.8911270133 14.2231107747 11.5650310991 17.5098620645 52.1258019022 72.4431801586 85.8056273842 110.656772361 143.660251369 142.168423114 167.43046686 343.969195693 536.128216092 651.794472782 752.101218008 1106.00520655 1301.37774159 1508.57450544 1614.89048771 1823.13894954 2080.99984049 2248.82293341 2428.87698237 2670.09399677 3178.71622745 3858.92413685 5224.6097324 5562.59714679 4631.45022952 4924.50198922 5137.66676889 5326.55830098 5476.57788039 6299.8649941 6594.14861584 6384.25827918 6247.75389682 6133.85333278 6186.97781668 6207.09392076 6277.26808331 7125.66071866 7243.92328792 6916.18498701 7343.39652311 7653.12617289 6717.62697241 6198.73901707
1263.02257914 1232.90538522 1258.93006482 1268.15829165 1249.6900318 1235.38469009 1240.1786916 1248.18848843 1210.98065363 1189.31382864 1074.58849486 1050.05261259 1040.61275504 1010.71200345 974.489784108 941.084543774 946.935233497 946.498264665 881.592796661 812.759474864 814.972712203 899.856723542 834.031645666 653.191660645 560.843741241 517.288411722 559.049016321 465.201049993 465.589760086 508.773819057 502.881101252 418.438461694 385.165752221 348.081592339 335.460061521 308.577831872 264.409749949 225.505685372 178.588388248 116.278806761 86.8737490419 76.2395276629 59.7856068403 30.1926876062 15.2036486999 8.08598044633 3.85510036713 2.36026920616 1.79957350996 1.18510939508 1.33888552714 1.74365029899 11.2613183597 13.5930033748 87.0183446742 109.860023891 162.682216345 425.269902752 942.088633207 1317.78674436 1607.67302775 1448.79554808 2015.61482097 3588.77176097 4997.01753831 6164.79936308 7924.10323241 9408.4391801 11202.8166091 11474.4698169 12254.4587545 15031.2555453 12946.3104935 10709.0245165 9297.97813446 8656.03113457 8268.69763595 8097.64280058 8039.97566508 7793.82086191 8189.42571406 9943.67800529 8748.79140543 7592.52159348 8534.14758747 10875.3361782 14362.2203502 12938.512257 11896.9159422 14541.0502686 16787.2039071 13848.6736384 9912.80443909 7541.0477998 5972.6976125 4795.86466309 3437.01919322 2634.00341945 1863.31313473 1330.08394496 1169.00025952 1016.95488132 830.719354902 550.037272462 409.516034263 246.301111863 209.03663553 140.651411665 111.093860451 92.5357751397 71.4265292105 43.6439129021 35.4496350394 37.3231593772 32.6729529688 32.037399427 34.3867178347 36.4716288774 30.0027589758 32.3146294689 58.6923179193 86.7687906412 103.550802407 124.794787977 134.196311089 135.971380117 125.228850189 123.300508883 164.421574321 156.606817449 151.391473371 206.653778315 224.648491553 238.014696705 258.80906808 271.704464389 275.285837952 266.157087893 254.681481371 238.133567019 218.755552757 168.049161178 139.621864159 136.760271614 117.145101432 68.5261671198 47.7415280975 30.5638609772 14.9355078126 5.34791594416 7.79080696787 4.85921158418 3.11201039662 4.4428431534 6.65842152971 10.224933556 13.5630425241 15.2346559064 14.3708133747 18.6005643051 33.705971446 38.8036334409 54.4764412387 45.6763375959 31.8378058511 39.3949402732 51.0630847388 41.5897284088 29.7917112758 27.5000869069 23.5465714154 15.2655512986 14.4177580687 13.2673159741 12.2917487035 18.2079382088 27.5726104568 38.6474610471 54.2877087349 78.9892388512 114.499257879 102.989701755 81.3121700773 197.186365667 388.167161844 507.100284883 620.096244659 838.894463834 1037.35825147 1279.27238494 1711.37029329 1846.14064079 1884.21933176 1962.29977908 2139.04220751 2327.16624555 2660.9541717 2976.3605246 3794.07139616 4292.79987366 4043.41746546 4430.70669839 5590.04385104 5472.19350699 5085.77875607 5674.40739796 5920.55159941 5379.45584921 5299.25378438 5478.38144545 5230.12224832 5279.09249637 5145.63312033 5480.31606446 5772.55037015 6044.81368312 6249.21059061 6033.77456908 5163.85286052 5015.44137684
1128.79727726 1190.08359639 1147.44183151 1038.54709999 1056.1118514 1055.96183639 969.883300414 997.716041049 1000.95212056 963.315974979 988.639846731 984.242316696 949.268829104 907.040992761 878.410130001 857.218314636 763.408305255 736.362935586 701.12299225 655.376404785 634.822604384 655.937493838 594.722519271 499.805918953 458.977544811 497.441420482 504.003628022 506.027169883 477.076690773 490.468041518 501.103999965 481.290152112 388.265096748 372.392309728 341.945938393 323.681861567 281.839439155 245.930042792 201.215518288 119.365432372 77.7416945707 76.7409406753 64.8952697551 40.6531435521 14.8838069563 2.28991890597 1.74945891388 2.16768695494 1.21933560336 0.760189244307 1.43499546722 2.544143274 15.48166102 29.7499428931 133.478989038 133.023677381 163.632677997 391.92126044 871.696587914 1218.83223109 1443.08796995 855.646381006 1057.95019374 3829.19789208 5399.2710809 6437.37978348 7625.16928087 8804.13459193 8468.10714764 7952.07241341 8453.30414606 8592.19581785 7707.90377019 7019.08314208 6367.81280698 7599.26061866 6750.59543527 7136.35736584 5696.17973263 4762.98934029 4850.92593737 4367.2981027 4808.7946933 4948.67537506 5667.45122063 7989.98589746 11160.8057168 10774.3765628 10036.7687949 11159.4411215 11933.4814822 9974.59267047 7931.91562527 6506.72669797 5492.39630609 4123.72658754 3357.21903322 2598.72485061 1921.40627009 1662.21178303 1260.28860815 914.798280168 701.244781653 416.441311465 214.853262624 107.301334704 132.937411985 100.959187367 65.592204439 63.5633438697 62.9037615211 36.5154651237 33.5341662595 29.6067489634 22.1381973874 22.662794322 30.5710694204 36.474375892 34.1094290609 41.1732572771 59.8957821287 91.4178578102 102.394994094 118.829264806 123.136108197 130.762720796 145.53099257 152.921582328 179.4846054 174.43784258 177.058451832 227.263795607 249.299358345 252.963281589 243.665445072 259.667473587 262.317322566 254.583737799 245.67534206 224.657277291 193.91562315 161.012286478 140.650466162 134.640884465 103.72660595 72.310794562 48.6248740002 27.6435137838 11.2941253369 4.84169876137 4.52032391678 4.42567150567 3.36691157507 3.47080271983 4.25099021967 7.70667675393 12.1021373455 13.4395312252 10.1720920373 22.0142548109 41.2402944707 45.3318650225 56.768800148 48.6529822908 28.8797693679 39.2585702215 47.4846978554 34.850921617 33.8236279429 21.9896558476 17.5705080561 14.7516457491 11.5581446245 14.423601741 16.4103619975 22.1412471395 28.9042438545 38.1397610415 38.5516682769 63.76735171 101.740410909 114.262453036 121.567403227 169.54503744 260.675986946 402.354293224 500.377728172 615.196612438 866.310654605 1167.13011901 1716.22972058 1996.55761866 1793.44187622 1906.0712186 2131.16148045 2111.00287784 2511.95754781 2599.55289082 2524.67969585 2665.41391034 3052.56999926 3808.02621573 5459.32874841 5092.88556813 4086.0828718 4389.77728208 4516.8851714 4609.31423846 4742.46135863 5111.37743434 4752.70255111 4785.24794748 5009.91994726 4786.83696564 4526.73801362 4707.25770836 4566.83876551 4348.6234018 3976.83543505 4039.30912656
930.83001766 979.638202702 901.986904035 827.397696571 815.218088909 799.748255518 801.86007272 824.573303177 871.180078247 886.790685682 921.474702964 898.38800628 822.790906173 790.684811615 847.86038697 832.329930851 651.30209323 537.088372893 451.393997763 424.54914944 425.840082706 396.988420337 314.559148143 319.528837842 411.307149223 429.880533305 536.344502736 592.265594311 461.095966822 446.992918203 481.096915948 503.915060775 492.618712104 380.880024562 354.421699423 321.934881558 308.445468474 256.66790484 224.386569178 144.923171358 88.7041031741 72.9625417674 55.8305557213 37.9677282577 16.5985215042 8.38652874235 6.6686117 4.1590311323 0.69648853888 0.420122387352 1.7151139407 10.9677148203 17.9480750149 38.2451260762 127.554259884 91.8893109035 73.0735968504 413.972184263 675.960690365 619.512714513 1544.82762269 1839.71008642 2825.44334278 4656.26484812 5288.85751133 6623.78681435 7326.27217319 9292.21925282 7043.11835158 5921.58917439 5033.12397814 3930.42090975 4011.60669868 4113.64061511 3227.32140085 2848.3795347 3764.35430473 2871.77758004 2331.66781995 2706.72291351 2183.51458928 1060.5118349 2044.20263383 2536.57265669 3017.41955619 3686.03859638 5281.69388944 6507.98246467 7086.01544309 7728.52424775 7432.92499449 6706.74534121 6168.35446296 5561.57670081 4712.72092086 3705.90213972 3038.29071722 2471.33697995 2212.51258375 1834.06276449 1225.73493406 874.896470833 510.535889048 350.354735131 187.662180625 96.7713973783 99.4713164225 80.064425841 48.5643817558 50.6172300457 34.8477215452 22.8482496669 20.3700345274 19.6687444393 21.1679693534 22.7952410299 30.8522061074 37.9457829757 51.1131163032 63.5355935595 64.0822191548 82.3665137745 94.5854361263 108.830399282 98.3594801423 115.436750808 155.675901651 187.913340653 220.168431771 229.932864371 240.893596614 254.268824075 259.61997052 265.051078572 253.198384259 251.968800176 254.02028138 253.071149535 235.460781343 207.384740095 180.861831108 138.353709994 124.097632018 114.149969984 91.0296280128 65.1981196599 35.6832169788 22.5928687042 13.7642548546 5.4508601448 4.35068118341 3.8891892133 2.74482741731 1.67893728229 2.79314727378 5.60797436057 9.19790184601 18.5816300168 25.3506503879 42.4431893161 44.9248326855 32.6745467728 66.5122011998 76.2603363729 74.7838305081 71.1268464398 38.8427296102 25.8733052321 28.8362290939 25.1453809368 9.45429760172 8.10238395702 10.1276183551 13.9854898818 16.5051776297 21.4249421837 27.1460864157 33.1185049112 40.1122451556 46.5123672548 58.016130005 82.3815718549 139.09090755 179.941144831 198.834898963 279.017850131 397.899274407 484.022560133 617.9163142 806.207020511 1206.11726269 1516.65101799 1472.97285963 1735.33382352 2204.59761077 1896.75353184 1974.41511149 2037.13252363 1729.83225538 1760.3346417 1899.05622788 2444.22176863 2853.28206639 3028.75183679 2794.58044315 2809.47576893 3124.75665524 3392.7261042 4261.47069644 4834.70768644 4005.31167717 3962.07739607 4009.18855702 3656.5765685 3250.80740053 3216.89235284 3285.87453201 3329.71511279 3689.74564935 3683.63783051
725.470175514 755.176044624 758.612218629 756.379547815 756.657564459 727.42123125 724.709429213 763.037640015 832.940537195 790.404171969 793.186611166 692.031510628 657.904560648 641.503317175 716.081703853 692.090068007 516.509239716 405.751247121 319.909304034 283.123179587 260.342252338 219.177702818 118.852874714 201.286860391 318.103616952 419.70694401 542.832733106 482.385749538 275.7695475 399.577895235 561.468225971 565.492638079 509.063856622 395.833247718 374.186664958 339.457082372 326.996259601 256.680028996 234.983686563 195.163076969 131.845300736 50.7000216995 26.4584600335 37.5051623922 11.003588523 15.7596986094 14.1852305443 6.33613868116 2.51743328675 1.74474473231 2.03285412087 11.5497606203 23.6962661255 39.9825535456 43.2556837204 123.330361972 148.566026831 413.896975719 579.883877669 119.471008532 1504.49170576 2831.85441444 4061.70685389 4962.27579302 5267.5971273 6404.6573314 6246.89256261 5574.14661377 4627.76901943 4188.72021953 3812.12720305 3021.20778061 2840.20088286 2110.860957 1853.7016453 1704.40055317 1565.04637242 1357.81495036 1046.65046475 1002.697773 1104.39627821 1145.86699473 1020.42063197 1097.0692726 1526.59510175 1139.30485335 2152.04374575 3507.90034269 4335.60308715 5062.24048237 5458.90820321 5873.20987394 5969.67917278 5127.49506823 4141.84077051 3852.82418981 3167.30025106 2304.19615037 2277.84544895 1702.69109879 1105.45924343 770.402539953 447.169717968 325.95969282 225.671218594 127.375837662 105.064670935 71.9148513344 53.2126765339 35.431660958 21.9420698339 17.6504887326 14.2010601805 15.7453365729 18.3224438186 20.7996757061 29.9575857303 42.737316297 67.8093969091 76.3847901885 72.6877003797 61.3718653082 90.0095253254 114.407750635 71.656285464 81.6002408701 167.081962409 216.164256136 249.916300464 267.861957767 259.642719492 265.939891291 272.409412342 268.436988947 269.390723131 255.660292607 244.775151041 222.83409845 207.549829227 188.634876763 150.209955636 128.997642491 117.366548179 102.777679777 78.8439867716 53.5085285615 33.2377129359 19.7685212743 7.06487745597 3.63064128192 3.33006885113 3.3087252043 2.85947401666 1.2899078186 3.17984060651 4.19531755414 2.3767906923 27.5032677124 52.3653777616 64.4857877217 64.3930630535 57.0229620956 112.153582235 133.568910857 130.886775892 106.43931503 43.3284330906 9.39040430443 36.4237576695 20.3936485038 7.53786516641 6.18040341962 8.96774398259 12.7476265662 19.3351971856 23.263859775 24.7937187252 28.5440571495 35.8608694983 44.1029604288 54.2236805577 78.5864571019 109.673499096 179.871336114 198.080421615 194.955942714 282.229348034 323.785799323 413.736697643 449.362281528 686.668054937 919.914512857 1038.44764215 1153.06463262 1223.5119471 1130.78108954 1210.3463377 1092.40410072 932.00736858 1114.48023215 1214.44923833 1363.90730049 1171.1776271 1399.14933762 1791.07490658 1948.13062738 2089.87603855 2388.62778363 2467.03357602 2713.55420385 2861.77127823 2718.00982015 2705.45138308 2760.37463098 2472.39064878 2643.41462136 2537.41622196 2399.38087687 2805.3727728 2972.49249892
532.127262601 582.677599585 662.472357734 651.190599099 665.292698933 795.204996426 737.945562691 750.801934536 886.545883112 792.346766147 650.866547829 582.129401777 517.967064294 494.446155032 448.521881061 348.623219426 269.274540014 237.07726325 210.804981186 194.130547268 142.979689802 141.790427742 111.46873306 207.680430911 359.317628355 290.920897193 420.71274957 554.840637027 323.516209015 544.243229434 676.68325268 628.316450002 584.666129234 441.918839785 434.263213209 386.633877008 350.633229088 301.534752303 278.849077751 238.358313533 162.914023467 96.287800641 64.2867536838 48.7955872739 22.1246196636 21.359897937 18.4688403815 8.97807561515 3.89843606833 1.71494219923 1.2808945469 14.3506380485 22.5932667623 37.4931181464 52.0906617045 177.853443297 296.091039139 656.003808424 1001.7704369 1291.6029793 2173.82160856 3456.17339009 4385.8965146 5044.49482668 5184.48582804 5026.24404506 4734.26042174 3906.62996972 3616.98588531 3420.62881416 3700.88430097 2363.73461859 1732.32466938 1726.80061402 1355.48598827 1107.98484513 947.397219568 883.92478883 819.494257842 704.694334961 519.89576269 742.206692278 564.051606342 712.739468751 982.43459965 1087.95649184 1156.62596771 2151.84794438 2774.88919109 3371.94642377 3947.61053744 4874.76167357 4970.34590671 4166.69417318 4056.3154178 4311.63869143 3123.85992037 2221.21133227 1864.60052493 1244.58308898 777.394295733 509.542436039 376.302974835 258.200381502 205.92339081 143.113233398 80.5064017893 45.6275548784 30.5799103419 17.930352837 12.2234896825 10.250932306 11.3840356132 11.9095690535 10.4199984646 17.8861068811 34.8219686196 59.3352577109 83.1226011543 96.2690734386 83.5879449947 68.3035454696 103.30027559 130.769337605 130.508120502 147.775249996 214.815015804 250.696451159 286.84075865 302.35352309 300.15157607 290.718942085 293.226932637 292.883711344 285.737123708 263.770606286 225.411271113 205.935270065 196.260404026 158.214903345 134.912298534 121.917058372 121.435825908 101.227940988 66.3953743408 48.6958256002 30.642120762 18.7901365012 3.96239532389 1.09844231406 3.8318996367 1.97924595577 2.73821477902 4.25201462426 8.64974564428 14.1541908534 17.2923552886 33.0232777655 68.6750397519 94.2370246602 112.710059517 128.47672455 166.249873946 204.869678781 204.155162408 167.860803682 104.806051945 59.7958304428 55.9932202199 38.4298483294 18.2924124212 9.44840993784 9.70036851499 13.6760118325 20.8411609749 24.2753626765 24.5952946571 25.6927641486 25.5577433585 39.6371539604 49.3811488074 65.8368927353 80.7962005961 129.457284648 165.133155019 206.007374828 302.042440115 288.842215754 346.766307368 380.334925759 434.97249517 492.430012434 542.46036884 650.979206626 478.457921714 534.831127881 610.613388166 656.8303527 767.226852283 745.608577806 848.622759398 899.80864044 981.498731052 938.286287848 885.789131559 1325.17374123 1437.3292683 1321.86948351 1250.97568821 1233.924931 1592.17809692 1724.24633567 1774.27135627 1932.15208054 2207.79846029 2315.35344309 2201.2738202 2222.04447061 1973.18409143 1903.7401864
395.873237471 402.43536597 454.387920724 488.947957935 546.200170819 630.820756793 592.799763368 610.124797194 678.123678123 614.326471924 542.271356947 490.688962016 414.485638772 346.64323781 249.037923769 98.2818665555 82.1750160646 95.8806823887 80.1680486313 76.9381521488 84.1264156781 112.037348355 175.689459245 324.207463831 406.778775777 192.206849228 441.670016853 832.444650503 867.874663544 862.615966292 619.535428324 654.504974033 503.928463603 515.381656475 442.174790041 398.059245016 377.542092409 344.240705815 367.475247343 276.451456685 203.142802416 168.698847151 121.366025298 64.7495332429 38.7429675317 28.2742653546 14.8046492108 9.5942324888 4.3287141827 1.02019434937 2.59169128208 12.3752438693 14.4668659871 31.902709147 4.00064645478 143.453867649 367.930816188 802.82608404 1318.49469219 2372.63884367 2866.56656115 3557.03925504 4832.35714289 6323.16932775 5028.24485759 4496.69570866 4329.28884788 3331.84738215 2578.29799461 1670.50433161 1205.13703725 1324.96414685 891.779419451 547.42713423 472.556721291 369.772905879 191.011112226 294.379471792 246.973036831 188.879009466 153.988772145 189.58888407 184.69085204 229.368046396 340.038927846 332.41997607 413.083337168 939.302181812 1223.05247967 1836.51188186 1804.16944792 2555.10271377 3042.31088538 3104.64470005 3078.99594369 3409.83606441 2575.62361874 1830.5747292 1234.54226238 812.280514829 488.408358263 427.87205137 322.632377636 240.86915225 196.237380383 108.562611688 71.8570022175 36.4171624498 20.2275928751 3.45611133297 5.46944860172 5.70361985846 6.69148100661 9.10673693957 3.49270130449 18.8236164989 36.247061316 65.1594351101 93.1717471357 117.055303914 130.604616611 131.379825243 149.570806332 180.394530871 206.343023406 245.661591837 281.6635638 276.447952146 308.78337833 358.838452074 393.622803577 322.015019979 319.833596771 373.836606362 312.26728232 261.11686225 223.104638325 202.218975872 171.243987428 136.914430108 126.964326572 104.979352367 99.8876354776 75.0677329588 51.1130050821 41.8693129127 24.7441702769 18.1412520286 11.7862209519 6.51357522981 5.99688267497 1.95424356326 2.93364097056 8.51269601475 13.269190028 25.1716799992 29.1388811672 41.7945874848 71.6668188172 103.695932976 113.801523896 153.027543074 261.182649961 274.083753116 249.710231046 209.905440725 183.086421523 140.047825145 81.0569780431 50.1284884044 24.9686391826 11.7570984514 9.65287367692 15.0907676723 20.142416054 21.9629189125 20.9025556992 26.3293604257 27.6343149224 38.6172239655 46.8578020603 52.3788502702 59.4067666117 74.6671374107 100.477377997 150.085014442 208.478134443 185.976351537 179.057055489 243.986407499 209.118688849 254.329250066 306.429292417 262.630230691 330.135663605 398.141537472 411.679516882 398.031983373 490.028548872 525.409932603 575.257695571 534.92833994 710.084432056 630.274965046 634.169577676 592.890090249 773.01808498 843.183678565 952.413041739 1058.44632597 1173.74370762 1153.84013852 1186.91850643 1084.72540243 1332.8026983 1560.14232213 1585.57507028 1558.10981092 1261.83377054 1333.5055116
364.629083926 359.003369143 314.736669457 317.797013782 333.340171095 345.431957555 376.422222758 427.07264047 468.893155626 456.810871057 436.721445425 399.45471601 343.368032535 254.009957315 164.96024593 73.8626817967 62.7895607191 62.7908778942 31.9349754477 46.9868153709 36.662939026 84.5452761494 192.010642462 404.425380169 554.076685068 753.758055713 933.780981352 1250.06808509 1373.72313807 1221.65062503 609.113766796 751.607005147 557.031669307 580.999970694 462.409550047 418.011508937 383.886810929 352.32536105 335.44463696 271.929266799 261.227381597 167.617711524 113.162780227 70.2005459461 32.8124173015 27.4546200772 14.3573229782 8.35261998481 4.87868313199 3.9133797151 6.45300661994 12.0679221495 6.78530224125 48.2092445458 70.3955247251 138.061386092 375.992601349 590.673319398 1225.01898735 2511.05013948 2795.34449866 4062.29265806 4605.0083832 4739.78316399 4609.98147536 4551.590144 2595.6221425 1755.21455354 1322.0749023 1014.28662645 683.355974066 330.317638575 291.385858639 113.124537978 124.797544094 97.676499459 78.2352885473 71.5673332882 85.3658899064 40.516630007 42.2087136203 39.6121675379 77.9595200254 116.703804452 158.706860987 235.979861014 264.210819004 369.537722793 552.42801829 667.217191857 648.849464172 1057.93102208 1381.09120151 1513.53905645 1678.12958386 1696.54672223 1549.80577508 1085.73326808 850.784233375 638.548048529 425.050707937 385.264568203 230.825564565 168.726047037 112.330671265 53.2814256273 41.5524912603 24.6459773205 12.4624030749 6.78924076871 5.90473673753 3.78243962878 3.75556112309 11.1699090646 17.8571047647 29.2775055221 40.500470695 80.5997400542 115.819683102 135.232361758 132.086288301 148.143245394 186.885035242 218.24071938 230.140713341 296.354968646 329.718585686 285.498524511 311.408274597 327.241582717 344.910533198 338.312766131 335.259728725 316.540776162 283.759337868 303.433795676 226.026851709 170.533516949 144.93121611 135.009535735 115.456932862 77.9960119621 64.9947169765 47.5508346166 39.3810183803 36.4221827451 24.2778292853 18.6224315731 18.9607994173 16.3199171998 13.1900679539 7.17945351409 6.7423700188 11.2838640461 14.073483139 19.4880937458 31.9772295626 54.4757580857 70.0964764196 101.320862215 214.449228043 287.568744164 325.68139705 335.621148872 320.288060789 223.504207702 199.477493154 158.382058998 74.6917781994 51.5486747414 27.4657471079 11.8233036015 1.50654826894 15.8550052199 12.1375260128 19.4820497942 7.0901768411 25.1177000101 34.093371201 37.5003664786 39.5543720674 42.2446495754 41.4844075633 45.3798784393 59.3466910519 67.5437334895 74.7594829971 90.2089785307 92.3234927171 96.9621931828 103.977948693 108.314431818 109.653416935 121.406111365 141.467652681 183.326508966 223.860045091 235.344681103 254.021516845 292.679302907 326.687311909 374.20164117 405.377651098 493.105156683 538.332548046 618.569776671 621.96484088 691.025383334 791.423040371 855.248651264 878.335117361 842.987744033 816.195418274 838.814401627 884.481076705 917.91729872 1030.42947636 1020.57264895 1122.14085357 1120.85811054
221.881654908 185.204387567 166.466108701 189.72607455 209.054932657 197.816498781 254.218040994 304.207190656 353.609061514 395.919969722 417.392094564 328.097253122 258.050056059 198.006839133 143.321168112 121.529649178 57.3617538633 30.6020311122 27.8769308451 46.6992525983 73.2579864079 164.967556542 238.165513673 471.757672514 723.173235121 1026.00574632 1303.85939861 1690.22322335 1910.7254261 2133.24072578 1833.88254779 1231.91195416 814.705663082 635.274601589 496.188754187 435.289756163 358.112505097 334.822689353 232.150888916 195.002520843 183.74252103 123.518179866 80.5911102747 72.4177414264 40.1127273921 16.2301875399 8.1933041234 6.17283881405 4.01436182483 5.38471592481 14.6980433306 22.3570155499 36.9941594018 76.2506087837 119.968141289 231.078032967 318.791439172 450.37540522 747.144538847 1094.73806519 1960.98404333 2979.594537 3295.49570321 2778.85264724 2366.68959362 1139.99616806 1091.77914898 861.756615465 709.590507555 492.242750239 258.926137563 190.003819538 122.438112892 93.2625226998 38.8527142026 25.5577257444 37.1055200415 20.671532496 9.34733509144 9.35376339526 12.7972841578 18.8898739242 27.7722169673 57.6612958471 101.022873908 167.83203543 280.468794119 411.905686299 397.750935084 570.1387509 595.281947295 593.279224495 783.177800864 831.419397645 756.286286686 566.335811446 722.018998635 688.293422495 584.206778409 361.1557743 291.092505227 241.354505519 170.573115033 125.893413143 64.163443724 20.116157097 32.7673505457 13.5030395496 12.6822954996 10.7054980176 7.56377460822 6.77061202497 7.73241415512 16.6074164902 27.1109207358 27.1013079564 36.9651322685 86.3469728108 111.663964559 128.578019437 147.294056935 174.507687176 234.552514853 242.940299483 245.018043975 251.617724123 260.241081036 261.538673374 311.198824838 260.790490774 247.246192447 304.479048386 299.070154828 223.695637119 210.064397277 209.439130996 168.710587432 134.450178862 103.473282871 81.1957366882 70.3214247588 54.8302381951 37.6203090321 35.2131942726 36.0685496375 30.6404121717 27.319555773 24.2683866321 23.6876314558 26.4492608234 22.1000429969 18.8317798271 7.85002015929 13.8289597488 13.5780925824 10.1994833664 38.558430829 82.6386583314 156.826241304 201.753358105 292.206194626 332.099336739 360.077182123 343.38126539 354.689153354 279.633482046 181.402051221 105.36355859 68.5235724356 48.836617321 21.5636658341 21.1145051505 22.5741302992 29.9029520079 13.6213270579 34.5052640205 41.3854545034 40.9467108684 41.1413558674 35.1648038384 30.5864673175 28.1882299397 27.8948437573 28.93167137 31.5396718192 42.1568491456 41.2673688034 40.4972085799 46.7240213364 41.4585796266 53.0584459274 69.4264303197 74.0608261343 76.1787924513 69.3509488999 77.9533316012 93.473559583 139.54852917 172.341756862 174.303641859 233.095838497 311.595581609 363.443097078 356.194101345 439.340273525 517.862213722 550.197849292 609.076722826 604.781519752 609.992482511 647.614094313 694.675249349 698.214641955 673.235671148 623.319899701 624.846273546 617.22092812 539.971511314 649.691151877 749.854698444
119.642784664 113.029825247 113.819466339 126.59972054 135.061734346 184.258801396 234.020033409 257.907172827 304.261474103 321.913734553 341.658392294 288.511625725 274.360051005 185.670766134 144.833330076 110.984715884 49.1364361173 25.0089345296 23.3943452867 35.0512387919 80.2008939845 190.169808793 246.204569413 438.267190859 723.586310276 1054.08771785 1783.01625957 2176.30005357 2377.19901479 2852.08756807 2769.05023892 1525.74214376 1022.632678 656.045123044 495.469433388 392.875128474 249.77751696 137.337839494 122.872386183 96.3040331185 68.3694183184 66.5762958522 56.0858533418 46.5405767413 30.2928871088 20.6380210831 13.3576603193 9.81543675704 5.79628702936 9.63035611095 18.1189953211 26.2019423394 34.7258394443 80.8662181926 109.227405719 177.477953534 242.021646035 361.234359069 537.45415047 785.710131168 1049.68221199 1252.5340303 1298.19517371 1325.2573325 932.096288367 669.880848946 587.657427553 326.366803996 255.95549038 185.375517798 132.969605189 119.53030461 67.9403321214 60.8254865561 34.5828366661 8.1410253766 7.52100935299 6.71139481357 4.68369301749 2.1671904414 4.86594233877 5.10544301851 14.7047816373 26.5271268018 42.1182843629 225.225285615 341.941014298 329.105292854 362.797946058 337.044503227 321.521702605 315.76028235 298.460381888 381.794815266 443.862159539 452.578855865 436.373546662 294.908125017 279.196128361 286.351354714 342.349137442 200.034046091 126.731940971 94.431019686 76.2293254232 46.8383327446 32.6422473362 20.5581804431 16.376367945 13.6023721459 10.4167754903 9.18200594328 4.39681456039 16.036700965 19.9424553407 43.4098620931 68.2564877217 79.2583341812 117.684441237 117.997545081 191.960807399 228.83236748 294.994891934 260.43178361 289.13041665 233.20288904 170.091201244 159.967607009 148.568517289 131.976930681 137.052219337 108.518546948 82.1257109759 123.996717481 102.883516076 39.7889026424 96.3693795315 95.0264032872 72.9831736481 19.5134720089 30.2936148748 27.2762779137 25.736417857 16.8086591515 24.1663168266 32.9791379575 39.1927702554 27.4215939245 23.1675584656 33.8805149722 28.7946407645 19.2033467503 29.1406946231 27.9375020641 25.2955769211 33.8758844029 57.4111371249 91.9318420105 168.8799902 238.23403382 324.674110622 378.227920069 454.900121493 527.451592426 455.553576237 329.19619229 202.682763622 70.4543361442 47.0397420175 39.8012340481 17.457751721 26.6895105344 36.4328419246 55.4339271164 64.3733600228 81.7717950205 76.5386853845 53.1384975272 47.9213191143 39.5159295238 29.18738711 22.9487161053 24.606357345 30.9326916394 30.9693949245 38.3781826723 36.4150524333 30.903103876 26.8076754582 27.3004445291 27.0198013156 29.9821563538 31.5504058828 28.3638379526 25.1527407366 27.9699408327 37.8905360726 54.1455631356 81.2997838875 116.222652017 128.371118761 175.24368877 190.255378705 256.535925544 321.900145237 351.429976289 430.864173591 511.278674391 585.859238913 558.878854205 579.379999052 515.023297703 470.126973984 426.868625392 433.626072324 453.486010417 400.721436795 443.55895678 433.378124468 408.449097827
52.4934849616 66.6979729463 90.7172940437 95.4905309829 97.9379678611 121.956756675 192.797146703 232.327432654 311.421363813 284.138785649 293.48262635 294.068345418 270.602496083 216.568793137 149.386105494 98.1410005479 42.3434253292 18.8962954468 9.75479612009 24.2043351968 42.0275967855 95.6402258662 223.778286329 435.411604251 595.172093724 1115.89506645 2331.64856856 2422.83135572 3087.68683757 2154.37750152 1687.91487671 1848.63449455 1237.56667781 838.878174739 353.55485994 192.575987945 160.634409164 102.587702953 71.3107809853 59.9347745998 49.3811412922 45.3801611038 38.4702020147 29.707476036 24.0335262617 19.9056287738 16.0168539169 11.9196379386 7.18515888515 9.94414558638 19.5338698618 43.2173113792 74.1271675298 114.245315608 92.9848776179 76.2637712103 67.2645428963 86.1760197888 234.272463884 575.191371754 805.412901487 908.44437393 826.693207334 398.038352642 302.865237534 221.741913847 172.843731166 171.128789367 181.350565428 195.214974162 197.488965647 124.952301322 109.598508339 35.7540877358 31.8139539079 22.6242505099 9.51284007316 1.74130588049 1.97209943074 2.89359338993 3.94554458714 7.79257662023 17.1359774268 41.3016090335 127.155750406 266.967394916 434.578838209 322.238673634 470.21816449 305.566085338 253.767004946 269.042858417 263.626363431 308.427176888 245.981863897 258.40886258 344.869007634 291.977412384 340.518994726 230.383927087 180.661961959 131.467170972 109.506760967 105.21653311 82.9346009786 47.6515082825 36.1219447587 23.5846910225 7.40350185602 16.6501561803 14.7812635045 11.8879064671 15.5211086857 24.5910373371 20.6618795667 69.134035223 104.236588915 129.266182013 163.327724848 213.96283092 270.658397664 262.500992231 255.288586346 196.988489063 186.07277303 120.570154221 89.4365805419 77.6110662459 36.7154693817 42.1962205555 48.6107971908 55.9391240675 52.6641774902 37.9110685654 83.368742463 69.3145111708 66.6981589921 85.5017110329 61.315988875 37.1115673414 33.5146127722 10.5454719198 18.2481918009 14.2058127158 28.8237391964 47.1686674496 49.7383753517 45.2195676589 33.9602087128 33.2040184549 33.6593308691 43.7520552582 39.7749519153 34.0007119068 46.689883858 53.1336120088 61.8543921838 83.9169421881 111.253841037 221.370391453 387.363727016 553.634734338 562.761823183 621.411941939 474.304531082 362.760800177 338.822490649 148.861341758 81.1905414081 52.2108009535 35.4599145128 29.0268715003 44.5891831558 70.7005154855 71.915824276 112.874524527 111.655211442 93.3962556058 61.1718139181 39.9936334056 26.9499367624 19.7252494166 19.1658130303 28.3510404201 25.2357138451 51.9211556967 41.8097933385 40.5340400217 21.3531102968 22.8465854361 13.2288251108 19.447470772 19.0303621968 7.69145144282 15.4570116588 15.0922862362 16.8487182017 21.5766610192 36.4991707973 59.8250662492 84.6032424354 102.32572132 168.561026193 230.996034203 262.953453094 325.52134072 392.515651149 432.622328716 459.598642513 429.924553972 424.3493989 376.338190124 340.545717437 308.021443683 299.59019016 286.972322961 282.246450807 274.407425364 237.528112816 230.030996074
42.8910997093 42.2013593861 44.6971607861 59.8080381623 60.9109564022 77.9858951469 75.3207937466 140.203049317 200.688323038 238.651561563 273.917139153 298.44162849 305.700369351 245.283425601 138.883358907 59.9400501167 38.8389334321 12.7803691059 10.2938759012 16.3844091055 27.7839411069 75.0257015379 193.519742252 412.538159194 543.356169524 732.573592034 961.653611348 1279.59002995 1100.60004354 823.565227203 736.947465187 668.038743029 553.774151549 375.611874429 280.030122165 165.878621305 94.9221976136 58.6507609398 37.6517096317 21.2670504401 21.0650156686 14.645782526 16.614829776 20.4737963342 21.1552365301 18.2618776133 14.6687719489 14.1163808154 16.1610440932 21.9507319322 53.7577008715 97.3345365047 134.794892405 107.35052093 48.2261958753 1.0121455284 3.49303821097 14.7223943081 38.6984123839 144.574449939 471.319655509 502.676771304 334.094189365 174.736487731 102.128772867 73.6595798668 85.2713934936 131.743662924 215.133858781 333.601628677 287.047506709 280.3376756 368.831042858 203.845827964 106.545626361 9.45719630423 8.17081412594 6.83472791818 3.30119608941 3.45774762299 5.37881522702 10.560845188 23.3696370489 89.2621712051 345.962718778 348.05992335 615.462495499 503.332749079 415.734306371 260.361819035 173.75124055 165.93188486 154.998821 144.817088907 143.039169215 137.376818785 168.66261294 175.528566463 169.568403152 117.133598918 69.3186123413 55.6106831737 57.6689720463 47.9513321921 35.5090657458 34.5568767887 32.6947300134 31.5049419462 30.927943319 12.7992674701 17.8698382624 11.1318282274 30.6025098863 48.197648673 68.1913147798 94.193553545 135.751790544 174.940600973 179.498248096 230.999265675 337.865213392 258.718051957 229.560649731 102.765772984 69.9845441441 20.0079670547 36.9032992912 32.2845624632 38.9822685856 57.6487926325 37.2963886206 59.5679342018 91.0589658063 110.444100087 142.939484707 154.69682425 74.2927947628 97.4151189821 65.6527399315 88.4427053196 55.4170265534 24.3895483344 26.5013572104 31.6703546188 28.2309772241 53.1807702172 53.8553112444 40.4968403068 71.5322303147 81.2061222356 89.466702678 85.8072689334 79.5837904751 65.265679572 49.5345827078 53.8259848129 62.6012172329 75.890607792 100.20774654 150.890816484 227.317529307 385.406696315 488.819938127 334.420340319 295.787030922 266.54019178 180.367777749 132.293854791 93.1863546278 54.7254860421 39.6424458205 35.545782254 42.6890956697 66.335309719 138.942732429 187.136461907 182.682234125 124.644307118 77.5211918786 45.8121084634 25.8977387716 18.3650553968 36.7582495573 56.6575318681 104.960155755 88.0939016809 95.2693074288 60.4698783635 46.6208265472 10.5545678613 34.5315938257 39.9808245484 38.1462525263 30.0124249355 8.83316308614 8.41536046511 13.828482741 16.4925565357 28.2710199063 34.9433372059 63.2715037817 90.9889526776 125.560692777 196.462256507 232.646807162 304.76762427 399.3019092 378.195194625 386.908460228 333.388331098 317.461006785 319.563546695 298.776526783 256.371727544 263.988589937 153.420957378 146.944232084 134.861464111 167.214323348 182.494017262
20.4839512429 9.22784817605 17.4643193666 20.2314837367 22.2754222258 50.5386043483 68.5666975603 85.5939345911 129.685496355 214.466383561 275.74277954 304.529727116 271.263372694 267.767508445 228.498066774 126.91587665 40.6657068207 14.6138622154 7.28163074271 8.63551428396 19.3195434078 83.6467689824 172.276470613 248.899376715 518.744667498 579.318778327 541.06128799 416.125566602 306.217706153 204.584897511 133.042313526 118.628147925 90.9055049811 22.8577768425 49.6342616141 26.7363199535 25.5843470702 23.6966406929 22.2333556945 20.9576855877 6.96981564041 12.2405161073 6.48477057936 5.64251437032 9.89311316219 14.9380036001 20.6656326925 29.2963188561 23.838929172 37.257185192 93.0971469863 148.832872347 200.739479301 102.015782923 16.0239213793 2.01965846665 1.44129701263 9.91610652228 50.1016586222 239.567563439 305.816889994 156.37110962 83.8672951444 14.8523955643 10.8883068313 5.97672038178 44.538250237 137.69929283 341.253113986 659.039872359 864.018172157 958.924440249 585.067062261 383.131779232 174.97728914 88.6279177251 23.2797250229 9.29610048061 10.4572373201 10.7329135691 14.0711505536 21.9988763188 154.68153607 423.217580172 1138.05813243 1723.69475875 1501.63035286 837.389511876 384.326706558 243.764076251 159.937837977 123.719834262 111.564407242 99.8499848533 80.5598779359 69.40182053 62.6963489256 59.128735982 30.9153587888 23.9708074228 15.8609153653 14.4966182151 11.3248306371 13.3632256251 14.5159086102 22.3652232991 39.0848253393 49.3296903688 54.8493539571 42.7582038272 40.8525986574 39.8261025469 33.8860731563 49.3067541112 65.3883216712 104.476153615 123.138317115 158.496389969 192.98475226 185.196456173 182.153980808 103.505633393 41.8797804278 32.5212219864 23.4829526554 26.0884603595 23.9404481366 41.0332508023 58.4002106093 90.0950905521 112.783960463 109.066770601 110.745434587 229.553855876 229.323142103 295.965176604 246.648724081 197.313556438 206.922058806 148.091948168 96.243023452 9.33715811572 34.3120161511 27.0978629991 59.8339757484 79.8834255328 96.6871664988 99.5628627748 98.5481932511 98.6715436732 102.133824001 115.734944924 99.1230959631 88.0382995436 78.6861250045 66.5007792851 67.1935648444 69.8755754332 76.5446494188 116.582869063 128.314123368 133.811981965 129.55602934 108.635819333 94.1421907028 87.7574337024 68.2812654649 80.2593363409 75.0735712242 57.849881673 42.188401907 31.9565788963 46.2714171154 123.815122275 204.223990249 276.643899661 276.076557281 217.202419008 151.895988422 83.3303820845 63.0292689263 47.8114843575 82.3993239896 122.16564185 173.554798328 260.527459828 209.849605815 142.093814218 123.843296016 80.8107232494 141.883732533 122.56526287 89.6965867788 87.2242265141 64.5983056687 38.7588239939 32.8159544582 39.3738115902 39.2763314683 40.7615588397 42.7577399103 75.4636922878 113.195493896 154.365431978 242.247537796 297.10039284 316.392532772 272.016889016 290.140343868 284.646329574 276.137850163 237.183468864 198.885737118 161.912197669 101.650341347 58.4978320545 47.639722006 53.6469540781 39.4676536035 64.6076629724
11.5691003572 8.13492871087 8.4793193716 7.33732726262 12.8133909905 24.420813108 31.3904675551 60.9310596871 76.326121033 111.254563968 146.383046016 179.575999759 194.478764124 220.707738863 275.010193989 168.539006265 62.3911570531 19.0068435836 5.57206408167 4.12002266624 7.45802950868 21.6990401835 50.9502983302 98.075140129 103.359712752 176.216566492 151.652780898 129.930343728 89.7059266419 53.3861923779 22.0774028829 23.2962768623 17.6382064817 20.2645648191 15.0106573635 21.9687586045 24.8905732166 38.5950312644 50.1428267881 46.9794938148 37.9428810638 44.2642528164 34.9957128903 14.4162081691 11.1989292413 15.4375407777 29.5118173693 50.0997767704 73.0314126043 72.9865910703 134.380557826 257.433841754 276.437696406 79.1448557586 15.7792795191 2.22834879683 6.33459279563 16.0793938277 62.7423907285 109.854445094 124.952296228 105.594341696 44.8361038969 27.4023001055 7.94113580037 13.6434030414 48.8472197964 235.67028076 408.964025559 658.064372334 1714.5273219 1818.59151092 1538.20642745 880.477684787 420.882407045 53.8927132825 22.072255077 26.0297733378 35.0687444824 28.875461737 19.9872437765 72.5908150592 217.782911852 1069.98440487 2078.08465783 2446.37172432 1743.73141868 1083.52644062 541.625734723 152.001634487 95.9292707057 78.8659688472 72.9467777112 61.4150048283 53.6733388261 38.9830137843 23.9194883864 20.0153968188 25.8210072291 39.5103673294 50.0023123916 25.1947563219 41.7712437493 6.21610038403 10.3780302563 22.3484469262 40.0223677397 67.5953695656 69.6002734971 55.1494779249 50.4808946821 55.3380964458 66.6143302309 70.4890326564 79.1166851379 86.5562200938 106.130020165 102.049824835 110.094116798 96.9194504146 60.8708163269 46.1634486947 39.3797832517 35.1037481289 32.2826068624 33.1677213893 41.3374633759 88.6457697495 117.676885775 120.921331945 121.258532093 107.551337011 101.015779898 120.772331301 166.392079041 208.357327776 276.858729617 252.10630339 207.829276369 183.142938208 142.374983775 123.355220989 43.6452293664 52.5182408703 104.242698798 157.206855739 168.17380841 158.415791272 107.82223437 82.6984018476 78.1658063862 38.2477664266 41.6099627149 53.7763866049 68.1638564953 75.1298154082 67.3899422167 37.5873759103 33.5301492691 31.9991220402 48.4688160156 76.1021332041 78.9276427079 60.5073764442 61.8194044466 48.2642136819 39.1015129751 49.8265615068 65.2753697267 65.113757663 51.8656577635 47.8150569699 57.6557737111 101.295889439 173.921812277 223.756195986 248.891912767 211.899178472 155.558194984 137.187397069 114.055620172 114.197359031 128.147762013 222.483309291 355.52627283 398.177177405 300.562058936 238.636558857 201.352391375 256.385627207 161.900851832 168.456149609 241.891120428 212.034017486 190.765778205 188.10018458 119.71192253 196.861712431 162.037339578 72.8897517701 46.2277887853 39.9811396403 52.1775780975 85.2102938986 162.566418325 233.964809284 218.768936036 170.139614159 127.474549526 157.385951842 202.636813071 198.406718419 164.096008894 90.7740975522 69.6910503748 39.0681822981 27.9819240707 27.8445411185 28.7922907577 20.8984934775
2.81112221585 7.38908574696 8.59975582202 9.03854608261 20.7466297052 17.4068934788 37.8091394852 44.442706209 38.4721121174 41.6340017244 70.7421832646 93.6360351732 101.464055889 123.853866824 157.28735613 155.931072894 74.8621714556 32.084456487 7.07230150591 1.426758523 6.85713586676 21.7133325474 52.9961509496 57.0074111862 44.7883731961 40.5976870571 36.5001775851 36.3177545195 29.0294382508 23.2330108682 31.2269764979 20.8543114199 15.966017713 55.3570126681 68.7415906971 51.8642831693 88.6495126671 98.6352503623 101.470458024 98.3286474351 80.4075270459 83.6105997039 66.4378773945 52.7040406945 39.1873113561 35.8034964081 44.0847664482 77.6072371857 117.488444285 81.6520175408 77.8445004763 268.490958166 207.279228546 97.106917011 15.8185985418 23.6901524352 31.0940412356 38.109821365 22.098132972 24.4352790936 83.9813222824 106.057036782 80.836603766 26.790723098 26.2006828276 18.4823995467 42.9045336636 70.8746983583 174.142746283 488.681703281 421.314703653 334.627263509 445.875578667 385.671017814 313.285551158 128.226416055 27.8183026575 45.0812128465 103.260268559 132.407844103 62.1401009305 85.5099738547 428.213966812 1124.4671725 1166.23045905 842.945310648 493.313745083 335.537252136 150.550548616 78.4879572742 61.2809605423 56.4874505623 58.238825237 45.2364121024 30.1138775246 22.0680834548 20.2581090951 40.2670863305 44.2665377199 63.8836568612 129.83492935 119.422380642 130.210628433 77.1360611225 68.0126086168 45.7561097948 48.3042777951 78.5481494223 88.5659897556 71.3338816319 47.8450376838 43.8254512213 75.780438773 87.8379453789 64.6473222832 63.1798026231 59.9453176198 49.7348165464 22.6904889668 28.2762744304 36.0038520265 54.9060477664 42.7828723286 48.4513923638 35.5577094947 49.715001698 88.8708549549 136.98934876 138.345026936 94.4945650919 89.5924107859 145.598041731 234.677993333 158.830237425 92.2477647578 88.1269882967 120.310006212 158.182119408 152.979934289 132.834310129 179.465038609 186.638203108 175.455584015 107.516695949 163.016801762 190.880724538 194.247706662 127.158025763 80.948914888 134.071142527 124.993123487 104.852007122 56.5629627937 31.9844675549 53.0181896544 82.7135905033 73.1306073991 42.4750211426 29.3006077269 27.2034266172 58.1729230217 87.4844966795 127.571814698 121.994363862 55.9265294247 72.9650287363 24.5767867533 35.5972590612 84.5988626572 103.707810126 92.2829955342 76.3161634391 76.5400652439 76.6805067662 136.270502707 171.91619368 173.823033503 203.450668037 161.757541711 159.780770089 148.249537468 158.652967542 170.299020811 225.176264597 339.434541015 260.307431985 235.561617794 194.123735513 368.359298059 460.198033665 387.582701032 361.628227555 369.199077588 304.463525093 386.475390908 404.274452433 432.070328805 440.775310017 227.159868196 156.438042261 72.8187041507 51.3878129092 49.2961699508 72.1747290208 124.202654094 203.108574842 213.481309405 124.913880138 72.8698170959 74.6177593762 119.766265279 160.739324645 134.478591346 65.7168411539 22.2260622372 17.8320308411 17.5057279234 11.5810932872 13.7136755021 16.4770007272
6.25746644945 4.8171381611 7.06018239517 8.51530267827 16.7900404737 25.331747279 90.7599858963 98.456824583 24.0534336531 15.0201359202 44.6179315403 59.734373701 35.2361715781 55.6684992926 108.986783274 92.6335735559 73.0130636169 89.6954781549 67.7278179368 36.6505512353 82.417073872 164.029435834 118.380087185 61.67849148 23.8242071502 22.8250369382 25.2228762721 27.9632045865 50.9602594318 62.9341516934 58.7118111419 60.7436873431 103.833577834 147.42153565 195.987523702 235.127047681 162.714564883 141.585689805 217.964501079 155.344954195 133.111802098 155.866971008 179.380989454 136.596444004 105.081094374 122.756344373 66.2353793881 89.1409103206 131.385487498 102.453398827 45.5751401735 137.207760969 148.673453661 100.871998249 97.3145517024 89.5365990015 94.182605365 78.9621994199 30.1988936162 26.9348307282 121.690872719 115.774193766 100.893353244 80.3361967995 60.5457535731 30.6525167571 39.5714006217 33.53077673 51.4649102397 45.7155123066 40.3965218174 36.4175636324 40.1522596 55.5862563294 25.1963229648 24.8909921318 13.0445729327 45.7792456329 104.013290528 78.1195306423 62.0464170813 60.4624144396 179.300160971 224.006199116 278.034577566 110.133698592 49.9054912311 19.9699203535 16.2984224437 13.8320290194 30.308959869 33.0466883003 27.07893512 31.5540277096 36.3674749522 38.229215369 42.3599583752 92.3277457175 145.529231205 290.278366133 252.642537074 248.057760574 275.234979016 251.762698544 203.154814091 162.681340581 93.2522075911 72.7450146049 96.3942674156 86.0116469433 69.3176768711 69.3876560426 60.700234493 96.9664545907 58.4740472578 53.2319506743 60.5750995186 56.7487710903 79.7642584206 101.274861727 100.426637875 111.389043763 94.3929507483 86.1141485658 47.5947830607 64.6670074274 114.076412156 97.9637651995 93.9339887054 67.1383162379 71.0816578602 178.927492475 290.931796674 333.322822139 282.650626598 168.746275495 122.671899015 140.063398167 147.509167885 123.444369421 160.99205287 324.842779189 258.136863072 214.685165552 245.193476898 187.982194993 147.364421179 82.8630995355 133.97105275 232.277109779 312.360026111 229.676751409 99.7678052576 58.9857952089 42.5040519451 97.5542089081 92.1146371781 74.7810858158 48.8744049459 42.0440564137 93.5119629123 129.862737643 165.073908323 251.276961911 221.057003207 199.712912174 128.776224828 67.3753112154 96.4096510783 174.346790506 181.572351062 144.412600188 136.518170115 113.043590061 109.4328974 98.7350542283 81.4943224254 84.1389252682 102.696914095 123.504762985 96.0306680692 128.817850842 133.244135666 128.562036424 122.706920773 129.371244573 114.790106234 121.806311879 231.343230806 204.86182777 170.173326765 172.053608394 136.091401329 141.115953179 261.526063265 317.460573681 484.350833049 537.413686128 277.220571333 201.607086587 118.242470675 75.076671138 152.422764839 167.601027364 85.6142280485 197.465733858 159.565518898 106.699513669 47.3664341058 29.8482947835 84.3827024137 115.472841153 72.8487682059 34.8499172053 12.5075645221 7.62462601355 5.54238413094 6.06323907424 7.17607953735 8.18461590027
8.20400736082 7.03371289468 10.671760762 15.4258978856 21.5169164051 58.3402638564 89.1745597783 121.867033529 101.062432944 30.6800490785 81.2243075859 169.264096272 158.51796991 98.4044046432 152.341960763 175.498753659 235.144218014 239.890668431 222.223810717 227.766660549 297.594526304 100.870804961 46.5332671601 36.8544555571 27.5525784021 22.938389551 23.7206845055 28.8039569052 44.6629949038 80.2306247106 106.471840679 129.21657297 151.659163814 148.793291472 105.242052566 201.414042081 157.134808399 85.8583668893 129.285636035 157.727700814 152.523129073 127.675190212 116.016502352 109.38529224 100.962469625 154.731675312 104.466666983 77.7233467957 120.104585001 192.001758528 173.968256847 157.296791074 208.660054733 127.161099209 88.4723129789 72.980633899 114.593631582 117.567734659 101.59483691 64.9475082151 44.0400644656 7.84519191269 37.3616348927 47.9856920358 85.5871017928 105.36262046 79.5843015591 153.190500755 187.005257058 76.6062909542 64.2081225218 140.528105498 153.827942674 228.877985766 35.0841744824 39.2336813499 29.1852002931 19.0218871641 23.1277981416 12.2879035267 13.6526270054 15.828875807 15.6003179659 16.9799040691 17.8499922117 13.9195697576 20.206046318 22.2328724151 49.1108932883 33.195307242 29.7119685108 35.8328816485 25.7167405185 34.8412132102 90.8191125461 151.050369672 104.164703451 86.554887882 78.0212653033 128.146177287 111.400903178 97.7584000883 156.934233593 175.544244259 200.362014791 181.951404925 257.635855962 252.932079628 201.581142382 205.777402243 184.75045606 190.901101793 121.385927262 135.22869554 102.649875251 111.053696761 90.0326774826 104.304815874 111.545319954 105.386885506 53.8403718532 57.088110147 94.1737834 88.0830837712 112.00068807 64.024642635 79.6427746571 66.6468284034 50.4716923115 51.3725607622 51.9411385337 87.0674195289 130.082179787 91.9236399525 142.443502887 168.21472557 182.904664097 111.807442045 129.683477728 138.027774717 335.669784004 337.191845366 344.907867865 438.728896315 335.112276875 169.179242272 72.2179573976 147.093635439 135.543287209 137.243763468 118.489839397 71.035060206 81.8470832178 70.3376132132 35.1756085655 92.5764034253 121.928911591 125.389027205 77.7660368738 93.0576173889 70.6830730697 59.2834884381 39.9543220234 81.4475647167 67.9492145738 78.8907798421 123.48027134 111.987164959 88.2330149472 108.982311517 97.2114395585 164.582500723 256.472917047 244.185830136 179.539964461 153.171309456 99.9345681636 107.175518559 83.060231022 108.254477593 93.7173451716 238.563942525 217.883116938 118.056145145 102.790510689 144.616783371 157.37835703 169.469711054 149.616669692 94.9406438883 107.114235206 198.612011828 120.793201116 103.717402016 102.363783035 138.140521116 181.300634439 158.267036708 98.3582211956 76.8605733855 100.499222914 168.140935343 177.328629943 154.79036962 170.361123104 172.963117593 102.271922005 66.6132410804 97.9323673656 55.6797470528 54.871040835 63.0923758603 20.6361769443 8.3556485682 8.87465821283 3.93940797676 4.87799668269 5.34304960067 7.36798351011 6.64834846722
