DSAA
220 79
-53.7994932458 1725.25055045
-633.666666667 -0.975556903113
4.67943239844 1099.9769936
148.943225375 143.992455818 139.698070973 136.786701007 136.001327166 137.516741145 140.488653207 143.553702791 145.788074637 146.953165235 147.132724871 140.240705214 138.55088394 136.21185439 133.192430441 129.413436573 124.733647245 119.023348821 112.408406303 105.657331278 100.330089973 98.0555355324 99.2050395322 102.528313108 103.618475456 105.25606883 105.786987629 105.362002517 101.95205301 100.580540329 99.0975020964 97.473402973 95.5406427073 93.0622275577 89.8255615336 81.3087319127 77.3676810632 75.263731459 70.0808834429 67.8218823054 66.7407877943 67.0269827207 67.97790799 69.1090950357 70.0512060536 69.2453344281 69.0766607575 68.5590271391 67.7877442281 66.8612102289 65.8605265424 62.6400040254 58.8092944981 57.8062660859 56.8055498356 55.7751879175 54.6852541396 52.0863018483 50.9293504204 49.72778836 48.5182962608 47.3559862971 45.0487182979 44.3998707598 43.9271317581 43.6395326527 43.5209845186 43.5344857603 43.6321433407 43.3936893128 42.8187585921 42.8877383338 42.8934087028 42.8801911287 42.8522983332 42.8150960822 42.7738519365 43.3540829923 43.3593147681 43.3679370139 43.3813348102 42.777838767 43.2667616098 43.8882163786 43.9830383109 44.0703065407 44.1474165095 44.9651814836 44.9799173589 44.9576290868 44.8896404582 44.768518222 44.6369751133 44.404234223 44.1411564079 43.8860581513 43.8609191427 43.7544738728 43.8639407163 44.2031572228 44.7403898367 45.4092346497 46.1304692395 46.8332221974 47.4677179827 47.3304922356 50.7800240669 51.2378578459 51.5937979271 51.8781681544 52.1128687057 53.1431043766 53.2785231515 50.2619532266 50.3160688356 50.2839253381 50.1479182523 49.9036932072 49.5684410481 49.1864704439 48.803482248 48.5592557977 48.4899640859 48.8365273482 49.252673488 49.849022055 50.5366996206 51.2316594212 51.8730714685 52.4277732932 52.8852749817 53.2493310278 53.6691658172 53.860682009 53.9870209766 53.7480283187 53.7702437203 53.7449182121 53.6755365343 53.5655433631 53.4178807933 52.6755573325 52.4898645499 52.264211551 51.9906091797 51.6599070614 51.296837024 50.8359482867 50.3416236501 49.8603800886 49.4580895492 49.2022370053 49.1357633439 49.2581397882 49.5270917517 49.6683719357 49.9629849324 50.2375704752 50.47016259 50.4736457012 50.4728432175 50.3848169136 50.9642367357 51.0309955407 51.0836321268 51.1281416023 51.1678559574 51.2031375987 50.7372297633 50.9180285253 50.9562116838 50.9744649724 50.9689683493 50.939687055 50.8922118168 50.8386782601 50.7969446151 50.7876287169 50.8295587232 51.3942971579 51.6427108823 52.4780131774 52.9689202856 53.5033199176 54.0489545904 54.5800410181 55.0793939534 55.538289116 57.9427944191 58.3926312993 58.7913650981 60.4337556897 60.7580027401 61.022702853 63.1013405986 63.1632932001 63.0801720838 62.8248228066 62.3782726194 61.738642519 60.9315921429 60.0202761507 59.1101418865 58.3414530517 58.4569318245 58.3616684421 59.7432434632 61.060551413 62.8620443437 64.9052646559 66.9771364657 68.9339161515 70.706796874 72.28594657 73.6975573529 74.9832310414 76.185449063 78.7313530629 79.9993865811 81.2642284825
150.518649497 145.476378848 141.090355328 138.104770377 137.283895995 138.770537784 141.592426326 144.313709697 146.137691566 147.009554645 147.079578171 140.548772067 138.946243502 136.713659392 133.849793748 130.306478451 125.919037593 120.443643659 113.837767846 106.796128455 101.056387809 98.5531332382 99.733047662 103.140392414 106.742902688 105.425414414 105.542732065 104.64166976 101.04435583 99.5138163736 98.0843105052 96.6916637338 95.0718399193 92.866387143 89.7516609406 84.359309953 79.48802554 72.7338992144 68.9609574415 66.4562072944 65.5452826888 66.0291954543 67.2444766008 68.5963236525 69.654014746 70.2108780942 68.6287650567 67.9709413244 67.0500569962 65.9942652836 64.9053754369 61.7834743812 58.1275755289 57.1715518427 56.2287826893 55.2520497436 54.1972636322 51.710459567 50.5216606083 49.2548756924 47.9523499219 46.6814538355 44.4956065552 43.7927890267 43.2977302173 43.0243948299 42.9524999442 43.0333707125 43.2045691802 42.5990833039 42.6561596846 42.6863232541 42.744284029 42.7308640157 42.6996000372 42.657958948 42.6126413294 43.1727451168 43.1772731714 43.1865398849 42.5829475505 42.6347413309 43.6473073297 43.7508302636 43.8495684018 43.9420385148 44.0261072099 44.0983913445 44.8605714847 44.850322338 44.7920115544 44.6744383469 44.5323716309 44.2779626674 43.9782335404 43.6760474635 43.5168719895 43.3717645192 43.477691262 43.8530358269 44.4574223044 45.2068647644 46.00330464 46.7619044904 47.4261942541 48.0984474684 50.6251749517 51.0331110979 51.3386992403 51.5858435856 51.8059943285 52.7884766583 52.9644354355 53.0726006469 50.2184316319 50.2054075693 50.0668457114 49.7904646818 49.3913467606 48.92062346 48.465686555 48.1269135272 48.0213454932 48.2897561646 48.7868907081 49.4973558461 50.3023214396 51.0951157215 51.8047650782 52.3986984383 52.873107958 53.2401466687 53.6439246847 53.8308654036 53.9530888545 53.7247532799 53.7427812897 53.7118082141 53.6352916902 53.517789991 53.3643082359 53.1785150714 52.4664529889 52.2475691994 51.9824877429 51.6571620841 51.2863547807 50.8064881144 50.2752829392 49.7443109126 49.2926023725 49.0043941632 48.9340696621 49.0806016967 49.3907267144 49.7860777686 49.9203392682 50.2131853441 50.2929361223 50.4639414882 50.4570647247 50.5676268429 50.9020898646 50.953339269 50.9935711698 51.0302637637 51.0672927397 51.1045057382 50.7865364761 50.8437876392 50.8849457962 50.9014632454 50.8867381694 50.8389194714 50.7636941985 50.6759948017 50.5992630704 50.5614084379 50.5881297096 51.0276563317 51.3053284216 51.6881529968 52.6674959186 53.2739596979 53.8831089338 54.4638605001 54.9974531719 55.4765739896 57.8180495792 58.2698158591 59.8698919977 60.2550224314 60.5957756008 60.8854670359 62.9360847414 63.0358822166 62.9798824349 62.7299040556 62.2557868872 61.5460556112 60.6212197853 59.5480048718 58.4490198745 58.1677144756 57.1756812057 57.3629102726 58.1045509 59.6683870381 61.7802013015 64.1191151864 66.418315811 68.5148168815 70.348345626 71.932495059 73.3202766254 74.5761860537 76.9746396728 78.2593482231 79.5481308722 85.8487144868
155.858702074 150.440336103 144.574029881 141.803354599 140.953780758 141.974034777 143.880718722 145.509142769 146.443321622 146.844082588 146.824262326 140.800715197 139.329949967 137.231234168 134.581122447 131.440429692 127.700312357 123.054355584 117.283936995 110.883897645 105.449776685 102.822477827 103.44059195 105.988590215 108.605130194 106.012005386 105.32897878 103.661960786 99.7287891482 97.9746085449 96.6515311266 95.6435118953 94.5491157458 92.8550368926 90.1198681391 84.9858358106 80.0654800013 73.0952520783 69.1014969461 66.4392455388 65.4872904741 66.0044132686 67.2671554191 68.6183199038 69.5953012732 69.9905465658 68.1866795253 67.3025881218 66.1683645087 64.9422855599 61.8356554504 60.7486231632 57.318882151 56.4465073082 55.6026153104 54.7206834612 52.4535259247 51.3891559349 50.1923145512 48.8782978426 47.4946776978 46.1212113767 44.0228293953 43.2639749386 42.7446297869 42.4846732666 42.4591314823 42.6059578432 42.5430588437 42.4446703958 42.5178124863 42.5532314635 42.5516704381 42.5835212013 42.5433162729 42.493206262 42.4662015141 42.9802770925 42.3507059623 42.3825368275 42.4253545603 42.4782577046 43.086564623 43.5987985521 43.7004725794 43.7974368534 43.8885435324 43.9713137018 44.7335214423 44.7441761954 44.7083209952 44.6110659787 44.4806031893 44.2279299195 43.9157830382 43.5892814108 43.3634772219 43.1946906676 43.301343915 43.7057809685 44.3602949332 45.1660802369 46.0093892607 46.793903238 47.45787491 50.6432440585 50.4833484989 50.8019863222 51.0249409862 51.2132448133 51.4108686293 52.3445034903 52.5845823313 52.782711665 52.8643580002 50.1538443642 50.040061592 49.758359479 49.3205529686 48.783179045 48.2494789418 47.8490520946 47.7244116851 47.941716914 48.5121944972 49.3214609227 50.2211290536 51.0837672315 51.8312675201 52.4349310393 52.9004284808 53.2501784707 53.624191021 53.7984500148 53.9131319676 53.6957642969 53.7094362551 53.6719324348 53.5860710531 53.457886676 53.2957269865 53.1075228167 52.433998235 52.2307343534 51.9893492898 51.9957835287 51.3405492899 50.8736706848 50.3395793481 49.7913436475 49.3162722054 49.0100932655 48.9351429127 49.0902440036 49.4153795265 49.8239448076 49.9564413604 50.1062557895 50.3208242408 50.4765778889 50.7713189471 50.53811635 50.56093128 50.8625408515 50.8861472661 50.9132879541 50.9484511198 50.9907657078 50.6987823846 50.7656455556 50.8152558147 50.8353773861 50.8158264178 50.7521646246 50.6496537254 50.5260678834 50.4112754279 50.341981251 50.4858503407 50.6365117909 50.9891336367 51.4268858286 52.4092255891 53.0906058144 53.7620860904 54.3872735946 54.9465366636 55.4351401383 57.6975550408 58.136319456 59.6562662829 60.0428375481 60.4009131359 60.7235072927 62.7593981034 62.9223817673 62.9243082447 62.7151239752 62.2528864185 61.5157572139 60.5174939279 59.3254099431 58.9962219889 57.4057615247 56.3740617121 56.2119371271 57.0544948113 58.8381787248 61.2122402734 63.7764956167 66.215017762 68.3548003885 70.1548045459 71.6613446575 72.960431996 74.1419547873 76.4465472353 82.0219772717 83.5631389748 85.1606721286
160.354407567 155.44317277 151.294775712 148.438204877 145.803571646 145.792108307 146.088465635 146.086527901 145.92139455 145.947605183 146.092496893 145.870654048 139.630345954 137.633472644 135.135671086 132.409860434 129.504403759 126.107912649 121.810799169 116.784957609 112.20835909 109.534197894 109.178321773 110.223188863 111.22977572 106.775068228 104.984613202 102.289674259 97.8820139793 95.8179616261 94.653288588 94.2016003303 93.8627670063 92.9248366586 90.8524164848 87.404719887 81.6481197806 74.6367517994 70.7074298227 67.744267714 66.7837706517 67.1036580855 68.1169297465 69.181238887 69.8401729876 69.8896995657 69.3327424937 66.489955629 65.0754814645 61.8680256956 60.5725123609 59.4833013828 56.3509410761 55.6076483442 54.9126114317 54.1750889783 52.1298234778 51.1326669132 49.9610190575 48.6299994009 47.1925359315 45.7398865755 44.3943172595 42.8814384256 42.3394569941 42.0895112926 42.1019672637 42.3015501426 42.3675676525 42.3315860873 42.4078812034 42.4364150264 42.421653198 42.3748537538 42.3789013348 42.3162682762 42.28017026 42.2276189804 42.1780413488 42.2092637862 42.2527901787 42.3068808685 42.929002664 43.4293303393 43.5320075101 43.6314775612 43.7282418115 43.8215726971 44.5881422368 44.6281931637 44.6284709747 44.5194708871 44.4793158072 44.2599465707 43.9709610202 43.6566612614 43.4577790309 43.2925071338 43.4076943921 43.8278423815 44.5016725544 45.3228173614 46.1690164771 46.9370409595 50.0107791178 50.6045638699 50.9439707806 50.5153373329 50.6167993341 50.7200232704 51.5044965891 51.7686694259 52.102968648 52.4355260986 52.6660371254 52.6887308671 50.074400635 49.8274428473 49.394804845 48.8369147292 48.2681404494 47.850637036 47.6920854637 47.9268784423 48.542148886 49.405551826 50.3476129913 51.2270658928 51.9632812593 52.5342996102 52.9570773004 53.2652683427 53.594729906 53.7499793428 53.8568399918 53.6544497687 53.6660600234 53.6221459315 53.5238999866 53.3792517375 53.20164959 53.0060205562 52.6450521247 52.1952658305 52.3086448067 52.039427584 51.4466563123 51.0321249626 50.5398999387 50.0200995512 49.5603682185 49.2582606831 49.1777156615 49.318654622 49.6222194067 50.0031483728 50.0745239267 50.1944909899 50.3820799091 50.6904581379 50.7660111886 50.5047145435 50.4986346943 50.7507710456 50.753142 50.7690993768 50.8039108237 50.962152726 51.0253550564 50.6814004669 50.7468268988 50.7782976867 50.7614747321 50.6887477837 50.5644071957 50.4087423227 50.2581696093 50.1587998808 50.2086604695 50.3676570702 50.7374913868 51.2308289023 52.2316600411 52.9816883563 53.7058215689 54.3627201189 54.9326098576 55.447304204 57.5728377949 57.9920130316 59.3952672977 59.7752546433 60.1518738887 60.5175108559 62.5516728497 62.8087072776 62.9061294229 62.7819554884 62.383473498 61.6799944343 60.6793159345 60.9700425212 59.0527418399 57.3561973936 56.2417933758 56.0288388586 56.9377912034 58.8512504081 61.3578779965 63.9964753301 66.4184383032 68.4540147236 70.0916572844 71.4176972112 72.5549718175 73.6186438438 79.6228784675 81.1043327583 82.6952192008 84.3848092305
165.658996511 161.177885931 157.299504245 154.29048099 152.140998248 150.396978382 146.854867598 144.977260109 143.792078186 143.835495325 144.67058589 145.216291138 139.830456565 137.82763839 135.253592597 132.719586707 130.558004845 128.507889759 125.921205892 122.542359144 119.036171704 116.43763863 115.154626409 114.667061266 113.966280213 112.134378108 104.506032064 100.616522547 95.603320513 93.1180966505 92.1341215197 92.3836608418 92.9897653703 93.0088361383 91.7930178721 89.1018221724 85.1343725315 77.0870735731 73.4710499723 70.3245950474 69.1729825947 69.0977886426 69.6037162651 70.1311236838 70.264348921 69.8065211176 68.7584861319 65.4672942127 63.8873709344 60.4043736037 59.0069551472 55.9412314693 55.1914975764 54.6313530314 54.1434800591 53.6066513537 51.8317221979 50.9438766382 49.8380118618 48.5314240567 47.0832571835 45.5946310462 44.2012462256 42.7135846231 42.1556381635 41.9091705108 41.9406798175 42.0797663388 42.1527103319 42.2633337168 42.324539821 42.3307569934 42.2906776577 42.2194569007 42.1329070993 42.1206298305 42.0743779762 41.9703761374 41.9861427253 42.0181795 42.0636236606 42.6361505584 42.7545611741 42.8704641536 43.3403367935 43.4385195777 43.5373752161 43.6390157863 44.409412904 44.4852865716 44.4724117874 44.4835831675 44.4274769883 44.3604305636 44.1359105007 43.8779476475 43.8075785408 43.6800191268 43.8140380584 44.2338892092 44.88994547 45.6780083961 46.4765702983 49.4493700327 50.1751125814 50.5843907239 50.7189723573 50.141715587 50.0769734365 50.0641976874 50.7044743002 51.0178819794 51.4832265649 52.0023468342 52.4423267556 52.6683903652 52.5752793105 50.0030077067 49.6318107756 49.1170252831 48.5772634127 48.1993171862 48.0885953003 48.3314252056 48.9453576127 49.7938517481 50.7021618527 51.5263681054 52.1887918254 52.6762777137 53.0179713917 53.2592352941 53.5310217451 53.665593482 53.7703179385 53.593065926 53.6091472922 53.5609166882 53.4464724129 53.2761006479 53.0706866915 52.6931181148 52.5151253757 52.3539393637 52.2543423126 52.0680933323 51.5726273762 51.2493926733 50.843881206 50.3988774122 49.9941654965 49.7191840905 49.6333019852 49.739231716 49.9873092955 50.3028706717 50.4178682177 50.3250958218 50.643067802 50.7333858036 50.7594921622 50.460757011 50.4174491172 50.6093638559 50.5854128218 50.5886179108 50.6253428397 50.7895280383 50.8798227 50.5881124441 50.6783028974 50.7309992254 50.727652353 50.6574439098 50.5234167389 50.3476800311 50.1721202183 50.0510687759 50.0453620123 50.213806872 50.6049706463 51.1450120129 51.7818646757 52.9752584919 53.7315290048 54.3986441201 54.9570512115 55.4402594777 57.4382011842 57.7800273021 59.058861615 59.422971695 59.820552156 61.8228156476 62.2871675033 62.674290387 62.909840752 62.9203336447 62.6446906928 62.0470487108 61.1326087555 61.6795392594 59.8318844259 58.181523772 57.0959314451 57.0664966644 57.9828541355 59.8757722249 62.3096037934 64.800707259 66.9951172592 68.7415364341 70.0661712198 71.1003459631 72.0055348156 77.1743259026 78.4853514415 79.9867601621 81.6712353794 83.5008006062
171.408059773 167.143728875 163.162820195 159.485381374 155.878831814 151.888550525 147.326864543 142.053641204 139.972360417 140.500772504 142.662150036 144.466763467 140.030856668 137.850624674 134.821436351 132.023765095 130.24322432 129.365520097 128.459776523 126.76191853 124.431131004 122.15304772 120.313366548 118.669437258 116.550180172 113.239203992 104.201890672 99.1532772944 93.4556564962 90.4608029036 89.6128860162 90.5796368625 92.1709569544 93.1661758147 92.8303362954 90.9857958003 87.8836699086 79.9408344539 75.742768732 73.4365450825 72.065823539 71.5033927635 71.3721089465 71.2254688099 70.7090102231 69.6381006248 68.0056961724 64.3938060379 62.2503084832 58.6160900787 56.937811117 54.3976559873 53.8195091755 53.5034147781 53.286639952 53.0093633832 51.5539441104 50.8175985694 49.8200323059 48.5848709466 47.1793094917 45.7123293044 44.3265146176 42.8017493275 42.2384318512 41.9857038217 41.9726191467 42.1134089212 42.1514496422 42.232184919 42.2570870491 42.2244235185 42.1470108226 42.043426242 41.9316991069 41.3443666736 41.2695397527 41.7546220647 41.7712891381 41.8069221424 41.856613233 42.444131525 42.5623571305 42.6744609639 43.1220057721 43.2127325117 43.3071228218 43.4115102109 43.5293045113 44.2236907175 44.3379015574 44.423368833 44.4557879155 44.4945668078 44.3733149343 44.2134818919 44.0787970535 44.2982944464 44.4623074027 44.8699623782 45.4777328699 46.1918398992 46.8995391957 49.8777872129 50.3883784042 50.558423023 50.4331615407 50.122934571 49.3830542381 49.2197549005 49.6878375206 50.0683564356 50.7072388592 51.4692339227 52.1794435606 52.6710638432 52.8228527117 52.5836171966 51.9874130218 49.609951081 49.1639570878 48.8957696543 48.8920701452 49.1322626269 49.6958312369 50.4562023907 51.2503737403 51.9438778287 52.4676297091 52.8192953207 53.041526766 53.1927380522 53.3985465442 53.5187898908 53.6364314896 53.5035658949 53.5371182073 53.489994886 53.3551930448 53.1458417122 52.8932265679 52.4993549405 52.3062948541 52.1664230463 52.1215107907 52.0376661872 51.916762398 51.4731963688 51.1889216092 50.8529328765 50.5320180234 50.301867812 50.2141186033 50.2752976616 50.4492066307 50.4726300962 51.163872413 50.6535422616 50.750009242 50.7785962296 50.7440381825 50.4003307336 50.3112666422 50.2242185201 50.3749413388 50.3637879555 50.4054501684 50.5808961357 50.7087555102 50.8416198156 50.6077087254 50.6925434295 50.7155052782 50.6633604025 50.5381808129 50.3629915325 50.1827513887 50.0565909139 50.0521933799 50.2303034115 50.6419959664 51.2090817547 51.8735372281 53.0902331782 53.8476883182 54.4955697965 55.0269434665 55.4190347418 57.2428512733 57.4971476106 58.611997262 58.9505126583 59.3739725476 61.3305274724 61.9373331622 62.4953727001 62.9144787114 63.110047815 63.0156661841 62.5949656248 64.4016366685 62.9108150693 61.2957131424 59.8492350067 58.9093926157 59.280448665 60.1327650863 61.8317171907 63.9604820203 66.0593601265 67.8001342582 69.0651476815 69.9260722284 70.5648899966 74.7886473032 75.7548169481 77.0250099262 78.6106906245 80.4621604156 82.5017117882
177.441469441 173.231309037 168.91686451 164.327614497 159.111893925 152.887118886 145.807569118 139.354338223 136.104365127 137.115459712 140.881489483 144.140969239 144.620564533 137.968229376 134.129389371 130.575368931 128.702279768 128.687227219 129.319654934 129.270689116 128.204207621 126.508250099 124.528862836 122.204352998 119.123161194 114.769759726 104.632811352 98.7759705499 92.4874510124 89.0427412403 88.2109902969 89.6578758864 91.9548065527 93.6718334761 94.0435397709 92.9418904267 90.6432189296 86.2971475939 78.7251262329 76.507042013 74.9186792675 73.8732733171 73.0996510328 72.2591859629 71.0615555315 69.3375775788 67.0704840081 62.9604203876 60.3217275657 56.3843694003 54.7765142627 52.6093367692 52.2477465135 52.7167137655 52.9007435656 53.0061914605 51.2942330479 50.7439809023 49.8908610645 48.7699315631 47.458529438 46.0712380642 44.7502554754 43.1330825398 42.5743667141 42.1896910673 42.1673717694 42.2574058622 42.1915869413 42.2169966224 42.1854506913 42.0992000186 41.9745996539 41.8329070277 41.6936840852 41.1206525806 41.0415885699 41.5074963579 41.529593058 41.5733964313 41.6311846897 42.2349810366 42.3527262144 42.4578447196 42.5516817978 42.9487838394 43.0283325208 43.1256111146 43.8002800187 43.9569964289 44.1318911846 44.3033885948 44.4432557824 44.7908801237 44.625849729 44.5961572537 44.5754641432 45.0376372619 45.2432273869 45.6364916985 46.1820082093 46.8004532898 49.7764663168 50.3673852855 50.6278827903 50.5236315127 50.0986964008 49.4789787364 48.5571880358 48.2099415637 48.4845996307 48.9522141032 49.8076298124 50.8640316194 51.8937542836 52.6960624221 53.138699358 53.1746066112 52.8448395186 52.2731339927 50.090314754 49.8363852968 49.9734341234 50.2005646539 50.6765841903 51.2929548166 51.9093659492 52.4095832058 52.7380388665 52.906207583 52.973728935 53.0161172545 53.1549727297 53.278306671 53.4366384249 53.3792795918 53.4520088194 53.4163382097 53.2577763106 52.9928109154 52.6665794866 52.2294349897 51.9968873887 51.8655923694 51.8563110828 51.8882230762 51.938279904 51.6525485656 51.5100514157 51.3008554048 51.0779908772 50.9031537681 50.8203089737 50.8397093238 51.1965665083 51.3540970026 51.2149515581 50.8338706315 50.8597063177 50.8191135634 50.7157132179 50.3213467961 50.1781750162 50.0456268934 50.1190217525 50.0918409799 50.2064759694 50.3349629861 50.5115146079 50.7008663348 50.5340814216 50.6610357348 50.7228104432 50.7053130723 50.610456756 50.4612737053 50.3026121871 50.2616959988 50.2559191905 50.4440361573 50.8714687199 51.4393941782 52.1002230281 52.7768157436 54.062876255 54.653778981 55.0964608805 55.4023711413 56.9796290589 57.112772159 58.0175980418 58.32161221 58.7801099337 60.6887100735 61.4786332029 62.2525672324 62.9008214304 63.327674017 63.4642958932 66.4947139026 65.6654404551 64.5244984029 63.2577140592 62.1227816058 61.4031597706 62.3001312979 63.01823489 64.3764343373 66.0071004178 67.5088348358 68.6033689255 69.2202345435 69.4873176392 72.6793085655 73.0492874501 73.8540669303 75.1677789377 76.9435220976 79.0670998225 81.4072339564
183.765618634 179.611497687 175.012526685 169.673483586 163.20155578 155.325682531 146.481768514 138.571903096 134.662320296 136.433032533 141.868292693 145.080303346 145.825369747 138.711881439 134.076046771 129.661484437 127.407659712 127.843615126 129.607709905 130.914372067 130.994843129 129.971015541 128.130453522 125.529404006 121.963870656 117.122712712 110.838133968 98.9121966726 93.7018936953 90.0901059453 89.1386406148 90.5811237491 92.9905244405 94.9261615842 95.6391700113 95.0163153957 93.3078394187 89.421059131 81.4081206638 79.2374232128 77.4431536614 75.967589823 74.6187725511 73.143335842 71.3056701657 68.9506306653 66.0495117308 61.4339234836 58.2465495169 54.2026496445 52.4083667095 50.975360757 50.8874421109 51.3014798203 51.8935390162 52.3754466343 52.5510171691 50.7159521731 50.0278868474 49.0491569205 47.8682140988 46.6024851965 45.3873938067 43.6365190283 43.0860358282 42.5380770446 42.4535820772 42.4609488696 42.237013264 42.1868535296 42.0836517642 41.9334001134 41.755307568 41.572693865 41.4062022214 40.8522616732 40.7738235846 40.735323809 41.2572444083 41.3160167846 41.874594995 42.0100925602 42.1277936341 42.2223148985 42.8710852443 42.896491142 42.6926338028 42.7677929869 43.4030320979 43.5865993243 43.8219708489 44.0872041907 44.3488777586 44.8702966605 45.1635357689 44.9572515934 45.0701749067 45.7870517101 46.0470963534 46.4346055492 46.9219832956 49.9356346684 50.5380398 50.8930768089 50.9001641954 50.5171588304 49.7827197203 48.8346302849 47.9082210746 47.3322896332 47.2334001074 47.80499378 48.9063999047 50.2851872184 51.653569787 52.7789496814 53.5244443344 53.8519842885 53.8101617237 53.5173444473 53.315860657 50.8922700483 51.1723948944 51.3754719993 51.7424390378 52.1836439623 52.5838750325 52.8481982219 52.9375024766 52.88092245 52.7615504498 54.4188699653 52.7828970793 52.9423553355 53.1884092426 53.2184415778 53.3616723208 53.353869139 53.1709650524 52.8334819361 52.4038196124 51.8890482022 51.5858346204 51.4592104057 51.4938552611 51.6543819355 51.8457166501 51.9791938942 51.769697591 51.6914573706 51.5692425676 51.4538161935 51.3832840027 51.6723657464 51.7170863835 51.7809299757 51.5165625118 51.5186964851 50.9664236284 50.8544824054 50.6782156275 50.2293225292 50.0250361615 49.8397859538 49.7097462224 49.8455000293 49.8928243381 50.0622983448 50.2973935038 50.5524237908 50.7824492358 50.6358593158 50.7455171518 50.7761223732 50.7303649168 50.6304722721 50.518194756 50.6084022189 50.6349790758 50.8350105568 51.2729274145 51.8174289694 52.444770474 53.6766397534 54.3230837866 54.8275587291 55.1682609291 55.3583508949 56.6265333431 56.6029819398 56.6661146627 57.5123711874 58.020914339 59.8862653423 60.9063204443 61.9430663739 62.862561619 63.5579027369 63.9605352419 67.5246677697 67.0816388072 66.3398797011 65.4663384009 64.6752193188 65.660184498 65.6163430654 66.1406203826 67.0662658766 68.0837441479 68.8610730214 69.1795164728 69.0253147843 71.2173041158 70.6976642581 70.684184998 71.412448175 72.9018670361 75.0122705593 77.5377119096 80.2799347703
190.422394599 186.495061274 181.919841887 176.33303528 169.349730717 160.833507634 151.452950587 143.261621595 139.190971864 140.649544851 145.597287334 150.033453048 148.661788886 145.157982672 135.788090044 131.023749596 128.475031603 128.864464162 130.961688839 132.905201281 133.674389866 133.150897753 131.524886739 128.908052289 125.252467668 120.43826453 114.454716132 103.020142676 97.3018598627 93.9003544036 92.7613318502 93.7113105566 95.5911532173 97.1748112903 97.7917719927 97.3106311389 94.3222027322 92.230039992 83.7447135705 81.566447962 79.5775242525 77.7382233662 75.9102134394 73.9010047794 71.516416231 68.611276207 63.6330859968 59.9843455201 55.01686261 52.1358451901 50.1189643058 48.9802400957 49.1546569703 49.9629710411 50.9743687205 51.8302413747 52.3119976936 50.7372338821 50.212006997 49.3812612119 48.343154757 47.2144974903 46.1193784974 44.2057850886 43.2126001782 42.9210011563 42.7554505838 42.6592648173 42.2480150301 42.110156283 41.9266287442 41.7068280843 41.4724194766 41.2486346386 41.057237197 40.5311556292 40.4598122008 40.4375253144 40.9508231367 41.0339547624 41.6226178293 41.7726810276 41.8920477505 41.9723297623 42.5608033583 42.5383086027 42.5165402058 42.3266565463 42.8898226685 43.0873308395 43.3798974745 43.7448401068 44.1410079273 44.8438597988 45.1711923486 45.6197495697 45.8886818454 46.4724414174 46.8016545987 47.200012813 47.6465312451 50.902625805 51.3155387971 51.4630062246 51.2476834963 50.6209052281 49.6136524941 48.3699100891 47.1609895162 46.3546930361 46.2143528538 46.8927058136 48.2315251788 49.9094198065 51.5829252027 52.9964951921 54.0154117347 54.6120689973 54.8397148398 54.8072065031 54.8646100984 54.70374599 52.3725358302 52.5399607023 52.7880246779 53.0425422331 53.2098124707 53.2141973902 53.033129239 54.4443303541 53.8149877242 53.4141214021 53.4034218639 52.4408772888 52.823355205 53.2180666758 53.2828952507 53.3244938999 53.1223231415 52.702172056 52.0477879814 51.5213206638 51.2493293594 50.9581938994 51.0568522267 51.3533928518 51.7166153289 52.0260989053 52.2187803153 52.0165914239 51.9885621223 51.930507608 52.2237831184 52.1951496586 52.183662468 51.8261205045 51.7993695279 51.7201420716 51.0724131089 50.8926488511 50.6453061798 50.1405367427 49.8722033306 49.6300085848 49.4613079439 49.5035852865 49.5768069345 49.7928925519 50.0912481214 50.4143293347 50.7107406897 50.620360221 50.7809288416 50.866505251 50.8810959911 50.8454059207 50.7960727879 51.0569634199 51.1285612754 51.3441494387 52.0395437412 52.6050216043 52.8691129946 54.0728665779 54.6201838475 55.0139408383 55.2288669999 55.2781899249 56.1834526449 55.9699372534 55.9027632745 56.5359106448 57.8821710643 58.9554770799 60.2539058567 61.5958331835 62.8186814268 63.8052799561 68.2558182822 68.6006964705 68.5491590087 68.2028708573 67.7069090789 67.2314212586 68.8546461022 68.8224470914 69.1120272301 69.5699852016 69.9376835999 69.9440700073 69.4245367055 70.9049805913 69.324085447 68.0936359436 67.7380549772 68.5103567716 70.3396229268 72.9473967197 76.0060307851 79.2408146746
197.352089431 193.910155469 189.803842937 184.637207579 178.034894375 169.950333399 161.160234288 153.576315871 149.537337344 149.93416941 153.071051341 155.850891174 155.822659763 149.681643306 139.737208713 135.296068825 132.730812284 132.704702988 134.328322581 136.065025976 136.893456238 136.523463795 135.021217491 132.493273038 128.98707099 124.532274906 119.254477853 107.779583148 102.615629157 99.6579277087 98.3403127985 98.5561196234 99.5207318561 100.351255211 100.515089535 99.8657253129 96.7850428943 94.79686328 92.561928959 83.547993183 81.3742500771 79.2378900783 77.035152158 74.6156476761 71.8160653472 68.4989866317 63.1353903717 59.0767122296 53.8508459234 50.617795977 48.2227548354 47.4368059943 47.8296335326 48.9746477412 50.3357367074 51.4928623184 51.4048293548 50.8250570221 50.4347433945 49.7340564571 48.8265768106 47.8244286167 46.8376763449 44.7530681565 43.6152573641 43.2637784429 43.006459255 42.7974282207 42.1948008831 41.9646407657 41.6975791409 41.4061654922 41.1145973386 40.8505138138 40.6374875575 40.1508512789 40.0941734945 40.0977144556 40.6077921615 41.1550726073 41.3546976822 41.5280614348 41.6527913684 41.7159275294 42.2291232656 42.1381772905 42.0383331431 42.2453899037 42.1035058736 42.4435032642 42.7892831807 43.2612388305 44.1311872287 44.6959388292 45.2193448866 45.8622808881 46.3026260826 47.0659973302 47.4798948442 47.909290577 51.3978306984 51.8459818292 52.118327452 52.1116024228 51.7361911863 50.9418547344 49.7533990419 48.3149338442 46.918599214 45.9813032078 45.8025853179 46.5638355862 48.0707672757 49.9524652139 51.8324187326 53.447644388 54.6704248568 55.4805205243 55.9297098372 56.1125676515 56.3780600673 56.3316566832 56.7323084545 53.6473675182 53.775175514 53.8453682092 53.7800151882 53.5181754124 54.9251448975 53.8613786877 52.8593850359 52.2302965496 52.1979395584 51.8564304643 52.4250209496 53.0140243354 53.2458226263 53.3579379413 53.1492944465 52.6532288868 52.1448495859 51.3679727315 50.7741991351 50.5124753349 50.6674278367 51.0905110825 51.6104377047 52.0750108241 52.4061890927 52.5959238162 52.7180423799 52.7219027972 52.6921596581 52.6487336618 52.2088852136 52.1549547211 52.0640154355 51.9167116379 51.1175793692 50.9486334019 50.6398149145 50.0820857535 49.7550718351 49.4591161559 49.3039902357 49.2189517524 49.3244964763 49.5786153793 49.9341050134 50.3160033567 50.4061625533 50.6730572344 50.8301958841 50.9698434016 51.0469092416 51.079927678 51.5028125119 51.5439294802 51.6669588383 51.9021274237 52.67693795 53.1884695294 53.747548977 54.4952127879 54.9314860392 55.2029575959 55.2801638879 56.1449149963 55.6951403794 55.2696463609 55.0582617989 55.4777383351 56.6824192798 58.0009602126 59.61331118 61.28455762 62.8219377127 67.8242977313 68.990856294 69.7010395344 70.0127671118 70.0230164586 69.8546780608 69.6384262963 71.7880671751 71.7242448984 71.766327665 71.7718837868 71.5199030515 70.7829943972 72.1156786373 69.6853333148 67.1168979522 65.1680903567 64.5263865199 65.4667809127 67.7877755923 71.0252184989 74.7052223753 78.4761539068
204.308662868 201.56470286 198.331214647 194.200029428 188.754167504 181.899994999 174.317488027 167.575052232 163.382891822 162.299893331 163.173510633 163.932803752 162.866873375 159.408509291 151.371110246 144.415288481 139.316564411 138.75590686 139.499778913 140.477351349 140.857809908 140.295954756 138.755164095 136.299280135 133.011789509 129.013430303 123.443250855 118.863210973 108.615722795 106.149837231 104.717093554 104.224966027 104.213154752 104.142860913 103.654149057 100.938097677 99.2344210994 97.164431813 94.8708472264 85.25897363 82.9119116471 80.5428061064 78.0702252176 75.3743882293 72.3178385651 67.9382189779 63.205827222 58.9540573266 54.0318748568 50.0569813493 47.6453283319 46.8343762196 47.3309436458 48.6500659428 50.1883344334 51.4933029709 51.511842721 51.7165233627 50.6977125916 50.0895834893 49.2816772246 48.3771207968 45.8997233255 45.2145660662 43.9399211807 43.5205513479 43.1677093849 42.8453250286 42.0653011762 41.7434348678 41.3928974873 41.0292153053 40.6796193773 40.3753175641 40.0922083781 39.9728814663 39.6741393987 39.714207288 40.2274803872 40.8256897556 41.0750640362 41.2837144068 41.4202934824 41.9934797765 41.8907333733 41.7096958254 41.7490279349 41.5650853472 41.5162652855 41.6600918513 42.0569218405 42.6465436672 43.6677140501 44.4409341425 45.1759409836 45.8362759786 46.6352737999 47.1948031028 48.0885968294 51.8772955169 52.3912939796 52.7813130642 52.9722374266 52.8799150701 52.4282164176 51.5729340432 50.3377884118 48.8621164392 47.4361787019 46.5231945221 46.3567661743 47.105710806 48.6555878376 50.5855653429 52.5234154374 54.2168846123 55.5468332056 56.4937616958 57.1002151079 57.4417487 57.8582261804 57.887134101 58.3373346133 58.2691304629 54.7223792737 54.6238172079 54.3442121561 56.1169717358 54.8436919285 53.3687180325 52.004595198 51.1521693712 51.1090829835 51.8779961166 52.1055789536 52.8995592275 53.2981215439 53.4902957136 53.2937934322 52.9901918487 52.1513711367 51.266668055 50.5845945783 50.3179396929 50.5079678655 51.0152119886 51.6392050753 52.2063624713 52.6295468816 52.8971403645 53.0788804008 53.1202223381 53.1026378277 53.0465181253 52.5548208876 52.4581599596 52.3170571533 52.1172617624 51.2505837927 50.9738903027 50.6289021067 50.0861093408 49.7176261822 49.4388103217 49.171433817 49.0753348576 49.1950604834 49.4820013759 49.8731251149 50.0730951988 50.4139167931 50.7121074613 50.9524845649 51.0842036959 51.2182956587 51.3160134242 51.9071776148 52.0225854297 52.1976373446 52.455435508 53.3078506607 53.7704012382 54.2568230319 54.9209009812 55.2496269358 55.4032108707 55.3481534928 55.9437714565 55.2686468064 54.6359074603 54.2846643987 54.5228015389 55.6429776223 57.2173812645 59.1427443355 61.1289533827 66.3300975979 68.3132238814 69.8097480573 70.838024402 71.4619539584 71.7718814013 71.8699783556 71.8542531607 74.4222047195 74.3061864807 74.1223859638 73.7377261187 72.9576251827 74.7473088208 72.0650869755 68.6846773599 65.2091971805 62.5969044013 61.7296139461 62.9124059751 65.7875771193 69.6790633032 73.9629290551 78.2234130139
210.865481238 208.832054834 206.631471004 203.875294952 200.049553159 194.85286225 188.685170869 182.733463416 178.291995851 175.842787956 174.749840314 173.751113045 171.744967821 168.345074593 156.595787575 153.08252417 150.653865742 149.679996544 145.657106388 145.679932407 145.355590784 144.382131502 142.664942457 140.208477869 137.082468746 133.443273292 128.416146501 123.25872745 114.442265394 112.427806513 110.969570164 109.93945311 109.089380132 108.157032197 106.959400798 103.646155437 101.612098917 99.3302821127 96.8818207131 94.3277905621 84.2504024313 81.7099393019 79.0670571307 76.2272083464 72.1145115025 68.6983370329 63.9486556568 59.5507820916 54.2495116286 50.9015881597 48.5271070077 47.524335709 47.9546188564 49.2026849428 50.6698401137 51.2065305557 51.8452105963 52.0456249226 51.0051023162 50.4403816023 49.6906551867 48.8460876114 46.2546955159 45.4199972125 44.8282487503 43.675866256 43.2292034487 42.7988960052 41.8652149236 41.4557275645 41.0237486986 40.5874668263 40.1777907444 39.7870553019 39.5607937507 39.4454610499 39.4438561945 39.5406570225 39.781275397 40.473059833 40.7901986185 41.049133954 41.2074443373 41.7392749585 41.56960367 41.5266753739 41.1459468818 40.8208742622 40.6718042648 40.9200371353 41.2286237494 41.9485864004 43.1284960527 44.1262359456 45.0834214605 45.9471857356 46.9200335089 47.6254712686 48.6532082811 52.8111114012 53.3504477248 53.7318385232 53.9010879087 53.7952442454 53.3568065559 52.5548123289 51.4173215935 50.0746029933 49.0257376497 48.0998451297 47.983736573 48.5900327178 50.0443471652 51.8564809811 53.6967950792 55.3399710655 56.6754800359 57.6780026944 58.3743021042 58.8175779584 59.9001832664 59.4047325192 59.8832418585 59.7242535562 59.3968360081 58.9249278615 57.9914140302 56.644726786 55.069847161 53.2879382524 51.6530206688 50.6336366791 50.5845848145 51.5021941754 53.0051918237 52.987223707 53.5028329088 53.7610858955 53.8906336386 53.3075027151 52.4590245778 51.5565874703 50.8562593568 50.5488925648 50.7380953787 51.2547788711 51.8958466907 52.4858610691 52.9359966588 53.231478159 53.43614341 53.4913033606 53.4740136989 52.9610531589 52.8732178239 52.7433503619 52.5651074742 52.3289419469 51.4110123232 51.1120779451 50.7491217253 50.1780286164 49.9239605113 49.5156112494 49.2304663609 49.1419177723 49.262751722 49.5496927026 49.7758214628 50.1321428421 50.4787897598 50.7902726065 51.0545486936 51.2697248001 51.3919230029 51.5453170643 52.2870056089 52.4690728948 52.6929969791 52.9752480206 53.9011413444 54.3257261333 54.75232436 55.3459400514 55.5850628094 55.6423708135 55.4818656671 55.9103498032 55.064556664 54.2735011591 53.817805844 53.9645225811 55.0780869978 56.8673216013 59.0437842736 61.2741150134 66.7697845182 69.0179801886 70.7662061573 72.0430678959 72.9139599894 73.4603032622 73.7654649182 73.9016721713 76.8052751128 76.6437429512 76.288706508 75.6178946375 78.2476360813 75.8945487762 72.6126454851 68.5799822843 64.4604717883 61.3632418129 60.3406569409 61.7333984871 65.0492846138 69.4322444629 74.1423252832 78.7250535729
216.541508016 214.90975251 213.47878383 211.967858312 209.809814604 206.436510641 201.864780935 196.90089447 192.562581269 189.339397538 186.968274757 184.738983489 181.989782647 178.481744132 174.503598587 162.074266061 159.512816134 157.844062874 156.857052066 150.985530552 149.893095785 148.443552645 146.505790726 144.000269055 140.933180144 137.458119755 133.861145053 127.957498211 119.540748715 117.926145944 116.551327262 115.194752567 113.711105479 112.03973828 108.523221033 106.252578639 103.812728131 101.246910309 98.5931528103 95.872890578 86.3319466103 82.7613543552 78.8504486521 76.0966962445 73.134487368 68.4777503275 65.0201167122 61.2730431087 56.1290631712 53.0217051199 50.7566101297 49.4945842364 49.6876252151 50.6182839462 51.1254619607 51.9322354908 52.4029340539 52.5013515042 52.2640815719 50.7816765997 50.0467395736 47.0928281731 46.3749213764 45.6885568151 43.9404067661 43.3877014535 43.2011405495 42.6728950089 41.6132624529 41.1237253358 40.6149880447 40.1071415569 39.5954536661 39.228449786 38.9750193976 38.863022383 38.8970303827 39.0563421948 39.676878877 40.1066592222 40.5099604588 40.8356123723 41.5644679157 41.5341599999 41.5699603516 41.1165324212 40.5762379938 40.0917082841 39.8274554291 39.9866445488 40.5162315052 41.4568849574 42.6068744914 43.8317752895 45.0082713846 46.0690917804 46.9943773788 48.0496826081 52.7851506916 53.708089781 54.301624615 54.7151463942 54.9146947482 54.8591818287 54.5122653641 53.859913512 52.9365982369 51.8585050876 51.2102199649 50.5077901801 50.4690934731 51.1827150817 52.0976386313 53.6711198534 55.2977902794 56.7903763068 58.0479591919 59.036338307 59.7635939021 61.1387570481 61.4360248574 61.5604778745 61.4243682152 61.1989561708 60.76142372 60.145859957 59.0509727487 57.5472103266 55.8291747927 53.9200014238 52.1856146324 51.1090829231 51.0523389498 51.9998678135 53.54618727 53.387099388 54.1566079978 54.4784795766 54.393436594 53.8651033591 53.0882094758 52.2620280026 51.6181155827 51.242173327 51.3932402361 51.8400409334 52.4055076195 52.9334829003 53.3416850763 53.8255432022 53.9900060247 54.0547135962 53.8178114216 53.2806533079 53.1709577194 53.0152180732 52.8108501924 52.5528917718 51.6002171504 51.2986581299 50.9433137743 50.5856804449 50.1604432989 49.7738087189 49.5012732575 49.4314012482 49.5363957282 49.7858569953 49.9404177701 50.2727633395 50.6031480452 50.9101492215 51.1837784844 51.4224067101 51.5675510983 51.7658513055 52.6374756577 52.8766300095 53.1448090241 53.4527353671 54.4483432983 54.8493148876 55.4735830371 55.7804853472 55.9597724417 55.9579114564 55.7394137002 56.1628496063 55.2481973038 54.3970114099 53.9084768683 54.0838795744 55.632829722 57.1994040798 59.4991725435 64.7847386307 67.6234856965 70.008135867 71.9056389583 73.3472036946 74.3932207724 75.113146829 75.5730028426 75.8250984111 79.0081628689 78.8285729235 78.379491734 81.9635659865 80.2097151286 77.6435480356 74.1673716709 69.9524981695 65.6531286667 62.4051318499 61.3221069815 62.7706008305 66.2124717968 70.7234405232 75.5240070738 80.152821973
221.051015476 219.193369181 217.798122575 216.854872446 215.982005493 214.494327093 211.968906542 208.678986012 205.26854933 202.159676928 199.322216602 196.425703428 193.133548459 189.335965728 185.216398592 170.947201648 167.820437579 165.176982161 162.925358938 160.920030972 159.076267892 151.935732603 149.882151853 151.719401998 148.732515045 140.798742177 137.121895972 131.342674577 128.835262905 122.32642901 121.163643276 119.695014032 117.782426636 117.716904815 111.398004451 108.568944802 105.703237334 102.833813352 99.9677879404 89.9095234398 87.2684382088 84.6400993926 79.7947805126 77.0994030701 74.296869124 69.8940036449 66.832443467 63.5918414164 58.7567254559 56.041244886 53.9739604259 52.3627650655 52.204468281 52.6555411357 52.4903547543 52.9343282415 53.136467263 53.0555711865 52.7117669293 50.9315232015 48.0707817166 47.3304257877 46.587591267 45.8644868438 43.9411902535 43.3252519368 42.7276539979 42.4917081318 41.3350130039 40.7778128961 40.2020456721 39.5899822786 39.0847359062 38.661451728 38.3739320242 38.261331512 38.332346675 38.5606251014 39.5792591073 39.727985293 40.2495779986 40.6562519819 41.4290776812 41.7140803818 41.3873557439 40.8262218602 40.1415366809 39.5089311044 39.1373254444 39.1995128684 39.8184221726 40.8627651822 42.233192875 43.6619735644 45.0322676917 46.2655446729 47.3375804686 52.2472005179 55.9860213996 54.6002844848 55.2637865649 55.7372459996 56.0050494876 56.0464522521 55.8453246293 55.4036901201 54.7603052722 55.7628585412 54.8732757012 53.377307523 53.4237264383 54.025892636 55.0936012764 55.8406203629 57.2006176741 58.4899355117 59.6193519049 60.5468033917 61.2629095075 62.6875910252 63.0088704698 63.1493886975 63.004182832 62.7458625122 66.274958497 65.2324284625 63.7607736065 58.9230313452 57.2388898178 55.4019198519 53.7555345483 52.7359457219 52.6562014539 53.4878426583 54.8615021588 56.3280220622 54.8621869072 55.1554543172 55.0959890157 54.6436980366 53.9834730976 53.2864774059 53.9536478077 52.2782394694 52.365660761 52.6887860356 53.1121060337 53.5129750011 54.0268292804 54.2452545498 54.3625355502 54.3969470395 54.36350516 53.5796386935 53.4500968572 53.2738585652 53.0514012462 52.7824291869 51.8104368152 51.5219980315 51.1949740995 50.883383238 50.5106126808 50.1730299691 49.9302087729 49.7620922762 49.9631601028 49.9351504169 50.1885619515 50.4785965219 50.7769852252 51.0661701587 51.337370858 51.5883870068 51.8221380656 52.6824685338 52.9601297298 53.2472320274 53.5552539499 53.8902503372 54.9535829805 55.3469898986 55.9592848571 56.2396652722 56.3965207469 56.3828027088 56.1671592054 56.7754320642 55.9194965421 55.1349842525 54.7075355318 55.0420479376 57.0307887824 59.2814739147 63.079315227 66.1410448639 68.9296939054 71.3080937737 73.244888564 74.7644895389 75.9150938982 76.750855715 77.321311687 77.6634006249 81.0867416618 80.9249182493 85.4002241012 84.254938374 82.5279945196 80.0801253345 76.8432127305 72.9734439509 69.0436548743 66.0607757448 65.0373767703 66.3358797488 69.4950888733 73.6802705102 78.1708255083 82.5306637544
224.599189804 221.79310988 219.477142455 218.092353218 217.835563293 218.25194817 218.435655414 217.795370983 216.326219232 214.247759985 211.67505268 208.575263627 204.883342862 200.619446554 195.923326993 179.538014345 175.357450921 171.29554443 167.402219113 163.842430418 160.907947276 158.774119406 156.065055425 154.143892854 151.447540024 143.43833863 142.060401803 133.362421619 130.619959457 125.439069002 124.623115055 123.25084824 122.801882539 120.467850731 113.75972474 110.403383806 107.135869635 103.990093693 100.946041793 90.6861614689 87.9871793253 85.3398642764 80.6370158225 78.0471366045 73.9361832126 71.3863977611 68.7913982725 66.1297661988 61.7168036262 59.4346281042 57.5806261752 56.3891488269 55.0513286056 54.0106266733 54.0599639075 54.0844664976 53.9658190687 53.6589411892 53.1670089907 51.2764902921 48.2842737377 47.505055429 46.7249016955 45.9589937351 43.8730926134 43.2039096605 42.5494140454 41.8952664006 41.0567047196 40.3681794105 39.7850637622 39.1923025376 38.6274887528 38.1488171581 37.8235692548 37.7050611528 37.8087407843 38.103360152 39.0245145293 39.6619632308 40.3045161577 40.8011653676 41.1100268533 41.6961677074 41.3543002141 40.7354469592 39.9625344344 39.235241604 38.7954067621 38.8447760012 39.4950326609 40.6461666874 42.1054097793 43.725855903 45.237557338 46.5981282203 47.7802760452 52.7061254977 56.9495438641 57.9245905227 58.6615996161 56.7916498043 57.1484222563 57.3114792114 57.2810149562 57.0709284086 58.9988570393 58.390335307 57.8696883848 56.3292293244 56.4540478488 56.9548834036 57.7874198204 58.1499265902 59.2505912738 60.3332254053 61.3215330052 62.1687305139 62.8519742817 67.7570273187 64.6262187523 64.7819518252 64.6467019332 68.8646248695 68.2030606924 67.2094233642 65.8404586425 64.0854378442 59.269514641 57.6554151017 56.223427384 55.32302424 55.1903901391 55.7928814573 56.8389902011 57.9979003574 58.9482907366 59.3250927794 59.1975239956 55.6030342686 55.0573319311 56.5074486164 55.8430939399 53.4731739404 53.4810039046 53.6565305099 53.9060873081 54.3430890274 54.5344032808 54.653554775 54.7067158597 54.7024795492 54.6453289553 53.8546717118 53.7081378664 53.5151710604 53.2789046331 53.0039823022 52.0256616259 51.7587323002 51.4711517961 51.2183065106 50.9122194028 50.6359207163 50.4300179201 50.217368452 50.2332837681 50.2783747764 50.480391914 50.7216375592 50.981542577 51.2461934645 51.5077418906 51.7632553495 52.0137729633 53.0217823519 53.2578282003 53.5854120972 53.9299662091 54.2940477306 55.4249622318 55.8273069531 59.1267766379 58.3925753105 56.909397835 56.9337280177 56.7837077327 57.748992203 57.0694736951 56.4682761697 57.4286851789 56.7833892209 59.4467836098 61.5066363437 65.2680202176 68.0561977433 70.6348811375 72.8819623686 74.7613706707 76.2829692631 77.4769892581 78.3796967579 79.0248346671 79.4373614972 83.1971587507 83.0601023885 87.6553091474 86.6208439296 85.107376999 83.0333932382 80.3702428433 77.2528911424 74.1219671329 71.7420390858 70.8980123917 71.9127406173 74.486809138 77.9969156783 81.8625441896 85.7021298001
235.644610971 228.565887465 220.032933277 217.470824971 217.248281279 219.467695311 222.772368005 225.455163571 226.623664455 226.176082295 224.314977999 221.264202191 217.206421149 212.296760356 206.66631566 200.399070619 182.225725718 176.185673676 170.031866857 164.33524888 159.994901123 157.648852674 156.888775601 155.385553996 153.464942532 148.432094387 143.591085882 134.298529279 130.78084071 129.04829013 127.915168118 127.200945018 124.874079485 122.352809709 115.387693746 111.56077007 107.954181686 104.604143395 94.0099271405 91.1699288554 88.4660424157 85.83401939 81.3174281542 77.3041506695 74.9686782946 72.7547582736 70.6257308829 68.5297878844 64.4813478571 62.7428137133 61.0692436951 59.7802968171 56.6691562958 56.0711327769 55.6423205619 56.3892303809 56.0063190207 55.5099232919 54.8849672074 51.6810744676 48.4456408121 47.6156693832 46.7912915027 44.482734651 43.7465418242 43.0368411099 42.3430878356 41.1278155404 40.5353523591 40.1249659265 39.5143093076 38.8893025054 38.2861958309 37.7673062432 37.4108556813 37.28386808 37.4100109399 37.868057273 38.6855313433 39.4683538982 40.1670383441 40.7550715869 41.7626000907 41.8080179701 41.5046146724 40.9042520628 40.1346940752 39.4034249518 38.9623781502 39.0226801112 39.6597472167 40.9050569576 42.4218674912 44.0427050069 45.6873407305 49.3287073867 50.7991866267 56.4133133469 57.959109734 58.9934447124 59.7907673145 60.3713534399 58.3102279223 58.5978496928 58.7347125921 58.7411731183 61.1344351256 60.842143394 60.6182401034 60.5549144831 59.2518516487 59.6791835552 60.3344995966 62.7003848634 61.3000440955 62.212468721 63.0796057648 63.8529093394 68.9696877257 69.6219751254 70.0718973842 66.4583605772 71.1688706913 70.8405590156 70.2568895018 69.3908648043 68.2199188161 66.7484611386 65.0440780451 60.4562312836 59.2770555377 58.4961905651 58.278861313 58.6012888923 59.2610946156 60.0534973561 60.7086554318 60.9080744706 60.7368890869 60.2485701558 56.2314906968 58.3095312135 57.722799314 54.6721268277 54.582661807 54.5997969102 54.8658962518 54.9319795998 54.973630292 54.9883536713 54.9792249864 54.9439071523 54.8733385202 54.0981268928 53.9398572222 53.7328607475 53.4829301775 53.2002437894 52.2248855584 51.978913319 51.7309602585 51.5351008784 51.2956015064 51.0801370211 50.9116140001 50.6619093963 50.6469263848 50.6197566579 50.7753828738 50.9717950275 51.1951550896 51.434946137 51.6843876699 51.9401496878 52.2019011983 53.2764786794 53.617199998 53.8949510049 54.2740668403 54.669875137 58.2904450512 59.5771282578 59.8925526826 59.0654261029 59.2409983991 59.2575555882 59.1009555201 59.0168708088 58.5935498892 58.2511259512 60.2877590512 60.7237301775 62.518982996 65.6001435028 67.9350660503 70.3344585182 72.6039426344 74.6386454199 76.3950943478 77.8647505738 79.0570370177 79.9894306944 80.6809770152 84.8281773608 85.0090526123 84.9431584539 89.7881044578 88.9252398025 87.712341805 86.1280807497 84.1836349587 81.9864385904 79.8277350818 78.2012729232 77.6309593569 78.3775074207 80.3078360666 83.0386010189 86.1615744123 89.3710033487
240.858162834 232.628984452 224.867295129 218.749483285 218.502396604 222.24345263 228.349572501 234.152082112 237.881965395 239.054575148 237.896452282 234.843721936 230.304094384 224.564534296 217.755399892 209.845575915 188.951753027 180.426076812 171.32550921 162.709342023 156.399208236 153.882283483 154.641365349 156.168569429 155.963891702 150.449817625 145.003689724 137.863259629 132.403209579 128.885308512 128.030045418 127.812973101 125.959865012 123.313904934 120.050314621 111.840149481 107.995224286 104.560286906 100.216904227 97.2514708958 92.3345573714 89.6788056754 85.4804070143 77.9161936228 75.7563418236 73.8358249929 72.1243018713 70.5339679423 67.0663091283 65.5024337794 63.9507635416 62.5534798437 60.1650384687 59.1799121169 58.3705246027 57.6483411505 56.9373446992 56.1882540335 55.3777346079 49.0642955678 48.5443332374 47.6580797722 46.7877695759 44.3341662498 43.5671708835 42.8310129775 42.1165787982 40.9010005055 39.6448094072 39.6052269156 39.3362899916 38.7148918674 38.1102947926 37.583597362 37.2170546455 37.0858001345 37.2204576556 37.6847675116 38.5382060082 39.3920315524 40.4662192426 41.193909405 41.9252961184 42.0569932181 41.8461249599 41.3459448505 40.6806929725 40.0472690843 39.6817703412 39.7823180577 40.42373922 41.6827481197 43.171927619 44.771123305 48.4038221777 50.2036870961 51.6689966524 57.4645676257 58.7369955544 60.0726480172 60.9076070304 61.5427624494 61.9952163382 59.8473132432 60.1250668269 63.0670089503 62.9891519183 62.9084827709 62.8819177621 62.9641651324 63.2022776636 61.9955460654 62.5515610503 64.9132835385 65.8322832621 64.0358398699 64.8262811696 70.3598856563 70.8288200779 71.4831858684 71.9520711964 73.1970583536 73.0992262992 72.8409085623 72.3690877809 71.6736477097 70.7471487526 69.59948052 68.2823564383 66.9151314299 62.5912104295 61.8956742732 61.5737202676 61.6199400852 61.9821909583 62.3464120429 62.698700348 62.6998602262 62.4437793723 61.9611265191 60.7084724653 60.0602826978 59.4626351362 55.984386066 55.5674453821 55.6196026594 55.4818772468 55.3585615728 55.2531849111 55.1760803013 55.1267931397 55.0873935012 55.0292087898 54.9246362186 54.1402578714 53.9215147181 53.6540111825 52.629261388 52.3865196666 52.1521795977 51.9345167672 51.7834550262 51.602194255 51.4417311736 51.3100496346 51.0411051519 51.0061202746 50.9218292255 51.0424664161 51.2041830032 51.3983800732 51.6175530739 51.8562176488 52.1111576713 51.9266775592 53.5121421433 53.879559687 54.1776029862 54.5904249612 58.4962062281 59.884668474 60.3140273006 60.6775647557 60.9506975486 60.0525128159 60.2174944002 60.262287948 60.2089405344 60.3427854518 62.329106773 63.3938612194 63.9248069015 65.8095650916 68.8351028933 70.7360153223 72.7219925655 74.6566964695 76.4534971484 78.0615968139 79.4537362711 80.6186799216 81.5562274981 85.9904999596 86.4550723039 86.6841552527 86.6832798876 91.6937372194 90.9836000936 90.0421752053 88.9056240867 87.6241019983 86.2811098623 85.0368127652 84.154327642 83.9337985137 84.5632374334 86.0197769648 88.1083244343 95.4268331643 100.460684372
249.298850634 241.117010464 233.516662909 228.563787349 228.769464966 230.887796224 238.853531543 246.708484011 252.101974978 254.207407954 253.232290357 249.78782034 244.489429496 237.749253121 229.688864416 220.139527838 196.551317849 185.395940725 173.033738846 161.015470194 152.268775954 149.441049391 151.927035224 155.834028425 157.375957395 155.98014759 147.039818905 139.121992128 132.074540871 128.836175661 128.091386123 127.675140993 126.166224144 123.303750354 119.670246936 111.03735804 107.091718557 106.797463177 103.957449016 101.269519969 98.5095461179 88.4066090992 85.6756503093 82.9792776828 76.2322129287 74.5302648084 73.1632525876 72.0059695099 69.2267263466 67.9143433 66.4353571906 64.9322014484 62.2878009201 60.943828922 59.7660754126 58.7069311985 57.7117854056 56.7369487041 52.8391237716 49.1095476371 48.1462771746 47.6250584959 44.9550536383 44.1226828239 43.3350233587 42.5860603261 40.4213731776 39.9256135234 39.4523095098 39.4627209493 38.9588432663 38.452510124 38.1119769503 37.6208246263 37.2763210949 37.1522034953 37.3179679584 37.8773379756 38.6387535093 39.5083058662 40.6199984494 41.3935503815 41.9285212494 42.439329769 42.3605111723 42.0234479365 41.5412396342 41.0860780296 40.8594997151 41.0301953139 41.6664671031 42.9117763616 44.5967597978 46.1489475684 49.934766082 51.5695928455 52.6881233366 58.5911900262 59.8213079029 61.136845292 61.9839861557 62.6523505826 63.1546369126 63.5046735613 64.3776244354 64.4328103273 64.4351988037 64.4373667117 64.4925424736 64.6497533829 64.9497988484 63.770408758 65.908965531 66.7284549315 67.6442729665 69.8977848888 71.0012500055 72.2145162119 72.6426623133 73.3113552239 79.1030863538 75.0269371736 79.8951989499 74.8019589199 74.4467310075 73.9266416143 73.2446065374 72.4083785323 71.446178204 70.4264542988 69.4641907248 65.2598848002 64.830629505 64.6378685974 64.6985531645 64.7430738453 64.8169523578 64.6226889222 64.2541288139 63.7216607419 63.069159639 61.7137983084 61.0170741856 56.9877593811 56.6083623051 56.2256850127 55.8601926025 55.5336569999 55.2844354495 55.1405166298 55.0938940096 55.099624802 55.0976309034 55.0369012298 54.308146893 54.0800533578 53.7875460533 52.7547758591 52.4930996533 52.2535159664 52.0498600852 51.8570822886 51.7932081649 51.6833152899 51.5912785219 51.3277347106 51.2865262699 51.1646510911 51.2633121722 51.4023710062 51.5769285012 51.7819797598 52.0134526534 51.7917108995 52.0475861628 53.7248798526 54.1158422389 54.5302257537 58.6719982544 59.2010233798 59.1551920716 61.0369125845 61.467323199 61.830509138 62.1137348872 61.2314671302 61.4952928434 61.7080923888 62.1727447707 64.9092942935 65.1513691599 69.4481898898 68.894304582 71.8335558963 73.3499424704 74.9709436125 76.6100334109 78.1958782855 79.6700208651 80.9875112181 82.1185747488 86.7336262097 87.4491468237 87.9318324888 88.1891361009 93.6969169952 93.2702291393 92.6210018262 91.8145672231 90.9453517285 90.1168519921 89.4174518478 88.9222543621 88.7248679297 88.9475501921 89.6903215906 90.9655563777 97.5254312816 101.746126785 109.898610345
270.593922708 254.578620712 248.710865259 245.613735899 247.287432559 254.320695589 264.658853393 265.082035577 270.835513481 272.721855365 270.990602029 266.465786896 259.997603507 252.133403016 242.977571273 232.199118562 217.946688437 202.13714435 184.155669222 163.08671212 152.155937642 148.714684414 152.039994151 157.281969881 159.86733666 159.209775932 153.711891838 145.03397766 134.49657176 130.814192092 129.54814257 129.547924511 125.586039749 122.231295218 117.074127218 112.694558041 107.9984361 105.05472045 102.675199135 100.459277545 98.0502609048 88.4454939511 85.6800145673 82.8587638167 80.2105830793 74.8193412091 73.7149519436 72.9235839425 70.9297762885 69.8120939229 68.3623117268 65.7207030211 63.9473138423 62.3072632712 60.8318917772 59.5001370775 58.2718891009 54.1503315018 52.9983420899 49.0548476473 48.0243761234 47.0448361651 45.203088108 44.3321274582 43.5104512382 41.401869664 40.1713059126 39.6979887989 39.2601537886 38.8513380689 38.9083662713 38.4796092424 38.1509726654 37.8379861174 37.5479243259 37.4458698655 37.6626301299 38.2642286912 38.9866373612 39.8212654869 40.9376840843 41.7237832129 42.3110422424 42.9438419375 43.0148056429 42.8721638463 42.6126377214 42.3770470291 42.325239768 42.5899673478 43.2282607783 44.7648248315 46.0774616529 47.4817147886 51.3646184515 52.8311462297 57.9169039916 59.7342083563 60.8794166061 61.8502931555 62.9835783367 63.667124412 64.1939661525 67.785764883 67.7408527001 65.4500536215 65.3980278143 65.334706203 65.3417169669 65.500704409 65.8715099808 66.4728548365 67.1272838458 68.1029258691 69.1513060164 70.1962763683 76.0451008562 78.4129481376 79.5266930073 80.4873571865 80.9841001545 81.8615294411 81.7875563908 81.4972518872 76.3861797628 76.0087101983 75.5310035142 74.9571239644 74.2915096752 73.5579081692 72.8144827043 72.1446954797 68.2710493202 67.9335180783 67.7326286689 67.5145208828 66.9740577177 66.6040270726 66.1116247562 65.4909116512 64.7572373835 63.2694126855 62.4016223295 61.7031842473 57.2501878502 56.6058448383 55.9656301426 55.3999511842 54.9992688326 54.8198772936 54.8382231126 54.9605820388 55.0755392731 55.0994327711 54.9911993372 54.2146793251 53.8873035207 53.4843174421 53.0845214165 52.7225909875 52.0334783706 51.889124993 51.8835036666 51.8293663701 51.7913881188 51.7614890854 51.483576814 51.4681239706 51.4310391524 51.5583484569 51.7223659422 51.920038965 51.655487917 51.8851822745 52.1472895214 52.4424904197 54.3230582931 54.2472346315 58.4526064986 59.1455478387 59.7194546406 63.1729731518 62.2415790391 62.7054368193 63.1207991986 62.2445112735 62.7275147658 63.1980127621 67.0128477425 67.2914489052 67.6934248558 72.3970871602 73.1550151468 74.308525395 75.5283143379 76.8792954435 78.3091264528 79.7528063108 81.1404567053 82.4095774898 87.1013948091 88.0386685326 88.7459836602 89.2290314669 89.4922543519 94.9347270517 94.4563299946 93.7262549808 92.8347290343 91.944412743 91.257856933 90.9383876526 91.0409862479 91.5272988277 92.3441266807 97.8415684591 99.5976689976 101.61670131 110.871433561 113.857810061
287.723740435 281.637925176 277.295519486 268.650828431 272.490266715 280.508275688 290.724827885 299.96096745 305.666967753 295.02290014 291.371990275 284.884902032 276.764475994 267.739710406 257.896561116 245.509091471 231.841660631 215.35040866 196.312743745 173.968314569 160.425392279 155.847537469 158.096984031 162.423318334 165.548301751 163.932318836 157.611525628 150.265152862 143.098401344 134.586878403 132.353618621 131.005031296 128.316941198 124.58798512 113.944639781 108.270777016 104.614502798 102.225261016 100.640902069 99.204431614 97.3691285209 88.4142308871 85.6079147033 82.5936982913 79.6893789399 74.7799847035 73.8552487062 72.6724994294 72.185397116 71.2114727051 69.7509052515 67.1127271211 65.1143862955 63.2333223531 61.5250180752 59.9831520755 55.6270247378 54.2649403497 50.0461490257 48.8815427269 47.7965092652 46.7776892458 44.9521984294 44.0620364891 41.5977466572 40.9408993919 39.8816713708 39.4362912499 39.0401453979 38.6876883794 38.3736443688 38.6598714167 38.3236697628 38.0394190874 38.127276831 37.8039754402 37.936599842 38.8635437518 39.5243913855 40.2962303561 41.3996555623 42.175976313 42.8014158554 43.2375648609 43.7741566896 43.8279338539 43.7944171146 43.7829470005 43.9137215893 44.2851309452 44.9406808604 46.5338007522 47.7099844245 48.9559326492 52.8998468642 54.1605669859 59.1454721766 63.8186715445 64.9753937719 62.7564685927 66.385777127 64.5585426854 68.5454837574 68.6518590472 68.4892237819 68.0836286005 65.8752724366 65.5863717127 65.4040913391 65.4905402784 65.954498258 66.7979741878 67.7820499064 69.071758083 70.3861067141 76.1966624869 77.6393588747 80.0957093841 81.4398688281 82.2283817399 82.7383014098 83.5908924789 83.4836741782 83.1485489866 82.641754071 77.7833315723 77.4331771256 77.0458632021 76.6106697641 76.1162744972 75.5757968817 75.0330139333 71.0069388613 70.5542202713 70.2055747729 69.8167490222 69.1018710954 68.5873792125 67.9757567954 67.2493985952 66.4018493252 67.0237302147 63.9189946011 62.6527740149 57.7732696975 56.8128588477 55.8327651431 54.9684781957 54.3917993757 54.2074591113 54.3648453641 54.6877961717 54.9863313475 55.1355200181 55.0857783194 54.3306417566 53.958655353 53.4894204879 53.0086778463 52.573278209 51.9474661644 51.8106811925 51.8158764372 51.8191524853 51.8401202086 51.8575268459 51.6066513719 51.5967924743 52.2866671201 52.4318912838 51.3676369402 51.5254470921 51.7206384848 51.9526414603 52.2216497987 52.5286548499 53.9330244003 54.390063617 58.862118072 59.7058133159 60.2429182413 60.8701050203 64.5142031021 65.0930686749 64.0877934878 64.6178111291 63.8960027568 68.1281503415 68.5966682825 73.4985261908 74.1188207182 74.5907053103 75.1996166219 77.015802261 77.1020127213 78.3046749779 79.6440372323 81.0450479132 86.5160180765 87.7669391657 88.7791225111 89.1625198686 89.8466932008 90.3142048889 90.5678719261 95.8565657195 95.2611333978 94.2994324012 93.0552716825 91.7741516646 90.8462403097 90.6428641122 91.2826201175 92.5752626532 98.0481299846 100.303380387 102.562004289 111.398304059 114.291746038 117.18186821
306.965947651 303.519046703 302.156214301 303.995869784 300.468107822 309.841702521 320.295594549 328.725758253 332.635533571 331.328371407 313.803639551 304.451606061 294.233411891 284.145586273 274.258835267 262.395826744 249.89357226 234.585359379 216.472678733 193.098342094 178.060263504 171.424504604 172.83663186 172.914050237 173.143851308 170.444109645 163.785397988 156.70890234 149.763207444 139.182050143 135.621372355 132.40372569 127.989572996 120.912815894 108.645960461 103.295713013 99.8192473796 98.2810515224 97.8902571743 97.5929092972 96.5873331433 88.4220512425 85.6066214859 82.3914944006 79.1871430555 76.48399191 74.2846673449 73.264523217 72.9995116464 72.1112243728 70.6020887579 67.9438202509 65.7565397717 63.6898484356 61.8122917192 57.2557980174 55.6299059259 54.1629743301 49.7915358496 48.575100358 47.4525832823 45.4076323067 44.6114989729 43.7085602468 41.2396382273 40.0183123956 39.5345033228 39.1161192745 38.7603347155 38.4631472411 38.2187999919 38.6784075454 38.4552834046 38.278866413 38.6252371078 38.8770843912 39.1070071362 39.4839566888 40.0836274475 40.6302247336 41.9675266731 42.7278940397 43.3841881696 43.9033036673 44.6081199141 44.841569038 45.014084474 45.2072520052 45.5081035599 45.9863200079 47.3855903644 48.3133334478 49.370791263 50.4683034177 54.4191000411 55.4559991337 60.2238884643 64.6690032701 65.7000577136 66.6780092536 67.5688541964 68.6040085467 69.3093265263 69.3702168434 69.0499305319 68.3499362377 67.3604473273 66.2997102225 64.8079215405 64.755548223 65.3455263586 66.5491586102 68.0211712422 69.7663970331 75.4874385043 77.4848692529 83.440016092 85.0225252547 86.2196745954 83.8346757228 84.3494610423 85.1489065293 84.9635262217 84.5001788342 83.8253485158 83.0502492884 78.7985945241 78.4969984206 78.2260196169 77.9510033038 77.6406530817 77.2923393063 77.349535349 77.2040107326 76.8867669522 74.3147217434 73.4674388658 70.5364673578 69.8237830887 68.9950537784 70.5387834601 68.8533078695 67.4028331423 65.6621562562 61.7515059801 56.9839871841 55.6070284571 54.3823553088 53.5964318005 53.4276478304 53.7848859686 54.3721117065 54.8966976544 55.1907289579 56.3524567909 54.4630600256 54.0380937116 53.4885587532 52.9101005822 52.0759587558 51.8030482341 51.6643065242 51.6435945011 51.7385287212 51.8218369426 51.8896227573 51.9345620209 52.2311046657 52.3642002413 52.5161946603 51.4034556406 51.5592155261 51.7550918527 51.9909643059 52.2674568945 56.5384918998 54.0126736927 58.7534991507 59.4274430596 60.1133774793 63.0287929566 63.79758928 65.2547260747 65.9331261942 67.4634708209 68.1242162292 68.7834334182 69.5453634498 70.1623490824 75.0947222254 75.6105484769 75.9444022251 76.3892500515 78.5720491451 77.9734467304 79.1669159043 80.5585449926 85.9599797246 87.498019416 88.7908942415 89.788103658 90.070708004 90.7060251815 91.1422168354 91.3880947023 96.4858790149 95.7764712862 94.4928291385 92.6509135673 90.5783223513 88.9795065324 88.6513031193 91.9512738893 94.9689543921 98.4525934554 101.76240049 110.578406956 113.914918526 116.97719411 119.892410753
327.009308362 325.670252795 326.485689872 330.640140857 337.596185979 347.143255374 357.165305067 364.632604721 367.10769789 364.111129576 346.421853133 335.488550301 324.496031352 313.420117242 290.094760218 281.358316714 271.689820323 262.662024399 246.700928177 220.385250937 205.7974421 196.013680878 191.022128306 188.420116936 184.826472591 178.684941929 171.091679178 163.811891902 156.632702459 150.209009335 138.447767869 133.072431873 126.549152969 117.055077478 108.069220557 97.3667315023 94.0255351502 93.5549883734 94.700327349 95.8427381192 90.3775503205 88.5676627408 85.8144425487 82.4752871063 79.0479962156 76.1227221439 74.2309088864 73.5018673942 73.3395364806 72.4605870505 70.8709904239 68.1511873506 65.8276339412 63.6410282277 61.6642689157 57.0400898819 55.345921401 53.1300313592 51.7076035154 50.3946847082 46.0127477185 44.9580297027 43.9829596278 41.5396076508 40.8086641181 39.5860250287 39.1129067318 38.7139687947 38.3898994047 38.1392746574 37.9568526691 37.8333550057 38.4659546822 38.3997981477 38.2547927582 39.4916237723 39.5315157725 39.9646883636 40.5573193258 41.2153123721 41.9125992599 43.3492420656 44.037117306 44.6321461422 45.1291260331 45.879712733 46.2280462765 46.5951735482 47.0423035069 50.3304215232 51.1068382439 52.0185893345 50.9651685802 51.9303955541 55.8070717246 56.611076468 61.7151341541 65.1149746119 66.0468169086 67.0380327418 68.0200687245 69.1608777024 69.9595354891 70.0260544434 69.571226078 68.5672536736 67.1123032617 65.5005552367 64.2436549081 63.707315075 64.4526419812 66.0973931444 68.1493232881 73.6653348576 76.4701657621 82.5643259503 84.7219619031 86.3544440127 87.5681873341 88.422795957 86.5143299479 86.5406953396 86.2470716671 85.5754227855 84.5890742183 83.4383762157 82.3585522492 79.1838043721 79.0121823293 78.9695594631 82.0445104564 82.5073849089 79.3423414108 79.2213763242 81.2960682972 78.7247099039 78.4189499911 77.9595669261 74.3253456625 73.3818000361 72.2488185936 70.4256948725 68.7957004726 66.7967034491 64.341156281 57.3472021395 55.5725450626 53.9739139402 52.9665834663 52.8112048483 53.3652537939 54.1995570096 55.7168428288 56.3804589646 56.590511152 54.6370807015 54.1126863438 53.4980842827 52.4394624867 51.9944629084 51.6776477172 51.5308595559 51.5370580454 51.658506221 51.7909175593 51.8965124882 51.9661839775 52.0866824169 52.3983362092 51.2893527236 51.4026465137 51.558797857 51.7572375144 51.9981035424 56.1338813886 56.726357022 57.3461748734 59.0113733323 59.7263182728 60.458505463 63.4637169133 64.2969324759 65.1319167854 67.4948310507 68.2632203974 69.0314515929 69.8048580088 70.6937742963 75.8885145214 79.1300254924 78.8552274081 78.6947520939 76.7027993101 79.578015929 79.503737298 81.9893797497 84.5492331936 86.5253298728 88.2636351339 89.6296563047 90.5892041732 90.7191104437 91.2516195327 91.6313383641 96.8577672044 96.8350222368 96.1513159953 94.6234076317 92.107400832 88.9714329619 87.2299362875 86.3756794548 88.8602387831 93.4865694974 98.5013816178 102.887621732 112.209528704 115.871879272 119.062881347 122.030142276
367.047938321 364.785788943 349.026268365 353.197603262 360.101813936 369.18753889 378.666585354 385.597412085 387.164093134 382.572172151 373.474259227 362.48190782 353.939939895 344.449662906 323.245943786 304.274415884 298.792498724 290.517685218 277.675118334 251.441897531 234.81983773 221.118395685 211.216421418 203.923274328 196.733767072 186.899528374 179.232663668 171.265930769 163.001344846 155.370778357 147.871967898 133.605959938 124.853738325 113.622610353 102.679789718 93.8692167043 89.5599488046 89.1147394442 91.8130690564 94.4026192876 90.3755944843 88.926724534 86.314421453 82.9852928281 79.5056180103 76.5099793468 74.2438137192 73.6556389506 73.1339750999 72.1670786549 69.873514064 67.4936774275 65.2755841637 62.1059357075 58.3741614822 56.4558589139 54.1350903028 52.5753972228 51.1546665204 49.8403462382 45.4600528759 44.4071506424 43.4305390046 41.0392130389 40.300073938 39.077220499 38.6037666864 38.2102936595 37.9026860625 37.6840229652 37.551415729 37.4946116703 38.2986892307 38.3445281572 38.3252379627 39.6402724077 40.0287136584 40.5161896184 41.1310266144 41.7936720403 42.4952287437 44.0083201236 44.7351302551 45.4024002781 46.0049640352 46.9204269836 47.4129719945 47.9209203001 51.5318089256 52.2004880088 52.9598086016 53.7817794057 54.6137497961 56.2996715627 56.9625967105 57.5215489047 62.0016984294 64.9908860805 65.8731603697 66.9668651896 68.1544713856 69.2491467994 70.884963487 70.7169654883 70.2322674408 69.0297396864 67.221249289 65.1716399026 63.5347298667 63.0701406872 63.9665394129 66.0292613515 69.2527981046 75.3371338484 80.9057660848 83.8011162759 85.9255361459 87.4854299708 88.6598830141 89.531407356 90.0725064772 87.9115840146 87.4017040989 86.4816211836 85.0683138884 83.3498238486 81.6886011854 80.5562761339 80.3325321019 80.9558205928 82.083662106 83.2409806397 84.1642327366 84.6018131362 83.180823001 80.6379721431 80.3601541062 79.9787234264 79.1960643439 78.186601622 76.4437444825 72.0805074206 70.3719617471 68.2604837684 65.63114115 59.6995811324 57.1190182587 54.215165225 53.0236023596 52.8390137909 53.4707888539 54.9411321851 56.0653605368 56.7691019307 56.9291983875 54.8260239897 54.2914382137 53.6191282314 52.8989903309 52.0115889868 51.6623238829 51.503549381 51.5158973425 51.6178311846 51.7947793821 51.9080761366 51.9809048117 52.5648190626 52.8555232997 51.7366630579 51.8642580457 52.0287742475 52.2312246484 55.6550191657 56.2436920916 56.8645131432 57.5159288682 59.2072517766 59.9598468059 60.7335634217 63.8047931943 64.6924673907 65.589883554 66.5017775892 68.8999703899 69.7471012273 70.5993688824 76.1563043191 79.7115810442 79.2671540831 78.5212909606 77.8665780613 77.64522261 78.2964683974 80.814399995 81.4339050784 84.4689228299 86.8971553705 88.9021645352 90.3296169129 91.1754694953 91.5599693462 91.3621348754 91.6262100279 96.5604705404 96.6540935398 96.4985422176 95.0878025967 92.2078062061 89.5886189176 84.9263777009 83.7068090151 87.0297282045 93.0777433309 99.2894074073 109.106204059 113.779264489 117.42783647 120.580397963 123.577166379
388.06703145 385.993908706 385.131931067 371.812317356 377.038568469 384.047545687 391.691218952 397.600431064 398.910196814 394.244265423 384.874538614 375.065827684 364.312021997 355.295801086 336.509082567 333.894887581 332.313619601 319.652120875 309.61501605 293.368280595 273.560063438 245.710764201 231.177890111 219.685223582 210.008752634 199.549489421 187.848441834 178.332642211 169.408703435 160.62157603 151.622923886 135.127000453 124.841974836 112.039639717 100.122638065 90.3411643486 85.748435838 87.209814036 90.426622204 93.9364423646 90.7312608983 89.5628035732 87.1181240169 83.9068034616 79.1500262176 76.6208863442 74.9517354932 74.1394497568 73.3941676181 70.6992991241 68.5859887653 66.1816946698 63.2152465649 60.9010306395 58.8562064353 54.9528908344 53.2927888486 51.7929623373 50.4127892728 45.9176158329 44.7987928244 43.7609843066 42.7905658596 41.1465755754 39.7148634336 38.4901648772 37.9999030928 37.5915014836 37.2788460159 37.0728862337 36.9761892715 36.9796024434 37.0632492289 37.3522899315 37.6921809847 39.8561600353 40.3699463863 40.9502449411 41.5971905831 42.3335603702 43.0702369283 43.8141533709 45.4547418931 46.1939309821 46.890829645 47.5538093567 48.557817653 52.521389577 53.1847051477 53.8803049595 54.6019314696 55.3203273201 55.9899186036 57.4193201581 57.8072603578 58.0952844118 61.7078883425 64.1492448008 65.0491369067 66.369568966 67.9192424933 70.2448533077 71.3645961863 71.8374229429 71.1883974391 70.0049430892 68.1153923532 65.9391615881 64.202420812 63.7365897003 65.0176675999 67.8527242872 72.9034715159 76.9131565579 82.4713550994 85.1225776676 86.9407534634 88.256161074 89.3336126019 90.267503022 90.9675323152 91.6974035767 91.1436997412 87.4144462235 85.5583954797 83.1869183441 80.8086128821 79.1732807807 78.8648777987 79.9635176755 81.8509857866 83.7631798498 85.2385558954 88.5513049119 87.131767506 87.2511874349 87.0008430073 86.4251270355 80.9386267951 79.9108758348 78.1548713857 76.610334427 74.7512889096 72.4660623215 67.5570544238 64.4288862156 58.7843890812 56.2995144657 54.6508808123 54.2818141553 54.8029830342 55.8814140308 56.8510096149 57.3815279926 57.4696467845 55.1367607648 54.5562073332 53.8527450389 53.1153720281 52.445909004 51.806062632 51.6296943775 51.6169256277 51.6872275168 51.8402617998 51.8975539475 51.6294590451 52.1630033236 52.2486833635 51.6624195867 51.7914663533 51.9592084958 51.1869797903 51.4226475863 56.3013367705 56.9494421742 57.630701306 59.3367445002 60.1228094686 60.9320042923 64.0425749838 64.9721579843 65.9158564071 66.8803533556 73.0943021672 73.8408857241 71.1662392689 80.4614644885 79.9285632747 79.0113180135 77.8368639892 76.6032896789 75.9602250919 76.8658979942 79.4017424558 82.929230562 86.7335854202 90.0868889334 89.548694434 90.9619803313 91.5466689033 91.5085046845 90.8575911659 90.8670024506 95.3188346172 96.0547805479 100.891479833 99.8743532649 96.561660386 91.3881166775 86.5944501233 85.3485273017 88.9395821959 97.9720924155 105.641761815 111.214445321 115.277311258 118.425294186 131.082523959 135.310466471
408.78173221 406.319493401 404.162572416 402.446086372 389.917838815 393.272823322 397.423059599 401.067321226 402.017788334 398.863182483 391.640013014 381.993458333 372.06466519 363.711595197 358.26882195 347.535654502 350.005186823 349.955792148 336.601890726 328.617711742 298.161272533 277.634106368 263.827590643 250.080268719 238.383780234 224.272440123 195.834149037 185.661257035 175.796410437 166.009800436 155.933444046 137.992326655 127.049771975 113.97988313 102.076666599 92.3588660154 87.6803978356 88.9382043086 93.7621965336 98.6952282044 91.6387486153 90.5428950286 88.1942615073 83.2256749583 80.2332953378 77.646963461 75.7452334621 73.8997419936 72.8768686965 68.6712060423 66.5529466174 63.8235041208 61.5203927718 59.1463564807 55.5359151636 53.7096101032 52.2004488863 50.8065800581 49.4983187061 45.1188683398 44.0400852273 43.0298916731 42.0738874048 40.5079108478 39.7644174365 37.8307267092 37.3018445465 36.8512547861 36.5052190148 36.2880954848 36.2128712288 36.2740757534 36.7136969116 36.9299785733 37.4038504694 39.8750054928 40.547083832 41.2569914139 44.5886500985 45.466731766 46.3515723909 44.4254847255 46.1776329295 46.9907174514 47.7740131672 48.5328508736 53.2493012556 53.9798374655 54.6924227359 55.3871677171 56.0474797402 56.639795273 57.1207625823 57.4534359574 58.3036693085 60.4151290418 60.1850848219 62.5322016762 63.5260414282 65.2217649495 67.3155496237 70.1436442728 71.8336144132 72.7764301795 72.7981272061 71.8780579752 69.9987011318 68.0883125654 67.623428925 67.2477940979 68.9713430085 72.5429809961 76.7392071888 79.2600751845 84.3539727114 86.3166347833 87.4871405298 88.3589835716 89.3081496467 90.4241896149 91.4987360953 92.5835442786 92.293163047 90.8589254998 86.4749786798 83.5894845388 80.607217876 78.5035794312 78.1323470403 79.6001499168 83.0187845612 86.1730307193 88.5097076853 89.9092624153 88.6267104414 88.7982792419 88.5722188575 88.0039296306 82.5743101346 81.5431233933 79.8050525081 78.3303721588 76.6344190782 74.6306904101 70.031663186 67.2936213512 64.1785927871 61.1879362725 57.4743978266 56.8546347456 57.1427599847 57.419154052 57.9963284871 58.2778937727 58.1823294209 57.7236000226 54.9052848981 54.1893270979 54.3637614039 53.494706347 52.8194196625 51.8695517477 51.7987536343 51.8664928308 51.6698033674 51.6090608579 51.535846363 51.4677872108 52.1274990746 51.5416880766 51.6764628956 51.315481944 51.0619531453 51.3042804269 56.3037187706 56.977656822 57.6866285021 59.3959561397 60.210929913 61.0488195567 62.604045465 65.1262580903 66.0974533831 67.0924690619 73.4742688602 74.2584038216 80.1571786147 80.8090175484 80.1472979433 78.9517217331 77.8806151229 75.8328006255 74.6468398463 75.2691582091 78.0069782718 82.2996131026 86.8313097392 90.6670529801 93.2416933152 94.3730005492 94.1684015227 93.3705454815 91.9803464412 94.3001168321 94.6256117646 97.96440993 100.434850946 101.430817594 101.767854873 99.1087217149 94.8293426003 93.8976394848 97.587927319 103.859730549 109.698882785 113.695773221 123.10217518 125.927918731 129.571969767 134.210105528
429.895531269 426.950273785 423.376033224 419.141782879 414.402529121 409.627830131 400.650257884 401.078724513 401.267753933 399.286120472 394.327475014 386.767277223 378.116188047 370.247608817 364.897005744 363.109758381 361.173732898 363.385996981 358.13131161 344.74176949 326.943570883 308.857983072 289.427367139 274.564985942 261.405903096 235.641062355 223.882120603 192.898679256 182.238629727 171.718541686 159.014018282 145.316114455 134.132622795 122.345654549 108.421357553 99.7172415993 95.1929002051 95.4886127608 98.7720895716 102.289768869 92.8997296919 91.5283070997 89.0788457105 85.9959028733 81.3052580011 78.5240435421 75.3282348695 72.9170179399 71.1013486992 69.0939419196 66.8801747275 61.0014870092 58.8321102948 55.2947962036 53.7578399563 52.2155203954 50.909785418 49.6520714948 45.3184464092 44.2232963007 43.1963824504 42.2265793894 40.5994502083 39.8199059781 39.0522806976 38.2974074828 36.5198693598 35.992213263 35.5761578743 35.3182250536 35.2496648234 35.8473940235 35.779692261 36.3521740163 36.9868937194 39.7129611158 40.5764789057 40.9718424536 45.1583476963 46.1469000362 47.1181152672 48.0621694407 48.9697799842 47.4911113252 51.6975709842 53.2386418905 57.2734709383 55.3428873414 56.082730616 56.7564657543 57.3361768227 57.7804970509 58.0432632206 58.0929879075 58.6930254682 59.6408734347 58.9998063387 60.3018592067 61.4630653217 63.6767134526 66.4781860352 69.9642581708 72.36087321 73.9170828018 74.4900573566 74.1115633967 75.4080732508 73.6745041852 72.4196338458 72.4239800177 74.4761985433 77.6895003482 81.1849111903 84.1214513824 88.1938954345 86.9969841594 87.1411058897 87.3639849696 88.2090219592 89.7361379636 91.5267630721 93.3287164158 93.6542444136 92.5763137532 90.0552832762 85.1859440525 82.0044813627 80.0472472614 79.5653644238 81.4280292255 84.6225718968 87.8188551553 90.0962127408 91.3664669888 90.0263389172 90.1528477474 89.9230135879 89.3709921264 88.4876525424 83.2112719379 81.3204375996 79.9229225655 78.4322502086 76.8066187596 74.9151725273 70.6051303664 68.0503699013 65.4842519228 63.4751443793 60.0457638064 59.7367911063 59.831202181 59.4338393117 59.3612671492 59.0506883407 58.4435554037 57.6154628786 56.6427021777 55.0024094202 54.1830397892 53.5335514511 51.7571579642 51.5881355044 51.7151761096 51.5876579762 51.4653340378 51.3601770153 51.2846432786 51.1277569003 51.2191691143 50.9848402385 50.7054251329 50.9078693318 51.1574473223 56.2478147415 56.9455783568 57.0320897259 59.3813951438 60.220977725 61.0808357869 62.668112204 67.4788896739 66.1239549206 67.1239856102 73.6307479705 80.0304305857 80.4274971493 81.1540184141 80.5570775134 79.3367169753 78.1373923143 75.8929121594 74.5898282819 75.2343426873 78.2490733026 82.9626887466 87.863830987 91.8861942464 94.3744739314 95.0837641417 94.0741167031 92.0118718605 89.2152691726 89.1846022144 89.5290990465 95.737242546 101.322478485 105.257212523 106.202531702 106.771884082 104.847570201 104.72999124 107.205900169 110.884792502 113.667266946 120.119781297 120.588050159 122.123660711 126.02817518 131.811331291
452.177101934 449.153934739 444.681416037 438.576019765 431.022167135 422.800645118 415.198053745 405.111162106 403.282887179 401.385066646 397.704171019 391.630176954 383.894374899 376.034449548 369.822200104 366.662976461 366.468869153 367.307924809 363.266463856 351.854723344 336.176745437 319.708954841 301.416173225 286.66589507 273.135765587 246.122681731 233.715562797 219.718318766 192.665039229 181.490731639 161.591677063 151.199990971 140.72881486 130.332828915 120.609403641 110.143100301 105.849598248 104.827011428 105.421563688 102.08432969 100.744228519 99.0438918683 90.4312893052 87.1726511208 83.7422356504 77.9463279011 74.4311640932 71.7170930464 69.0184453329 66.2437620151 63.5269641521 57.1978890745 55.4068104745 52.4205326348 51.755474811 50.7493282717 49.4886411265 48.1328209198 44.2734587544 43.2435519044 42.2767743424 41.3627672878 39.8709737787 39.1044035379 38.3119041509 37.4875170357 35.6772609605 35.0300514682 34.4975256939 34.1616638184 34.4735780965 34.7336667361 34.8868242737 35.6362366036 36.4678578847 38.9179002917 39.9980318618 41.055310512 45.6317450328 46.7592876408 47.8398699743 48.8744059649 50.5405551319 51.5065793488 52.4183955332 57.8810418415 58.6802931271 59.3831018894 60.4775850888 58.0378737877 58.5308071811 58.8189210107 58.848550974 58.5893636021 58.668772467 58.7301716521 57.6529577129 57.9901218307 59.370231425 62.1771827688 66.0328038901 69.9549853878 73.0919221022 75.3165427363 76.5321629734 76.8224746514 79.4687354765 78.6321583933 78.1283368308 79.0342564929 80.5481041416 85.676378686 88.3061298827 89.9969715382 89.4468424991 88.3106907365 86.7253410387 84.9250608233 85.7586022978 88.0416684235 90.9972961675 93.9453916933 95.2723788543 94.9345070227 94.8025894851 89.671676982 86.5078810453 84.1116867122 83.6421467724 85.1897588137 87.8915432678 90.3949324617 92.0396668591 92.7700037917 91.1827189715 91.1749894832 90.9508028636 90.469131247 89.6359583177 84.4776204436 82.6243187969 81.2422150356 79.9037734421 78.6367560581 77.3192620491 73.8130962292 71.8011534187 69.6051962011 67.6665600908 66.2496105348 62.3650178658 61.7607689932 61.4173440038 60.8107740576 59.9546115909 59.2048280683 58.3135905182 57.3353455999 56.3463104464 54.5614229937 53.9050419582 51.7607634334 51.2198404578 51.3257938041 51.0972326344 50.8736102637 50.7241510952 51.0110035386 50.879129667 50.9992635987 50.1860537866 50.5153807498 50.7290323263 50.9856966004 55.4654856024 56.1771666369 56.9328238365 58.0432045522 60.1506841033 61.0269262396 62.6314565452 63.5047604361 68.3728014489 69.3204057243 72.9648839224 79.9078022083 81.2411438652 81.4689658828 81.1931183418 80.7565373514 79.1141223682 77.8273965151 76.777409544 77.5903391246 80.6290451224 88.1361831946 94.0178152597 98.6646181583 101.192546269 101.186314763 98.5841609942 93.9775634677 88.1611058557 84.4535427176 84.6423233261 91.0910075554 100.001690663 107.074499513 110.764733402 114.287046838 114.364623901 114.776755597 115.909618163 122.989858551 121.36434269 117.531469503 114.51165391 115.18920059 120.493368247 128.528103958
476.164361175 473.871516803 469.514770372 462.723778686 453.648200858 444.86969818 434.537816211 426.665893972 412.058808798 408.677414192 404.491721471 398.48681409 390.802798678 382.480799264 375.009077452 369.805055774 367.365393518 364.813679411 361.420409259 352.576689926 340.122820188 326.429595016 312.850821495 296.551927038 273.437434736 259.569795208 246.742069002 234.040025191 199.245185146 187.785556268 167.722175193 157.581102103 147.896897011 138.876663663 130.884955137 123.842281744 119.531724796 117.395410437 112.943069083 105.820799769 104.082549397 101.481013644 98.0785682161 94.1039114291 80.782705839 77.1023589378 73.6629377286 70.028476837 66.3391514421 62.6754784527 59.3675920006 53.3649708092 51.9593731278 49.8415503071 49.2062183244 49.0223056188 47.7865247977 46.7537595158 45.6569370496 42.1809046363 39.4640252774 38.6972410217 39.1193225762 38.3874175341 37.5800231746 36.6773217149 35.7009774945 34.0021068832 33.2979363826 32.8392030083 33.0698543783 33.4213824316 33.8485090003 34.8231628165 37.2011754229 38.5471801502 42.6815387968 44.1529720884 45.5256213288 46.811493743 48.0235930946 53.0839687866 54.2760558927 52.4263227123 53.4051599245 62.815588294 63.6286210313 64.2756206972 61.9077294535 62.3339642926 62.4863084273 59.8634841578 60.3645126264 59.667057776 60.1490211444 58.2027545781 56.9645109086 56.5201867861 58.1765818164 61.5970293377 65.9126099925 72.1733399273 74.2495866534 77.0810518311 78.9248620088 84.0037547688 84.316924671 84.311858108 85.6367394675 85.3966386048 86.6772800788 91.4842767741 92.711542092 92.6678998115 90.8402046263 87.0494774861 83.6126472919 81.7561072219 82.7827519244 86.3656523849 91.2743143438 96.0497749986 98.8618478568 100.001166285 98.8485878723 97.8271702371 93.0614394632 90.0127668816 89.7162067801 90.6707407038 92.1057537657 93.3969860003 93.8977915239 91.9430897353 91.7550593046 91.5855036356 91.4734228133 91.216600007 90.5503898829 85.5691762629 83.6799580279 82.1804898812 80.8358785698 79.7875058934 78.9460756722 77.9580723126 76.5755991671 74.8601035942 71.0140270906 69.4370345707 64.5667975522 63.6559407145 62.9151911328 61.969349133 60.8717250431 59.9827262617 59.0142963243 57.9980754971 55.8702978263 55.0219468886 53.9206461278 51.3317189311 50.9334048375 50.9826691515 50.6803237877 50.434617258 50.3093158244 50.2634878975 49.2457164751 50.2729821823 49.9699223371 50.1465244455 50.5319461747 50.7940186844 55.2633825518 55.9905072616 56.7656015486 57.8993062064 58.7296939618 60.3473318762 62.496099525 63.3424839905 64.1693982394 69.9691946955 72.4255996675 78.7971346545 80.9124884699 82.2881055649 82.4758462328 82.142510007 82.3291452629 81.1353298381 80.6780501692 83.6247171148 84.8143758607 92.7712086 97.9220922681 101.922614532 103.894591858 103.329718421 100.019325033 94.3544451588 88.4747617718 81.7082177899 81.7564844913 89.8370649686 101.039009635 110.177063376 115.693893187 121.232039267 122.533140923 123.062415832 130.362432563 127.709084939 121.768433577 113.019710611 106.226328801 106.756858793 114.705021318 125.85501081
501.909649475 501.378773149 498.41477481 503.180524568 484.789113358 472.912057594 460.730928274 450.27659652 442.521803714 436.825718261 415.583375653 408.311444299 399.851087935 390.795087485 382.233268651 375.068728676 370.174472902 367.640381094 365.228279945 360.987950258 354.32600425 343.872640034 320.814877544 308.992183372 295.605809623 268.043854181 255.01620429 241.251290906 227.748137334 214.235238032 173.808141146 163.711621645 154.47098712 145.514261683 138.716104968 133.326370523 129.27355366 126.34329805 124.131983665 110.640104323 107.586340756 104.004320896 102.660552268 98.1316218007 81.0989772415 76.8161745447 72.459850814 68.0995639868 63.3522530641 58.6865998931 51.5628619481 48.2576171258 47.3429547996 47.099178983 47.184946495 46.8225885009 46.3364989219 45.3330685433 41.3696067201 40.4087851069 39.577916523 37.8803313836 37.7339251046 37.088169496 36.9008956858 35.9282651227 34.7917471858 34.6312079799 32.0518788826 31.6458954534 31.5227238317 32.7181409803 33.9317890561 35.7838626285 36.5657193629 40.7641141604 42.6402305654 44.3507103006 45.9089257082 47.3399512491 48.6683300342 53.9949639939 55.2831079709 56.4711462572 58.6725171838 64.2026217804 65.0739355023 65.7615090807 66.2251382055 66.4058799863 66.2253429681 66.694820238 64.0401682902 62.6098130216 60.6698473957 58.6646959829 57.3537002918 56.884398491 59.1129788977 63.4102006554 68.7534708412 73.7761807112 78.939767073 82.4937818014 84.9645570474 87.7940425645 88.9003662544 91.1588390754 91.8111600706 92.6619614003 94.5361277631 97.0670397779 97.0621110379 95.4699376322 91.8264294864 86.4785527451 80.9035657448 78.0226081987 79.2793736354 84.3040744953 90.9606804751 97.3224570905 101.463389835 105.636307647 105.47968962 103.885015103 101.78264152 98.0724392958 96.2251613801 96.3332452478 98.0702765489 97.8400105268 96.7662456916 95.2221799684 91.2545946489 90.991846751 91.2527653546 91.5307491387 91.2619081321 89.7115919847 84.8629564026 82.7520782447 81.1642857127 80.0996720769 79.7013330823 79.1313348808 78.3623240589 77.1407268147 75.0932934497 70.3186400407 68.9537429295 65.5520300222 64.5738914711 63.0329530606 62.0891511167 60.7293740505 59.6758415699 57.5941508462 56.5810841176 55.5970696444 54.0263182703 51.0851681968 50.5581938543 50.0937796446 50.1181200256 49.8714510359 49.8012660655 48.9954861928 49.0063780324 49.0250250844 49.3397073785 49.5102213027 50.1638823583 50.4574363265 54.9989964322 55.7332113372 56.5237238856 57.6784723862 58.5344474777 60.119384214 62.2687343566 63.0684528902 68.5787157581 69.2558361568 72.3350511999 78.3445996701 79.4372414518 80.6735976463 82.8267313227 83.4993827119 85.0754028687 85.0337098324 85.4595113994 90.0047249641 93.2415732725 98.4512332564 102.756567458 106.061044874 107.581471182 106.811026056 103.511835828 99.737993693 93.1461183471 86.9525598773 87.3837735474 95.4808865257 106.495191562 115.624428228 121.505765134 127.922517017 129.694560875 138.91273625 137.018955274 132.371489428 123.637978108 111.500013005 101.673152596 102.42009496 112.812241388 126.403729231
541.493161599 542.300666688 541.436059365 536.666638373 527.861455136 507.105163082 493.000666772 479.473162235 467.925494171 458.306081584 449.559641461 421.267659434 411.498722234 401.595595603 391.771365687 383.533271171 376.682717405 372.379193319 368.826448097 364.604543148 359.894572922 352.492748848 343.602762716 333.362301801 303.091228276 290.06191115 262.345881462 248.540957109 234.573260262 220.511072557 198.048926593 167.987897759 158.511788299 150.540521907 144.291749125 139.608057096 135.989867237 132.880263291 129.88509012 119.961181977 113.868157195 109.417073602 104.624450944 94.2345563479 81.359813795 76.5203382344 71.4721554842 66.0944889542 60.5447190887 53.5013680397 47.0099404999 45.1114090083 44.637313825 45.0028783563 45.550273803 45.4334013346 45.2270072705 41.227589764 40.1039025804 38.4185577896 37.7283097564 37.4434742518 37.0002712377 36.4789470142 35.7766975314 34.8301976015 33.6380393484 33.2095296419 32.8220508498 31.3530021007 30.4924279082 31.8207367978 33.7917291279 34.9059077774 37.0736356563 40.553604261 42.7059439667 44.6243320789 46.3411004509 47.8968333546 49.3273396832 54.888822568 56.2686560721 57.5402403631 63.282066382 65.538672695 66.4848320559 67.2410731627 67.7658570372 67.9991456705 67.8621857358 68.400114805 67.2911133113 64.2583600748 62.391732799 61.998592813 60.0168146273 60.2794772395 62.3753150991 66.512813036 71.6648714686 76.8621024225 81.8167506918 85.592637919 88.4531776288 91.8599205754 93.60938069 96.7205741665 97.8375701504 98.8763783195 103.668957642 102.720689612 101.863162379 99.2215208062 94.3889854084 87.7716465847 81.3136687059 77.594614198 79.0664426616 85.0237740305 92.8272940418 101.971462758 107.399715763 110.284167307 111.031612881 110.336584606 108.962686009 106.86659167 104.427603551 103.372525401 102.038240251 99.8194657848 96.6535257003 93.2807217617 90.9996697615 89.0855445247 90.1377801096 91.4120089952 91.8741369818 90.5889025006 85.6411563492 83.4121412337 81.3055730414 79.8758760027 79.4236854624 79.527048752 79.2328629695 78.3919592104 76.7479996185 71.9512323049 68.0957552595 66.773029382 65.6280514869 64.5720461587 63.5138067998 61.7321173359 59.134790207 58.036179364 56.9274499414 55.805217482 51.5082648483 50.8024435475 50.1411739681 49.5728825317 49.167370621 49.2314562869 48.669696599 48.7196018437 48.7858558832 48.8452788293 49.1381801921 49.3197778184 49.2523190728 53.6006628253 54.4239777133 55.1420396787 55.9346807132 56.8018326808 59.269640714 59.8961391424 61.6996719798 66.9631252478 67.5262239308 70.2782367636 75.3818176802 76.163870444 77.4890108322 79.3164732544 82.438776818 84.3230093567 87.4240569163 88.7002484243 90.1459640918 96.3666186937 99.5855553331 104.513679511 108.161275237 110.955010561 112.277470086 111.725725351 111.95425123 107.146737295 103.427167246 99.6101798888 105.426092862 113.209909469 123.344038069 131.9031517 133.943279587 137.396095531 148.862669112 145.698090318 143.386714439 138.493641215 129.960661488 118.293524824 108.58120113 109.1139931 119.193810954 132.478731074
579.422996668 582.087200537 583.084036597 580.791854128 564.847975957 554.801380554 539.385982749 523.399218488 508.827518565 496.181789652 484.820349887 473.405124275 461.16876229 428.969670384 417.500592295 407.315175623 386.053819935 380.206956692 375.321107215 371.376204939 365.620206974 358.769878828 350.533093875 340.736509108 310.464688055 297.265761106 283.926034649 255.578523948 241.107901061 226.352922523 203.558298831 172.120933719 161.615750377 152.861715657 146.401807491 142.180086912 139.359819383 136.810901813 129.761445023 123.454550696 118.638744446 113.523063209 100.52921405 95.3320981519 81.625359036 76.3919736325 70.8560511337 64.8449161661 56.9046271429 48.2389317678 44.7452298556 42.8664105606 42.7426613646 43.5790372381 44.413532319 44.3363744435 41.5600182441 40.209946808 38.0693941746 37.1704456302 36.6046259057 36.4867224624 36.2634742053 35.931306727 37.443236062 36.4133355643 34.8480735175 33.4872644867 31.4867788848 29.6070269242 29.109949849 30.2973732161 32.7305431796 35.7071479809 37.6872193227 40.6292225898 42.9780454126 45.0382833007 46.8637224007 48.5089917062 54.1889897798 55.7768198282 57.2396175787 58.5909812754 64.4412110633 65.7226413106 67.8659932532 68.7221842346 69.3569847258 69.7154838193 69.7262287862 70.4818396631 69.6505419914 68.2428237639 67.1713053227 67.954475688 66.112079286 65.9991745007 67.91096331 71.5362641004 76.0924074788 80.819076218 86.8171480829 90.7464592503 92.4069596406 94.8360452463 101.983680438 106.378704225 107.623477276 108.594295563 110.11145121 110.132385024 107.684270623 104.737588792 99.6999082172 93.0217722746 86.7685303246 83.1684268749 84.8555697809 91.2314523987 100.685663202 107.356612172 112.863059472 116.046296083 117.274084675 117.119162895 116.150479982 113.975984447 112.523748219 110.537508105 105.704452705 101.43617454 95.9704402093 90.4510514643 86.9229622348 86.8772953175 88.869505018 91.1471437766 92.314044551 92.1469315831 89.7981006655 84.0985230799 81.5093518661 79.723009366 79.2063158153 79.5492780055 79.8403752429 79.0947706494 78.1185239748 73.1982448529 71.7821677507 70.4978250228 69.2939223681 64.8174118865 63.6503977899 62.9404191324 60.247424659 58.4229684997 57.2229281334 55.9639286986 51.3835673736 50.5476731708 49.7580364736 49.0906102897 48.6467428156 48.3468456839 48.3865109092 48.4940687551 48.6043363282 48.6932589149 48.9615800985 48.9016302983 49.0925261051 49.3138555634 53.8452896676 54.6890209155 55.4828990422 56.3803864537 58.3659401043 59.2005802616 61.4023474039 62.050389757 66.4597287877 66.5670900336 72.4920693407 72.972765738 74.4063074893 76.845393858 79.9725124497 83.9694272419 97.1443966852 91.7072596562 94.2886285581 97.022918725 105.65184009 121.910684667 113.904496114 116.471643023 117.873727465 121.177844066 119.421279588 116.609376238 118.595534602 116.77683285 124.139653201 129.057472003 135.076267266 140.395263757 144.502260209 153.380638321 154.608161077 153.842126057 157.510662953 152.851408539 146.289004909 137.687643928 130.478251929 130.799821332 139.321452366 151.670489541
600.417050087 605.805088113 610.052022431 610.992217711 606.385417397 589.301847806 572.587524803 554.251033068 536.88412981 521.424370851 507.555701841 493.933237171 480.411223457 466.837416477 432.788869909 421.835105731 412.450031291 404.729985546 395.024600249 377.800799864 371.8361178 365.319805639 357.524991579 347.925525797 317.929787409 308.407714783 290.998344613 276.717995253 247.543638241 224.047014377 208.489716897 175.843986302 163.396704018 152.791391648 145.266711255 141.269201186 139.68224334 138.236271786 131.104165525 126.283693448 120.719651896 114.864784351 100.787387029 95.2391811467 83.8983345864 76.5495963096 70.8466759955 62.5308006819 56.2200480196 47.5684035404 43.9677071295 42.1150724086 42.1180248774 43.0593760284 43.5441373772 43.0777593207 42.0709684856 39.6244828962 36.3701171731 35.7448556538 35.3530317151 35.461675284 37.2761173955 37.4447391187 37.1847495335 36.3336958198 34.839538358 33.4675635871 31.2804559715 29.290212371 28.6927013865 30.3010149726 33.5585454285 35.9754264281 38.074391675 41.1076602751 43.5220173166 45.6285186115 47.4968033493 49.18826857 55.0046744585 56.6624016866 58.1977752875 59.6238640809 65.5403844057 66.9237887823 68.1764356639 70.1943906051 70.9842901728 71.5344506326 71.7863194562 72.8741885879 72.484192058 71.6256979968 74.3257789835 72.5312691521 72.7824925898 74.5696227863 76.3156935524 77.6851428197 81.4926181355 85.5936791047 91.3805445016 95.1500856871 98.4299614158 107.314201128 110.243697856 112.218329732 113.84577152 115.124677671 116.855065088 117.106273597 116.178309489 114.398119518 109.845617266 104.032362985 98.8894762895 95.9081339075 97.4260869324 102.876636625 111.497306914 116.456144849 120.17361837 123.037473174 124.285608859 124.31265977 123.483788679 121.11023783 119.23905674 116.127639243 111.616048323 103.846662495 96.3211549116 88.7892230799 84.0393919918 84.2571846635 87.779064767 92.3441346406 94.7594028112 94.7648056316 92.4868249285 88.7550089519 82.7802017663 80.7181659489 79.9654673652 80.1167004259 80.012380518 79.5282699006 78.5918136473 73.6378560181 72.3092047003 71.0581534364 69.8419715238 65.2517646336 64.0441432544 61.7968339081 60.6116647217 59.3961818288 57.0399421996 55.6973571869 51.6455195988 50.6399170333 49.5038445718 48.7618360155 48.2936686299 48.1322059785 48.2094806594 48.348577016 48.4767355017 48.5755112824 48.4444436977 48.7674354277 48.9574024513 49.1698215527 52.9859674392 53.6413284106 55.7969617213 56.7896359394 57.7208284972 58.7901975279 59.7208731613 61.5166895375 65.342718422 64.9052583846 64.4458628458 68.7421469578 70.1280720728 73.2126417545 77.667900392 82.4749616192 98.6103314445 103.719823027 97.8658881954 101.447270794 112.295757355 129.61408224 133.137164713 136.903623776 137.938133246 131.301897992 130.645571722 126.480032835 131.416843189 130.874336336 139.108088891 140.998352384 143.372635405 146.165955752 154.661712203 157.859879772 159.122330875 157.796922435 160.309561146 156.029124606 153.176372575 151.414853963 150.398655086 152.247310206 158.23200223 166.982506137
617.46788973 624.475780911 630.908691784 634.294011215 632.59690144 622.956511043 607.826035534 590.396816852 573.246850307 557.397009638 542.699381772 515.115917604 500.639733432 485.992339126 471.453206242 436.235097322 424.738231741 415.11951735 405.538619915 383.117497865 377.095521723 371.231553691 364.121382771 353.818902703 329.52243956 315.49624403 297.446846961 282.861759704 261.711843 231.950809888 215.540700578 196.178787204 165.194826285 151.842911823 142.369538673 138.33488168 138.139844376 138.475078365 133.076163526 127.965653701 121.727365561 115.183237735 100.880737127 95.2323397798 84.0414103109 76.4023597708 70.9416726143 64.9118959469 56.8874798148 50.92108979 44.8416636989 43.0041234898 42.7715390006 43.2731442014 43.3353039212 42.343896384 39.7751426248 37.577423547 35.7435066549 33.9944806642 33.8149249187 35.5794676492 36.3862721767 36.9821796772 37.083750382 36.5407047063 36.2610803681 34.3548224488 32.1301523282 30.9388160061 30.4301208527 32.0273538361 35.2020533863 38.9546013276 43.5713688781 46.9765616447 44.3360350424 46.3838753545 48.2287735119 53.9958732618 55.8267328896 57.539775154 59.1389248027 64.649612027 66.5713323686 68.0593362743 69.4366041887 71.630213182 72.6098935344 73.402958014 73.9661184514 75.7247078138 79.6533932709 79.1196523216 79.3239338557 78.3769822651 81.7815245328 82.1540853809 83.6581562312 86.2127914807 89.5239338883 92.911389643 96.3213604797 99.8974792799 108.890371612 112.369458569 116.2607198 118.055813418 120.082564567 121.789787254 121.740036202 127.287285846 127.043619614 125.556978787 121.446848528 118.599416781 114.894595157 113.002837374 114.030149075 118.769414201 123.635869112 128.378407982 130.791605198 133.012329578 132.051440523 133.515294821 133.532683488 131.955089637 127.748032236 123.956833568 118.481513018 110.906919689 100.485983532 91.5392267018 85.8649012693 85.9514785367 89.7092553834 94.5030725267 97.0821212732 97.2027572064 95.0808713955 91.6012160791 85.7540339277 82.8358060808 81.7386905411 81.4023637748 80.7335347384 79.7184071572 74.9361341557 73.6573372402 72.4648930724 71.3035020083 70.1204754234 65.508574575 64.281037434 62.0814439036 60.8976291944 59.6923688378 57.299780474 55.9267607254 51.735461255 50.660680736 49.6318294757 48.7743120191 48.2299454636 48.0947238872 48.1670042823 48.2928488264 48.4017247876 48.3115712105 48.3648444433 48.6612186597 48.8579689493 51.9424817282 52.3929520058 53.1097629338 55.0048603152 56.0771207925 57.2892599028 58.3637613899 59.3812675401 63.948152786 64.1728520224 63.1082066161 61.8874098644 63.828170822 65.030611966 68.8892771006 74.6268816178 81.134356323 98.7597968916 106.606397813 112.759962402 125.371477986 133.338551475 137.733405415 141.376782203 158.860499184 145.954786353 138.910823271 139.24257569 139.065148937 142.159161352 141.419727305 148.17147623 146.244966421 145.106071598 150.146724627 155.349885341 160.616490001 162.671094438 166.276283258 158.993045853 151.669145441 150.332754271 155.477860773 162.03853161 168.023425874 174.345035909 181.434146049
636.680522512 641.139232293 646.04387254 648.076955763 646.910594968 639.069760618 625.812193498 610.061157683 594.13956652 578.956418557 564.421006812 547.613448266 523.958000869 505.207423345 489.003880525 453.067603588 436.33196451 421.557176584 408.039701563 397.085009545 389.238899034 375.315051047 369.604905021 364.300382063 349.367629606 321.555443457 312.73970894 282.169519026 268.097272636 239.364972273 222.798191167 203.367613289 170.516547976 152.615613076 141.231473872 136.65224712 137.224777364 138.569177037 133.967223745 128.466505503 121.477562923 106.434261253 99.9314838934 92.220250884 87.3424561079 77.1069542068 72.1865339771 66.6631604906 60.6868028278 53.48193979 49.0864598798 44.8344177788 44.1411550043 43.9040524779 43.2351889141 41.0049240522 38.6728253433 36.1369831368 34.0929146698 33.1487886213 33.2659380752 34.3786340108 35.6389745664 36.6513160418 37.1303111944 36.9666384303 37.2921123167 37.1328843019 35.3289144646 34.3692349765 34.1325995339 35.5654054153 38.2675578637 41.4428712972 45.5483430528 48.4572545671 51.0065646338 50.5710091804 49.0134261538 54.7910470084 56.6324220849 58.3959348942 64.1035071999 65.6341242061 67.0342964419 69.1105905436 74.5221726896 75.7208223057 76.7928869625 75.2453126322 76.161991427 81.2591756015 82.852034299 83.0239639073 87.2187705989 87.1195718034 88.052209568 88.7109865927 90.1258600154 92.3191687391 95.1635452653 98.0864070528 103.664998812 110.013044349 116.591718679 120.062492338 121.439982434 124.260320199 128.915029281 131.065730714 132.923539166 135.422109815 136.515549661 136.866492639 136.382649544 134.828182 133.312977184 133.805309149 134.04034816 135.550460008 137.74620924 140.067229649 141.987642671 141.783252691 142.205695237 141.390964194 140.496627501 140.982740377 135.435020532 131.684990353 126.305678831 118.940581313 109.892368526 100.011963542 94.3588845805 93.7859234846 95.652855467 99.0486414226 100.969377907 100.65741834 98.4789453941 95.2033842965 88.873280368 85.4802706078 83.8242154066 82.617279893 80.9265051707 79.5529859955 74.3781817285 73.2736008296 72.2856550806 71.2767579305 66.8506387562 65.6005220047 64.3520669272 62.2349835071 61.0853922927 59.9420006258 57.59547821 56.2646658279 51.9796046077 50.8794882659 49.8460808505 49.0040547236 48.4791918227 48.2958516779 48.3788258506 48.235980548 48.2594131001 48.2291421906 48.2936388435 48.907831222 51.1632342612 51.4159427633 51.727620279 52.3293492348 54.0619033482 55.2523959192 56.6468108572 58.0479603036 62.5400951705 63.0383855572 63.2964291248 61.6135889437 60.6791290881 58.9507074531 60.2270464366 64.7026540604 71.9682695172 80.1628248486 99.6893282457 114.664482621 125.3222562 132.576928531 139.834298254 144.67088984 148.634187171 167.603907087 169.559071328 170.289198594 162.373845424 148.002591079 151.116076487 158.079540349 152.651382355 145.423621424 141.156690073 143.014004107 152.828088503 162.570308722 166.406187795 168.422725274 155.750048391 141.582322523 139.516884176 152.65037407 167.97862782 178.975214081 186.901763369 205.534371197
651.70853868 647.160263262 650.209543951 652.141279144 651.513683994 646.106391582 636.45634845 624.459088788 611.652343226 598.64873298 585.401628777 570.572730376 554.309779986 528.240101587 508.304623018 487.656758271 457.025205583 435.713131278 414.739788016 397.342451853 387.370602961 381.675775988 381.169969993 366.014538203 354.37441492 332.471000794 316.240780542 286.618928182 274.020025133 248.211204182 232.714649821 213.091598796 188.49519327 158.306037798 145.082729738 139.289600843 139.01531003 137.262574372 133.821735293 127.513693543 117.530297137 104.368832266 97.7022568712 90.6812384411 86.6499079537 77.8320136091 73.6782848203 68.8274873856 63.5128068257 56.5818279336 49.0447928275 46.8595912344 45.5343410642 44.4955670564 43.1259061513 40.4330034301 37.9114198839 35.2811790116 33.2494463783 32.2204660378 32.4526259098 33.6241509145 35.0636796488 36.5583792093 37.3352490906 38.8618298826 40.1585777481 39.4500300651 38.4816358058 38.5235379297 38.6310940224 39.8492163395 41.9088263172 44.2812485443 47.6328525132 49.8951842277 52.0155355666 54.0691295552 53.2675482267 58.9268334327 61.1882704811 63.2073716097 64.9500386887 66.547018812 68.0151682358 74.1746786703 75.6073351205 76.9555917482 78.2315532015 80.8108999927 82.7357018467 83.6785855486 85.7177899802 89.9900053519 90.2632921735 91.3593610128 92.7366782075 93.6929012059 95.2202803232 97.3770412719 100.105040622 109.475535693 112.658917424 117.505032999 121.277139769 124.863122973 128.257330099 129.650105925 134.499781469 137.480455959 140.120362343 141.048546812 146.316927393 148.75694385 150.844107978 152.009962877 154.142500328 153.832148431 153.169386997 152.508778472 152.084652047 152.020802978 152.159111563 151.458614763 150.66821991 149.5476437 150.763304238 149.157800124 144.031045252 140.934797182 136.494120972 130.361715293 122.755043271 115.020320741 108.307501953 104.268755086 105.055647674 106.105201659 106.349127224 105.083643656 102.513726528 95.1964588943 92.1235683323 88.0260585326 86.1134626118 83.721243576 80.3517512176 78.1919494376 76.6323879563 72.4382088156 71.7895133014 71.0267066433 66.8231631484 65.5368381016 64.2391414699 62.2229945711 61.1365872282 60.1081436079 57.9031072716 56.677222403 52.3595778703 51.2530654994 50.2386933889 49.4269068188 48.901987572 48.4750789549 48.2426665345 48.2016815142 47.7604748255 47.7174623642 47.8004620588 47.8237002107 50.4601136386 50.8578904168 51.0813772217 51.4686844826 53.0020882719 54.3499176407 55.9758545364 60.6715472993 62.2289857667 62.8687255287 62.6971151814 62.525641098 59.0209389624 56.6832036443 57.560610366 62.6554048594 70.901482803 89.2331957533 101.328140995 118.234636668 127.917847607 138.19388369 144.996141999 151.477161362 155.814830734 176.205644432 178.649627787 179.947194403 180.037138436 171.481242117 172.945545521 165.813490685 156.967106252 147.372493008 134.083820035 136.594486152 151.949218759 166.395806403 172.254297363 174.377887383 158.842109751 140.365536697 137.558525761 155.892209632 176.006095054 197.273022497 206.861903578 215.145170212
658.65143775 656.217937354 654.14876945 653.068585173 653.123757802 650.897275556 643.45589582 636.353915119 627.692113074 617.708690227 606.42317638 592.616733631 576.519164483 561.007937968 540.820687528 517.097210249 468.32710596 441.222187145 413.638014027 390.547054943 378.215967942 378.433312578 380.690162992 379.582056842 365.809012306 334.764850102 317.064446926 288.995845465 278.66969019 267.279137675 254.278258609 235.789118142 212.383685581 177.497920055 154.46754474 146.623778206 140.983054045 138.233590477 133.232608311 123.926694737 114.53357775 105.317990121 92.6637265983 88.084692792 85.1607346276 78.4403932086 75.1265119573 70.9286528361 66.1886109403 61.494883217 52.8978140463 48.5154217968 46.5943846515 44.9024888566 42.270718778 40.1138676591 37.6698203284 35.2462204919 33.4562809346 32.4861915362 32.6891761446 33.8137792281 35.2277027039 36.4852095158 41.2302127245 41.3563385352 41.7944427742 41.7641704334 41.5314951265 42.4261663276 42.7926730019 43.7689142688 45.1748265713 48.6417119658 50.2634363913 50.8327562121 52.593349062 54.5189398722 57.2999783296 59.4326973935 65.5340440274 67.6183917125 69.4918390351 70.8649598726 72.4828319711 74.831389499 80.0674456694 81.3969491184 82.6640487247 85.2348437467 86.5316610115 88.7391432902 90.5296751144 92.3617213296 92.9113586541 93.4414801367 97.7753033165 100.009620603 102.16979431 104.920044145 108.133397166 113.763100766 117.058826257 120.695524425 125.744226643 129.453346538 133.031111499 136.52937649 141.840192281 145.133693497 148.599169346 148.933690536 153.200827077 160.404918382 166.046626674 170.08109648 172.994610306 173.300007116 171.550146527 168.644696367 165.687552575 163.419993991 161.980450296 160.241455697 161.023056475 158.742015303 157.711029629 157.642210107 154.197997489 151.448663691 148.638410342 144.434894459 138.717415211 132.247920216 126.577043649 121.582004511 117.488505354 115.171792736 112.779554631 110.236781542 106.981146509 98.8042142156 95.3084026906 91.0280427579 87.3714588093 83.0435535064 79.2504703393 75.6158752746 73.8597210591 73.5270336721 71.0195991702 70.632255566 66.7078088834 65.3222148106 62.8315393775 61.6079365011 61.0003822309 60.1394281871 58.1830207993 57.0994964348 52.8267705529 51.6943539116 50.6779264798 49.8665364154 49.3050330437 48.3897735188 48.3594519842 47.6362452343 47.5179322117 47.5139774415 47.6851594034 47.8783855355 48.4135245655 50.1844947593 50.1971895875 50.6424665983 51.9584711955 53.4807851619 55.3538136933 60.2030361997 62.13068645 63.0928690131 63.1611474574 63.3166428789 59.9270500403 57.6612337658 58.7843875591 64.1860634075 72.9041323239 92.5443134537 111.527377835 123.034477686 133.24796215 156.81115964 151.245839185 174.227732931 179.683511475 184.121691879 204.110242221 205.626104667 197.05047084 196.064811572 195.777077337 188.325484871 174.013249513 157.170205473 143.088593892 145.030851898 160.786578786 175.53600608 182.033962066 186.915261071 174.80095047 161.163612929 164.289001791 180.294163313 195.760079927 204.475405221 212.226649767 221.34780771
667.766705615 663.946925097 660.449621393 658.681487707 659.109865356 661.956828632 659.474715932 659.443643968 656.955318644 651.75122736 641.795728451 630.438090001 613.548995315 583.969910375 563.158566216 537.608864983 485.071057607 453.275797275 420.31078352 392.516009448 377.731050694 378.202914518 385.890861116 381.988406996 367.587742996 334.703639977 314.801633491 298.757154173 287.399530856 280.995935353 264.960464451 249.468809361 228.440276469 193.306940311 175.889875363 160.603806453 145.163969108 139.443398918 132.277924387 121.351012702 110.801374779 100.577535082 88.6497047101 84.671645358 83.0293736322 78.8927980427 76.3109732606 72.6088356285 68.2691856022 63.8911048361 54.7620277683 49.6259664852 47.2449221244 45.1153675654 42.1711355007 40.0272094653 37.8340425841 36.0546513121 34.5219848367 33.7130055679 33.8018352095 34.6937084972 35.8473978481 38.3841617278 42.2466288247 43.5039996594 43.3914367956 43.8667582778 44.8218594966 45.1539139903 46.0621598079 46.7105878537 49.3334904613 49.9899925994 50.7408058755 51.8647325339 54.7724386063 57.1341301691 63.0066189157 63.2087395568 65.8526791339 71.2388790921 73.3007629819 75.0948833759 76.661668781 78.6582764099 80.2828431119 86.5395733116 87.9185312693 89.2224465729 91.8075564765 96.306171383 97.6634427398 96.3033819662 96.3663434441 96.731640861 100.450872261 100.958349457 103.925276677 107.479470735 113.389873997 117.473229004 121.092091803 124.923630326 129.973823415 133.793984964 137.509482218 143.212303648 146.709077295 150.414321184 154.482376383 159.181606454 161.759295311 168.562954735 179.068353848 186.321239828 190.820714325 191.661240549 188.562065825 183.218768743 177.793182462 173.607380222 170.960398699 170.432235313 168.600789606 167.791646692 165.657983928 163.937864176 163.619917871 163.488290963 162.063025491 160.258227939 156.470585486 150.736234785 144.004935413 137.85999642 129.336352986 124.111510116 120.223659149 115.747715417 111.669659958 102.66186076 98.5533117508 93.3060441359 88.4389678373 82.4934131831 76.9404567098 72.3911516099 70.2065775718 70.7842861677 69.9034784215 69.8803937842 68.2040835178 66.5474800831 62.4302524817 61.1785010018 60.2931471626 59.6247180653 58.4028632426 56.9422279005 55.6957384103 52.1064742311 50.5868460742 49.7544885126 48.082335721 48.3303746238 48.2529026395 47.2828115168 47.1729604818 47.2216382866 47.2810346745 47.863273897 48.5936266454 49.921092136 49.8381617254 50.0809468314 51.1827098315 52.8397479038 54.9079617333 59.4835525759 61.7842674432 68.2822107897 67.9329057753 66.0865913509 63.5226506236 62.1570487701 64.2012541573 69.648614363 78.1811653572 99.0793416692 118.396134771 130.035109058 139.379273255 163.383118049 188.065055121 195.587375107 186.50555144 191.373949369 212.662023181 214.815075007 215.615940975 222.137840578 221.14103062 213.788189345 203.231455953 188.390471214 175.56664846 176.953118574 189.168091361 201.837612566 208.485115029 216.978657045 209.302160859 201.120351965 199.732116987 203.234416456 207.137113815 206.279964586 217.208471153 234.573281831
680.528724493 676.788856803 673.531756253 672.578220187 673.902693137 678.014812563 683.193048182 688.11296202 688.451304203 685.257201712 676.826624826 667.354385594 655.029179191 625.527299093 605.174564105 578.897533504 532.007821635 475.998415415 440.222253539 409.930898536 392.778873525 390.35090547 394.670340907 383.039841206 369.151714865 345.374134233 311.255596028 292.640652677 283.560156899 280.916144233 277.93133847 268.662492452 252.518265623 220.277854809 201.950939046 169.736978995 159.815656744 151.058258683 141.445380953 118.870933172 107.369919074 92.0193608014 85.1863931865 81.6481780273 80.936278528 79.2082042943 77.0655351028 73.6374903716 69.5393190327 65.3597563695 55.97834678 50.1648556607 47.4870922286 43.8972617577 41.7640426277 39.9995811461 36.1332082262 36.9230758488 35.7851231188 35.165698416 35.1499776866 35.4849852632 35.9444473803 39.3189289489 43.3947334156 46.3741143839 47.5104405222 48.2937963612 46.9861775294 47.504104305 47.9304322136 50.6319279853 50.2896744294 49.8395163601 49.6904144063 51.1939378441 53.2941597749 56.2464778359 62.3851264984 68.4248849497 68.8604622224 71.328248922 73.4297309772 75.2399398426 76.8059215402 78.6725602371 84.9089848723 86.4460931776 87.9788537924 89.4663402637 95.2032703066 96.9385790264 97.6610281383 97.0286325053 95.6769181434 95.7138902535 98.6013486568 102.003804213 106.657721305 109.28540283 116.144270347 120.47248126 124.920241214 128.982433438 130.814082528 137.877972306 141.659927375 147.442196715 151.009300838 154.945367393 159.374363425 164.698526103 171.359407261 180.509674076 190.425032085 199.909087893 206.627347088 207.968239174 203.266700912 195.349085922 186.553833557 182.87465696 179.415695761 177.608567675 175.82932213 175.07676243 173.844151783 172.713173703 172.726339576 174.425461479 176.661399826 177.025078789 175.13675814 169.881928367 160.723314503 149.155507442 140.101649221 133.004659182 127.539236084 121.865023714 116.482759813 106.489460403 101.932004979 96.9024316632 90.1136169286 82.6840256309 75.376811394 69.3615193245 67.117059789 68.0838610759 69.3438682633 69.6451904757 67.8760954678 63.8487518811 62.0828749859 60.5539253398 59.8271706388 59.378777335 58.8890626941 57.2409816181 56.0181537097 51.8969453656 50.7258212311 48.5111738799 47.8431221261 47.3462884092 47.0411799534 46.8044522182 46.7032440919 46.0875762719 46.9469487893 47.6494119853 48.5296968083 49.3291014352 49.7472693555 49.9041281889 50.8169539086 52.3976751293 53.9063865975 59.467446415 62.0821157681 64.0646334995 70.5211093507 70.1007986935 72.1283042483 71.9455595789 74.8767662183 77.9281270619 86.0117274199 115.019534691 127.171742462 137.818574588 146.829902035 162.119909787 193.948747455 201.534191967 208.259152388 214.050080102 220.355086357 223.159091433 224.841683931 232.070987366 232.507924407 228.91798286 224.750593561 225.819877705 221.021949264 218.680399567 214.954036717 222.3510863 238.452971245 239.600379673 246.461044164 240.176467726 233.319355909 222.128816352 199.190598952 190.304572878 210.026740726 236.870302882
697.10001126 694.7783973 702.780721643 702.160154298 704.678247394 709.866483532 715.853067933 711.825371117 711.929428924 708.537720086 702.108255214 691.273571829 680.391880857 653.323187493 635.61729822 611.928505051 580.65739023 522.137624516 483.835185302 450.350971287 428.753902813 420.301385839 410.254886068 397.9765214 371.245891907 345.865975498 308.63586577 289.744315009 280.447436333 279.607350704 279.84922578 274.336734489 262.042260368 231.780396193 207.625531909 177.570018833 165.245139185 154.184772288 129.045939241 117.621330862 105.321064618 90.2035243863 83.5517047059 80.3050645937 80.0279323179 79.2835393057 77.1949064117 73.853300998 69.9145295351 59.4151657526 54.2295054093 50.9200785268 45.9655236325 43.5636933482 41.4264699153 37.2545361564 35.9593796989 36.5949101074 35.8679530253 35.4734736351 35.4293330496 35.6950397869 36.5036252206 40.1630083168 46.1607004036 47.7263843031 49.0250220982 50.0254293314 48.6982553596 49.270145314 49.5014091841 51.1607088805 52.2389461754 49.8310609153 48.2309991604 48.1620197201 51.0202328817 55.0897060716 63.9543671265 68.0681727852 71.2452390409 71.3456539769 73.4440956038 75.2514255527 76.7870276774 81.8504590397 84.3678886913 85.9092042086 87.5749129468 93.6799062844 95.1064979547 97.0553881182 97.5021086624 96.2558290096 94.680741241 93.9521647991 96.2133568335 100.740909765 106.875212255 112.35927773 118.878273307 123.922660718 128.769201353 132.995995547 134.826530037 138.366037408 147.599640048 151.105199898 154.695773304 158.673286759 163.150476456 168.647229432 175.794104894 185.907081933 197.582285189 209.719052777 218.294434505 220.036247504 213.823704636 204.216128833 195.035128701 188.771274513 185.514400965 184.237935713 182.936036944 182.312276631 180.958347519 179.85634134 181.226252909 184.818926526 189.586379215 194.534986769 193.954306609 187.449529732 173.479795983 161.092762525 149.120692052 139.884154571 132.996417296 126.642681774 120.463209259 111.256937037 106.616955918 100.280130557 93.8569007211 85.9733148127 76.5959580469 69.6648752495 67.0987217929 68.2474001446 69.2290844103 69.1907923635 67.6811881987 65.2715318154 61.160744093 59.717678697 59.2681001945 59.0952982204 58.8818187461 57.2688835692 55.0582662971 51.7830170123 50.4955609039 48.2536138888 47.4541944943 46.8485501038 45.80301557 46.1901920713 45.2177960384 45.2794453717 45.7955694336 47.1073266159 48.0244593085 48.7207643549 49.93770947 50.0460672047 50.6717321225 52.1133780521 53.9681107006 55.9703116451 62.5660803939 65.035989969 73.4593987157 74.5891198602 79.5062570228 81.1922122017 93.8945853201 92.6988774173 101.162827697 126.308498054 136.849276408 146.144934858 154.078397375 168.395296164 190.831663172 206.288855455 213.369133052 219.62871879 224.897478855 230.236501026 239.320992258 242.930860025 241.587862143 239.969076992 238.777046031 242.224535656 242.474464871 242.325168546 248.291280812 269.351219062 275.357999765 273.757829048 271.47401081 266.567961194 257.648279754 240.485610873 208.957560887 196.674858553 219.706596217 249.373275913
729.472165563 727.88690917 727.601603452 729.373210327 733.468935165 739.141622982 744.632855197 739.795409446 738.620770374 733.850062753 726.496901853 715.799560093 706.589310197 683.537335795 670.246925632 651.09446117 623.725777106 588.446801329 529.640433242 495.232908086 469.616116467 448.911858419 436.496863457 421.800250856 378.24196437 351.31995406 312.622118535 293.116904755 282.789963449 281.123448509 281.634650967 277.839461513 263.069967312 248.46846758 198.380993836 182.978058487 169.198820987 156.167748327 143.045291794 116.879275417 99.1274008527 90.2777577752 84.1809287759 80.9552623097 80.4088991327 80.2163777667 79.0193714665 71.5942194135 67.4568195338 57.5423120104 53.7254195665 50.433121211 44.6138982535 42.9229721956 40.8184591434 36.6876052448 37.5246387946 36.6548607042 36.0359465168 35.6931333069 35.6399305795 35.8687700245 36.6801700256 39.4381317314 47.1523896429 48.8078797766 50.2545964642 51.4224955005 52.2547683603 53.2512341686 52.951443862 51.8503527015 51.5910288799 47.5100455413 44.5533636928 45.0151771371 49.3320669211 56.0630233445 63.688568427 67.9906467713 70.9844487895 73.3603934266 73.2676961648 75.0900130933 76.5760380963 81.0681735963 83.32119111 84.7536472689 90.5429909138 92.6555277557 94.6783618137 97.1447309638 97.1450583624 96.1429560925 93.9400501753 93.0081648815 95.4379093621 101.412972534 109.350142869 117.658302119 123.694195817 130.005237265 132.861358237 137.081801467 138.780953065 142.160402844 150.874695153 154.291369999 157.81647655 161.425616817 165.864264745 173.048820877 179.45087805 188.39766292 200.597102132 213.098746336 222.704033732 224.579387219 217.904770054 207.350910257 198.184067017 192.67604855 190.692735658 190.778083931 190.470196537 189.98520877 188.06068414 185.885797482 187.374356314 192.138116394 200.273421204 208.25374654 210.277908092 201.170695762 185.636708615 169.942220526 155.494614294 145.398467603 137.732526285 130.245499098 124.875572771 115.149698365 110.889753552 105.058071877 98.9571604777 91.2210320099 82.5429423205 74.707873819 71.6230474202 70.6107254029 70.8304349904 70.1870900313 68.2116761807 64.5749500793 60.5162655608 59.3921731513 59.1083778696 59.0541373132 58.200460227 56.9066279636 55.4079024244 51.5973212088 48.9563731798 47.7973178308 46.9004010883 46.2087283864 45.0408455709 44.4155690933 44.3884570277 44.3961133647 44.9201280059 45.6713269129 46.6059770807 47.4802008598 49.8831673383 50.2406719122 50.4506269835 51.5100013702 53.9676249975 56.1132831306 63.144879342 66.0338909924 76.3856713211 78.9176455716 82.7769343675 90.565232594 105.949860204 113.555542038 122.903536059 135.929814791 146.347390658 154.244366594 160.920696658 189.670558075 194.534139337 211.251341803 217.12279766 223.863640064 229.454421325 235.583324909 244.002784443 257.44457151 255.971287849 251.883702246 243.014617619 242.053012899 246.893612206 262.298661733 276.761546682 287.215221726 293.372712867 295.748668196 292.268076935 288.592268308 284.412873059 273.334290145 254.080359879 243.592515547 255.382067268 283.887619172
750.042952402 750.863174813 753.042058721 757.065322582 762.893022178 769.545303041 775.095609261 777.415323023 767.394380633 760.160734485 750.737438523 739.535762182 732.044618128 726.121817764 707.506252912 694.411628511 671.42143579 638.543685051 594.440047972 556.273320863 513.699020672 481.477692167 457.793614161 436.646911418 411.888981789 370.251330169 329.082832481 303.461559278 292.002311674 287.680789062 285.814011819 276.8175064 266.830013044 253.796857964 220.145718072 186.384875792 171.936152363 158.016771436 144.274455419 130.598123186 97.9016699495 90.5439251963 84.9815166953 82.2966131911 80.2241808336 78.9002048087 76.7644802149 69.6484972485 65.8414738573 56.0618043133 51.2998060843 48.0775915022 45.2627746612 39.8283112196 37.9048425361 37.066129059 37.0631075755 36.2031559532 35.560887768 35.1796872191 35.1137454615 35.3960364264 38.087721868 39.4595686163 47.6355356528 49.4956750011 51.1226727097 52.4603986042 53.4586906588 54.5494661276 54.2355862085 55.1968534403 52.1891728123 47.1544338404 43.3713436246 43.9677902083 49.1585236407 57.4778705399 64.4740581997 68.1179934625 70.3986389458 72.4674908251 74.6677849408 74.7304368174 76.1687356717 80.6305095704 84.2681984014 86.013491248 88.0558958714 90.8674910206 93.8197691587 97.2661597872 97.9603143289 97.4212675889 95.4559923873 94.9681299807 97.4838076268 104.288090146 112.721354653 123.08542151 131.092212534 137.709074717 141.409563877 143.342469026 146.705506404 145.740073662 150.588225146 157.040120004 162.551164147 165.987679146 171.623073125 173.549867926 178.97313841 186.845968803 199.277567649 209.626340007 218.36901362 220.190338344 214.380805725 205.535170794 198.370570953 195.080226933 195.528507806 197.944774542 199.84851927 199.407381356 194.483302586 191.573064369 191.579701895 196.124508303 205.686741711 216.091774689 219.409793403 209.817489261 191.624179969 173.673448205 158.314712619 148.052975565 140.457574436 133.106243873 127.899689804 119.107253262 115.760493727 112.182674937 106.159857596 99.150897049 90.9929324727 82.8315803561 78.6796277948 74.412102336 72.7406532208 70.9676896941 68.42983131 63.1801377137 60.3940419271 59.3528528033 59.0811784793 58.9026507179 57.7839302685 56.4068228904 54.8643184753 50.3890163512 48.8988917484 47.1277320617 45.9038043556 45.1419798881 44.5582374538 42.9509035164 42.6804804466 42.8237114308 43.7379864148 44.3024030346 45.0185370082 45.7156626141 46.7923907406 49.4552666137 50.2475502603 51.4297704023 53.0811331591 56.5540092002 60.4197881943 66.912087391 79.0358200227 83.8599069739 87.6937364101 97.6822360352 103.550601529 123.645676275 132.796184263 142.346824018 153.587213199 174.183731841 180.421967803 185.710178651 198.008253354 213.287332802 236.875301469 243.408670258 247.521633605 250.13731909 258.895848191 260.1972448 260.49183049 256.894206772 248.649926964 241.860945483 252.062654776 272.780189601 291.372963653 302.099600196 307.10309601 309.582646977 319.494072536 313.534080698 304.090322474 300.302683157 299.48560127 299.536017923 307.044868449 329.166283652
770.515668326 773.206624455 777.176801442 782.865918475 790.255024576 798.347821159 804.870689249 806.931705812 802.845322261 793.077461291 781.64648624 762.645146692 754.764267755 753.671378844 750.925048956 744.271788323 724.753029849 692.97531836 642.028934911 600.970320124 552.31551188 509.305206124 482.171769984 456.104872432 429.05601531 386.101254348 344.150107956 324.638112799 311.211471815 299.355244009 294.216307022 279.913426161 269.897933368 257.499618225 222.578038853 188.490260166 173.767827757 159.380922801 145.338994845 122.811135048 97.513932582 90.5928172996 84.7136614768 81.0170890272 78.8378472559 76.7816522288 74.3620223879 71.5128766546 62.3703232105 52.9761253264 49.6517180069 46.6531606856 43.9764376804 41.5946297776 37.3524078231 36.2149220988 36.2462137264 35.2882681798 34.4855221239 33.9393396199 33.8069092882 36.4352042489 39.3622110951 42.4592378488 47.5442377245 49.7317884179 51.5503434468 53.0450788405 56.7643125329 57.6228899132 55.7051575818 57.3695956115 55.0209735005 50.553017339 47.287247227 48.1654964335 53.9948711994 60.6487632553 66.0181442957 67.8063420188 68.8260528612 70.6917624474 73.395714183 76.5144371485 78.294519349 78.9937907971 80.9153989131 81.9064564496 84.2372409936 88.1041307398 93.6124269862 97.3613864818 99.353981283 101.538766569 100.342317022 100.413184208 103.280162018 110.271694265 118.376940088 128.474164686 136.059408623 142.198415451 145.391257772 147.117653816 149.834960368 152.38386202 156.656022089 160.901470991 164.220835752 169.235489899 171.863174999 174.662860711 178.471916998 184.278552938 194.357287086 202.366760983 207.449336331 209.225151793 205.858339048 199.802292031 197.030876206 196.939224833 200.677928813 206.356675331 210.136032149 209.783459568 204.911515006 198.79487616 194.7112315 196.972608224 204.773462337 213.869955935 216.842481222 206.947244786 189.537424692 172.079475773 157.938456996 148.967209232 142.251756154 135.411675629 130.469192328 122.942205321 121.045891447 119.403219441 115.176572431 108.754585918 99.6287131822 91.7151714578 81.3697487476 77.6192313702 74.3097425613 71.4009465209 68.3887421188 62.1953574781 60.276272216 58.6303201888 58.2637021147 57.7413977629 56.6760349836 55.3539771562 51.5575208711 49.4464133178 47.0117901497 45.4826908434 45.041584754 44.2523180263 42.3835622233 41.9700683222 41.5744743719 41.5894176045 42.3607279687 42.6986765258 43.172831229 43.691966152 44.9627544728 48.5147895036 49.602990698 51.0155612083 52.8313957757 56.5944882606 67.735462975 71.4316093762 80.9286764626 86.8970830587 93.8846465158 99.2973403636 109.792259641 131.226982531 140.477759075 149.88445857 160.31499711 177.213986853 187.300789091 192.26716908 208.841774177 232.102789598 243.000722801 243.575769187 246.256486684 246.596607236 252.127584093 266.329734247 273.734726997 275.780968158 268.790812719 264.84836788 275.409538684 291.632689254 305.746837458 312.370274155 311.790879313 323.403592421 329.058525221 323.347920829 305.295696314 295.136740281 315.273324971 338.128932443 351.796156331 359.962261548
783.941670021 789.127117214 795.204609039 805.369406381 813.559337317 823.019088996 831.28514623 834.174040924 828.556322096 815.229240607 799.693353193 784.738362883 778.542667781 780.445204734 781.149262315 781.122446327 764.903310904 732.476485143 691.990420826 646.249075527 585.060958301 536.939330367 505.50150619 476.173700851 447.583422338 419.624568457 359.88387849 334.392163495 320.017251411 309.525548792 301.056836605 292.578227432 282.760058816 258.2181431 224.819293601 189.059061653 174.938233856 158.238824042 133.56699769 120.971781739 94.4097309752 87.2989720922 82.0709771345 78.6153396229 75.4199382257 73.1707571544 70.934098951 62.1629884388 53.0726115511 50.0129763381 47.6566485463 44.8999408234 42.3908472865 36.4491987415 38.2260535932 35.1722362356 34.1653429073 34.0542534387 32.9548017457 32.0687484425 31.7483757477 34.5389060234 37.5568949367 40.323573692 46.6691252376 49.2276987249 51.1275355479 52.6588601621 58.1666555327 58.2984048528 59.3387342864 61.4568105104 59.7252118473 57.056645079 55.2723479719 57.6162103649 61.5861808521 67.5132829575 68.3256400127 66.1318585259 65.6239259159 67.8260158839 72.2567461068 75.8671590228 80.0162447397 78.6214672555 76.3541031713 76.2309975881 79.0112733762 84.4835931848 91.8729838187 97.4771508645 103.47106381 105.622255063 106.32206242 107.722089333 111.047526739 116.533930499 123.434286306 134.709868937 141.514722421 146.935454407 149.524115211 152.227904126 152.763074608 156.058561176 158.290216385 162.32954442 167.416564168 170.282193461 172.514275152 174.218196849 176.273490726 179.833519233 187.379855546 190.326546048 195.129969576 196.9591341 195.882109101 193.454461708 193.168290443 196.657959335 205.368704438 215.122816818 222.143071747 221.974111387 213.786910833 203.176420717 195.291724835 193.673606237 197.57479829 202.54028265 203.367131119 193.819009697 179.921749217 166.863226413 155.602743154 149.178824436 143.861588548 134.271369313 129.729701404 127.223241405 126.361800658 127.506169398 125.518848112 118.846204715 105.377807483 95.6499232 87.0069472054 80.2558315804 75.5191920656 71.8381294961 65.2163216861 62.6093616166 58.8295241535 57.6063299695 56.7839857503 55.9804317367 55.003622489 51.2287262712 50.2019463001 47.5482833863 45.5921522861 44.43798403 44.0508699693 41.919116692 41.4029166714 40.9366156417 39.5294903725 40.2348849264 40.8780794173 40.9790263087 41.2231767071 41.599185493 42.7299312627 47.0656287554 48.5036652624 50.2263272388 53.8698850396 56.3786345354 68.3398042687 72.3439969606 82.2502540473 87.3832241582 96.810466742 102.912373968 110.147768054 136.562738847 154.535396171 162.841151554 179.218599174 181.786464082 183.084426174 193.318533041 205.266660272 224.892974668 241.651718218 248.188062482 246.690017644 250.161109967 247.437316376 260.331911663 281.457384154 297.355986403 294.160932805 309.087496564 319.483662749 322.395344222 334.061929792 315.38629572 303.295764148 310.510642446 335.519536517 349.661679004 328.844455111 317.510324313 344.54939264 367.684934593 378.0865684 387.402234908
801.140433196 807.060195557 813.183976112 820.204746444 828.997561704 841.144736071 850.831315788 855.276300667 850.908118002 835.882827495 817.733609391 795.750440863 789.12458912 793.349001737 802.900315385 807.177223022 791.539411016 758.506603905 717.78898961 671.995861258 597.930671056 560.314509715 526.654504133 495.331708701 465.378568624 436.750409926 383.35156075 345.783569774 329.301621885 316.247857117 305.481762817 295.529797507 285.009578704 252.072506405 237.843266648 195.589434467 180.415128681 156.414931033 132.738410713 119.432448337 91.5257939919 83.4754491213 77.2677029198 72.9458773112 70.5162443082 63.4790116921 60.8235491266 58.7758762776 50.1429431812 47.4502178463 45.443195889 38.9046372271 36.8074213587 34.9878424217 37.0280035834 35.9886678735 34.8666964979 36.6315250135 32.5153320024 29.8567020864 30.4595977697 31.4540431591 35.1039683993 40.2450482939 45.9186966631 48.696233504 50.2932367087 51.4772411542 56.8026571992 59.234823718 65.0614371136 66.7670937143 65.0607997444 64.5265141903 67.0005838014 67.1040491009 71.8647604888 71.7986567141 68.8182288905 64.0432435326 62.0161231242 65.7966477499 72.6218119553 78.4340509209 79.4590354055 76.7715007185 71.9756732581 70.2032060323 74.4850053911 83.1130100485 92.5289295862 100.660444113 105.933538076 109.163571825 112.475523971 115.1718826 118.983635272 124.207579816 130.433390285 138.594341993 146.722886279 151.381900238 153.466789953 155.820682779 155.980591342 157.192043038 159.433166413 165.93122034 168.425124164 171.748866056 173.9770001 174.795556345 175.115881457 175.544644227 178.034606728 181.509479171 184.59300278 186.332253381 186.833041441 187.416270444 186.57734719 195.21426026 207.027011966 220.53522423 231.358344072 231.407801343 220.211368928 204.579864089 193.623331747 188.494394783 188.169851715 188.446821081 184.510287703 178.002713566 168.605058203 160.356996869 153.800890741 150.672234809 146.311038163 137.192178478 131.749109446 129.364512345 130.698892497 135.029631425 135.529671898 125.476628709 111.747390033 98.3899406543 89.3791549048 81.4399904328 75.1789358022 70.359028931 64.0750887067 60.7618381206 58.4572499752 56.0059909487 54.7350980956 53.7661591094 52.946037906 49.4997867012 48.3926944244 45.9367126052 44.3837136529 43.2897593114 41.6204995436 40.9059895152 40.3859815573 38.7354147989 38.4255288976 39.0043696112 38.7883328335 39.2321691952 39.2558438879 39.5263818167 40.7497687564 45.2145767494 47.0457399461 49.1276085891 53.1634749216 55.8938723002 67.7612524771 72.0518457739 82.8501771654 88.3457537475 96.7604769994 114.880652125 122.400980688 134.979140528 152.922579114 165.12174158 178.936480999 178.506783037 178.707714221 184.272728295 199.412367957 222.800968141 238.394935822 256.478985606 247.603809828 229.475871266 218.940574604 234.615785844 273.837864664 308.934095284 330.127099119 356.890008905 370.874021668 380.585861352 366.297456357 336.47785059 292.637128822 306.702425623 358.518072847 380.04058136 375.948604227 379.500096057 384.681356541 380.369571306 378.491136288 394.037179896
818.480569033 824.869512401 830.244632295 835.24185938 841.278104093 849.773845304 859.733072022 865.414375175 860.179234348 844.384319963 824.597288605 807.392983519 793.134342916 796.572335265 807.052910731 811.964465324 799.877048689 772.207307358 727.167115019 689.164400787 629.938171006 578.285858987 544.167288276 511.788645779 481.716683173 442.332147307 393.282124938 352.603595529 332.953709238 317.482037102 305.659350872 295.783731669 285.634636358 261.656575312 225.566509379 195.658786944 179.800960667 144.852264641 130.109652975 115.904510222 87.0009823543 77.7249696026 70.6761565084 65.6264619763 59.1871557378 58.4834784134 57.1348527344 49.7982852672 47.4091905953 40.985915076 38.5288433372 36.998034794 35.0616078962 29.6479870008 31.4761817189 34.813674966 33.8009372273 35.3757667959 32.5177676348 29.0419189479 27.2263477913 28.3643858457 33.5877715656 39.2964953329 46.3697253788 47.9967780215 48.5062279208 49.7658334015 53.0926627964 56.9459099425 64.9978712049 69.5592623815 73.2261520768 75.3422608395 76.0928662374 76.7416605481 79.4415363493 79.5279808427 73.1719617807 65.2054699066 61.9536190599 66.3501687134 74.1038811688 80.1962100623 81.4807878778 75.9054879121 68.8071718069 65.9192346112 71.2718352958 81.8546567887 92.9881030513 102.172636481 109.116825861 113.674696319 118.350259864 121.995793886 126.15003887 130.571212629 138.390334511 143.929199591 149.154197236 155.892324658 157.863136505 158.641455287 158.694243226 158.725345176 163.210163821 166.520774881 170.676664014 173.162039794 175.85260465 176.206219199 174.65339832 173.367040515 173.477354313 172.800137243 176.314441002 177.701192679 178.924072581 177.810919218 180.796655052 188.228920208 202.760992183 217.459187352 229.483744707 229.562500249 216.487837957 199.518032894 187.041230352 182.011188789 178.774192195 175.674988209 169.824612313 164.816755568 159.219830438 155.40912456 153.735986415 153.720946957 149.907263192 142.724232762 132.549050333 129.404548837 131.582378403 138.482121986 140.187690925 128.718409056 112.361763291 99.0515750018 87.9977388227 79.7328432644 74.4992341867 66.6111681926 63.2741990236 60.3050448986 57.0222865358 54.6773373878 52.0845369885 51.4799537346 50.9516946012 48.1130542108 45.8352484609 43.3305810175 42.2075724337 41.1905575873 39.9698289699 39.8559443438 38.1436689922 37.7410784061 37.4007490965 37.0666349574 37.4609265151 37.0766981873 37.3158973266 37.9630249755 38.7985498586 43.1294538292 45.4018686744 49.0689065151 52.2501572238 63.2220656112 67.4155930276 74.5708877015 79.3833330769 90.968488614 96.9420781895 115.36540143 122.780783943 131.283212646 152.898926693 163.445095685 179.140750408 177.266155526 175.043368043 180.886875708 198.387743055 224.681944973 242.534785686 260.328580016 249.161102299 225.202169834 207.064060914 225.866453287 277.297854308 325.464130524 371.524598664 392.119855351 406.457835511 415.290403018 417.911604959 394.9074831 364.098744689 376.375150845 414.188306911 434.579117299 448.226165164 442.576446945 423.832534645 378.293679669 368.282068069 401.355581246
821.919275686 831.464446739 843.434137739 846.052603546 847.978170901 851.964560596 858.703751151 863.577185653 858.891185213 844.415793357 825.809345107 809.914953882 794.62425185 794.78249867 799.561476285 801.272097894 788.05355707 766.456162968 728.38670926 696.564674894 646.712864321 597.363169735 565.301598919 527.065985114 495.606591992 440.463096829 408.531098833 361.373984496 336.422661094 311.932744918 300.345655737 292.674836519 274.281388734 262.585324924 226.604347887 199.413400613 168.389212876 143.466293835 128.238650929 113.070657742 83.3504636335 72.3534108525 63.2283343024 57.6231424798 54.1972917183 54.6555310173 49.7794060095 45.651961634 41.4424767242 38.6989958903 36.3045300474 34.9443404715 29.141032049 28.0386754053 30.0747961302 33.542451483 32.8323419685 34.7526636514 31.9414147973 28.1851526122 25.9989253751 27.5174622546 33.1136016003 39.7197038393 46.8272683701 48.7739970925 45.591871038 44.1741299181 46.3568902598 52.4651524891 63.6963903768 75.4230021209 81.4349095887 82.4901720525 87.5976105263 88.3079971906 90.4537540077 86.9795913851 80.7007477062 73.6634456002 70.8376245044 74.6455184131 80.3596236 84.4640836013 85.0959197346 79.3365300269 72.0461597417 69.4859954081 75.1474461299 85.6882558877 96.7523050865 107.452942455 114.575333338 120.852329394 126.52986586 129.937619952 134.163022665 138.683800507 144.344392263 149.289755455 153.116519013 156.434749076 158.957968616 159.201272129 159.095711875 160.201488074 159.571390578 162.42775738 170.167999862 173.968282284 176.331223539 176.629787308 173.947120841 171.355410322 170.155869466 169.793091846 167.342103126 169.491455394 170.554582039 170.945441028 174.513878356 180.270607722 190.022423398 204.126025145 213.3901426 213.446611629 202.262740719 188.452352121 178.441337255 171.353048219 165.521289273 161.353848469 158.423299046 155.298310649 152.4921743 152.55097368 155.469974406 157.622893423 153.576047045 141.58067323 131.877593766 127.247702842 128.060795194 132.566819019 132.886736263 121.022073842 106.206044402 94.7075870289 85.0812546012 77.7410935992 72.9612158606 65.5789165561 62.3489011735 59.2571685262 55.6040885514 52.6920423369 50.0503879073 49.3249140665 49.0782650993 46.6838410135 43.7309392055 42.222757932 40.9597357188 39.69991736 38.8642682523 37.5448962915 37.173418324 36.8110178294 36.4905796838 36.1245681921 36.3089619362 35.5220252103 35.1045504679 35.9159805424 36.9540665553 41.0679588562 44.8242018142 47.8576115793 50.8832347473 62.3676701107 66.7160028922 74.0330832932 78.9327929137 90.1760388751 96.0542233657 114.296525494 121.227575459 129.047729079 151.444484904 172.294651898 176.816013806 179.368245134 181.082294704 187.853849968 205.283062415 236.295816444 263.482172854 271.018338698 263.809616253 245.663616556 236.343405646 260.113134224 315.1706011 365.562027966 403.631671745 425.670041571 454.407047788 457.868744208 463.926104519 468.926704433 480.413568502 480.06652148 488.202825251 494.540160298 497.579987321 494.783835513 477.995689022 436.109004776 417.334853949 444.63912027
840.093783649 852.31674718 859.571440832 860.905850488 861.304936835 856.594325429 854.900544801 854.605155065 851.791660089 839.174152722 823.252140524 808.974917961 799.643126442 788.914873355 788.983124005 781.803415109 771.903138642 749.271282049 726.514904973 683.214342203 655.906750501 609.271690717 578.303792194 546.734241419 499.858411511 451.606045538 413.742898991 374.492525193 326.876271335 303.322805322 289.604294473 280.482579727 274.351871959 262.477324407 217.11207186 198.084553311 166.780494307 141.804894273 126.792477464 111.277943645 81.1386829977 68.6392454085 58.1189925261 52.0744161632 50.9807751549 50.9335171008 46.2536335096 42.5923250242 38.7277423564 36.1894613173 33.883830945 32.0447740457 27.3223401138 26.372246714 28.5073815045 28.019458313 30.7932755989 33.8123892257 31.2739597665 29.4142264403 28.6770567037 30.3572508618 37.0777607798 44.0156442335 48.3236941114 48.4980321242 43.2286880528 38.0538077389 38.4753035494 49.430415628 65.2800278887 78.2339791926 87.8591826934 93.1033292378 95.7309727322 97.0125984729 99.6126877903 96.9308440459 92.4110739472 87.6031105428 85.384163799 87.01931096 89.2311344607 92.6571262595 91.6552415499 87.3382563752 82.1716138326 80.6331423428 86.1054528616 95.7878570392 105.208065784 113.374493249 121.118045368 126.192616698 130.081710046 135.347366524 139.373344634 144.734438143 148.030731148 152.032943959 154.797798087 157.234464247 158.822828376 159.28588389 159.418452783 159.276860213 158.835301059 160.966828388 166.522920083 170.13899125 173.152495038 173.479999565 170.659612368 166.906988298 165.64937152 164.257230573 159.974192212 162.210522824 162.927918716 162.829943696 165.47547566 169.171415022 175.101499736 182.161919379 189.903702105 187.655784301 182.495018551 173.590441924 167.147532388 161.349330338 154.867590864 150.530077268 148.824951188 146.827696589 146.117728134 148.443234297 152.972985484 156.168424004 150.479614628 138.722636466 128.668909693 122.864409069 120.49606823 120.205218734 116.594774437 105.363943932 94.8503069348 87.3956973643 80.6630073455 74.9094776466 67.6249102807 64.3941876463 61.5247019906 58.5284883964 54.6738347604 50.6671514463 48.8042567936 48.4202861639 47.5193182995 45.3132492282 43.1974510275 40.4363721653 39.1309135488 38.1593070554 37.7537321142 35.9404989015 35.5411942998 35.2798216756 35.7068285091 35.3893569421 34.8203038879 34.2195528926 33.6950520909 34.005701866 34.9950818957 37.734881456 43.58492171 46.8776539728 49.6506623198 61.3242337298 65.7158114312 73.0575604837 77.9570069421 83.0890673605 94.3007469525 111.921340035 118.006177155 124.580651346 145.039228158 166.911877373 174.235405535 179.882387123 186.9701526 201.735940647 218.393007959 249.387991727 274.990724355 301.604240133 302.141767352 296.428025291 297.547744013 336.86092221 376.3294839 425.81563124 457.928022451 476.996858443 484.187107868 495.688416429 502.184188236 521.875749994 547.921365393 542.074645672 533.883796498 537.174398061 540.056109828 544.1287458 550.359646978 530.734667382 506.685489761 503.386469571
862.29373375 880.386876446 891.250186101 891.397249337 881.352601497 870.065792447 857.069179837 847.811802859 838.579042726 833.459630165 819.212580576 806.35428094 797.011547919 783.056713358 777.190251969 773.136552496 766.524904746 744.023537035 728.825237836 690.863891266 666.759905804 622.124662221 591.828221451 546.692560471 514.802497438 470.62094484 426.335676413 376.932501585 319.678130285 288.308295985 276.664990407 277.358759858 274.255654224 245.149952399 214.999732168 193.828686899 163.032499177 148.81436137 126.044786217 102.080165693 87.7481769341 68.1021579781 57.1371158318 50.733457531 50.2964551841 50.2009779316 44.5996269328 40.1684350358 36.2051032493 31.8659138473 30.1299731386 28.59037841 24.6861935213 26.3284326178 25.6989445456 25.3579311589 30.8130208886 31.7193028542 32.3447531518 32.2892922012 34.0966875972 36.2249736477 50.2548046809 48.3967505528 55.0494840432 52.6627428177 44.6486371721 35.357144396 35.5693525372 49.2114144784 74.3861805895 91.5608774647 102.856157598 102.85154688 107.735183199 109.134068954 109.281469092 107.978079806 105.40188606 102.384896178 100.358769618 100.087549693 103.52524898 104.050018785 100.32339119 97.8761705432 95.2616710443 95.8099144256 101.589450584 107.68022933 114.44873855 120.705115192 127.448233279 132.217965901 135.446551949 140.401767965 145.649658134 148.714276676 151.261504455 153.735939868 156.156085156 157.54536474 158.859228262 159.443326247 159.565141769 158.987888909 157.68906696 158.817084921 161.143233161 164.791070562 166.642188347 166.59473256 164.237062082 160.993620106 158.31323581 158.528951849 153.663363478 153.17114599 155.665766975 154.917840861 156.384951488 157.909480654 160.234074669 162.701941982 164.412343714 165.174148348 163.695061729 158.725321406 155.495320659 147.267168426 143.772177305 141.424704932 140.234358652 138.691942597 138.707937458 140.713513253 143.578550386 145.683074335 139.929846289 131.21474702 122.819993991 116.883897265 111.415856421 107.603653069 98.7174426233 89.6966170502 82.5515734702 78.4746610446 76.2719057573 73.1710211104 65.8454426069 63.2263121621 60.9840903044 58.3355398289 55.0119613177 50.4424864289 48.6843913768 48.1520080192 47.0222730211 44.0415261519 40.720449429 38.942505124 37.886752437 37.1066119453 35.9074824466 35.1249022406 34.7713877334 34.5990748578 34.5213741746 34.4012199509 34.1063990695 33.6314699708 33.1426804151 33.2175006191 34.6686560606 37.328931967 39.8143407413 45.9437251949 48.8912238862 52.1244083351 64.4326085478 71.6701467485 76.459664564 81.3839216568 86.5695717732 108.558832526 113.503003715 129.827359816 135.203888864 156.370896001 166.776528849 177.949979943 192.555598746 214.926454887 232.557939655 265.354184584 306.141638387 326.690588787 334.544529019 343.705759267 358.771598314 400.893168735 437.337339418 485.495604586 502.418375356 516.284620001 524.134990182 534.580772279 535.915970199 552.332180848 558.451301796 557.686062753 566.973170278 576.721722847 578.104692129 579.865909634 590.221191269 583.006068018 562.002839847 554.494219615
888.047989178 916.822177489 936.853602608 939.439267432 921.874923176 893.101625648 868.668204924 847.148058045 830.121955316 823.82039933 809.839372103 802.732056149 781.391756414 772.202518776 770.566211286 767.466571111 764.690010634 760.641681293 723.622748993 706.184110362 681.488298134 653.334731197 606.334836704 563.924261034 534.171970476 490.961202943 443.531205659 386.819074199 320.942003829 283.064774438 272.771623023 276.270406426 272.32731657 242.483815488 217.575634829 185.288403891 156.543651434 141.718480322 130.785532664 117.698008888 90.7833033344 74.1205673101 59.4022846563 51.9801807166 50.6330809534 49.1148418023 41.7059352103 36.6022215727 31.1734797383 28.4477895068 26.9442121755 27.8347176819 24.7936182708 24.1956457401 23.8569826542 24.5978228562 27.989296821 30.0012975582 32.5307971417 34.6838546604 38.6672346027 42.3798795631 59.7628626342 65.2639618032 70.3152686937 69.9391259653 59.513574298 45.2745810929 46.5409284028 60.4364891661 85.8152748134 101.414762318 111.815540251 118.25691115 125.134059586 124.043094033 118.559480222 118.513977432 117.363717511 115.315679165 113.18692364 113.57615919 113.801917782 113.398871485 112.625443849 108.741279973 112.140024296 112.719943331 116.197804787 119.629937562 124.072135209 128.451388471 134.052382551 138.060098042 140.764750065 145.882631921 149.828302639 152.48870872 154.523884112 156.385718478 157.681264654 159.732350205 159.456176467 159.10190179 159.876872627 158.511699295 156.122184277 156.213908147 158.058427882 158.985839042 156.473444325 158.35090467 156.351078919 153.883213393 151.834445407 148.176104353 147.701316316 147.028413377 142.22454255 147.684459375 148.270595887 148.831674992 148.439669039 148.194222787 148.146840436 149.102546778 147.987845802 146.371787819 140.055486067 138.058947605 135.21132734 133.215522533 132.34990326 130.605118197 129.770013264 128.612245252 130.402909078 128.612350674 126.847021218 121.407323847 115.876165356 109.756527531 100.962759764 96.0631926186 88.3481129656 79.6421801992 74.0768644302 73.689892113 73.2013887469 68.3157816194 64.1360828627 62.2576665279 60.8586363864 58.6170426803 55.4836898888 50.6316830938 47.4969909865 46.5391286871 44.7538119431 41.8099602111 38.5405280251 37.1284727945 36.6044339024 36.177857638 35.1416587985 34.1481202044 34.0303181443 33.9575478989 34.0193938509 34.0111184199 33.9928366809 33.7032321766 33.3674754097 33.7570856912 35.1726216602 37.3730025769 39.6874686092 45.0900797027 47.6037487966 51.2143247156 63.0501509767 69.8675278605 74.4038463797 79.1971635627 84.2537521429 99.7734787591 107.711599333 109.988872577 132.724659346 139.17804004 152.817900182 170.677167109 200.669604689 223.983602608 258.013995657 280.508186859 325.059499486 362.831149756 381.065901473 399.759975948 428.776054922 454.783025856 490.977560648 517.384458809 525.16888798 535.240579425 546.576301648 551.766333984 556.716586602 563.391748663 571.489412935 575.40387513 585.256213282 588.864485499 589.853950339 592.194767701 592.648799559 595.236384218 601.819398043 608.990639629
913.68752825 958.30381546 994.74599656 1004.64192472 977.7146975 929.018443296 885.777630279 850.483210617 825.258785235 817.233797172 801.952732285 783.001713656 774.388512713 760.783623611 768.065576616 769.295888385 771.370212591 761.244221488 757.942116916 730.550844705 699.936685459 667.007256777 608.562143386 583.287305197 559.318304496 528.376182415 473.993202166 414.581367056 347.775588771 301.849104733 285.451421088 280.727719912 271.250713921 248.829165458 203.720300109 177.122805554 145.089515406 137.414110536 130.493408461 120.174690944 88.0586440632 75.2599289597 64.0794597036 53.376821622 50.062911339 46.7587989943 37.4817248106 32.0112981722 26.7384525307 24.6042027356 24.0177201538 25.5050818373 25.3249948548 22.8159615395 21.7167053718 23.075997302 23.4296744326 26.4885992018 30.9803295216 34.9863173192 45.9969348359 61.7236065003 67.9038623865 78.6344276061 84.5914575767 83.3505416262 78.8017009133 75.1371943402 79.1165230579 92.8779176284 103.367267988 114.281439234 121.973424399 130.075920168 132.653994862 133.744107843 131.843340698 127.284065901 126.994807039 125.345835694 124.80045483 121.450773214 119.923270228 121.786880616 121.437832636 120.270640607 123.410766789 124.882414104 127.255674617 129.823408543 132.885476506 137.23475192 139.232710991 142.971289634 145.85453679 150.244887227 152.747880854 156.259541175 158.110225012 159.826699109 162.779466386 162.405145429 161.454782766 160.245399685 156.209735666 153.003108254 154.925762143 153.974602516 153.477886381 153.517636672 149.116948632 150.677812722 148.751093756 146.851716072 145.488795843 142.53106313 142.352835514 134.80216204 134.582777396 136.573948041 137.074912928 141.78365154 140.998212449 140.170486865 139.735473156 138.185946885 137.157508796 134.095721913 131.49692847 130.028638044 127.64993952 123.341105001 122.539478134 123.22240083 121.21698564 116.77627072 117.300303234 116.919938951 116.3361381 112.756388676 108.776553411 99.8368041299 94.5351557193 90.4192764263 83.1514043612 76.0401683569 71.6417876139 71.9798669545 71.3371569668 66.2546052397 62.7746708059 61.6829529671 60.8656661377 58.2713059909 52.2200071501 48.2213399951 46.4139345056 44.3192545181 42.2363988309 38.5976478398 36.2461077317 35.3967754936 35.5300324786 35.4674420353 34.5195477873 33.6065239684 33.322230793 33.4262402911 33.1324177531 33.1754467148 33.9233464146 33.5762960713 33.7036312274 34.6472112468 36.5191832171 38.5512270965 40.4752812117 42.0997405215 43.5710989471 49.3159842078 60.1902946395 66.8837456994 71.8600320222 76.448208761 81.5316924916 95.490215517 102.35286559 101.689099056 112.22468982 116.889305642 134.943482319 161.658671397 201.402243137 238.208676237 264.667322427 294.20556909 343.09481895 381.060854878 407.786467315 431.511881686 457.795481479 489.245966746 518.970645181 529.306377407 534.927594519 546.575721281 558.041350113 563.634692044 562.579215793 581.31687425 593.506831644 603.929398495 613.997401796 604.862966378 603.251381495 610.831094114 615.307847983 628.226547379 649.03039203 648.279069777
930.976222002 992.975114932 1050.50943195 1071.55420839 1032.86778089 960.462359751 898.134991858 850.927987465 808.057418559 797.124383205 779.396099836 766.986334468 759.446729254 747.120520686 758.098004504 766.41504919 781.14321773 794.641125752 789.624225032 759.879928061 718.203905991 667.167873321 622.304464386 603.971332828 589.362004342 566.757082573 517.991897799 458.299225292 396.317395653 339.121923145 305.157205232 288.938975636 270.532893847 225.641414631 189.896123507 160.180107584 138.804627475 133.967806965 127.555798415 118.304145917 91.8840445228 79.3104389211 67.550863523 53.3603405639 48.1669281464 38.1022437985 32.6453546775 27.0808803211 22.4764628386 20.932045053 21.3570911916 23.4956224004 21.8677104714 21.8591439785 21.221785381 19.6424399816 19.4882782463 23.623027426 31.879152296 38.8797067497 64.2389808124 72.4727128551 79.8924509286 91.9313877226 99.5979817467 98.6635021419 99.8415412103 102.202040993 115.469714912 125.753121709 121.59276225 127.321770619 144.772157494 137.70604014 139.147377118 139.221419388 137.503667307 132.608474525 133.34936636 133.053564696 132.590193998 128.071297071 130.752434338 130.127237178 130.035783532 127.716821348 132.911805947 135.295097756 135.344827645 138.532286673 139.865365258 142.406530607 146.882310785 150.639056674 152.043632091 154.364336888 156.671173354 160.18401509 162.034296576 164.163605503 167.12025068 166.77770929 165.021173907 159.686612851 156.50911621 150.455895598 147.745293875 145.674549979 147.341583928 146.19299503 143.332336693 141.701645654 142.474686893 140.935302723 140.141289871 138.008797157 134.388067621 130.474442894 129.979245567 131.710105244 132.161091382 133.37556107 135.313807472 137.460052981 137.735757639 135.688289381 130.495529018 126.456211008 124.282987543 122.183069803 118.659482913 117.130093334 115.921143467 115.376068111 114.855989228 111.023824258 110.199391672 110.489449063 109.540258891 105.879184597 98.7282628333 95.0135756398 90.1770079094 86.3030195343 80.8448754043 76.4525125088 73.1231428775 72.2544104401 69.621252434 64.2256972425 61.9490772816 61.8039792161 60.9267606408 57.3249003025 51.7894023571 47.4235745879 44.2757462595 42.3689787279 39.2628676076 37.1197725292 35.2140407183 34.6194403245 34.7807076521 34.261291175 33.6131714148 33.0700289658 33.0842203972 32.9891399753 32.7310979501 32.9812811429 33.1587545387 33.5460158974 33.9950820354 35.6822745219 36.9202218329 39.7541911513 41.3478320894 42.5496513309 43.6512020145 45.1950046673 52.6976076371 63.6166097274 67.4150130052 71.6183964721 85.0382925537 94.0005413423 97.1153164048 96.1388367995 91.0203181918 92.6427047996 116.20626267 152.608166688 200.96618317 233.65277741 274.006015157 324.301638193 358.526596537 384.599387405 429.334462436 464.342627268 496.065839758 517.302290851 528.60216176 530.444829499 539.108842372 558.13971815 575.042240348 570.254753978 567.533544299 596.389281353 627.461200394 642.850022711 659.550521458 657.647816604 652.511445408 660.417045488 663.675759444 670.071099591 682.904074547 677.573764941
915.947859466 994.578511275 1069.63648095 1099.9769936 1049.71107555 958.185640063 882.77342647 829.564839778 795.806598753 771.29637642 767.122682311 754.977219941 748.126404119 736.529410819 750.945706177 764.100949142 787.338624497 811.864353479 814.530128192 778.554535887 725.525430082 671.99736392 638.293822987 623.117468993 625.067437143 613.338607078 567.935137021 505.346351993 441.727324218 362.452990719 328.191081494 297.591125106 269.67313865 218.732937084 183.615248778 148.238928968 132.781323497 131.224968711 130.710032687 119.051206109 93.2553577332 80.5071427398 61.1204493891 51.8032376965 40.3115563417 33.8845015688 28.7403051649 23.0453331448 19.7390429466 18.6873726881 19.3242171168 19.749751706 20.2563907598 20.4058634129 21.0457895557 18.7725233138 18.799401202 24.4358043648 32.7010798993 40.7602820349 65.1604316961 79.0062040068 87.7649324826 101.083344101 122.859269741 126.646635129 130.487348047 131.431696337 147.26196335 153.283448749 158.387763622 163.780686837 152.202504881 153.362771195 144.612840973 142.562743283 140.055331942 137.604108516 135.921156693 136.145616858 135.777557349 133.508042522 132.306256137 134.644069953 131.571036758 133.722170258 138.89352758 142.121591897 144.493921572 145.565840102 146.235785436 149.176118357 151.213260547 153.526345423 156.198200588 158.297381622 160.412816818 162.514758535 166.009305159 169.113421504 172.808712604 173.014609858 169.132388838 161.327031699 155.526969379 149.158817125 145.45800338 142.724395664 138.209111818 136.85481167 139.046093292 137.604649903 135.014220521 134.559108686 134.519499094 131.560554546 128.820600117 127.343487008 126.688364974 128.016908088 128.149860204 129.380153179 131.155341598 134.489583634 136.552234664 131.742437292 125.046092927 119.74601078 116.64799184 115.958506388 113.06548772 111.969459214 111.26753322 107.550275294 108.357390616 109.267444829 108.830048088 105.975685626 102.052446356 98.4508453426 94.3780209696 91.2692905513 86.9487729024 82.9365921978 80.0891398497 77.1937738784 74.54604888 71.831283614 65.5053961443 62.5146883114 59.9935425903 59.7390993375 58.2103144363 53.0452248942 49.2786885231 44.9881841572 42.6079238534 39.8927789361 37.23311359 35.9599910736 35.0497520812 34.7214193773 34.6534861846 33.9246137035 32.8813129168 32.9757449389 33.0149341396 32.8296122683 32.4501687641 32.1998976044 32.4433941642 32.8863286852 33.5383367718 36.2522575738 37.747454419 40.1793453831 42.0327871124 42.7907267252 43.4445544557 45.8976974967 54.3095397299 61.1694700825 63.7200556781 66.8731000281 74.8851396044 90.0699295445 95.4029253541 94.3834121922 85.8230917872 84.2714740304 112.177124314 164.027254312 207.603480376 242.726579842 272.139064778 335.158069879 369.871526212 398.059683131 441.223872246 489.372482393 524.170121692 535.082010211 544.209566442 542.586898375 552.877440325 571.40672331 594.777551459 607.113886545 614.667410806 647.862777323 674.496025887 681.141477037 690.538451797 706.840757767 695.339954347 688.769726155 694.633360522 690.53927881 686.160270572 686.479818074
860.590093017 947.437985206 1021.76821838 1045.86577302 998.409785797 917.74699843 854.539747841 808.785064804 779.006319859 756.23849984 753.820814247 742.342836146 736.113903892 724.679516787 730.910440906 754.021635804 778.359609875 801.365010173 806.079382518 768.158614503 702.615698265 656.846906475 635.607306584 636.892833203 657.085524649 653.4543365 608.372492678 531.859369643 465.051291077 388.705726823 347.89458347 304.943952861 270.837064648 211.722824657 179.502784709 152.308007609 135.793012486 131.728784376 129.539422315 105.36096408 91.7226094408 76.7235817062 66.3891418254 50.0597865475 35.3206805253 29.0722767261 25.6368945884 22.1027796625 19.6324033513 18.7318370586 18.2806475176 19.4166842731 20.201569056 20.5207129442 22.3507939556 21.3592321709 23.8027269382 28.735630023 36.1379890726 43.849760353 70.0363132848 84.92386049 94.8598348494 119.814918339 134.066411936 140.126087835 144.151737261 156.082918114 154.981812126 155.252525475 160.402028145 167.560733531 169.495224744 167.276120477 149.59150967 148.250150521 144.522527817 138.6515819 137.283819071 137.767047743 137.124807232 136.524496893 135.491303146 137.723969394 134.795827997 135.937824169 140.574335132 146.625742397 149.086749539 149.24866465 149.4652918 152.413258169 155.930437165 158.715358577 160.300763522 162.177306846 164.017417132 164.630405882 169.140934326 173.868573995 178.604771254 180.135898424 173.825136428 164.259622585 155.539635051 145.039112174 143.091601063 139.925672285 134.992960653 133.510355254 128.649825229 131.381670131 131.828503449 134.1316015 132.891873056 126.85418523 125.481883419 121.701211426 122.406054094 123.620336298 122.619607332 121.980183186 122.448318577 125.741808395 126.133709772 121.188024654 112.541010596 107.551476932 107.237578289 107.780113636 105.019758795 104.508179387 104.392643107 102.208783462 104.102114361 106.929368521 106.901052549 103.010243312 98.0758158071 92.9515740983 90.2970671294 88.5232877911 83.4607502206 81.5190764809 80.0812907296 77.4697416436 74.3326289358 67.249014475 63.0582405196 60.0455053318 57.8200927479 53.5326199286 51.926210246 49.5544658461 46.8432030713 42.8681133212 40.9429767807 38.3891705664 36.1795992019 35.3877097492 34.8465039741 34.4910770266 34.119231298 32.7790947813 32.3584848746 32.2307699903 32.3364408154 32.135885779 31.7847189117 31.581814543 31.907083289 32.4224880753 33.050097787 35.7966786794 37.6827052826 40.5926308902 42.2410428016 42.8956185458 43.3353054193 45.5388267456 53.7264166025 59.1056114419 59.4544310249 60.8855266561 68.8223465142 85.9619948351 95.8300336289 99.6090468479 99.3273069022 101.749021564 132.393335034 183.104172535 223.887522777 256.263081471 287.973746462 333.741827502 377.985899211 407.410660175 452.280718308 502.957001212 527.745159009 561.901634402 565.193484691 574.306613134 584.193494152 605.210856507 634.024091469 642.329198942 668.314656093 686.780306553 695.59983295 698.406887627 704.610659235 709.113799417 710.823232426 717.07119413 718.67388413 712.413115314 703.377011894 703.256050221
802.877828311 857.471032008 902.943539613 922.015054003 898.044361272 849.687045789 809.004346737 782.778270353 760.213803604 740.652913502 726.592133493 729.748670349 724.136141564 712.651877051 716.841162456 713.060015652 734.947175822 757.070904867 752.28501039 716.26854657 672.500159231 639.006527609 630.646182662 638.388504947 666.818796922 665.367053246 611.381796915 539.425119474 474.187603157 396.581782197 351.500464026 313.207989017 247.963302647 213.048660625 183.865987029 160.601527249 146.395054096 123.460638775 116.885494585 97.8904648717 86.4514379375 72.6691711116 63.0920235107 47.6224484114 32.4348701688 26.4913064231 23.2710316443 21.5266297001 19.2158150821 18.8385782581 17.3935574923 18.8216850979 19.9783545645 20.7076542888 21.2359301559 26.757009067 30.6037187605 34.7889890506 40.5987475413 47.2995625779 74.3754628032 89.9313015059 121.455804331 138.094012058 143.250976988 150.105741793 160.94138715 162.659903815 155.546224761 149.659636704 157.177711246 169.72738529 171.100411768 162.770982574 154.714018534 157.438642472 151.274219903 145.55469234 143.497016913 140.588907663 144.78090259 139.246580613 137.882079662 136.752458515 136.711785732 137.681243155 143.195005898 148.711612331 150.808866698 150.623824742 151.98746252 155.003037125 159.729860656 162.702709921 164.555133337 165.684328049 167.15233524 168.373320048 169.787663849 174.728212854 182.553005388 186.09650879 178.158617615 164.848164407 153.810630575 142.519539705 137.558155772 137.20047229 132.119283669 126.245452578 126.249145303 127.513440008 131.046113109 134.593681814 133.519174762 126.051306203 119.99799094 121.427786689 125.13272155 126.271560756 121.187929458 115.804437251 113.374899911 113.570081737 113.856436071 109.164861381 105.417909433 103.591070609 102.836399865 99.0971238746 99.8453548334 101.045150441 101.548500414 101.048889312 100.82450599 101.60434884 99.8813099964 96.2277794512 91.8789130708 89.5204114803 87.8992268429 86.130977819 82.2166869111 81.1374935121 80.7537082507 76.3898189757 70.9997797523 64.7540473509 59.7437619688 54.3883192813 50.7574672304 49.4551040677 48.2597180717 46.6377304164 43.0187698045 40.8942671958 37.8605197375 35.9580437876 35.125327241 34.6126891408 34.2124493474 33.8139394111 32.6533645716 31.9641107306 31.5697079028 31.2904580461 31.2095414368 30.9357734017 30.3111715797 30.2666902346 31.1469195908 31.5551513516 32.3708063597 35.2247270448 37.0732276163 39.424830696 42.0818717203 42.792958591 43.4714785148 45.8793157349 54.0294177032 56.5827403569 55.4022635068 55.5680431044 63.8090065046 76.7017300624 96.9499779625 108.152445472 113.182451438 132.116550025 166.964805367 205.919799463 246.417503292 272.548161831 298.457910466 325.079955349 371.740639679 412.881134124 445.46555341 525.11310351 566.084104029 583.025693512 588.247283318 597.3408498 614.186644095 641.058270045 658.39271087 680.893914396 697.301794032 702.541490771 699.413653519 708.099489889 716.480310213 721.103974147 726.669990782 729.318289119 725.461216508 733.287267463 728.97957875 725.410666516
739.994406209 773.950701593 798.377776071 803.566616422 800.681398861 781.863615916 762.104224244 744.493942542 741.39113186 726.506083389 711.129278568 702.702482472 704.412275473 703.830979514 706.619992146 701.840762115 701.803721289 692.626669457 688.576130658 662.587734105 634.643207877 613.672108755 609.20573766 614.960513961 630.206880234 625.334118901 582.263130666 524.365673205 454.442052038 396.451971599 353.020276461 292.493727525 250.063212902 216.333565295 186.67687714 164.398413986 149.141189211 116.025339269 99.9137355426 92.2302550624 79.5190152253 59.5790806316 51.6405494238 43.8998248688 29.3353196662 25.4895908541 20.8655862819 19.0805857975 17.6738487516 16.2135972632 15.7966981957 17.7739467708 18.9991514436 20.7207570849 24.9750808628 30.4108754463 33.6033286427 36.5482517245 43.3224011312 50.0689612978 76.8157791861 111.102075432 126.986304323 145.216187747 172.8051888 158.15683779 192.843865712 187.573520284 170.993666212 159.924717012 165.106163639 178.276590973 175.017687635 157.120936252 149.013383751 158.690194622 164.470433012 153.480240907 150.510577643 147.84846007 145.947113933 143.055739867 142.454787884 141.540650468 138.75184327 139.636439186 142.399350965 147.846304899 150.077571211 150.95256094 154.077985847 159.330591452 164.066637335 166.640001187 170.341481779 170.815292005 172.123460301 170.910169974 170.587633505 173.031651936 179.30657658 182.061918826 172.828089793 160.094755718 145.853797952 139.075234697 134.834111525 131.649562379 129.612473272 124.11056524 124.050445385 124.581760365 124.651689053 128.222416141 125.750666891 120.705137477 116.469877071 118.699380679 125.923113369 128.702933794 120.65878911 111.060842963 104.780365394 103.122224137 101.948634548 100.970274745 101.2700767 103.141509964 102.946465337 99.2750047817 98.228536328 102.757819225 103.957897374 100.462629599 96.4082148909 94.955909422 93.4527855818 91.0950002676 87.9675028383 87.1423633125 86.7719375104 84.1439347175 80.4087528941 80.5138865801 80.5641279871 74.2927268371 67.5459434939 58.8557076759 54.9542516955 51.697153904 48.4373851728 47.322597994 46.6043643729 43.5810282419 40.9995322003 39.103027762 36.5731687487 34.910786228 34.3364697824 34.048084941 33.5619199421 32.279220524 31.2630887976 30.8091705698 30.6321908404 30.1946418828 29.3431478759 29.0107391507 29.0010359117 29.2192490001 29.6104127037 30.6844889363 31.533899668 34.0213634636 35.8043014035 38.0985567376 41.1338332987 42.3807404149 44.3395744172 46.9941379632 50.4571113187 57.0170863023 55.6046467564 55.4910242031 64.4454362918 77.4252190549 99.4856262262 112.757720067 128.718048185 157.663370342 203.070516014 236.100638085 264.491009416 281.24917905 305.715845292 329.509986233 375.084941754 417.15930027 457.670995564 510.397115822 574.240259321 598.945835092 603.550810846 614.17570421 638.294496944 663.788917956 683.627096436 709.252384581 728.590927126 736.646794547 737.499732777 740.730625008 743.572966919 749.614890237 754.688538931 757.58358346 752.034500564 759.153661618 760.800913768 757.564958055
685.636987134 709.705364226 730.352402 746.215890704 758.744286727 767.973151767 753.978853669 733.595967391 712.879288183 696.276520006 701.415636358 693.91863211 697.790106769 702.194126162 704.597430966 702.866392336 673.559478126 655.732425713 639.845262937 612.873837864 596.141368362 582.538227796 567.712915313 559.509306226 569.198482764 563.63784248 535.822050682 479.570418175 440.189897991 390.141465262 350.55416804 292.206264918 249.513590602 215.468545011 185.743854175 160.028040117 124.895749302 103.67198658 98.679401191 75.6072129364 65.3984041163 58.1238154787 47.3325604956 30.6453615929 26.1930456978 21.8952527983 17.5923480137 13.2964038194 13.250581226 13.121642708 13.8213616171 14.4816434382 18.1737906821 23.0271516975 25.9133726472 33.5880767881 35.7508499997 37.7323381505 40.5173668486 49.8572896812 78.0430573118 112.796484701 153.721825801 193.661352837 199.102289078 190.619892717 203.668422314 202.797071709 196.761400141 194.660674165 187.880949909 194.274160129 189.067861077 171.155401047 163.069698209 167.151761972 172.091815206 160.459368742 154.489330535 148.247215245 144.256164378 143.55212756 141.228445642 140.356247955 140.055848438 138.431635218 143.075412592 146.575415852 148.993051807 151.950719104 158.433014671 166.383917689 172.120286713 172.725609748 172.611335211 173.995962944 176.815515585 177.158503672 172.691070054 169.488523164 169.824767208 166.07396965 160.058596682 148.36623773 140.2744251 136.018752667 133.003515305 129.785426733 126.024528183 123.264767186 120.622717598 119.160473833 118.337824065 117.481203046 114.746186972 111.060361273 110.147528575 111.033735856 116.052206702 117.542083233 108.093637282 98.4830736202 90.9922679902 88.6495139672 87.8721446545 87.9391602155 94.5125672924 100.577421362 101.17218864 97.1285916154 96.1619971367 100.584469726 102.214610529 95.7001679962 90.4469066703 90.3369101172 88.7246551815 87.4828568191 85.8882795885 86.3007142025 86.5117149809 81.8628703113 78.2603529841 76.7781803446 74.6151560572 67.8172993485 61.2202080095 56.5563688794 53.889967613 50.5013051945 47.2451796318 47.0815158999 46.1114819238 41.8135034118 38.8245145468 36.9127185638 35.1299074242 34.2246261975 34.1857537386 33.8396893466 32.4513179171 30.9532644717 30.3152313474 29.3149544737 29.149284322 28.7487790872 27.9261280738 27.69413059 27.6628898656 28.2005770878 28.6828196492 29.1845913228 30.2181853094 32.3157916398 33.8884354496 36.1185399215 38.5553062838 41.5368110386 43.5527339481 47.7878710453 51.0300935814 58.7919305468 59.3178452805 62.4139652067 69.2210106966 79.47989941 99.9324461056 118.154815751 138.191539733 173.895426133 209.141229767 258.0750777 287.105559865 297.152880506 307.787251871 352.565592647 386.191530567 412.573594991 447.77640573 511.216587457 568.023504374 599.804257188 604.996718461 618.892944169 655.360357488 687.207756826 711.338269613 744.060202354 770.421979846 798.589948558 805.931571899 788.508850111 781.75398345 783.042353917 790.317496292 810.308550392 828.868259596 810.880727609 791.012173904 768.587121096
644.283663922 665.027692878 689.022540651 721.824942873 763.410864516 785.040119447 757.235171121 713.257160552 687.475398179 676.672764078 685.341565376 679.445802475 677.577373016 695.560596976 726.486117414 719.465293145 677.901142082 633.37850297 592.691307783 550.250973573 535.686761408 528.012546146 507.678659169 514.597143302 516.260204044 511.274836059 496.475028476 455.597741212 418.263410283 384.073265517 324.772226963 291.879205506 249.406804102 216.783897129 179.826607762 145.79668391 106.137432338 87.161356785 81.348400131 69.6545143468 59.9997306908 53.0582474276 42.731732313 27.7517470449 22.9917053936 19.1459361548 12.503898772 9.91992685821 9.47677404179 10.5644002719 11.8981914934 14.418190354 17.23031376 19.4310550895 27.0159989528 33.5459892882 35.4123796614 35.7832475596 42.9101211212 56.4106016478 90.613063116 155.936268669 177.102655109 192.936598796 218.17207503 220.54148898 200.398610458 209.537454273 240.628022742 231.149164747 238.321295957 219.233500883 210.976452751 199.304844238 182.95238753 183.573706528 182.060209717 165.769038658 159.722777992 152.112709524 146.75469686 142.902975572 140.185370115 139.110887742 139.317352736 137.505016845 137.866019786 142.057527063 146.799646847 152.722280487 163.68466395 174.859573926 182.319215341 179.945990433 175.871076255 176.746583243 184.035583248 185.293931661 176.416424363 166.900767585 159.208575853 152.482587366 145.70320726 140.1535721 135.498312171 135.053184452 131.877014754 126.036833027 122.896927436 124.474740724 122.804045072 117.408165758 110.669376043 106.616232764 104.374636834 97.5707354844 98.4152914774 96.7922314842 98.0911038773 95.8928799008 89.0632906491 82.6016112369 79.758325607 78.0435355517 76.0570025601 78.0965890051 83.2735997479 90.4205681288 92.5587252356 89.9094852153 90.8545880961 92.8429288618 91.6474625207 88.2918881734 84.7782908372 83.5205903394 82.4123737566 81.8938358859 81.3790812337 82.0582865951 81.8084219771 78.90843413 73.8282313149 71.2755235033 67.8171713906 61.6963901216 57.2699291749 55.4063028007 53.4878346719 49.9567540046 46.3290691374 45.4222511406 42.784195686 38.2513339619 36.5642152594 36.0528172318 34.6915132252 33.5954019106 33.4176875333 32.6482458106 30.832366428 29.381964756 28.9118809247 28.6209695755 28.4254274159 27.8667976876 27.2340105597 26.6590492324 26.7001712655 27.4209239361 28.1543970211 28.43448798 29.0618523679 29.3851554393 31.6418851103 33.9831602363 36.6525486432 39.2716522968 43.0202320053 48.2171632791 51.3782819753 60.9705551378 66.4284996159 69.9702422125 76.0615951337 83.7877107946 92.6308128088 120.306198189 137.23747451 179.163554995 210.971255602 262.702405036 296.528653175 304.257931714 307.275674438 341.349421644 389.033653227 409.16943013 426.643448461 461.284690958 536.091394059 583.776032376 601.184576057 632.936364084 675.315730365 713.985324634 741.252717295 758.906863326 790.965750452 834.84858931 847.960454354 818.157566093 809.460516749 813.499707872 813.764757771 844.575053562 878.782392846 841.99924166 808.947456573 793.027090679
585.491647647 621.168735545 643.424516695 681.593392621 743.958714009 769.644882507 735.384242202 684.934431862 669.411446054 692.568374315 690.908930219 671.261684768 658.137671507 684.919111399 731.600208242 729.2712777 659.677789729 588.922507352 525.544424081 508.572817788 490.986883547 486.253024518 465.973847277 481.681885466 486.694452706 488.354510836 466.732802281 445.434927483 389.157288759 357.33150462 323.733908369 283.69108145 252.923258942 218.387272884 179.263830381 120.595425874 82.5257843764 67.4681425088 71.1890276039 64.2102258859 57.6099426807 46.6853679385 30.2494578086 23.1703484394 19.7141883075 13.238055211 9.87841239479 7.04056216297 6.67418818719 8.41209050846 9.70379971488 10.8266394141 14.7925448779 18.2971631579 26.293631113 29.7906223976 34.8222571485 36.1345893644 32.3742502498 62.1772326359 105.085521511 150.226400041 166.923398311 199.267481454 215.663097185 208.214872639 185.085612929 208.885326985 264.706466462 267.432164117 275.73518803 272.654108866 235.464309858 222.121032789 210.304842674 196.208354162 189.366344834 172.369538867 167.415052543 159.666730645 151.657831114 138.903114028 135.965886296 136.580487851 137.008036241 133.2720432 132.234359464 138.877023501 144.373921453 150.499259331 162.4939627 178.907070335 189.232583831 184.355446936 175.680993984 176.699421831 186.543937007 189.06953139 176.060968421 159.726277368 147.6452018 139.684814391 134.081757736 131.768601031 133.965076937 137.508865538 131.886676365 122.933776106 119.756768702 127.132735841 130.343779129 119.923874163 103.980002224 94.9663702579 89.9294978362 87.255129348 85.9549340317 83.4583757501 80.3181034523 74.6458126259 67.2889392091 65.9390922036 68.4515729284 66.4009719703 65.6768194251 65.8973253846 70.1304319106 76.8381401812 79.992446053 81.8745810678 83.1834630741 82.7775613924 82.284730353 81.1944787639 80.1357459311 80.0454091232 79.6281828883 78.7354861337 78.9159667569 77.9882487883 76.6746443636 74.8502304239 70.6339161334 66.6034215528 60.8456455218 57.2129246044 55.7282479256 55.746658998 53.2007904393 48.2399085278 44.5819876991 41.4758839879 38.1726641143 36.4050637219 36.2897716335 35.5600368947 33.2325517774 31.3892400745 30.8840347047 29.721262699 28.2777807952 27.8324616313 27.9529313673 27.8422570445 27.5360874909 27.4276050559 27.0130631141 26.6134152293 26.6849807065 27.3143050102 27.8369906161 28.0665556303 28.1549991 28.0407477561 29.7228713134 32.3616121107 35.335327311 37.963842986 40.7848996396 46.4283262613 51.4957789563 55.44411484 67.604056045 75.3678152252 81.2068257438 86.1769328633 93.1899338041 118.755678306 133.176965773 157.206519086 198.910723214 248.157618561 282.242248483 294.878140979 300.826790254 336.275435585 382.440561447 408.304551682 411.032768627 442.635763828 489.732582793 546.677844186 590.233367717 638.164946799 698.502704293 746.796352067 774.950177419 771.928037841 785.799144704 816.359638908 827.750473781 824.083558581 837.188861884 844.147181454 829.066121098 829.972478372 845.418753133 829.747668779 817.896367581 800.567020514
584.928041152 610.597290501 626.066701674 636.068962697 666.482480663 687.082996477 672.574532549 651.210883015 670.883809202 722.391239658 731.766924653 682.82741933 623.500234631 632.576518296 670.641076013 662.049349643 598.861677845 518.010116517 475.530151502 464.750726574 450.873623783 428.058944073 434.927360175 458.123059498 476.856177017 497.442389747 484.297914414 437.61901903 388.904969228 355.602580391 326.535335828 287.261731394 252.279675848 222.143828631 166.894519123 119.229362722 71.4822006919 59.0775552755 67.6099331235 60.3450059151 50.7391362755 42.8912442777 34.3314106558 20.4964761087 17.1751084927 13.0356383976 9.4805884066 5.83258920573 6.03902693702 7.59629080737 8.83144904219 9.68681492549 13.1622823208 16.4888071773 24.355360339 28.3123495133 34.7102371262 40.2798116597 41.8360343694 73.5446903601 125.383794018 136.970867445 140.749577053 177.985375671 218.613141691 198.099603993 149.347890795 196.518623159 282.560292596 311.085183601 312.443162002 305.161868452 263.929930342 236.608461114 208.853613128 200.089529932 193.853889951 176.684170334 176.79352276 166.703122072 144.620430704 135.205796848 130.558920541 126.029695024 126.725995608 126.157812959 127.087252845 130.177702884 138.613098196 144.878127562 158.009753048 170.737267568 181.222557554 177.923887817 170.407557349 170.589317515 175.233079333 175.699234377 163.213988929 148.22831396 138.261209781 130.522088967 126.117459286 122.895765266 128.158056813 131.191440844 125.392025655 114.335697133 113.461184431 122.405469844 125.164291951 111.11681086 95.2584296007 85.3022354594 78.5025968121 74.7424956486 71.8891406363 69.6419720347 66.988018405 59.2730793324 51.9200371283 53.3873372608 58.1483509636 59.3064685989 55.9860046202 53.5722832972 58.0363150516 66.3800646034 69.7143251334 70.8871828633 74.3667574606 75.6390804127 76.5363289677 78.6640597354 78.633736108 77.5065927528 76.8515401521 78.9501939017 79.4990143739 75.4810411373 71.8850247775 68.7393123933 64.8755884269 60.0046270528 56.1383817463 54.0512529328 52.9779684577 52.4037228438 49.5856053562 44.2790194263 40.7247551786 38.3082996046 35.0322926894 33.2289980881 32.9914546737 32.2458556396 30.4310434371 29.3926446895 28.7000233519 27.4468406428 25.9927074791 26.5640118026 27.235406423 27.1723006568 26.7423824842 26.9270348022 26.9103579714 26.8918465238 27.068831767 27.4771853098 27.7445797688 27.8575081301 27.7854142478 27.6942379293 28.9841617319 31.3807042194 34.0699197842 36.8071029535 39.7526685061 45.5317496929 49.4750403219 54.6059120845 63.2561086221 79.5670897337 83.8138119084 86.6115279246 95.4670127627 114.432726066 125.5621583 141.726117299 173.296160245 206.40110184 251.059532545 273.156484909 292.94153205 334.244567936 371.227339504 404.333599518 415.917623291 445.482123831 480.72930519 534.235443669 564.475676096 631.927510216 697.021646427 752.891535531 786.993189123 774.135105163 773.986838663 788.912626709 800.811530648 813.958095173 856.464579929 872.710779504 827.741791453 807.21794089 809.472295705 813.751829715 837.802495201 823.371982494
604.15276428 654.031887427 639.22796105 603.799489436 591.467305304 593.764829964 593.864067935 605.750218205 649.959147421 723.169379959 732.653718259 654.40516931 586.491571383 553.74035197 552.121417381 540.025912082 488.040524601 443.174871102 419.226846614 409.492016622 412.251480952 394.714146893 405.821295483 432.382324045 477.537818398 517.455478396 503.918794607 439.523002245 378.605707553 345.565626741 320.207776849 290.391182655 248.002980818 229.451111213 198.087026057 145.9556652 92.8184882878 75.4164449243 73.0621038856 55.4673005091 40.2788849549 32.6064121843 26.6774767031 18.2015258088 15.0658787847 13.2312933627 11.1530027345 8.12845051655 7.76677770127 7.91347077476 8.08615898027 8.2852384148 9.21966904187 14.2461685857 20.4548857539 24.6801572266 44.1803096103 52.0332825336 74.8347314909 94.3388817056 137.924835919 126.511008126 101.575213408 155.433212972 230.518048296 237.783825495 209.568113895 264.131801357 341.293735324 383.800658655 378.15782083 340.843995951 295.337894706 264.288422912 222.414150752 203.681353898 194.542475351 179.833814763 177.454743571 160.407117968 142.467251253 126.032346331 117.566489242 113.056856814 112.299362543 117.550589659 121.309102907 121.58030631 132.3322875 139.462299624 148.326726773 156.628211251 162.437769073 164.858082362 160.985784957 160.273706779 158.769857881 153.247513717 145.12476048 134.976846188 128.403121074 122.143363851 115.149483578 114.386139937 115.525102949 115.403448711 112.717297805 103.66972606 101.574936231 101.782280359 97.3090460127 89.5865025116 79.0853488116 69.9871862795 66.9918677655 65.1370606706 59.4004874325 58.5650074199 55.2354681112 51.4705996904 46.2803104899 48.1574610087 53.6277497262 54.1350322587 51.2041276943 46.9191223807 51.2596352337 57.5462755764 62.0525129578 65.7341557952 67.3543211645 69.0209337992 72.5482209025 78.2659080591 78.4113400576 74.6383547852 74.5167800711 78.215422856 79.0722697477 72.9409776943 66.3441285558 62.3285585786 59.3653095632 56.0925034312 50.5903138213 48.1920555671 46.7773020098 45.5777572228 42.0895434717 39.4384456302 36.7499836265 32.6527048398 31.1256615181 29.4159200024 27.9882466024 28.2068834555 28.0034874383 27.5870493567 27.3576726449 26.5099632815 25.9826454648 27.0393517086 27.9806905355 26.3864333659 25.7645331216 26.2755455188 26.8561337084 27.1080870059 29.4444305332 27.3227970236 27.7341380081 27.8506650875 27.7681167256 27.7534966036 28.8436587523 31.0673128817 33.1500964459 35.6540472719 38.4849603038 41.7505040854 48.0723779373 53.8696079097 63.3608542789 77.8863775618 86.2196001745 86.347861061 93.1292072077 102.573313917 117.72059534 120.092704989 140.93089187 172.922502354 209.661873665 237.188190382 276.77849796 323.086253472 357.868780931 385.181520092 432.65941341 451.183024454 471.392093777 495.050015846 555.482059102 594.318643155 674.403641492 721.82454358 750.004429017 743.331325955 741.307224035 749.260745671 778.855245634 795.060700259 822.149744986 826.056626074 786.200468513 761.426850666 764.326099188 795.189624098 843.581029934 815.640137354
602.229947348 686.545573369 656.40480787 562.106575043 526.107935213 513.977465958 519.705367975 533.213848448 555.824270927 611.176523621 616.054808708 553.988346771 503.872612544 476.244241845 457.099359819 414.106698594 389.953017621 365.171958166 357.463530741 367.902515786 360.134403781 364.431023116 374.516184041 401.208917148 443.727745985 484.322810057 471.276217746 413.347460706 364.186435024 346.255911574 327.262808874 296.284945228 268.021858919 266.234533937 241.866439093 177.22692815 126.347103073 98.6522128377 69.9283855195 48.9706935512 27.562624087 20.0272336727 20.5510439469 16.7839335884 12.4755048512 13.2906943909 12.1794560233 10.3227670892 9.17589074678 7.6305080736 6.49122382409 6.43267088854 8.53927994019 9.48277546163 13.9990089101 17.949202591 32.08452437 65.441808559 98.8698077822 130.887070853 168.965054071 145.818301075 125.184692666 197.54244444 281.418221636 323.843196116 344.771445896 394.785062922 444.949350359 463.014396075 427.011977011 388.824405532 333.492878935 315.022596587 282.049871531 228.017246103 195.630695808 170.3379383 148.974104429 136.464398749 120.299645317 113.458325618 105.893981428 106.238144107 105.233980888 107.912860271 112.717592923 117.113928962 121.741994517 132.908674686 141.270489491 145.105242132 148.057793635 147.868692936 150.396642708 146.431982034 140.820104432 135.891443981 129.70862385 123.753827545 118.560948035 115.560111077 109.852482344 109.021535857 107.352045248 103.438867429 97.4307869609 90.9025927476 82.3073638283 76.0836529409 68.6828384324 60.1403917218 54.0321642471 55.7638192889 55.172479507 53.1132449788 52.7153031144 53.1662568484 49.935801844 48.3403576583 47.3399754654 48.6108708786 53.2649186514 53.3382152327 52.0068546843 49.2229172059 51.5798097998 56.0148497839 58.8286626838 62.5199117696 62.6801406078 63.3439937636 63.9316400801 69.6209125972 71.1791404823 69.881619555 69.2366056177 70.3360922079 67.9382927372 63.7098445245 60.9078701538 59.0223411318 55.7274291157 50.7711989577 46.8465757669 42.5469052734 39.1998162618 38.5811586551 37.4335575158 35.6573762687 32.0566500413 29.7548502356 28.3995092201 26.5185758831 24.2251787177 25.2822858082 26.3154498191 25.7855702457 25.5092892078 27.531938321 27.9304282662 28.3875068617 28.6121108896 28.122656053 25.935620907 27.3007045739 28.9207408104 29.9470624182 30.4609673122 30.3207515173 30.0069625347 27.8255546501 27.5770813782 27.3778711556 27.6046094281 29.7461913425 32.0473477223 34.7882089992 37.3096743042 39.8600292371 45.3492503933 50.3545014299 59.6538784935 75.935400088 86.0404197006 85.1077896647 90.5589501372 100.916217539 107.802233228 109.16920142 116.594512168 150.800619452 187.86071837 217.098509915 259.383188113 307.653155 344.098825924 388.058851474 442.895858849 474.883908192 479.991650052 487.474486567 522.270369492 578.927888216 616.275770892 672.309670642 691.72056039 695.501275313 692.974565499 716.580495302 712.826218883 744.194548815 747.331886218 737.893447103 730.087091325 724.589900636 726.963430971 736.251151999 760.62708265 749.230805305
513.945187533 575.495644472 550.38438272 477.551387844 433.59224715 417.606220021 411.463446275 420.974145682 448.003796483 463.039285121 458.846955443 429.973897745 394.80263542 378.132461459 343.424232083 333.599120743 345.208468063 337.274484574 336.631795026 320.811896633 323.58756763 330.898505257 334.016855591 354.392054272 373.207766028 400.463689142 397.029934447 362.117820374 354.356013535 359.877819896 341.803122302 293.756825322 283.62778366 306.853490029 278.241475467 203.237370816 144.251002691 109.500874738 74.4525545253 52.0490654325 30.6786549487 22.104289339 22.3844076188 18.8830764948 14.9991530417 13.8755894812 12.9282410728 11.665017434 9.03528490659 6.88778142729 4.77204813185 4.67943239844 7.66916995273 8.20934566837 6.74182271091 10.6160682542 41.8546393552 79.2772178272 112.161038852 151.364741144 189.234727938 202.92286019 226.76845857 285.055918664 367.117928895 430.405159461 467.17167867 504.629578396 553.901843751 535.814010926 481.799011311 436.881238839 386.397179221 365.160195013 337.937662714 241.624700861 187.878148273 142.381366377 119.72737105 109.779921848 108.648572714 100.114106904 99.7530523114 102.253118019 103.979014092 105.318089811 109.390438057 115.104732255 121.208450279 130.888548006 138.390478466 138.939456471 138.589458037 137.913551169 133.94817254 133.324687401 127.42851662 124.906149458 121.014486941 118.676830267 115.441733069 109.671891487 107.924789463 110.756496933 105.961716138 89.3068821194 78.8738284768 71.6959991341 65.7390446958 56.5343995774 48.1186246364 38.6441494849 38.5956515472 42.4537938408 44.33162806 45.6334658038 44.9736713481 46.2857905462 43.0181714821 42.8711229378 46.2586187897 51.6626270897 54.3420877585 55.6481885315 54.729868432 54.0129877071 53.9683042314 55.0681292574 58.1923350941 59.3121396153 59.712769012 58.3267999621 55.4768546607 58.9340964833 63.4530982539 64.6728430965 63.4333349115 61.8355732823 58.0317455157 54.3987775896 55.0127843971 54.5628109894 51.9182569725 48.4443998684 43.9233064967 38.1354716873 35.6535104433 35.2513865704 33.4256432458 31.4949753801 29.103337129 27.715632373 26.7514637347 25.2710609208 24.41793585 25.1564328955 26.1397210715 24.4781683081 24.0941943139 27.3313712471 30.4728232179 29.6051988945 29.6942082275 33.065590074 30.1176061033 30.8616804256 30.3240110996 31.075257775 32.5860103018 31.1759999202 31.6479841462 27.6207517321 26.9655954235 26.0847347559 25.9232261187 26.9953712321 30.530640861 32.8896591943 34.7082157895 37.633760999 40.1525784446 44.6960155997 49.443882008 62.9408601687 72.7880391818 74.9549696832 84.3655286226 97.4240855885 105.829193471 109.86638202 113.769372519 149.014455902 178.056251103 200.476079875 224.092366309 275.918641456 317.421622773 388.08740621 485.635904047 519.094774897 488.159171536 487.258787598 519.167342081 547.035909276 603.660112776 645.77814694 669.837889179 649.018534613 638.077457431 647.211782241 670.219781247 684.537407231 705.420469878 719.183665434 716.073331264 692.240667346 699.763520206 703.847484443 683.704654134 664.397206987
353.02941174 356.711291741 352.271760584 338.925231076 323.516467262 315.21735759 316.857319677 339.535772227 337.94771525 335.539678938 304.918996864 298.81148905 301.913517479 287.055701665 285.983236853 291.239629712 310.025288207 331.865088946 324.078678296 300.039447208 313.747913421 336.944441204 324.863085264 301.78647567 318.688763245 328.491862478 316.29996164 316.170264077 344.074870914 385.42859165 359.554070887 291.285850894 275.832846167 297.071159154 267.893831702 196.522082468 146.434761429 101.291147606 79.5928266954 60.3897504354 46.8880600072 33.7420551187 27.4105392564 23.5689632899 18.6240908957 14.7429947166 13.8514153724 11.8600384125 9.38157396136 8.01944728978 5.97273970154 5.75685334368 8.47542429271 9.08021812032 8.03386060518 14.6613423455 31.3368813879 70.7665908937 121.71198451 172.965496988 196.63901759 227.37775309 283.318068725 352.221057474 432.53885501 500.652339076 535.746202156 569.538576056 600.10282953 574.770636356 499.202809546 495.7498163 428.672001889 349.352735559 294.720173905 212.580289147 171.222902452 134.412884198 116.417927761 105.402915742 97.6145509509 94.1886987536 92.7335371485 94.212846402 95.7620816181 101.915281051 112.666495084 116.550000205 120.952085669 134.785493528 142.399164572 137.761435549 131.989096949 128.508496354 125.622692536 122.220334454 114.96217507 113.720368737 116.660893649 118.939787506 112.917834195 104.013525369 103.421291705 106.983542275 95.6832478713 78.5262840346 67.5205708801 60.9046903758 53.0407067038 47.1526190213 37.7732475288 29.2766436646 31.5120866321 34.4002508063 36.781198457 36.4735328653 39.027683572 38.5778449546 34.1260759327 36.1646169761 42.6368091791 51.9041460188 56.8586035885 55.549458656 56.6916316541 55.6101971932 53.0062959398 53.3602821775 57.3484716714 56.0854997416 55.2931013209 56.2760426838 53.5154417708 55.7530812992 59.3230966057 60.5147142486 60.0418449229 57.9502723556 54.3137512291 51.4266021863 52.8969153917 51.2784879873 48.8528243821 45.9774074558 42.1245580545 38.4553361095 35.5420376262 33.8470761482 30.963836382 28.8666806479 27.4297528923 26.1635082945 24.795790896 25.388233174 25.7108302146 26.3575272741 27.7986333575 27.1569178029 25.872078073 29.5770677927 33.2102941714 36.1710944854 36.4501243207 38.5510513232 35.1014248634 35.5726123091 37.0174559716 35.7563470853 33.7614750309 34.2994228 32.3070975888 27.685100223 26.6377486869 24.8962052008 23.7972836731 25.9692157768 29.6484703574 31.8740034454 33.1062194259 35.1042534517 37.3927554295 37.1811316784 38.1717927088 48.2008881058 58.9654892701 65.5237785819 71.0778452407 92.4623236692 103.109648541 115.694331639 124.871103984 146.551199418 170.304669195 188.787487379 208.263239158 236.057482187 290.542659481 367.24300819 511.634790673 546.325759241 463.361155266 486.646661022 522.298220038 541.577532618 564.602968212 655.048608302 688.401354213 639.99152036 609.753979212 594.079341029 594.604031311 600.61225793 616.226878312 675.181301127 680.427890296 649.629269928 687.672822365 716.326358951 632.196752232 583.908437825
243.809477464 225.157538019 236.071870681 249.593598967 251.138676679 250.521491002 250.332954456 253.280078277 244.886288626 240.693503021 212.166713866 212.15503715 225.757524308 236.237846008 236.105373279 244.100829455 266.23636569 285.313008326 282.195183453 274.688478127 294.466245507 330.709249135 313.588214617 274.61133599 261.68179127 264.917090738 262.187449038 271.848737455 300.686081637 331.355269121 309.883053439 259.39014904 238.709003478 226.545411891 204.000071312 163.246881603 122.715204752 99.9871348895 82.8624641673 66.6132456466 52.0359719503 44.6067009558 33.942306617 25.9498109838 17.4990718979 12.9174656238 12.1826079299 12.0578500123 10.1466995427 8.92976492753 8.65225036125 8.9121595179 11.2567372824 12.0866333136 20.7436079387 25.7320727338 37.7032059532 73.0544835851 126.000928672 176.357604416 219.094986639 227.768450341 268.279756883 391.771693658 489.118054151 560.462630878 611.063273242 619.892237668 595.615616871 549.20674365 488.403905049 487.234090381 417.49486248 298.974283317 216.949265835 164.36034647 153.611951309 134.398204144 122.238427776 97.8602137196 88.047058966 89.9589130402 84.5087763573 78.9831539938 84.8006301067 101.41327458 124.643028273 117.887136123 118.390182703 133.540633386 142.820506966 134.82860472 127.955385905 121.781025609 117.486882645 114.765200155 109.38940422 106.140899143 106.681764956 109.175770755 102.38779708 94.9294141517 91.0146961403 81.9425124013 69.6813104738 58.6314997001 55.2436420001 48.9258841479 45.1170551604 42.0840263518 37.8480136954 31.9489851389 31.6158528975 32.2912149201 31.1410198635 31.3672710932 34.6830096952 34.6594202031 28.410835116 29.3075906531 41.7192244923 53.3793948972 58.9894498771 63.2991118051 61.2814135038 57.6564024874 52.9367935705 52.0604131717 57.2827214531 52.8756898306 51.5018568894 57.0735463078 58.090385295 58.0160385149 58.1432771448 58.8182855562 58.3750273435 56.7313260552 54.9179988843 52.914153841 51.6757032378 48.6281674494 47.7612749333 47.0147820286 43.5421698462 37.7108027629 34.7583924095 31.5962867984 28.1898279752 26.4549362331 26.6673824324 25.2723112714 24.5038237962 25.4040828451 26.5988305299 28.8679132356 31.0034873145 30.8932735964 30.5281216235 32.4659910635 38.1822954841 39.8650709834 44.1154856473 39.8070769881 33.6606347401 36.5145104494 42.0055390519 38.3272277619 35.6120372032 35.9619757708 32.7280294547 28.8212398848 27.8232704366 25.6453369156 24.3638669215 26.6479378552 29.3508097381 30.544076415 31.2294598567 33.617798039 35.8998529044 34.9961503569 33.5021182423 40.3372663444 51.8146154045 58.7531698137 65.4165867553 78.8046806008 91.134221683 107.363691434 138.346794363 149.09457693 158.339208523 170.280270032 187.750576302 210.094139924 244.851964997 279.983961306 372.588033826 428.178735907 415.508052055 466.552949887 582.457060497 570.881041919 535.247546586 595.438203817 621.236107651 568.244232087 557.780433857 569.209854169 546.053434744 555.395363576 560.392580175 568.377677973 572.894714384 584.723452341 600.93730869 585.986568296 522.865968463 506.736044879
205.685548174 205.857039066 200.769938215 185.080125962 196.174119604 198.361686301 173.90388905 179.766358956 182.03051427 175.42529011 181.464246261 186.886085011 195.958719006 201.704868576 196.169074472 198.996225973 197.728625903 214.851906608 218.100204768 228.223383785 239.264141245 248.641103422 242.472507246 219.694157813 215.374607598 221.854225166 214.776829057 221.939740221 223.978537114 241.304384254 230.182890813 200.778458855 179.519089441 168.588078112 153.560489639 139.490775576 116.226386666 97.6950472757 83.660375861 67.5246725876 60.570360025 47.566214818 36.4787478223 28.0866372528 18.2631649055 8.5880441779 9.46888582821 11.5738428142 9.18664865686 8.01921093814 9.74433085644 12.8397421729 15.9959954884 17.3349030586 28.6503299889 32.254785246 37.8125805678 68.6450749318 117.863524824 162.485126062 206.250975349 188.687946681 207.964859678 434.128681648 565.814637908 626.309225834 680.757200148 722.400842913 630.701300481 515.302042715 446.060196364 387.344828948 314.837427547 242.043612389 177.298422057 154.537976263 140.421408767 125.537697967 99.0583266965 77.75911442 67.5382351549 58.5487209179 61.4238899035 62.7095534416 68.9123401705 86.7623901598 106.949261471 107.692295814 108.0277281 121.106961257 126.550233802 122.870790772 118.607034636 114.449016826 111.326305154 105.608919942 102.288093327 94.6032486053 93.0898170431 94.3531941122 89.3122061137 81.9482092117 76.1673274342 64.9979816064 49.7277584689 41.4738053332 44.3972332321 42.4443550133 37.0084006177 36.4906713128 35.774930836 32.7548320109 32.0119405679 32.24156341 28.0885894503 27.1691282789 33.4184084112 36.8280902985 33.1400923302 36.7312867085 46.9954831595 61.063677491 65.5124087626 68.008496772 63.7504267615 62.7388840766 61.4450845363 59.4965525789 61.6903779885 57.637910455 55.7888180092 61.4373411928 61.566870473 59.4454125398 56.3930652608 57.9800654823 57.4312922932 56.5713977158 55.5436794718 53.1160481815 50.1967375423 47.9951948024 47.1290645513 46.1376778863 42.0223491218 37.4540598836 33.7345330013 30.9335794928 27.4608129873 26.3193594778 26.5954525172 26.8653127175 26.0973944363 26.3242671949 27.3524297413 30.2023077519 33.1989130974 32.2127064762 28.3673560221 34.7091186595 41.7189860751 41.4924402061 46.2061364737 41.8835256919 32.6738298568 37.6620732904 43.526009129 39.8060591035 40.2351955645 36.3661791442 34.3652016868 32.6085967481 29.824282511 29.4573194659 28.4975786856 29.856490238 30.4248967725 30.7490630201 29.9315942622 32.7379734 35.5731050021 36.6426862818 36.8986641432 40.1198630594 45.4179306962 54.2461913397 59.6674431391 66.0357545378 82.5138719904 102.718405843 140.989393747 159.775740476 152.126760246 165.949335777 182.8742926 190.253589808 226.578438855 233.579243387 255.77405031 284.795058762 336.137038372 416.515878461 573.802569733 542.978638186 455.470848737 476.227110729 491.132848152 503.638472083 535.42503604 572.571654671 523.605640233 523.722204987 558.479802486 520.513160193 477.921407002 482.775359792 467.97852777 460.608409122 449.459534696 443.798736728
164.148753013 167.773194059 147.097145192 130.299057537 129.447955573 125.275660313 123.218862414 128.429030732 138.78912214 150.993540643 166.137948344 167.506554418 161.849987159 164.670374094 178.256179178 175.577085943 155.327443845 153.320701661 148.736238147 157.203997238 165.062789321 164.56067974 141.434378427 152.045570506 175.43213089 184.139425716 188.494552406 186.764104543 165.533296385 170.141637365 158.771008627 157.159910603 150.599573525 135.837654586 132.39454841 136.198706996 116.372450157 100.431573941 93.0403770357 67.3144580494 59.3707101147 43.6331473774 34.3225599656 28.4396310046 22.0885039323 14.2943884583 12.7360497766 13.3414859045 8.49079237126 7.74061373915 12.9569441272 18.6429872575 18.3058187105 20.7426397484 29.160425701 29.8677494584 31.4775814955 64.7888176039 97.0418208028 100.696049722 201.41764019 254.360838661 357.518151079 551.965133366 610.336333998 685.796073988 703.117585695 789.889931179 605.93852853 494.420106037 386.231233665 295.432392695 252.941377421 193.455798519 132.370094225 111.667169262 100.481438888 73.7023122216 59.7091125868 58.9186745757 46.6989635547 37.3790545409 43.3652809804 48.8195183107 54.1048201714 62.6184083521 75.3584559445 87.5295344797 95.4814154035 106.449618749 111.383069799 113.490877868 112.412936004 108.840203683 100.750985123 95.5407585707 91.8693798627 87.1977721889 84.90645839 84.6677406864 79.0267215457 72.2045209497 64.3158020774 56.0171664913 46.2842785209 40.1976327563 40.2677184221 37.6409086997 35.121734556 34.5309148775 30.8146978143 30.246716353 29.2389726317 30.241467686 29.2158254203 29.2794689104 36.4156348959 41.8306416552 47.6265004636 53.6435408314 57.7051391023 66.0899006104 67.9364659242 69.4727102311 65.8935875703 68.1180761691 69.7306883301 69.9698138106 70.6318588002 68.347670321 67.0917862672 66.1599039696 64.2297876568 62.5372508366 59.2990681703 58.4544422746 57.1860213768 56.5748402628 55.0305843549 52.0009866747 49.1925556026 45.3244258021 43.8581600475 42.6236898205 40.3459373005 36.7899087908 32.3434867811 30.1595121678 28.0784850857 26.9401091649 26.7074502942 26.6032873701 27.083993816 25.2604616399 26.8805031188 30.8332601067 32.5438550228 37.244775748 38.4501748325 44.9921361413 42.2988523303 34.9164933584 50.4620248065 54.0621846392 48.5150254353 48.2744572714 41.4154918182 36.511721517 38.8492962845 38.2285527112 31.8090857058 30.7266970379 31.3883187435 32.0288543102 32.6112914917 33.3388901623 32.1350495258 32.2445433131 32.2000052887 33.5072015022 35.5300486941 36.4512969026 39.470250486 41.8825900875 43.3713143205 48.3712417351 54.7842580219 58.9221133843 67.7369528984 80.1356253794 107.010880922 128.635957825 129.481439638 151.885132266 186.05882461 172.756284422 188.343010256 203.725251421 195.453936388 209.033292126 235.053421112 294.877077928 339.61450365 360.113629783 340.544359334 344.394132092 374.541920257 402.092992608 489.806991266 546.762141714 458.033401674 446.991338312 451.487603196 413.168629992 371.526152405 364.227291443 366.735530791 375.331470828 413.94074357 407.66668959
125.344718903 123.500603528 110.65451238 108.066815474 112.749674332 100.043867319 99.431973834 103.013473848 110.132681815 111.055439536 131.224835304 115.061339757 121.149208198 129.112459642 150.504032507 147.601723857 124.978508274 118.568869293 112.18051317 111.088929267 112.719784712 101.875699946 66.3750714339 95.2150347827 132.083107609 149.112448952 157.316297761 146.144362371 107.945009126 127.939080152 142.218136088 131.679819713 126.339867077 104.048558145 111.571257982 123.010232652 105.719379227 96.851021851 98.824696474 67.2225300522 50.7995604293 33.7196149289 29.9119147072 28.6748293532 23.982778629 23.1661123446 24.3814112778 21.2730204395 17.8861340914 16.8993704531 19.8873610076 21.1447451095 20.6816260168 21.4790308459 23.3007255059 32.2007568116 36.5759401581 59.3574538781 88.558286339 58.0314960327 177.174322337 311.696527827 446.169442655 585.048401293 617.548375228 682.557664025 657.405923967 578.706112812 490.788255963 450.911826685 379.621743311 272.367168887 227.285015541 159.278855375 117.761705978 97.5654640199 69.5564140677 55.3373692153 45.6622112183 38.1985109354 37.6534406029 37.8437960988 38.8190573856 41.6896940136 48.0350570416 48.1337851588 59.0227949365 74.4163984993 90.5259245513 101.505050052 109.349931631 114.638975834 116.285181747 107.613149398 96.7903102413 93.3412317482 90.7517520315 85.2826288949 84.2318062043 80.4988115361 72.7400256016 66.9417646202 60.4675696952 54.624651421 48.2178393088 43.2210855757 39.8058662369 36.7435632107 33.8812119453 30.9143048411 28.6350121266 29.2322433465 28.8865858628 30.4818188057 32.2484389697 34.4522094818 42.1672023544 49.8747542473 61.6994947824 65.2191712447 66.6775514545 61.8932211382 71.0889944279 75.3561652898 60.481528656 62.5339542265 79.0920418108 82.4066233787 79.4007807106 75.5891817082 66.6830055299 68.0649417845 66.4335339509 64.9646814792 64.1147966297 60.4464079169 58.2692108619 55.1354243048 53.7078624128 51.1317017523 46.4402128052 43.6000680124 41.8289531783 40.3381179892 38.5886287668 36.4265661914 33.5271797084 29.5350812584 26.1446252175 25.538482063 27.394030837 28.3525423745 27.9941370701 24.8501242102 28.1851850457 29.8385308042 26.5271335732 44.5319968254 55.4312545687 59.7074171079 54.4863447697 48.2641752047 65.7556110839 71.5790436671 69.7640345304 59.9403960551 40.175331013 29.533891261 41.1376911841 38.1603686173 30.7067580311 29.8743268079 32.8283423551 34.5643891003 36.5082265236 36.645434276 35.461573571 33.7006165678 33.7597770106 35.1605788746 36.172210686 37.2304253192 38.822322696 42.6262603862 43.70600838 44.1075613497 48.4646965836 50.6288201357 54.3971354005 56.7630124191 72.5741614038 89.917628623 101.200222176 111.484748976 118.522044585 116.490874863 134.878675782 138.295696008 141.651107695 159.831536901 177.262424455 201.373289343 199.554949337 217.630404801 252.385869114 266.574130472 277.642806533 305.169632468 309.892207995 332.724274552 341.787014015 322.996126634 320.786262462 327.325805353 305.756677904 315.443722206 305.740211221 298.507991839 325.699961611 334.764043949
91.1627513506 95.1259184312 101.270465621 94.1882179604 92.8228381433 104.259807452 98.6555076266 99.0846310531 111.429695447 104.340517317 94.0543939431 90.6738259185 88.4459772411 97.0786442146 96.3147722899 82.0649250132 70.5063175122 80.2899924532 82.5155116009 89.7700860119 78.1298853078 82.2639822113 67.0451455176 99.2078826206 136.018167345 103.391409201 128.316829761 145.74494734 111.57977618 132.286813382 127.901502612 112.306959623 98.2248723619 90.3202106283 90.6175770849 85.7462774255 78.1737401236 71.5499788582 65.4702490935 54.0658605082 41.6906746481 34.4874736842 31.5574886321 28.7018823038 26.2597427295 27.5805458693 31.4322374168 30.0238303778 30.392449401 22.5948917817 25.4050726282 31.903317887 25.568660759 24.0587372997 21.8318163114 32.3793620184 41.5324520512 73.475094314 105.721742032 136.391068928 210.230425231 336.426763503 433.324155177 511.051997875 554.710472094 563.911229898 551.002432907 477.44721639 441.745284619 398.42664681 395.266748205 265.838516005 180.917361843 147.023787751 101.450310692 72.9191182308 58.882457363 50.0379896458 39.3820475743 33.918466173 30.1749649161 31.6230641835 34.3733048643 38.4801746287 45.1313430267 51.6709784965 59.969785887 75.8395822531 88.9523136247 100.680694577 106.214734921 109.392595482 109.597197488 100.999432654 93.3434591678 92.8345854975 89.8211073718 84.39988761 81.5133975953 73.4969837348 63.8334830815 61.1983380295 56.8097300407 51.1398211894 48.9067610708 44.0631953587 37.4104634888 33.8912109375 29.7044798441 25.6042277854 25.3584792061 27.515815665 29.7545958735 30.9253571052 28.9985390062 36.1717543865 48.3163386182 60.2676158623 72.2954423152 77.4872843158 73.1074907906 65.1517544274 76.9244081914 83.1738507772 78.4243804684 81.7218577221 94.8525134929 94.798631259 92.5773286717 87.3117641752 80.0174530291 74.4988258201 70.6668983411 68.2579787813 67.0951912135 63.3681379406 57.3351824563 53.9887571764 53.0344795097 48.8958360066 45.8643924279 42.4865221208 41.0531194182 40.1778682903 37.7119150794 36.9335041534 34.3263377917 31.2999571216 24.7807558559 23.2067867249 27.8499177539 25.7365173861 27.5825667505 31.2766410509 37.2095012022 40.8676335315 44.3000393024 57.701594557 70.5867642089 79.7666611776 85.7081966193 87.965254205 88.1476618693 90.0707322794 87.0598150136 78.7776272792 61.6540593944 50.2094578515 50.1710413275 44.9095761209 38.8452582912 35.3089787752 35.8851154291 37.2867136012 39.9273977964 39.4926178595 38.0581042452 34.1700942721 32.369267379 35.1392576071 36.0774245743 36.6444830625 37.1696800802 40.9180921915 42.8926405507 45.4410978638 49.0223158301 48.9303770941 51.1938375694 51.9442470427 55.8929940612 58.6621023303 62.8620415262 75.6958246965 67.0101751168 73.2047304701 83.9991368935 99.0275278037 126.076031765 129.852499341 150.374208629 158.226413168 180.44739497 175.199959117 170.694562282 211.422467417 217.68362771 201.942361221 188.302988662 185.019698866 215.160518995 222.248033121 226.198008086 243.738022101 277.05180788 280.542134896 270.344559196 275.24969698 243.518660008 232.812809708
65.2991704913 65.9748098209 71.2500598386 73.9033432981 78.3438011821 85.0844575806 79.9225895679 81.6734861885 88.7404039017 80.7640965319 74.3931590319 72.4217161348 68.6832548931 64.0748688997 53.9424969148 31.9925127937 32.6295020329 42.4996713336 44.8588013708 53.2452644755 56.9147778472 72.2212648555 110.313239306 148.029256742 158.378549825 84.8071939751 132.822700958 183.765802121 162.729315978 148.542061575 117.195062402 111.095041046 97.5191145799 91.7350249914 87.172133909 67.1677499027 59.3673052673 50.0209581057 41.7943752149 40.5709533773 36.7862223728 34.1535173134 32.3348434895 30.2631036154 33.2801902512 33.9100754652 39.4574592237 40.009488535 38.0824970809 20.6612519359 25.092781512 29.9290364143 25.0268921952 23.0167445519 14.7939580004 27.0660385064 42.8083995805 75.1525704841 112.718413039 191.111976807 237.069398545 306.736171157 434.020240387 548.767807925 507.005829005 510.729097555 530.365038843 466.012472986 397.159673515 270.584439557 217.903979 194.933024297 121.90419519 75.1761214042 59.2633298842 42.0449138987 28.1242872794 29.3343414313 24.0954460629 20.4514014173 19.0092142921 22.9552111405 26.9096589984 29.9111199232 43.3053118306 57.4165557195 64.8263083208 77.8049909785 89.4466944266 101.821349244 104.203126571 103.156793661 99.0365472192 94.8907671935 89.5568439864 89.7356143978 86.2114796966 79.5334910598 74.7549998162 65.4249003949 55.5360611237 54.8904315643 54.2303670563 50.3053721084 48.2753996473 41.2598405755 37.9135708335 32.9475077382 27.6128982634 20.0877272277 23.6478381058 25.6965247517 27.146957626 30.0771789165 22.7222270474 37.2124923087 53.230567505 67.4260851578 81.0205799003 90.3787703321 97.3332984387 94.5823919104 96.7605093519 101.822517245 105.225537062 113.937555228 121.018368441 107.597553889 103.16614787 102.032703456 105.974534083 84.0363241117 76.2412989623 74.8618928376 69.5415870958 62.5888983032 57.810283236 53.8989319628 51.7015467491 48.1259011984 46.158400554 42.3015067405 40.508138804 38.7852755122 37.641179994 37.2679618059 35.2185868385 33.5420337514 31.8296055278 29.8524411825 31.07075206 24.9949894646 27.8096932574 38.1895606509 45.8115253747 56.0375877508 69.5730078708 72.9190925127 82.2496059713 87.3332384101 96.861083184 101.118924959 109.051807534 105.929608696 101.58557401 99.5974916454 93.5845824255 74.1501104412 61.5124855783 51.9355594391 45.4689107016 39.0817117356 37.1790762204 40.1013707475 42.8808089739 41.5208666931 40.5558990512 38.5712459374 34.8540581659 37.1027739565 34.6546611635 36.9262985785 34.872531857 40.3249337623 42.8981314228 44.851126786 45.7622571192 44.2007943669 42.6648671133 44.22571665 38.8073432466 40.8268320745 44.8363229435 43.3294955824 54.9187213206 61.0703009888 67.0619511314 68.4262725732 87.0872748193 105.519688111 117.152759202 117.787887087 144.701633063 149.219068257 150.957444087 144.950408549 159.640074149 160.217419168 160.550214335 165.750173463 168.958364228 159.241672392 159.030497075 148.051058183 174.847672242 199.326499445 202.192719233 198.001642686 169.581298128 175.219496234
61.0080155152 60.0452826917 53.3476392859 52.7247957614 51.8032184463 52.0019647268 54.9999940047 59.1209142639 63.3733261797 56.7595581107 53.1823450079 55.7750032169 54.2006907594 46.0430226995 38.4844470355 27.2312733005 27.265063886 36.7365122222 28.4898759378 46.99854692 32.2590457693 67.6025339822 139.710938051 202.606851564 238.853370785 243.061776377 253.223484588 249.426519386 223.564756438 175.631959892 116.195872993 113.586712169 94.2880747322 83.0725155478 63.654555868 48.2205322505 45.9309674848 41.1653437926 38.6084752889 35.2561076827 34.1647302818 32.2632646282 31.6015193849 32.9570365061 35.1785340624 39.6760424246 47.3560038781 52.4007886763 53.6585041385 51.4151570221 45.8930539587 31.5761177401 21.050327029 28.8984669163 22.2952117538 24.9382864084 39.8209813914 55.6280853882 100.083205125 194.977489498 217.882574768 321.222543598 361.604780806 435.996212954 473.334146977 483.560697124 349.664642193 284.975882013 243.208316778 218.007504293 162.574927648 95.1095319507 76.1635695158 42.8033378526 35.3995849332 29.1937835443 22.4686879465 17.6070410509 17.201622979 15.3882325096 16.7224368204 17.7575756248 23.928349047 31.9426350836 43.0219660262 59.2011114156 68.8132399266 94.2962191309 101.666444366 104.997594825 109.997681567 99.5338662798 90.7760066193 83.5313433533 82.215628499 82.5804357334 80.498566702 74.2537838949 71.2062681503 67.8768788073 59.0745658218 57.0962062849 54.3716965084 49.3721852068 43.9330121936 36.1320628203 35.8516338048 32.1202460778 29.7086382442 25.1175939982 26.0268945025 24.1492369138 24.2193458142 35.7910025931 38.962872667 53.0541428567 62.9349845634 79.3527230049 92.6330890304 100.621567325 108.60537686 109.476965519 111.628595637 115.379936133 115.433499226 132.522353174 143.276358278 113.828599837 114.308968927 103.219247304 96.8445415426 86.008939922 82.0623668377 72.577776536 66.8329683188 63.4866143683 59.6463724594 53.934717423 50.712066567 47.9884210394 45.9181337488 40.8098175091 38.7592991241 37.6486881704 35.5275656922 36.9895355664 36.5813950669 32.9834283221 38.1543742067 39.5962563662 38.7209858481 37.5213785873 40.5452691275 44.1927125512 48.550369645 56.3490081577 69.0024396845 76.7881542725 87.1476917169 90.5935016223 103.23394473 119.277054586 128.63176042 120.293611789 114.737430551 112.887358517 112.162982175 81.7953988151 62.4445681844 55.4819820544 49.5975683723 39.4128437751 31.7033305312 41.3185246331 41.2026028254 43.551314474 38.6291596807 43.6709031298 43.4516346373 41.2397508273 38.5921672741 39.5833639677 39.9167476327 41.0923124948 43.5196508887 43.2374265457 42.4728634122 41.4862888669 38.5056173087 35.3178994281 30.1732660854 30.1074851816 29.2375571796 29.5251795068 32.4892611534 38.9613310584 45.9275188927 51.5610672371 58.4010441974 70.5796555435 88.5138813759 97.8241853536 110.407000507 130.338597086 140.58702279 153.505556674 147.18802385 151.875406925 147.688419769 139.470794728 131.145031 125.507609893 119.212699714 121.476606952 123.465408766 125.536144948 137.590889209 137.711146621 152.834073428 151.904259716
40.7072051345 35.9251711825 33.3907576291 35.8216908378 37.2979332529 35.0493817865 41.3830523406 46.5106824787 49.4074581403 44.5455580866 41.9192494852 43.6091888649 39.6328167511 36.9334197367 31.0984947125 34.7917010431 30.2023702677 30.805370704 26.7374227262 53.2580778932 78.6256827446 146.467466739 192.074129405 259.425691447 318.526722347 387.32516049 360.124769904 317.506675447 280.794677851 237.650523685 192.079029393 129.821201415 81.8900467975 60.2864114401 49.3210360535 45.6926686047 39.4168854574 37.2162571372 29.0286960913 27.389554964 27.6637447878 27.4733980463 30.431418721 32.1917004226 37.7175847383 46.5740972659 47.25574825 57.4864848535 56.1302594626 81.0276007328 78.1327581485 61.5063319466 52.6119691903 42.300661699 30.8885691131 25.5583931969 32.4064789124 41.0102743426 57.3150771699 87.2206837185 160.709554061 242.036370819 272.244855875 270.985506264 270.160309629 189.3557055 188.580220408 181.639769068 167.675157969 127.549431761 87.4845793674 75.8073296194 60.3175538011 50.4759805822 30.2661590774 23.9421568488 20.0353568023 15.0855185228 14.0408080539 15.0533528097 18.8131748812 20.9305590925 27.7473807418 37.3917116507 43.6159024108 60.8487771723 83.2949694813 108.984936144 107.520645856 104.474348852 102.806229128 92.1538706861 83.8814060266 78.3565236172 75.4320530224 72.9733751061 73.740119853 71.9026534903 71.5844571716 72.3378242546 73.2676231916 62.9020910403 54.2781464284 50.5293997258 40.9473064962 31.3383464078 36.3521847632 30.1170060521 31.276038509 32.408735995 32.9174712726 32.9193595558 35.4885150688 44.0232871469 52.6066424272 60.7397280519 65.3977752247 87.0510151327 96.5864932972 103.503909749 109.067815669 113.172375861 125.142844535 125.017660997 121.808816624 119.099822573 117.097079382 107.028954072 116.044445944 93.3027667657 80.1855318488 81.0961830857 78.8298638048 66.2278230303 61.0545431445 60.257024825 57.5101596122 53.5523456313 48.0603218718 43.8336121569 42.6244156392 40.0937141338 36.6543434137 36.7864866217 37.2900538936 38.792515738 41.6894082376 42.7064285504 46.3685846405 47.9546547676 45.3037773609 44.9901746752 43.4365764538 48.0497734668 50.5686128894 53.4826906441 63.7820970756 79.3200610825 96.177480559 103.70530609 109.020959691 114.879912771 120.093299753 125.418512201 115.153302917 98.9099279172 86.2296683474 72.0281747296 62.6271155417 57.717981174 52.3113086428 47.9871176274 44.9089661305 47.7988791775 41.9282276817 48.3139275253 50.602814567 50.314312614 50.3255390238 46.7370878346 42.4498318334 43.8469891809 42.1246016446 42.2623170704 42.2152764056 44.1054378979 40.6827884442 40.8011252566 36.1149536955 32.8798365033 29.7305692524 30.2093846333 27.8710124082 23.8626526506 22.088855805 23.696693466 27.2520556176 39.4455011774 45.8262692266 48.865876693 68.8371988941 92.302560003 104.488038943 111.819717946 130.260892129 141.406871793 139.332967132 133.69908725 116.455538382 106.918939099 102.616890091 105.205012328 101.589088814 96.4470040109 88.9687688533 88.4745791561 88.2904069407 79.8960740298 93.9069440975 105.327708727
27.2824541565 26.6998151979 26.8486676606 28.257854958 29.2719472023 35.0551650398 38.4692475262 41.0659488258 44.8176147694 44.8119091063 45.9904885144 40.9263428832 37.2049149137 35.9510461627 30.1871834033 35.185675606 35.9875426429 37.4967007356 45.0525322302 62.8372706685 102.150516792 186.897424104 217.346515877 289.021508466 336.562166114 393.209412424 406.279782827 393.819809939 341.584212705 274.825342912 245.601536733 133.28373175 80.8567412889 54.9257964096 44.6194185854 36.6678702172 27.8432400223 19.4952250457 19.8763141672 19.1380521321 17.1579635525 21.6055997216 23.1658700094 28.7523609887 39.6381746752 50.885181718 62.0132893174 82.4302796979 107.964013834 112.959460392 103.693244829 81.7603823911 69.1088763837 50.2644132959 35.7747779959 29.1240005599 29.6490079352 31.698874755 48.7661263039 74.0376824384 97.6994822328 116.71204877 128.858527988 149.340717992 131.547842726 127.120875853 123.191297039 88.9957505599 79.4346184675 68.8965851218 60.4714199928 59.5472251779 48.5256434422 45.3059403887 35.051007742 18.5568705509 18.3229079313 17.9527466943 18.1706715094 16.5605279412 20.7669947172 21.4106368431 30.5973026211 37.7473043084 43.7567816377 73.7706787986 96.9943133805 107.235572283 105.613790668 96.8376034033 87.2012447059 81.6864643416 76.850586139 74.2200192962 72.1795581474 72.1396820006 72.8436456051 69.9327996966 69.9433474254 77.2060450172 95.7429096852 65.0646000469 53.8679360512 52.776616378 52.6142455989 44.497747742 40.8723236462 37.0961422443 37.2846500936 37.5796063851 38.7292558942 40.4604490535 37.5913178801 47.3292663465 50.9397839155 62.9147322098 76.2872444045 97.8486110963 97.8997477397 103.8986698 108.327889893 118.874276556 147.03807526 131.244217198 140.423661418 116.285463639 88.8575468454 77.5510077704 70.5439989194 62.2044372577 59.4558453579 55.7176375128 51.9249332783 54.3107788967 55.1878828211 54.8306256296 54.3730897397 53.145161614 48.1466878373 35.3100396697 38.1634391659 37.185472866 36.2969876344 33.2835310103 39.2411241882 46.8664836028 53.6149056673 53.4002569646 53.791511123 54.7616129006 50.7531463623 47.4893007226 46.9767324829 48.5559176658 50.9283484521 58.0506578562 71.3993848186 78.9428871442 94.8420339981 109.154276295 117.418403688 107.470828002 98.8861886292 95.7899388958 90.6244903301 80.9469027254 72.94809326 67.0825310819 59.7743663627 57.0736262338 53.7206914759 51.7432208236 52.3319779589 56.8755016423 60.5410046954 64.0951476199 64.1126204506 54.43946851 54.3823980665 50.130653548 48.9442322982 43.5278607801 49.0130596021 53.7816359317 50.5452980814 54.5566164693 49.7914213348 37.8708931027 32.9938959124 34.9042769831 31.0502839771 28.8231875636 24.9871055329 20.4095297365 14.8108347696 15.024724575 17.7599018611 22.4555760365 32.5074051068 44.5240974445 53.8333764625 76.5279240907 91.7818753099 106.625539864 122.997873003 129.535560787 129.037492846 116.985994978 99.0066098714 95.4333017221 90.0721463395 77.7706995716 68.8033115729 62.4589147985 64.0507098783 67.1752735209 61.7796326267 68.1371913282 67.668214579 65.1917118654
18.1594227522 20.2147767665 23.5650308074 25.1580053693 26.186546798 30.0605014334 35.8364652758 39.9249603287 43.1399389281 49.5436457149 55.7137032807 52.1590862522 49.8825550927 50.8922038218 45.2695233004 40.946244624 38.1999853637 39.2914471344 43.4309731762 63.819556679 89.5736285312 133.16578423 218.989182466 301.850031596 333.388392012 372.999612253 447.086139716 423.747477877 444.179655402 268.955318856 157.853987667 123.533269091 84.2875086567 61.2348730533 33.6084341592 19.116158071 19.3809845205 17.3993531893 16.3719346962 16.4381726852 19.6090318978 17.4598402479 23.2808093594 30.5288470827 39.9306951148 56.0726659767 70.4503913693 95.7347896281 121.756359189 135.156002599 129.810015037 107.277380152 72.8246356879 48.2680628169 37.6631285431 30.4593082831 24.6356892306 25.5114891499 38.5359700597 68.8272987277 81.9967697892 90.0221458349 92.7934130819 82.9835890446 70.7309487593 60.4213902529 53.5182710157 57.051307787 61.9535408021 69.3213223527 74.0245404203 63.3057247028 62.8834077895 39.4769840026 38.4853916205 34.3862735603 27.1156390099 19.9591979277 21.348258466 25.147283342 26.7684398001 35.9814148936 41.1980185529 53.9752146991 81.647007083 95.2901341123 112.668906705 132.471602517 108.627402271 87.9922363758 82.1305674276 77.671968002 73.7153143803 73.775231485 66.1711375063 65.5256251225 79.5899417212 72.2003019577 82.2852149312 65.3184348628 60.4712779755 58.0982616266 55.4457369504 58.5055383789 57.205762052 47.2307371275 44.6112825655 41.6610502797 36.7356302125 42.695639066 43.5671136942 45.4246897909 46.3671142667 53.3480040135 51.6839803312 68.9173821701 79.0212109348 86.8551924476 93.2091077558 103.291541256 114.251409762 115.085756529 116.437266319 103.226698682 100.470078183 75.0440142238 60.1010657455 53.3991847329 40.4299538635 40.6008300918 42.3897891255 45.3462919773 46.6061501614 47.8462367092 50.983962568 53.0734727127 54.648934134 56.5639786341 54.7490877738 42.1550666935 41.317344801 32.8149561253 37.7798620877 32.2822646321 43.6381299121 54.7022519087 59.5404078849 61.7964610657 58.0701531638 55.9107256259 54.0657697716 50.5866386507 47.7728471639 46.6387286459 50.0205313654 57.5491853138 72.8281052618 74.9468034444 79.9285310899 80.78659855 86.6769944264 86.0239973594 83.5763713969 86.5584471451 77.3719959588 72.0215145457 72.5220826265 58.4110631087 53.9961323015 52.0127456798 50.7873247877 50.275297598 55.4611630345 62.1181082746 65.609968158 73.4362436196 75.352552221 73.5304463423 68.4703039025 65.2446257829 61.4523629695 59.224757999 59.3244234846 62.0988428187 61.7633641024 66.4240483616 60.0452128382 56.8677397388 46.1855606624 43.7416185682 31.5070970192 33.954168222 30.4649613864 18.7163684651 21.8126270388 18.7092522968 18.8652747039 19.6968471157 25.9751662997 37.3691790202 47.9262374737 58.4017491736 89.8221082306 113.038219866 119.533976738 127.455124609 124.411267741 112.245514281 101.832053483 80.8408062105 68.3578938421 52.0553636799 48.0877748916 44.1684542021 43.360599674 45.0330824175 46.5947954879 47.8382568051 46.1817841677 45.3969147294
16.7320249102 16.4422175144 17.3441459548 20.6931043037 24.6355884197 27.0124650452 27.8748282039 40.7027526079 53.1250366713 61.0127616817 66.0327421542 65.1040535473 59.7294000876 61.9313375725 52.4318567099 40.2251333916 41.8131048847 35.1527701439 39.6722954901 59.3434655682 78.7964781399 137.263207441 227.480414713 391.277378892 373.399092417 347.019696035 347.341685991 278.268321266 190.207620033 126.627125956 87.9992007798 64.1906145286 50.8585418766 36.7661778258 30.8868937708 25.3667645294 20.7131752956 21.4471086319 23.9537546039 23.4950486392 27.1712093676 24.8509512788 27.9778793283 32.057622525 39.0355901517 49.2089773392 81.0040145066 95.7672936043 108.205551757 121.75308027 121.16010337 107.011292523 77.922713373 57.51145351 38.0813993991 21.5518520776 20.8621995672 23.5744419678 28.6583960435 37.4197667059 54.0074166764 58.3517569106 54.8481218941 44.7941377163 36.9699074637 32.2350200176 33.9977789077 41.8737788182 59.0125863678 85.5960023436 102.501770286 110.890369327 120.909503295 103.042762096 67.3052412552 35.058496922 35.279691492 36.6047008639 34.3098129484 37.4146862978 40.7737463758 46.0423018062 54.8280660043 73.485580973 91.34188438 122.301648438 116.277912938 113.288566505 95.9481976002 80.855497601 75.4938458762 70.9047776481 66.6141697358 63.0571408584 59.4740979967 54.3886111553 55.619835517 54.4700662298 52.6261653519 43.1010480996 35.2212541276 34.8924846301 38.6312070235 38.3812018084 38.3743075466 44.5787981497 45.7074654517 46.2119126646 46.4567576578 42.1619229456 45.2400585694 46.2096173804 58.1501099098 67.4734189399 78.1422780579 78.2374510308 80.6162438282 87.636537421 78.9585762912 91.8812525626 123.85410039 107.112047668 101.587476004 70.6886119799 56.6463799418 34.4298223173 40.5811508086 36.8408040739 38.1921308092 43.8119720062 39.1198838405 42.519629818 45.4260717063 45.8972692938 47.5773900628 51.9598602648 54.849251768 59.0175768853 59.2981121683 60.700866571 52.3188385573 41.5610544468 44.8453694864 47.6918496408 45.5947756137 59.7054812771 64.3053786991 63.7071370921 73.362885967 71.3488448053 68.6534482325 56.8753006045 51.4129360926 48.63053899 49.0549627079 51.6777197563 56.2615419432 57.719595244 55.9620800895 59.9169543132 60.3098625078 69.2596561499 71.8112915819 62.0175474932 61.0958447775 60.3684039265 55.1201633295 51.8857822243 50.6526303005 48.5048541344 47.6254536693 50.8083688509 55.5686319046 61.4720152804 74.0478272883 84.5911047644 85.5270362991 82.3092621216 76.8453855413 71.3858505449 67.4606117516 65.0773888617 68.6811497766 72.7956445406 81.4452379337 77.7449438793 82.041390185 69.7033120513 65.0267131412 36.9155410233 56.1200542439 50.5721168377 43.7714900978 40.120744572 22.6220418888 21.6917160005 24.1962676694 25.2075367251 27.6753056052 34.8316861532 53.6122609328 70.7669058992 89.4304259022 116.312247136 122.642364826 125.088839254 124.429271962 108.970397464 97.7756984797 67.9306195661 54.4672784668 46.1072281644 39.2835346102 36.8152565972 35.9282663096 28.3970070394 30.003623198 30.3906981486 37.1380030639 39.2596923264
12.5495821356 10.2746123249 12.5574976776 15.1223065195 16.6740071779 25.898591384 36.1287183064 42.6582382392 52.915044299 65.8255241908 73.5913688846 74.3669140657 70.6570587763 64.3368187405 62.1496066078 64.1672610259 44.3974015528 36.9028190256 34.151819758 41.1694296135 64.2598188082 167.000643665 259.670246574 256.061614584 347.1336044 328.662784093 261.550182159 138.099374193 88.1379343431 59.1421061953 42.5833564351 34.3684952205 26.8921652608 20.5707212073 24.9504643707 21.9306916665 24.5829005365 29.3537649529 30.2051044569 35.4310320713 25.2669485029 33.0268755114 30.4611294472 30.5741916783 35.8078369136 42.3494958076 49.7173383919 70.1282051088 102.142345465 107.524726667 101.615790374 100.720444493 84.1747074512 59.9584174203 39.0426851215 30.5679394056 23.2265513943 24.4818488011 27.180098859 37.4521740637 43.0164297788 41.0015915901 39.049006267 25.0836509818 18.8739752616 15.0725589299 23.1229283113 38.0161035405 69.111524313 118.274544187 156.212325814 190.354543101 157.482831519 124.241044756 91.5526446591 74.2604898927 54.3854057934 56.5940645537 59.5721021319 54.8981741129 59.5849616184 67.6615274481 79.1017784065 94.0487549802 104.969637719 115.418309108 104.954525043 86.0435174917 86.0855011661 80.4416860275 67.6589737433 64.6374265918 63.0346241332 59.5112644363 53.7468443751 48.1785286378 43.3843901216 38.6957193162 29.4020508648 25.462935005 22.2301211098 22.0720498502 22.0154893796 26.2574490382 28.9675174682 36.0319772306 46.5739138837 51.3768634416 55.8030193108 53.7034073036 52.5842372831 57.1232764453 73.2440938995 75.1568558464 74.6762826154 75.7321762753 75.0271301166 67.3167358188 66.9631907592 67.9312975045 72.6008411108 69.461616499 57.1899845614 48.5488307854 41.4801237839 40.9063794494 34.5427530378 40.150046294 43.3810184112 51.3032487025 49.8965809891 48.434011973 46.5153591817 46.5882301524 47.7033636234 52.0138218187 56.994890763 66.7810914975 78.4755236853 76.2135272592 68.1688705271 39.3020194315 50.7354085049 49.1230046667 58.7429034252 67.0037364786 73.7892353888 84.0718477887 89.6319981431 84.6931398207 71.4325291197 63.5722865101 50.7648787379 46.6247384422 47.9364789052 53.0485106055 51.9562316613 51.6922017533 51.0788445595 51.4597838802 50.3159882629 49.5778310435 46.5548381752 44.5545665927 42.5412313105 43.554060154 41.6307057288 47.9303607931 49.419124344 49.9937512502 51.3460814615 50.5387636452 55.587109485 71.3751548139 84.0507202068 94.7782640991 99.1459724396 98.082815205 90.3759834156 81.2183348347 76.1788911027 76.737716166 80.7492891021 90.3845440822 94.2547158626 102.07769997 100.658350896 108.640294102 103.988492729 117.829564778 102.297154479 99.469237291 94.176729133 79.4599047391 72.182703537 52.851576666 43.4812689878 45.6119963523 42.1674663675 44.0104799561 51.8805832027 76.3191081354 96.8957775293 110.368284411 127.927365042 130.6903847 125.804875066 93.257475102 71.6128129496 62.1015948709 53.7996516169 43.2809146861 35.7125471539 31.3991833284 24.0682310807 19.5465887124 18.4991990404 19.8253359626 18.7569421331 21.9442137824
10.3863557689 10.3517175304 11.0715406945 11.4559312238 16.0042019259 24.8057907651 30.9171057424 44.5780266702 52.9064487416 64.1788613065 77.4386024853 88.4618055096 86.8897032698 89.9856791962 103.670324825 94.3699604535 68.6233023635 39.4112601176 27.558724865 29.2131601459 35.7941023017 55.7835013818 74.238468504 97.8317034763 79.4664119786 113.942734443 90.234586548 71.578110564 49.6545942089 36.9987822751 21.3075598499 26.6042560813 27.6855020041 35.8849565651 41.0848960629 46.9705052662 50.5388035548 57.4467190002 61.3684329216 66.8376209391 64.9512924188 60.5118377303 52.8089777664 40.9054513013 36.8597912628 36.0446608244 41.9178783709 50.8138639743 54.8245303042 68.2835725861 77.9037248699 65.6220759236 61.3561911163 51.8806293665 41.919736531 30.8119965231 32.2612571662 31.8115683529 30.9882102864 36.3358781671 45.7798959897 49.9509094626 53.6896172887 52.4071352957 29.3236991833 25.9390673634 25.1685784903 48.3243238477 68.1990382437 106.588934397 267.956051115 293.604023047 270.203508549 174.041566772 108.487278951 62.4060296628 60.037574469 66.4327871213 72.5455272903 80.5919974407 82.9460781684 77.2044837821 93.1720506316 106.923322082 116.88463117 114.383137515 89.020872099 70.9639201263 55.9091094342 44.3999212661 48.8006014013 55.6849258864 59.8433495038 58.7802344164 53.3631298914 46.1745606972 37.0939811209 34.1251589135 37.9915667519 43.1974725076 43.4358046685 30.1212292734 38.4220346791 24.8007260747 30.9526299174 43.3236903975 49.9116362766 59.6793134014 62.8228524424 57.1027849839 50.6128378994 54.2297584018 62.2017247124 68.4562695041 68.7088040596 61.9336959663 58.0296069154 52.1013422866 53.6112840703 53.0162234141 56.7191709975 59.0323802294 55.9627714393 51.3127826658 46.2498895536 45.4699270694 48.6351787549 64.2433098163 61.4275662283 59.8497001729 60.217990978 56.9350585366 51.4218539004 53.0925876695 49.8915848845 54.582793246 58.7241291656 67.2112034145 80.6775873177 89.2498641032 89.3513541542 76.0035936329 53.1280813537 58.8835474922 76.1239646253 87.0807310191 87.360129745 87.2171014969 81.0532232227 74.2309453717 64.3821189584 51.1282774077 46.4772640051 48.8063860396 51.8199572891 58.6664509731 58.3704768253 47.2314507488 45.1541231177 43.258757273 45.8955673308 49.7683155997 54.8123838924 54.8020893459 54.1006309835 46.7343819598 44.9096268108 45.5885037774 55.712160276 58.3613475956 57.8528253253 60.8683567347 62.0541799131 68.4349962068 78.1752582638 85.7723010055 92.02829251 89.163626768 85.2223724225 81.3165945577 76.3292058125 78.0685583379 83.5499177475 90.4488582996 95.8482684203 99.4553802619 110.181988441 105.464264278 111.333246245 112.873614802 125.540774785 121.766188249 106.393803268 102.892180019 99.4724577687 96.9558485358 83.3065194929 87.5315929809 74.8458023665 56.1143319247 53.3548756214 61.493763207 76.9080030989 90.2202827077 108.464312499 111.112119198 92.3625366775 75.7121152832 67.3955213908 59.6447435546 53.3084878271 48.6824322877 39.4077290527 25.2597242871 22.0831775014 17.8392127581 16.3081158575 16.3193678915 16.7061719996 15.7258191758
7.32022411437 10.7464099298 12.3940156234 13.8374167916 23.0806414074 24.0153614356 38.8937114325 51.0776875041 53.4433970775 55.9305242983 62.2387286624 71.1228664362 73.834470952 82.6228119253 97.6493160314 100.531189035 70.5112350594 46.080205984 25.2748879159 17.2901014378 22.0177559846 31.8596182608 46.3164628348 55.5559221858 49.3058971365 34.5352372225 35.6557577135 40.6825352366 36.6534121028 30.4465441783 47.6548748359 42.4290380895 32.0674203292 58.9975765669 76.0713149256 66.7681422512 76.502597608 81.2176046294 90.9594202388 88.6660774597 84.2196481341 72.7977418344 63.3744473964 57.8323311837 50.1036981785 46.4844425669 46.2835224577 43.386449372 50.0418548817 47.7527111006 41.5992858368 54.1502179734 57.4000272468 58.5818488527 45.304074552 49.3088435039 48.4678151889 48.4878749348 41.243690105 41.6820610028 52.8993575073 72.3229721823 77.1408807487 62.6957532743 55.5167911686 39.1152084626 29.0976567235 37.0295360323 47.9758901187 83.7749170365 85.1109607692 77.4261499689 95.5009768017 87.5011644023 78.1408895 52.1438540491 44.3349886998 64.4312212893 83.4773947203 87.3191086592 63.5832285886 66.9901466802 69.9149340433 77.0525494706 77.7399418122 65.7222072971 51.0024284911 43.3349423064 35.0937149475 35.7139550624 46.1965250844 56.1912345671 62.0115208907 60.1549645946 54.8353121642 47.0270322994 42.0035293416 57.2491318875 63.1612584141 70.6871623429 77.7526212517 70.6577492069 70.2585600693 64.2023445524 58.8364217629 53.8580942835 54.5580690214 62.2425546305 65.6826109035 60.175918115 49.8986133541 47.1941882632 61.1057552648 67.9745796983 59.3550109792 56.8169506448 52.3860362979 48.5676569486 41.5134380509 44.4269903457 49.0719070518 59.2089090839 58.9345857535 53.9329870324 46.5338909475 55.7631978389 70.3819193664 88.4368186964 86.9645798956 78.0316010425 83.7425822551 93.8089717922 96.6240617261 70.1269887983 62.2958663199 65.2402599228 67.7854706952 74.9362110447 81.1490162121 83.7736437053 85.0885046252 89.8242803645 85.9199087099 81.4691654985 85.2190945442 86.2152369215 85.7256517006 72.0702417123 64.5039450392 68.9894894425 68.3062975548 63.7180897263 55.9509043218 50.4183185393 63.9702176372 71.9988291544 66.2965908901 55.2110541598 50.2663979167 48.888676527 54.2871660494 60.2441086317 72.7885632313 78.9390763852 60.2292559102 63.356415995 49.6181918292 53.0429359313 65.9983070074 69.984178147 72.7164455539 69.9030860637 66.4716438056 65.1261582892 72.3443221238 78.3366013552 78.8755376422 82.1239413762 74.8398543755 73.8072481842 70.2193603135 75.7162445237 82.5921677312 85.9924400727 90.3178843023 81.6028635926 84.0535952949 84.6490016483 98.5857114736 101.013674745 96.9852794315 99.4252945714 113.927145975 103.363387417 119.810712457 122.56013073 128.901675183 120.463207707 90.6664491221 76.2543619462 62.1091135043 61.3239527932 66.7944211793 79.061864512 86.8358408135 86.3577562471 79.979274016 63.1259059846 53.8785396289 56.7749812308 68.7072478716 67.2925792014 48.6186885758 33.1110083328 17.5165076811 15.8123968318 14.8945233986 13.3412202692 13.6291321966 14.3888847552
9.89015443904 9.27134929031 11.9020812525 13.4321645386 20.6333972335 28.9740460525 60.5889846622 63.833846265 43.6283330747 34.9442374726 44.0301513595 53.8031440617 49.1217420272 59.4173111731 87.7862340256 84.3372643261 63.4110920796 61.3154390855 51.2546646219 39.1588903135 52.279004546 65.3798125776 68.4402721609 59.6305259161 49.6659923989 41.2182769289 42.9984481059 44.2992538184 70.0155455099 76.4655229823 87.7057862976 71.6573637237 81.8222313958 92.1287551006 94.2711727118 105.223903007 91.0220000101 79.2463201463 95.0721824462 88.7586054672 76.0952805099 74.0437991218 78.479885303 73.9580225093 70.2247370718 77.832811889 65.9068283552 69.2684761703 72.176170548 64.2521530239 48.4907782128 71.1688117668 76.2429519848 75.9234010308 68.790841756 67.1119161472 70.3300820989 64.8185278538 55.0704349096 54.1981052254 63.5680348833 60.2508697463 82.7611961323 91.2113996042 80.0991074144 51.4876652144 52.1260517716 50.8196819884 52.7697903521 52.3467228687 44.4110754773 44.1958610078 43.1988870779 41.0203538133 36.7598610311 36.2519696638 33.9282795527 47.5093756621 53.7825864824 46.4153324774 47.2099991706 40.0264064387 44.4092571371 41.7096845164 46.7397059479 44.3180025919 40.2956164444 36.4073802519 37.0656414693 34.5923761696 57.6983480774 53.4046654988 51.3399968502 54.322129352 59.0902728523 55.3474413331 60.1482730387 74.8370037964 104.421798717 129.185979883 116.07443886 114.087484406 114.289685826 103.07420268 92.6502775213 82.0944914695 61.2628380474 59.9809135467 69.9344083812 66.8495033649 55.4446740954 56.4267425326 55.8481746945 64.4766543467 57.2835931903 55.4945218039 58.5999004822 57.4653156283 62.6078135314 64.3752256214 64.3981271209 67.9505834795 68.3672075795 67.0465226845 52.9623120037 62.9006244536 80.7475253003 73.8901012934 76.6682617467 70.6777558424 67.9462604827 94.2065860836 106.809877471 107.100241994 93.2459713514 80.1083181621 75.2855671253 79.7803297372 81.5709367167 78.846685547 76.8513286131 87.7902444421 89.6489937717 83.5203452778 92.7357506271 81.7241784214 76.8875782409 56.4595958283 62.5017028372 77.5758203733 86.8911546388 83.1658632201 67.2344488707 62.5476494219 58.6852864385 76.4812968661 73.5116060076 62.824358556 55.3281700374 55.133359708 64.824757395 66.7846027725 78.4926468425 104.769193782 103.165498834 96.2612555494 83.5287452518 64.2494511679 69.326198097 80.2918175914 80.8401940388 76.3845854771 75.2199317806 67.7519759953 68.962206402 67.9742025561 65.3159929472 64.8548097215 68.1117472782 70.4440986659 63.4786836896 70.3501776491 74.9282506551 76.5090519447 73.6765865635 74.085920559 71.719857575 73.2395760611 81.8632018087 74.347302082 68.8289663899 77.2642948962 72.537535156 72.8602007824 84.0686730323 94.6162604753 111.932973662 114.317287846 84.6781924713 79.3589632196 70.7459442624 63.8540456814 72.9161605994 75.0775609995 69.0833390915 85.6413672118 73.2263690083 60.3028573772 48.4059390704 50.5749535463 74.6144653832 79.7310051293 61.9014440185 36.1879883437 19.2636069715 14.2024813622 12.5738626432 12.1747849935 12.3323114024 12.311323144
11.5260082483 10.7423792872 14.0395610867 18.3331152696 22.8704094573 46.5977389917 63.2328246348 63.4590159674 65.0642270625 41.6358157159 56.2078697988 77.820564709 85.5491274504 70.8478937098 81.5019618821 88.4779613421 112.887423967 106.638680604 101.858217026 104.491477007 121.808738867 74.7051848482 47.2378916379 42.8291958108 43.3393156309 40.3601773528 42.6847419043 42.3196921509 50.3612504875 61.3807756148 70.2328463127 69.9934684757 71.3956585127 72.9508568137 64.3720460237 81.8194569914 72.285112422 59.8467886514 72.4647275889 79.5886880928 76.8819676334 75.5477820284 69.2257467441 69.4915400546 70.1268883606 83.3824125119 72.0466121176 65.9904480987 74.4192451268 82.0627486375 79.378955711 82.2315309316 76.4606327936 66.3202548664 66.8777780049 76.5111755963 81.0942613868 71.3189167137 67.6611648311 67.6814622257 59.6343651625 35.1097838346 48.3543766243 67.5418686124 72.0979558803 54.8574977569 38.2659199512 62.3635081329 68.3568015328 51.4360649114 53.9553516549 78.040249701 87.5520468233 89.0689559176 55.2243431942 65.8990887123 67.1772860811 48.358552658 40.4582723507 36.6293196911 42.0467786427 43.3852665628 37.3813708131 32.312450953 39.3460999621 43.8331091062 46.7817065655 49.2760347356 59.1750890317 51.4654647818 44.7872502939 49.9227271136 42.7357030264 45.6136690794 61.4052290906 71.955399509 64.8735217741 58.2021947803 45.7955271202 64.348073887 59.9207342749 57.1000218473 68.6384774771 74.1311579264 89.4481132674 83.3428875952 87.9625651994 97.5620467213 100.098540504 107.845826108 88.7030115489 88.7748237014 82.2233875354 90.4462223313 79.9048706752 77.7804608831 79.2011735554 80.4854979577 74.7222460955 66.5126742983 55.1291153975 57.3751149552 74.6753208033 70.9794340297 73.5712215361 55.5564040996 64.0998906033 63.0675618638 53.8041190399 48.410990126 40.0121997928 56.3631081869 65.7111240471 49.6959172808 66.442546466 75.6337830513 80.377426119 71.0627377455 65.0068807941 78.2001488251 136.385608824 145.29815266 112.324879001 151.634184551 130.24650359 90.1947830161 61.7360071413 90.930582322 98.2026559509 86.7961277099 69.765967884 57.3557397467 64.0477519074 58.8293897194 48.3788190093 64.2488033896 66.1062416674 65.5360600419 61.3281544861 70.1613938207 63.9782098688 53.3663336906 42.6849970903 56.0184461023 48.4317703455 49.8154606512 68.4438729811 78.1135588771 73.0983702476 72.2305231264 65.5437962595 88.4646867782 112.282431389 102.32832551 86.1930708081 80.2856617364 70.0380328726 73.0359929174 72.6519017612 78.0024897617 77.0135616622 107.52273027 96.035011779 70.2706805545 66.970609249 79.2230805661 82.9283801873 81.7015754949 75.7850710044 68.4561156277 72.8919365444 88.420411416 72.1645273813 67.0962372762 68.3009179228 73.2936665745 75.2959384008 71.8742265129 70.9550423044 77.5431142492 80.5642788641 84.1071070148 83.6506510526 77.2141837507 81.0001972244 86.8969678007 74.9915862583 77.2232576017 75.9159799947 58.8979466839 52.9371441168 53.7474411364 39.3719861862 28.8910377567 21.5052406546 14.9418783382 13.0753614704 12.212824894 12.4744501623 12.0537151792
