DSAA
220 79
-53.7994932458 1725.25055045
-633.666666667 -0.975556903113
0.325997263075 24616.8793513
4457.77843287 4509.97823897 4557.77032917 4592.11612782 4601.87817388 4580.98784826 4536.43332329 4484.92134686 4440.3923597 4408.20769855 4388.31817062 4378.19620465 4378.44892052 4389.14520817 4411.10562091 4445.92733799 4496.10799224 4564.16365003 4649.31869606 4741.55478315 4818.02415384 4852.04986594 4833.46065487 4777.36728253 4733.79791037 4688.70112916 4662.34493069 4654.64171692 4636.35437 4647.91637084 4665.00826246 4687.65811065 4719.77259268 4767.97969542 4839.33967484 4986.92364264 5102.59830132 5212.25734799 5324.91506639 5414.55092405 5450.16268484 5419.28944171 5347.3898351 5249.8504187 5148.25500776 5121.94586819 5063.03028871 5023.0662151 5000.35790817 4991.65876206 4993.47372378 4927.69711447 4904.67538311 4916.69020922 4935.95405516 4964.60886534 5005.33337075 5077.95159754 5148.79295313 5234.75957198 5332.94381351 5437.47366693 5596.43303832 5677.4785303 5737.65349798 5770.22280692 5772.50128403 5746.42550114 5697.75185016 5671.84681096 5543.73012769 5587.57938296 5534.76410859 5490.3686552 5455.88139109 5431.78498644 5417.94055568 5541.59648514 5546.55863558 5558.99999746 5578.56011824 5474.24186264 5710.33813041 5696.30662423 5739.34466268 5790.09691907 5848.98615274 6013.48165855 6080.99559466 6156.35029246 6238.84484743 6326.76189802 6459.48270786 6538.98469549 6609.73348388 6666.0020711 6717.02804859 6730.72508469 6731.10262452 6724.28038712 6717.98843014 6719.25521972 6732.63507241 6759.61232818 6799.0514705 6994.78956748 6973.92505389 7033.42335086 7093.10853725 7152.66780782 7213.17368061 7280.2069896 7348.14457337 7592.40634091 7678.75463121 7775.33499493 7880.59948998 7990.46046928 8098.19100054 8195.04394012 8291.35299161 8336.1524992 8355.40441007 8354.88750865 8339.60527265 8321.43920937 8308.61025418 8306.02643292 8315.12984043 8334.88847102 8363.10948529 8397.52192602 8530.89823128 8577.03653418 8626.05900851 8743.21726873 8795.41000439 8851.5799794 8912.24278671 8977.86785904 9049.10536015 9238.74432046 9319.87762195 9411.55327447 9516.96840412 9639.12643852 9726.20501008 9888.32768994 10060.7362527 10227.4492062 10366.1290231 10454.0578381 10476.8827591 10434.9328176 10342.6397395 10256.0392377 10141.7859451 10036.5568383 9949.23845693 9844.91287674 9792.95383487 9769.81175734 9732.69294116 9724.13276551 9724.60105692 9731.94982946 9745.3349184 9765.23624609 9894.94152346 9819.37918327 9865.29140019 9924.75326665 9996.90459711 10078.2207958 10162.2325368 10240.0308563 10301.7264406 10338.6457642 10345.5746792 10324.6346189 10272.8660551 10265.5358036 10192.5740684 10118.4870845 10049.3230776 9988.95273585 9939.12856239 9899.93988524 9962.11672392 9937.29054861 9918.85909616 9848.74244405 9841.65388291 9841.58914678 9846.05662343 9862.47185313 9891.74129576 9935.66516937 9995.131249 10069.4055937 10155.353457 10246.7757369 10334.251126 10406.0317184 10437.9925653 10447.0410631 10425.1388025 10360.6334634 10272.8002109 10173.9084181 10074.5736574 9981.85572966 9899.06669324 9826.61950261 9763.18689548 9706.71739999 9655.13628992 9621.64333387 9575.24931739 9530.0666892
4441.32761553 4493.40566774 4541.21678923 4575.59429982 4584.93684615 4562.96658869 4517.93516959 4468.23326198 4427.37956835 4398.7657746 4380.96298845 4371.72416478 4371.33715749 4380.61665507 4400.35246525 4431.94418651 4478.17732963 4542.97363644 4627.87512948 4724.17307041 4806.74905077 4844.21685072 4824.59504104 4765.72877158 4698.18272245 4679.46527761 4659.1379367 4659.67869747 4651.14018469 4668.35570135 4686.0339708 4704.16296268 4728.60785138 4769.23568094 4836.6516217 4957.89483936 5089.22128844 5226.08711468 5370.49947574 5474.05313851 5511.91592676 5480.45360538 5393.4562607 5279.53329776 5164.91075799 5066.90253804 5068.76090662 5030.99500657 5012.84969477 5009.45922851 5015.93066439 4955.14202628 4933.78600873 4944.97212735 4962.08089108 4988.40571094 5028.00737998 5100.9617725 5177.03625433 5272.82301711 5385.48687881 5508.21877591 5676.40795051 5774.11697322 5846.39187373 5884.03013809 5883.41555506 5847.39146386 5784.00047582 5689.91762762 5597.55042702 5506.90379887 5553.72474986 5501.11307061 5460.57009893 5432.15414077 5415.28648147 5534.29271362 5537.79986803 5549.14221527 5436.94720345 5463.71827951 5641.8526368 5676.79572442 5719.29165526 5769.76134043 5828.79672459 5897.09281933 6062.41122318 6140.9527064 6228.31605282 6322.97909381 6460.72217053 6549.35752859 6629.03969002 6692.46192894 6740.23193134 6753.36462697 6749.87431222 6737.40417559 6725.74628088 6723.69367593 6736.70566026 6766.22837016 6810.38314279 6919.18341824 6991.4511411 7054.32196252 7115.32363548 7173.87192468 7231.26496421 7293.03478001 7356.38803102 7430.74477626 7674.42169541 7774.70391873 7887.3138196 8007.802339 8128.22096748 8237.68083751 8324.29850081 8385.82765617 8402.85881138 8394.41906064 8370.35560297 8344.19705101 8326.29321149 8322.16333235 8332.59058294 8355.2618509 8386.68034008 8423.61549913 8551.57277544 8597.622227 8645.79684507 8758.78820052 8809.89278046 8865.23503057 8925.24585891 8990.08070098 9059.95315778 9135.62834616 9318.70407979 9406.88050676 9509.41317989 9630.83152792 9721.93111151 9892.75914584 10079.8984089 10265.3321085 10422.073439 10521.6715937 10545.9299742 10495.4225612 10388.4063058 10251.7150041 10155.6689396 10042.2760478 9917.99890352 9846.85397321 9798.44768299 9688.1292781 9750.62239368 9748.16111697 9753.28335485 9763.29834404 9777.35036961 9796.46828043 9814.70831917 9847.82233211 9895.96581337 9961.55312963 10044.5245123 10141.2022684 10243.6962164 10340.3823602 10417.8323885 10463.9940331 10471.5919969 10441.6389499 10375.7180556 10287.7391687 10252.4836618 10164.0995867 10083.8353951 10015.9875945 9961.96400355 9921.03041752 9978.97821266 9954.15403104 9881.70477852 9867.24764522 9858.038002 9855.07817803 9855.84388631 9869.47816371 9897.2250298 9941.78403276 10004.8868648 10086.4405712 10183.5178502 10289.363366 10392.8895341 10464.8130367 10527.7774216 10543.149749 10506.2687483 10428.6475448 10324.5131838 10210.1263247 10098.7974617 9998.52936869 9912.19292178 9839.03485803 9776.41051578 9721.15626179 9684.54076829 9636.32993307 9589.21153043 9429.41445669
4377.60723336 4433.51166664 4499.92117023 4529.06634855 4535.5849143 4515.68501157 4478.33662845 4439.72242619 4409.54342158 4388.29170128 4373.86621908 4365.45813199 4363.99305482 4371.35677138 4387.97827931 4414.15399796 4451.76072738 4505.05257086 4577.5305752 4663.24395849 4739.46667422 4776.6129856 4763.16822984 4715.16747684 4660.87293807 4658.95035976 4652.80198579 4668.32303421 4675.39379459 4701.54279702 4719.73810862 4729.91993329 4740.83062875 4766.618904 4821.88582584 4935.31116405 5067.0954509 5209.33782831 5362.80367803 5474.0902746 5515.18832114 5481.17496342 5388.29773002 5268.76742429 5151.6089164 5055.42634364 5063.82654441 5034.27687688 5025.65226126 5031.36346699 4978.34516674 4990.82106405 4971.13963814 4979.89069203 4992.24134213 5013.04461486 5063.26035331 5118.25032904 5196.77901214 5300.24192887 5426.06678212 5566.61328693 5746.22250414 5861.68591242 5947.09483879 5990.26960081 5986.44674274 5939.57761472 5833.35417558 5750.03317159 5640.71641531 5535.67311892 5441.87927229 5505.67369957 5460.17928378 5428.45699141 5405.37076406 5524.56420676 5398.28763239 5407.40472524 5425.21427539 5451.17574498 5432.60855478 5654.4465632 5695.72059544 5744.97763705 5802.94532012 5870.55398198 6035.30990299 6115.2249827 6205.49188125 6304.87187846 6447.41585771 6543.97037441 6631.78950816 6702.12686684 6750.98117246 6764.63904147 6758.844491 6742.66118773 6727.78899993 6724.63254363 6739.4628523 6773.6672365 6824.62798927 6812.75661929 7015.7008114 7082.8742057 7145.42406956 7202.25021767 7254.77038461 7308.56898458 7363.88357779 7430.9245096 7515.74556604 7763.01956019 7880.080498 8008.55996417 8139.44378985 8259.92113666 8355.54863763 8417.28605762 8433.28819278 8419.09560893 8388.52529137 8357.30186718 8337.73849208 8335.64109956 8350.73728446 8379.06830992 8415.57494779 8455.95757227 8578.44120297 8623.62103043 8669.86124252 8777.38621103 8826.62888031 8880.74609486 8940.03898054 9004.13574605 9072.45483502 9144.9349306 9315.76790721 9397.10449396 9491.87071352 9544.76208623 9692.17531081 9861.70288745 10052.8026168 10246.5284475 10412.8723269 10519.4614785 10545.4870435 10491.6951834 10378.7689632 10236.4981167 10138.2717908 9996.91876002 9902.72395707 9838.35968735 9714.35528989 9699.8242552 9696.6321054 9778.09932188 9789.41611015 9802.32380323 9815.96476723 9832.10235424 9845.01508236 9874.48412602 9921.64655262 9990.74761513 10082.9343245 10194.6279057 10316.4991714 10433.8219889 10528.9028552 10585.4915282 10585.7024507 10542.4318745 10471.9818181 10364.3507705 10303.9818274 10201.308626 10110.9100006 10037.337575 9981.36234835 9941.08687469 9996.8173043 9973.58336469 9905.11241537 9889.75070938 9877.85538031 9870.6794019 9865.7876771 9874.17445295 9897.54247995 9939.57065799 10002.8869151 10088.1049269 10192.6420799 10309.4388187 10405.9401207 10515.838765 10585.7719659 10601.1735938 10558.6469423 10469.1984669 10351.0548751 10224.543516 10105.4580206 10002.2932804 9916.9521286 9847.06064495 9788.36040385 9736.46264199 9701.14428558 9555.77040646 9503.04745138 9449.49420637
4329.82979918 4377.22395253 4417.53201041 4443.73335258 4468.63066357 4455.32236941 4432.79837234 4411.88597196 4396.19175921 4383.0695558 4370.81031481 4361.52749921 4357.81166136 4363.14237346 4377.10401896 4397.7475744 4424.55302733 4460.84242569 4511.67412529 4575.19878509 4635.14639721 4668.75289144 4666.18236957 4638.35011409 4607.34054198 4631.82555749 4646.97213505 4684.25524605 4713.91236656 4753.19529934 4771.95362938 4769.96594294 4760.4135165 4763.29544627 4751.86046233 4828.93646773 5012.46024709 5143.33790597 5290.99416505 5389.92518273 5436.70526036 5407.72263051 5322.39010135 5212.28817464 5106.46917528 5023.84866736 4972.34510421 5035.75497531 5042.43466208 5001.47045841 5021.48938448 5039.59834905 5021.25936741 5025.08953675 5029.00335778 5039.95049619 5080.03152052 5128.83220065 5205.57554487 5312.73352336 5448.09212594 5603.34077119 5763.46944309 5926.5739656 6024.52039444 6073.13193304 6066.37142544 6009.32016554 5894.22402054 5790.16311216 5666.1119859 5549.29220554 5447.09813075 5362.74702541 5453.67940853 5420.19742516 5394.640244 5382.47486672 5386.20789001 5394.74323911 5411.86790303 5436.96820121 5416.04391918 5629.6117144 5668.98749153 5716.06189719 5771.63968171 5836.83466816 5999.15996753 6078.14432128 6168.65616947 6206.27151363 6415.62635881 6517.51810286 6611.24789094 6687.07119758 6741.9012592 6757.60802292 6752.32010274 6736.08952729 6721.88471659 6721.19363057 6740.88977841 6782.39284595 6774.39120418 6842.4020329 6918.18862419 7121.04352785 7185.92593159 7240.68914421 7289.45287394 7329.55478047 7372.88918083 7427.9850831 7502.80479107 7602.90040519 7856.48669745 7988.23421573 8124.80058937 8252.02267352 8353.75998143 8418.86385571 8435.8712749 8420.48937797 8388.55923888 8358.01161547 8342.46712389 8347.58510322 8371.74430308 8409.10057382 8452.83884627 8497.50467706 8613.82295006 8656.79989883 8699.39951702 8799.56425995 8845.90712028 8898.44063843 8957.32579581 9021.41787724 9088.88169025 9158.22767403 9196.87842295 9386.16796823 9405.36260964 9506.94290537 9639.46081158 9795.27906679 9975.9405462 10162.9957916 10326.1434945 10432.4544455 10460.7371444 10411.5237591 10305.248433 10171.4095424 10087.5269236 9953.50036128 9871.56123596 9738.34282003 9711.67067542 9714.12913131 9726.81765011 9817.94578809 9837.25485764 9853.19494619 9864.86886834 9784.26314575 9794.75135667 9899.80073602 9941.19392332 10009.3525159 10106.9747436 10230.8321273 10370.2756285 10507.3933366 10619.9135431 10686.9612745 10692.4470943 10639.9183774 10548.4938222 10421.8659631 10339.8007465 10224.9954633 10127.3238757 10051.3858256 9997.04537373 9960.0980208 10017.1455522 9864.16535986 9934.85405915 9918.9425868 9903.6517479 9890.59601579 9877.62745677 9877.72465663 9893.18155196 9928.6666338 9987.61848631 10071.2366769 10177.239181 10265.1476876 10401.4285033 10518.9466721 10594.5441316 10610.4430431 10564.1946895 10467.5305966 10341.8837127 10210.7541474 10091.6180272 9992.81474531 9914.78046486 9853.17267664 9801.94739575 9755.51454826 9635.57775821 9583.86726547 9529.45706488 9472.69241848
4275.08280286 4314.5733323 4347.53717232 4369.84144068 4379.49470986 4379.69773871 4400.29095102 4399.31240177 4397.67959259 4389.70886686 4375.29367049 4360.86315209 4353.41877832 4357.2359702 4371.01636314 4389.2727741 4407.31542754 4426.17683566 4452.37992052 4489.31749415 4528.7563315 4555.68690621 4562.22981435 4554.54207876 4548.57465361 4561.54484941 4642.76922446 4707.13873214 4766.19016333 4823.50395135 4843.32892082 4824.92136012 4788.20666044 4723.44850359 4721.97493149 4769.89460257 4867.46278959 5036.99426378 5165.290612 5241.64398481 5287.52816869 5269.68899406 5203.68121735 5116.70233334 5035.19119543 4977.35924448 4951.22464535 5039.96987449 5005.38339763 5048.65602748 5082.88239365 5082.78523665 5089.67593952 5084.96494844 5075.485379 5071.02403309 5095.31059203 5132.39157885 5201.77224585 5306.79385447 5445.47388386 5608.95533156 5780.68559092 5952.93145433 6060.31100639 6113.32807229 6104.77062532 6032.61195364 5930.30325234 5800.17777976 5666.66246578 5543.186963 5437.24407267 5351.50526398 5285.55210471 5407.3155311 5380.62940286 5373.32857551 5372.47975007 5380.78100404 5397.36642612 5372.15530748 5398.23863144 5431.96241588 5639.74435454 5683.72440251 5735.60883001 5796.61900528 5954.1743982 6029.66093144 6040.82311899 6150.54120085 6270.04211113 6466.90980609 6563.32211269 6642.38342084 6707.86257988 6727.52748416 6726.52894663 6715.18654839 6706.71937379 6712.90140602 6740.93680606 6729.59624582 6795.5170102 6878.43561424 6968.95296974 7170.21658607 7239.06488476 7292.11910568 7332.13865775 7359.33047779 7386.50926081 7424.67259395 7483.9510104 7571.26146635 7688.52971974 7945.53948113 8081.19706476 8208.94268 8312.29906256 8383.79497577 8405.26312585 8394.28658382 8368.52138103 8346.58439341 8342.35607363 8360.923641 8399.2054056 8449.35510044 8502.59997224 8552.17102117 8660.73517656 8699.37711717 8735.71622251 8825.75977371 8867.71108618 8918.25881444 8977.48050239 9043.20089585 9111.7756709 9150.55394004 9213.65768704 9275.50606071 9385.4091044 9464.55275591 9572.72412672 9702.79710421 9858.7057622 10023.9337009 10170.7694976 10269.2366582 10299.9436241 10262.6643585 10174.8547976 10062.5730819 9921.88161836 9889.47736804 9748.74463574 9712.83739189 9709.61297136 9735.01158652 9768.83452046 9872.47131513 9901.96740485 9921.0708361 9928.73266964 9845.71046785 9841.21062391 9925.0968375 9954.35248158 10015.1558897 10111.8787709 10241.7460125 10393.0048512 10544.9418917 10671.1976342 10746.7183635 10755.5403247 10695.5934168 10588.7452311 10447.674803 10300.3557288 10230.249439 10130.4786971 10057.332507 10009.6277788 9980.52899572 9914.71300766 9905.18605134 9974.47750052 9958.42527352 9938.79171645 9914.5619934 9893.76347455 9881.9784594 9885.46561652 9909.84707193 9959.16375068 10034.8996199 10134.8278565 10214.2772025 10347.2088 10462.7759068 10537.3771445 10556.8990778 10510.2302857 10414.1860832 10291.540985 10167.0264874 10058.4457859 9973.24023958 9909.98689701 9862.15223164 9821.84723358 9718.34209474 9671.76198167 9619.44729576 9561.66809705 9499.86543495
4218.28254973 4252.46555735 4282.46970568 4306.89630838 4326.71218149 4346.12565657 4369.54540381 4407.63538311 4417.89903805 4410.29617087 4387.61919627 4363.04857609 4349.70511619 4353.31551124 4371.4113684 4393.75652516 4409.22346717 4414.45269874 4417.10361656 4426.74954625 4443.44946553 4459.24469856 4468.55301188 4474.74829635 4489.30314307 4526.62929144 4634.62555409 4727.27480092 4818.52388902 4897.35306511 4919.401994 4882.62904162 4793.44702787 4721.28719657 4685.77075748 4700.82030849 4764.82719296 4908.33556611 4971.93453516 5056.23269095 5099.05377171 5094.48249666 5053.5447901 4997.52537711 4948.76202604 4923.93919259 4931.03430915 4989.42589631 5048.07974759 5116.84868187 5136.86543628 5178.85303771 5181.99527378 5163.78435907 5134.5824926 5108.05641821 5110.10372875 5129.30916409 5184.98384129 5280.79766857 5414.58960359 5576.96119515 5750.47683465 5927.70632435 6038.76020035 6094.04926389 6082.4061903 6009.45922372 5905.22773517 5772.27726506 5637.49215441 5514.74154702 5411.29782974 5329.20525143 5267.29983377 5275.58305432 5252.87732911 5358.00474348 5357.78948715 5366.15059414 5382.31473201 5355.12942895 5379.96820318 5411.86261449 5608.94264578 5649.09057114 5696.14993069 5751.35947959 5816.42779862 5884.9498558 5974.75784104 6077.51438724 6190.68321584 6392.74610449 6488.61991131 6568.77252666 6625.16809239 6674.32319985 6681.55190108 6680.06985454 6682.31410723 6699.55727287 6739.07479143 6736.55344546 6818.82585634 6919.64222486 7028.46877412 7132.49983761 7305.50630328 7358.22997891 7388.98270229 7400.73847506 7407.75125543 7424.15562094 7462.60843665 7531.30165794 7632.2925444 7760.84545881 7905.45812855 8133.86851955 8234.50519907 8314.56365834 8344.26445906 8343.74920253 8332.12466941 8327.0532096 8341.60282279 8379.97211622 8437.63640979 8504.62393435 8569.81692622 8624.71793559 8722.90330143 8754.02983058 8780.23307831 8856.20176125 8891.54705885 8939.48767128 9000.17386375 9070.16465651 9143.37705996 9186.33883595 9245.9125249 9295.72615018 9377.72300406 9429.37471609 9500.02565405 9601.09660721 9721.74225752 9854.27689333 9975.47386731 10060.3733355 10092.5511384 10070.7281737 10007.9652512 9896.37025839 9773.37752825 9733.76907024 9692.19696924 9685.52606552 9711.7720206 9766.09988031 9826.91047999 9887.58463096 9988.83245793 10011.3702091 10012.5319657 9923.97540723 9897.62295114 9881.69770433 9962.01237759 10007.5437756 10094.8363465 10221.3872043 10374.5702832 10531.7560812 10663.9740017 10743.5794823 10752.8328931 10689.6417948 10577.4708994 10430.8881272 10280.4568834 10213.9451113 10119.3857635 10055.7452019 9895.195842 9885.15498858 9957.68064188 9959.89260635 10028.4032529 10012.5898314 9987.28308817 9951.97307496 9916.99195786 9889.21012851 9876.3484445 9884.94494798 9919.37412163 9981.01627048 10011.7813409 10126.4004863 10245.4053516 10349.0689768 10415.6807204 10441.427043 10398.3521121 10312.0976485 10204.5218263 10099.210522 10012.7227665 9950.84957562 9909.94376101 9881.03265501 9799.98936693 9765.34901607 9720.47539531 9665.00695739 9600.96798769 9531.40237775
4161.94307882 4193.26701735 4223.68857545 4253.92431762 4286.59930591 4325.7530042 4372.73967869 4418.76075967 4443.35325464 4435.44820125 4400.70638922 4363.25733713 4343.32126346 4348.48951631 4375.48700361 4408.98253701 4429.32086662 4426.03215255 4407.16116478 4389.39907119 4381.36883034 4381.51933591 4386.7336656 4399.02504051 4426.65806838 4481.30249418 4610.05027838 4724.57001197 4840.82839273 4938.44692998 4963.85451701 4906.03904992 4801.617295 4700.55160623 4636.60555158 4622.36358439 4654.67730074 4744.34213878 4798.43453719 4863.32106516 4902.13450739 4909.92819977 4894.15973261 4870.76412351 4857.91096312 4870.45524366 4916.18969207 5012.78432681 5109.10977624 5180.1778293 5256.98678871 5305.42280266 5301.52840769 5215.36103801 5153.68194211 5092.41665148 5124.72083769 5120.15127058 5156.04384491 5235.59450161 5355.86311027 5506.81866567 5670.84487098 5846.8837724 5954.41436711 5998.90668329 5991.56125326 5923.33929806 5830.14475449 5704.545638 5578.26372566 5464.773824 5370.81729667 5297.80353763 5243.95246595 5256.26159874 5237.79732035 5342.32825319 5343.13398009 5351.68174394 5367.4384427 5338.42862127 5362.09287132 5392.25153007 5428.32025745 5613.67123219 5655.10775281 5703.26311646 5751.98170111 5819.41198172 5899.18132285 5991.76135434 6095.0829374 6203.6976044 6392.647885 6472.66092064 6532.66859571 6602.65481672 6621.17194347 6633.17244771 6649.62856071 6680.78666757 6667.42493832 6740.89438086 6841.01795698 6961.70408641 7091.82644945 7216.13600015 7382.09035204 7437.00093511 7459.13854709 7453.82922692 7437.49209721 7428.25547478 7441.75043449 7487.37959706 7567.06349876 7675.54490717 7801.38014921 7928.57698836 8158.91100065 8222.49302069 8263.49399578 8278.29221485 8287.04165626 8305.38142484 8344.88283358 8408.71828262 8490.96773277 8579.25277501 8659.33574685 8720.08859525 8804.39228655 8823.62935307 8834.28115589 8890.75659289 8916.27011819 8960.4929571 9023.91182823 9101.65583659 9184.57167029 9238.12012638 9299.17433313 9339.60842428 9325.54069553 9338.66339113 9446.7560146 9508.32217204 9588.2413303 9682.90513205 9774.03510245 9841.94104986 9873.26180369 9865.79445985 9760.71584085 9701.56371183 9606.3114964 9641.03962374 9632.55234951 9659.27020656 9719.84733575 9808.79461324 9902.92796299 9991.61444495 10101.259087 10127.8130376 10064.7340605 10021.9915365 9966.25704763 9918.58159499 9965.73637564 9987.74428418 10056.2500993 10168.5635834 10311.3906067 10461.4061979 10589.1813374 10662.7278132 10673.0886586 10612.2939195 10507.5480444 10367.1859037 10225.5789821 10105.1143479 9974.98985802 9925.04835966 9912.55415445 9927.01790948 10014.6407222 10033.1452275 10101.3290841 10085.9971708 10053.1216637 10003.3413357 9949.81469994 9901.45000873 9867.77936313 9856.24430663 9871.28347239 9843.55979367 9918.10820836 10010.8394367 10108.4171718 10193.4476133 10247.7487794 10281.9138937 10246.3711979 10177.8002287 10095.5148881 10020.1530715 9965.77238412 9935.81578494 9923.87765196 9872.32279087 9859.88869714 9831.70418906 9785.07778418 9722.15331162 9647.62942245 9566.71147497
4106.51372659 4135.96277934 4167.52778183 4203.27978858 4246.51567485 4300.47472435 4363.88308817 4423.82505294 4455.19938975 4439.33306568 4386.47588053 4352.85935529 4328.81655104 4336.96085935 4373.18128828 4419.07477233 4447.32406016 4439.79529111 4403.72796314 4361.83571387 4330.32067669 4313.25755472 4309.95222889 4321.76111578 4354.35054158 4416.36557074 4515.07193233 4663.10109443 4799.49288393 4903.95898079 4928.55488784 4867.69032973 4754.90717358 4642.2906732 4563.46807858 4529.91316383 4538.33060548 4520.10373471 4630.02814231 4678.80543427 4714.1642214 4732.49352555 4739.09725537 4746.05929277 4768.24396735 4818.95557069 4905.91464238 5044.92187948 5184.98654441 5299.11824077 5404.36816591 5429.08317965 5412.98404046 5342.83477873 5243.87064673 5144.07819751 5066.99446684 5104.56215907 5116.18233861 5173.98917004 5273.70675465 5404.62164008 5549.56775349 5718.35920028 5815.97915379 5843.79232205 5840.07331554 5782.6191062 5711.72048514 5602.98612897 5494.42012267 5398.25227993 5320.34753295 5261.43531327 5219.21399645 5237.54456555 5224.47267836 5219.97388551 5329.82815386 5338.37591334 5307.02730024 5322.81460282 5345.45059591 5374.21669919 5406.67376923 5442.46840374 5614.78399678 5655.18164103 5694.96204484 5751.41463854 5819.28769625 5899.66676957 5991.12545161 6088.59853269 6241.99176307 6363.58741917 6427.70418121 6519.49395254 6550.75997302 6577.7275844 6609.67757379 6586.54010251 6648.90167678 6738.59721197 6856.07364638 6996.47305969 7148.809525 7295.80810754 7416.00966914 7502.74773264 7534.83955404 7512.48921074 7471.57055701 7434.97388011 7421.64769284 7442.13194421 7498.09292201 7583.8676602 7688.45795767 7797.68805421 7931.18092142 8120.87183391 8174.93688853 8207.74909188 8240.25148963 8285.80249195 8354.36031206 8448.18052368 8560.04825554 8674.75410542 8773.7019439 8793.79011898 8883.3239022 8882.02323997 8865.3444889 8928.58031388 8939.91484801 8978.53561849 9045.57280997 9134.67860056 9233.1517949 9305.09480311 9374.59276535 9386.25483712 9385.69045331 9363.52145881 9342.23288385 9341.23342613 9474.01273171 9529.88481299 9590.0547807 9639.26019209 9666.72155691 9590.03458376 9569.28454464 9540.33908581 9471.83376745 9465.35767821 9571.82587119 9633.60387205 9731.54790992 9859.74575439 9993.30461608 10116.3519009 10204.3265674 10224.9230875 10207.9693443 10137.4867935 10045.2530551 9958.7603482 9902.39579137 9957.84296816 9999.49538291 10087.7229297 10208.7933412 10339.9379251 10453.3754734 10513.4545741 10523.3532529 10470.1978851 10384.5493841 10261.6695618 10140.3460837 10001.8208443 9936.77265303 9915.82300321 9934.47960161 9980.65428043 10088.5890338 10128.3984727 10146.5567335 10181.8172131 10138.7810403 10070.3059909 9993.16028281 9919.35100827 9860.66411087 9825.42655189 9817.87682104 9762.62002634 9812.39721225 9879.98084964 9953.30059092 10017.8388109 10098.4513968 10104.0480617 10079.3712401 10033.56889 9982.89500979 9944.40947832 9929.12179549 9937.59065736 9920.3515538 9942.85240803 9945.95281802 9920.60634553 9866.66022393 9790.2673547 9699.9370183 9603.57063334
4051.6940478 4078.67264821 4109.63151074 4147.31172258 4195.00966641 4254.78044742 4323.09420671 4385.20053092 4416.72600468 4401.6286743 4351.15575451 4297.00362968 4277.45625034 4288.47125969 4350.55360595 4400.31761858 4431.53986515 4422.54304758 4377.97551229 4321.45820521 4273.28291789 4241.97986039 4229.32054537 4236.50323496 4266.95638106 4326.03853225 4417.95019502 4549.02655919 4680.40585939 4757.19112158 4787.76356195 4736.85359183 4637.41679604 4534.39936062 4457.66157385 4417.90280537 4354.85047332 4370.36703491 4468.80947624 4506.33067462 4539.71407281 4566.85265879 4592.08435346 4625.14220667 4678.69775357 4765.08116885 4840.34501379 5012.55255266 5240.19466833 5423.7513047 5561.38789725 5607.27134462 5576.30373585 5472.08871396 5330.74286673 5189.06088083 5074.83816287 5079.99690141 5065.72144691 5099.18590964 5174.52655585 5280.48762083 5400.87074925 5491.15072142 5600.3638827 5648.72953745 5649.70868114 5606.92483891 5565.38030057 5480.31208191 5396.32946125 5323.71106773 5267.04541942 5226.19749034 5198.29047641 5223.5650477 5216.24255416 5214.37002143 5319.48114535 5327.3529459 5294.23079113 5308.92520594 5330.7073614 5358.68137524 5388.81905849 5422.32410983 5457.86743624 5610.42094517 5641.13165798 5685.91120555 5741.01109322 5808.32321726 5887.23629554 5973.10079108 6060.09632468 6204.27260824 6271.27968964 6431.36428853 6475.08492328 6516.37993791 6562.931392 6543.94536604 6620.80785749 6724.26431307 6856.01137056 7012.73854231 7184.33430681 7352.42258059 7491.50069199 7580.27145706 7598.55216337 7561.73940954 7498.5475064 7436.66085161 7398.18523071 7394.62396356 7427.45560264 7490.93552387 7574.9108234 7667.26046946 7797.33347736 7871.67336831 8086.17099743 8137.45270664 8194.25252246 8267.96955181 8367.28508231 8493.91779917 8639.66721555 8739.99089839 8869.52979908 8950.96221766 8972.82225826 8991.78649731 8944.31529337 8901.43423796 8959.48063748 8989.78128389 9060.15163871 9162.83620013 9263.18964804 9378.53075937 9454.05785835 9486.52927377 9468.10910076 9410.97426382 9344.54507665 9294.78225643 9273.95589276 9401.33801532 9431.83024641 9462.00983289 9390.58949154 9396.03402314 9392.3156136 9339.86427436 9341.25277528 9366.57958308 9507.99828373 9603.58652408 9739.01944922 9908.43596094 10085.3655409 10247.8341038 10362.3556317 10395.4814845 10360.5881621 10258.0520111 10124.800694 9995.79737332 9899.46389507 9918.6763592 9928.77412431 9986.646275 10078.457594 10183.0048721 10275.5854394 10316.7409208 10325.7205797 10283.509451 10201.3614548 10098.1997212 10033.8932037 9923.18643995 9891.44161501 9905.52365964 9961.14692387 10045.0650562 10178.3128785 10244.4282675 10277.0879119 10298.8329265 10241.0397818 10150.5478174 10044.4919634 9940.70962238 9853.65493116 9792.42366765 9678.91218719 9677.15791672 9701.786847 9744.53442605 9794.76454341 9840.83434468 9922.6494227 9928.84751797 9917.34825988 9896.47087166 9879.75627864 9881.0743002 9908.58974911 9922.3628729 9988.74661901 10040.8517984 10057.6595818 10029.8632083 9961.49894783 9864.69562267 9753.0332019 9637.47540436
3997.74520671 4020.81710503 4048.1642579 4082.70080103 4127.47073657 4183.53489069 4246.10358811 4301.15048029 4329.16715372 4319.41724194 4281.68324604 4240.44703145 4219.2892041 4240.12135043 4300.08139596 4341.54026186 4366.76085103 4356.30545535 4311.59403378 4251.72130114 4196.50295562 4157.01773356 4137.20586937 4138.38200533 4162.04069982 4210.33486798 4284.29757162 4391.55558894 4456.68243006 4535.49825541 4561.60106841 4527.75059964 4455.95008143 4378.39189943 4318.04279099 4284.27795544 4212.68748468 4219.40832431 4240.49264927 4343.52234545 4376.47013256 4410.73650116 4450.45987445 4504.10894048 4583.04815472 4699.11454359 4807.71093186 5022.13787364 5292.64558714 5520.64289143 5683.16550712 5755.69694885 5709.60237282 5571.8569174 5390.4386927 5210.69553017 5061.26878244 5041.19286919 5003.11855214 5013.14434064 5064.03850328 5144.39618817 5239.40404225 5298.55291876 5396.22495553 5438.69503175 5445.37621589 5419.187112 5409.6635528 5351.92032438 5296.56131287 5251.47670279 5219.56569148 5199.47862561 5187.50603775 5219.39534587 5217.1622972 5216.49224315 5313.93279628 5278.89373399 5284.10360633 5297.12815062 5318.17413743 5346.17787445 5375.47233703 5408.5564519 5441.7510653 5406.75079838 5536.73495352 5628.05605609 5670.32131298 5724.50309177 5790.90251612 5865.37581058 5943.9462531 6091.77648125 6160.83584041 6342.97919225 6397.39344275 6450.75304147 6424.26043166 6492.16739889 6579.80019384 6692.50672921 6832.85177656 6998.943169 7181.98852827 7363.72667283 7516.39290508 7609.5255455 7624.98809807 7579.33861803 7500.95134605 7420.85204662 7363.25646957 7340.29942618 7353.5359966 7397.64704778 7463.73023388 7541.79554606 7669.34280841 7745.00904953 7826.64773222 8067.22713047 8146.43392013 8246.54824137 8375.47068097 8534.90096108 8665.96006203 8859.22614633 9021.72511215 9119.06218086 9133.14669875 9107.05523697 9023.13752217 8945.01057075 8970.57100738 8989.5648961 9061.07923586 9176.06014215 9279.5473992 9427.6091868 9537.65066524 9578.93545734 9546.45298982 9458.10364474 9350.92597162 9257.68421468 9194.77272661 9162.83604972 9199.79318241 9206.15710719 9215.0790228 9222.78393731 9180.67513177 9189.21384189 9213.73169287 9264.91667598 9318.37105066 9560.20141565 9728.90259407 9936.46147496 10155.2903907 10357.5245192 10495.7982824 10544.9473181 10489.8639674 10357.7029317 10184.9393108 10016.0753987 9847.34408552 9761.44167717 9846.34711689 9872.38642187 9932.56683147 10007.9211224 10053.3158749 10097.9636585 10105.8513423 10075.670387 10016.1991442 9942.61511165 9877.28314282 9836.19590117 9840.65925837 9892.22572263 9987.32189901 10158.530256 10274.51618 10370.7197959 10420.0701551 10427.0193785 10353.0103219 10234.7806391 10095.7002972 9959.08467748 9842.22166985 9673.57192883 9614.63780469 9588.81386846 9590.24475719 9610.86116626 9641.42910778 9672.82642695 9757.53489436 9766.60155561 9769.10162191 9772.68993181 9788.89983367 9829.28947192 9859.50081384 9963.76815497 10072.9616304 10155.3904203 10183.4591761 10147.6058082 10057.997628 9934.88159709 9797.97255385 9661.2890188
3946.2263872 3964.27101017 3985.37642114 4012.30533553 4048.02995708 4093.53023634 4144.41313303 4189.2639362 4214.09450324 4212.13595218 4190.02822202 4163.92974556 4150.13182739 4157.56433716 4194.9330042 4213.46598398 4262.57361166 4247.83956749 4205.47010469 4148.63457941 4093.75188202 4052.16840214 4028.92943039 4025.17770806 4040.54564556 4074.26479655 4086.92894075 4150.89299439 4220.85494629 4270.60924327 4289.1962584 4272.40233649 4232.1386465 4186.98550568 4151.35522679 4070.37949149 4060.69082799 4066.28268786 4083.29655799 4186.70662678 4220.12046866 4259.49301496 4309.10775712 4376.7471593 4472.92019401 4539.94865767 4738.66913166 4981.71478117 5267.7003745 5525.62031204 5735.26469112 5817.23221405 5761.30107573 5600.90919622 5393.09594787 5188.87089808 5017.42531437 4898.28928315 4925.13161797 4915.9158535 4945.59665925 5003.22597259 5035.12348903 5106.27171261 5194.13067049 5232.7883624 5246.58411501 5237.95542099 5260.28039796 5231.35925228 5206.61375977 5191.38738767 5186.51245252 5188.93228372 5120.48645191 5122.16079729 5231.73513961 5229.63597281 5315.11903359 5276.00453361 5277.06322896 5287.37007608 5307.61467694 5334.28556007 5366.94575213 5402.18234851 5373.94489484 5410.16098762 5438.28241039 5582.61918657 5612.53650601 5653.85832374 5707.49644443 5771.07637822 5841.05852949 5912.4404467 6059.56175322 6124.26634514 6319.59482203 6290.01551984 6354.17316052 6430.01040822 6523.50210116 6639.58622598 6781.08580509 6947.01347035 7129.9215259 7312.81209355 7468.28883673 7564.86332433 7581.46206507 7543.98041788 7461.52166658 7374.60714928 7307.64810677 7272.917146 7272.41893867 7301.84583747 7353.93056229 7420.82500708 7546.65768236 7623.89583529 7715.87899698 7802.01123934 8090.7983406 8212.86719685 8366.82452549 8493.22057814 8719.42874865 8950.78386298 9146.70764912 9262.08114469 9270.5070468 9183.42775256 9083.88986017 8971.44937775 8966.96355025 8972.83828678 9041.45753362 9114.55314746 9278.95523948 9445.53631209 9571.39924203 9620.04996421 9579.30245299 9469.70492231 9333.6100359 9208.67337307 9114.39545425 9053.6567081 9066.93440324 9057.06521815 9057.9139671 9065.78410467 9023.62507087 9044.92407975 9085.83944844 9155.48142311 9226.7166681 9379.38289818 9585.44457247 9920.53427972 10171.1434878 10384.5635487 10568.2874865 10624.1152052 10557.1427978 10400.1128836 10198.6084884 9972.32831112 9802.63167232 9687.91712475 9631.67938828 9748.43706368 9779.16413289 9827.04520006 9844.44991819 9875.9964958 9882.9667681 9864.31395563 9826.69684339 9781.96135893 9749.30105009 9742.60703897 9781.82335964 9868.81809029 10001.0243956 10205.0936844 10357.0564775 10483.6118774 10550.0356994 10533.9875356 10451.9616371 10304.5217817 10131.9478284 9963.37152827 9744.9267721 9624.81127657 9543.29190172 9496.70605907 9478.5361324 9480.98103147 9496.05680907 9516.66927906 9605.25893917 9618.24238651 9633.71701211 9658.83125714 9703.75877589 9730.91876489 9850.02795129 9997.90182971 10147.8626421 10259.1545766 10296.0825859 10248.6533246 10134.5847247 9983.59526941 9821.78456462 9665.68045938
3899.89770281 3913.30318026 3927.54688128 3944.88774669 3968.43486589 4000.12089983 4037.3791413 4071.94348397 4093.84237992 4098.07859347 4088.08275072 4073.42085106 4064.27772182 4066.38724514 4077.51510853 4087.88059748 4085.87546384 4061.2315842 4070.8836091 4017.3266699 3965.66196996 3926.09118712 3903.42753663 3897.77628008 3906.50064309 3925.96568173 3913.19413003 3891.65910897 3973.76253774 3994.65680255 4003.95631989 4000.98392611 3989.98097184 3977.49946896 3969.20869124 3902.73104398 3903.09128889 3912.15852144 3928.97202847 3952.51748448 4066.90685107 4108.8089417 4163.22250784 4237.37305491 4260.67387702 4410.5251564 4618.27711047 4811.64090498 5141.81399397 5431.09014076 5650.06647665 5740.49112209 5685.96186001 5524.15748941 5314.10176913 5104.89030476 4930.82928429 4805.05733948 4828.13549998 4806.23758462 4820.17846592 4860.16332322 4866.72566591 4842.4016514 4896.39649023 5041.24403171 5064.05351889 5073.83347818 5126.78720922 5127.33792028 5134.35628861 5150.67442914 5174.71874938 5134.148319 5157.98266502 5169.55465477 5166.3122242 5150.70358047 5244.71609165 5278.90018354 5273.09128183 5279.04641023 5298.08671954 5325.40621536 5362.34743802 5340.9057797 5390.08590729 5429.33645429 5454.55895718 5497.46495804 5571.45497 5600.16403479 5640.94156569 5693.15380937 5753.71631074 5818.47405672 5968.82646284 6035.0621524 6242.78431104 6209.46211528 6278.24205609 6357.26602707 6451.35639723 6564.61726231 6699.51284745 6855.34162283 7025.79401489 7196.02353642 7342.67256408 7434.11888153 7453.39832258 7445.81872744 7371.22430463 7290.12057364 7224.89781906 7187.31900012 7180.08509205 7200.34936079 7242.74530723 7301.51980673 7378.08129336 7504.35733175 7603.72796952 7701.33917612 7821.15417687 8047.83608552 8232.45785349 8469.36345314 8719.85982431 8977.66327511 9198.00208401 9327.97433099 9334.42652839 9229.26908341 9065.71487978 8964.93488375 8940.77624138 8934.65000933 8936.83022391 9059.83913777 9223.42788297 9391.89429505 9521.0619728 9570.44391757 9528.69540497 9413.54424761 9267.18252369 9128.12564032 9017.38852424 8939.80945401 8937.8859286 8917.09898467 8912.113143 8861.4355892 8874.37571548 8903.35096015 8953.9808763 9033.88231002 9112.52969673 9274.14819581 9489.15551831 9839.84584761 10056.6076174 10326.1892719 10518.0080746 10584.4435459 10514.8610018 10351.5249266 10119.6069609 9901.60473344 9719.05448699 9587.73591204 9510.34707497 9480.75619066 9621.16344153 9646.00647168 9639.60922321 9660.29712936 9666.77801166 9658.30722946 9639.8771875 9620.61305938 9616.69890964 9639.99441241 9708.49648888 9824.16775783 9985.36573537 10216.7406399 10396.8545687 10547.7331698 10628.0317655 10610.0922068 10505.8874553 10333.4515373 10133.2816184 9939.35036306 9698.42995153 9559.11838873 9460.68723557 9398.40165384 9365.34382776 9354.09224274 9357.74737765 9370.76535069 9463.26143832 9479.70047185 9505.26894706 9546.63164183 9555.87260413 9664.84449899 9814.04105693 9994.43295521 10175.7688138 10309.8256011 10353.3869682 10295.7805987 10161.6670886 9989.19985389 9809.5854546 9640.82700076
3861.68386468 3873.11841837 3883.07427075 3892.6261812 3904.48657132 3921.69970492 3944.21134727 3967.02055029 3983.12484551 3988.40988473 3983.9841544 3974.89673161 3966.84032648 3962.88895827 3961.6094133 3954.67647038 3936.785349 3902.50181702 3852.72896311 3866.04185238 3816.79279431 3781.20432858 3763.00635237 3760.0814094 3766.50581848 3707.48309864 3713.75348502 3686.80004195 3734.46113216 3728.11644436 3727.38173598 3735.23265369 3749.79023927 3767.12014445 3724.75151323 3734.68162505 3745.78019965 3759.7282037 3777.73416782 3800.74145728 3784.50614131 3955.95524965 3917.96939817 3993.20876419 4097.61899602 4163.81542361 4361.58795543 4611.05050808 4927.37465622 5201.4817579 5412.30518059 5509.14774801 5469.79307471 5331.26163323 5144.2861717 4956.81452158 4797.24270825 4678.73481138 4604.17214196 4682.78662262 4687.43538174 4567.90204636 4609.18563188 4658.22082534 4696.28877504 4737.53292797 4900.62984286 4929.75061594 5012.10710777 5042.69135282 5082.57628668 5132.22945904 5123.56921945 5181.75194385 5225.20384183 5245.09553445 5238.88818545 5211.47882819 5242.44144801 5287.63300977 5271.50450857 5270.90892191 5285.71232153 5316.22365451 5291.26019218 5353.80535405 5413.61201845 5460.04247655 5485.90173771 5508.56246621 5504.72417327 5564.2881403 5591.87934973 5631.80285849 5681.67738654 5738.13359779 5798.33401956 5953.37722075 6000.36831577 6127.91169698 6197.17339444 6274.98283751 6364.88864479 6469.87118041 6591.61028092 6729.26092997 6877.50978191 7024.28784141 7151.36783581 7232.10165416 7253.87466851 7218.35851145 7232.913983 7167.74472853 7113.75590437 7081.4684365 7074.19673824 7090.67031604 7127.45864638 7189.98623727 7253.09463615 7328.46890551 7485.30229848 7588.66703114 7716.22263445 7951.05375153 8143.72317224 8388.71642611 8645.56557 8909.80330529 9136.4666911 9271.41331566 9280.09104162 9174.31898675 9008.36066903 8910.91882077 8789.1162516 8760.46126106 8854.96492158 8963.46504115 9110.18883768 9262.1645834 9379.59413466 9420.66687572 9383.63327745 9278.33610017 9141.01253452 9006.45817763 8895.19208948 8717.26976136 8652.0242962 8611.45969976 8772.37787142 8714.73940408 8729.60994621 8762.00207146 8816.17128639 8898.19753914 8973.45933636 9129.97493358 9335.58032864 9604.22885808 9878.68556646 10137.6824054 10324.4655095 10403.4507821 10343.6340512 10197.2625876 9973.6308431 9767.16104593 9589.64036961 9455.56183504 9367.88807538 9322.01797226 9458.02138013 9465.46733841 9440.47757136 9453.0403781 9459.54493021 9459.54859289 9456.76687153 9458.16202975 9472.91085265 9523.53483501 9612.8624558 9746.66817987 9923.73392974 10171.780663 10364.7198152 10526.5952277 10612.9991077 10593.3099038 10476.0950098 10294.6854108 10080.1015431 9809.653657 9619.13003126 9470.40802359 9362.87591767 9291.26412579 9248.69311892 9228.31424779 9224.20496753 9231.98624444 9327.59141981 9345.78486372 9377.14540265 9361.31207864 9446.2992719 9568.10127045 9730.52072583 9924.45741511 10119.0531264 10263.5563142 10311.3467792 10251.1404632 10110.8010002 9932.38498885 9749.15804292 9579.3599029
3832.84061517 3846.95939896 3858.32395425 3865.72402027 3869.61185287 3872.75398693 3877.84808728 3884.2832439 3888.67664131 3888.14632453 3882.3841032 3873.31767674 3863.31840386 3853.2668723 3841.43738874 3821.83097095 3790.61047576 3746.16184713 3690.72524035 3632.24244164 3581.76305503 3622.53993205 3612.6544849 3558.84580712 3569.25320741 3565.82271276 3555.51265484 3504.12015543 3470.02763873 3484.56649049 3474.09640032 3491.41632558 3528.43885141 3519.71656173 3551.35994951 3575.39166393 3594.56851473 3612.03442371 3630.57800401 3606.94384135 3629.92644527 3661.29259977 3752.2057235 3818.92707234 3910.22002668 3954.0452926 4123.78051422 4337.40481496 4618.80988714 4857.86192768 5047.58441733 5151.75317913 5138.69824998 5042.14816551 4899.07676946 4750.83306203 4620.64347164 4521.01931104 4455.9265286 4439.33411396 4389.07201804 4406.43462615 4440.36786509 4484.12973613 4519.13880128 4566.19789759 4614.47523556 4802.93280659 4913.59362909 4974.61259563 5048.36037785 5067.57740282 5166.16004784 5255.63393997 5319.94090017 5346.87991747 5333.65951731 5288.46212259 5216.40536963 5227.51710007 5270.59524629 5261.00214906 5270.92974092 5225.68164322 5288.31337974 5362.73630833 5435.30408757 5491.66402202 5521.02033842 5520.80069085 5512.97179666 5494.18509672 5557.52102237 5584.39333359 5622.4828547 5669.19959708 5722.08496018 5774.77447216 5800.46432047 6045.89126652 6112.22323789 6185.3031593 6267.37256538 6360.17427656 6464.4382368 6579.04016575 6699.69409767 6750.93358818 6858.28235687 6986.82819901 7010.45916582 6991.82157993 6943.9953978 7014.84246405 6978.12267269 6956.94822635 6954.86505832 6971.94151097 7006.46340983 7064.88742528 7124.77203668 7197.9077792 7357.26745725 7460.38465062 7478.61974705 7641.1027837 7843.19228542 8245.20383182 8489.27201298 8738.53513202 8951.98690903 9081.35122217 9096.67857564 9009.0417302 8866.32355087 8699.06083813 8685.49326297 8656.36405565 8742.20571501 8830.78685784 8950.91552511 9074.74728179 9141.5537307 9195.93005116 9165.51088937 9078.92005682 8963.59366817 8847.51993321 8656.34462431 8569.90980105 8508.93694523 8470.00882777 8449.65222195 8572.64717861 8588.00602761 8620.41540068 8672.92605598 8750.0000128 8812.49760717 8951.46400261 9131.44799378 9368.62735665 9607.73891334 9834.74626683 10002.4930235 10075.2200634 10059.070844 9920.19062313 9749.55524616 9572.64711843 9415.16047438 9290.52201189 9202.70886231 9149.32433231 9124.03890055 9241.84481587 9245.39362714 9252.50722213 9259.48413518 9266.1476457 9275.21872862 9291.92724959 9323.12610135 9388.55235789 9488.81405558 9628.43255647 9805.92117437 10057.2293048 10243.6149726 10398.8198876 10480.5097425 10458.914588 10347.904922 10158.1467529 9906.51334375 9688.26145562 9501.90820452 9355.35697079 9247.63997098 9173.66635586 9127.12622233 9101.99628751 9093.29679277 9097.5400291 9194.9608313 9212.56066488 9170.50844354 9228.5593328 9313.79033862 9433.14467815 9589.4999638 9774.34087757 9959.55026803 10098.5748004 10147.9572178 10096.4055635 9969.21918624 9805.50201875 9636.50953215 9479.52768693
3811.03848185 3832.60177548 3851.89918571 3864.33807643 3865.4376671 3855.153776 3839.08573167 3823.19831649 3809.46340094 3796.96700527 3784.51116498 3771.60321003 3757.96233199 3742.57463539 3723.09013659 3694.97625485 3653.82964444 3600.3699547 3537.57607948 3474.26666016 3423.38959865 3395.79567188 3408.90391464 3426.91006609 3446.20295679 3443.41055856 3378.17583791 3353.22892066 3295.20485201 3277.28804864 3258.9381633 3285.51322301 3302.19908667 3356.06722908 3400.61243579 3431.56751148 3453.57713687 3471.24951426 3488.41860056 3459.02148961 3477.98034478 3503.16932602 3581.95060625 3634.12414327 3619.89918143 3717.78046804 3848.16804296 4014.07470322 4248.39612479 4444.42691595 4609.48345534 4709.84504429 4742.05093442 4692.32200866 4604.5336385 4504.32310983 4411.58094689 4337.99926263 4288.7611115 4280.75350285 4226.77703501 4242.79895377 4274.37468005 4317.19921182 4352.34945132 4407.37024596 4470.28135584 4544.2092498 4824.51643202 4832.32053065 4950.13692712 5083.23674549 5220.51810331 5343.32773028 5429.74739337 5463.00340006 5439.71359737 5372.16245634 5257.62545294 5220.33257702 5154.40061672 5158.19106213 5168.30661657 5204.43059477 5273.12550031 5357.57336152 5441.64300985 5507.7639835 5541.86586204 5539.32025934 5517.95640196 5486.70997669 5460.15217166 5545.71788662 5571.85074491 5608.23318154 5652.75611716 5595.79655131 5716.13246121 5766.50185805 5823.84807349 6091.02611667 6163.12051483 6241.77936763 6326.8135466 6416.87954434 6422.61892063 6516.16079504 6596.23248757 6726.9945574 6751.69272658 6748.79782434 6725.88375933 6842.31822886 6825.23344133 6818.17719321 6824.46555265 6845.07605623 6879.62470609 6838.19707042 6991.89084543 7061.06765532 7218.41722281 7194.654577 7315.70847401 7465.42886425 7648.71365514 7866.46538041 8259.86850735 8479.04244528 8666.89727935 8785.25968179 8811.6575048 8755.29349576 8653.08194115 8514.39753199 8442.21957324 8413.44205769 8440.91039637 8670.68034343 8762.97320787 8809.17137831 8884.14475579 8936.02847373 8911.5765591 8845.40790356 8756.6896259 8575.23928394 8486.51198916 8416.76293322 8366.41289167 8333.48073516 8315.95159443 8435.69152114 8450.37940037 8480.24473009 8527.27155502 8594.26611226 8637.6876133 8750.66888593 8894.45588411 9087.27031806 9277.73163769 9460.95997753 9602.29341206 9678.52938279 9660.37573195 9596.32505421 9469.94420053 9332.07499355 9203.47968995 9096.46439628 9016.1491975 8962.42204866 8931.75949965 8874.4220068 9051.70937814 9055.67811107 9063.42825955 9074.98383988 9092.2625372 9119.08434025 9033.75517779 9177.96528066 9334.14552512 9467.97138423 9631.70830093 9873.73061408 10035.9597007 10168.3264453 10224.0666722 10211.2994056 10119.820796 9947.65764294 9711.58301907 9515.81695279 9347.91483793 9214.70923721 9115.41261683 9045.73289869 9000.3961638 8974.44373831 8963.8518301 8965.85130214 8903.46951865 8933.04157363 9032.1398417 9084.23290384 9159.53012659 9263.16955691 9397.00907748 9553.83264298 9711.00856182 9831.52007924 9880.42340249 9847.10849367 9749.64338979 9618.37235413 9478.99674802 9346.77993694
3759.67450346 3801.94568399 3850.98674733 3872.5035845 3874.31672717 3851.74771224 3813.03227938 3771.9643596 3737.00089036 3709.69316976 3688.25849195 3670.18850412 3652.99237691 3634.03171008 3610.23596196 3578.13223678 3531.48850053 3472.38412967 3403.51977687 3334.28896816 3280.55802306 3257.32141535 3228.90268043 3311.36462092 3343.23064783 3299.28199885 3277.17991533 3240.88140317 3155.20857653 3098.35916312 3087.05245888 3116.70101735 3172.68391823 3231.4214271 3277.36985572 3305.79752352 3323.92280076 3337.7043238 3304.87214531 3315.74480249 3329.9384299 3347.68668569 3411.37873402 3360.81670962 3406.67316641 3468.88015841 3554.58133024 3669.2275302 3787.34420203 4008.76761234 4153.11418875 4259.97661313 4326.72180018 4325.99067717 4290.40009283 4142.90844039 4084.48593218 4035.98575813 4003.78376552 3987.88434067 4058.1514158 4076.66565903 4109.40789526 4138.77552453 4191.18679951 4254.85969448 4331.74151504 4394.95159536 4508.3112191 4769.66698369 4921.24390069 5091.13963665 5265.48318911 5420.82552744 5529.00242956 5568.1095697 5533.99582734 5432.73852303 5302.61117643 5172.48889721 5146.42375126 5134.04272082 5130.11570165 5168.44241595 5239.0105996 5328.37946404 5418.89035287 5491.15389453 5529.1962213 5526.92435712 5491.35797071 5466.28705442 5430.32207726 5406.34461659 5524.46955333 5441.17855483 5466.41366701 5486.50184418 5634.41223233 5678.62815733 5729.45600971 5786.92332038 6056.6988865 6121.19840117 6187.60555227 6254.44688936 6224.20298051 6289.4192488 6345.35908102 6387.5281381 6499.87586586 6509.90006471 6508.19477248 6495.14400209 6663.56523764 6671.12137147 6686.91352355 6712.41500017 6659.32363364 6698.27052281 6748.57117547 6918.40472137 6939.38264808 7026.94050006 7133.17536716 7262.32646375 7417.93467281 7600.27699242 7802.47971842 8159.93857348 8319.53872714 8427.74491812 8468.77373551 8448.7926483 8392.95937622 8287.31102249 8246.40561098 8231.70028078 8256.38913925 8314.13700433 8561.55125352 8568.46888762 8622.71507418 8674.74824082 8655.96153447 8608.64861579 8453.3451396 8382.61362561 8320.23798112 8270.37550479 8233.21314161 8207.67760349 8193.14075522 8306.5037374 8319.22976047 8344.70728805 8384.01538254 8438.34070088 8460.46393971 8544.36628174 8648.57059578 8792.71547348 8931.5770264 9069.08406486 9182.58607192 9260.47512701 9264.86386157 9245.95704766 9162.73096764 9064.27899878 8966.56370863 8880.51318885 8811.9974526 8762.75700343 8731.60057009 8669.44976808 8664.09039571 8859.66680245 8868.33048212 8883.18259489 8817.81929085 8792.96832445 8847.00355546 8998.41487218 9094.87928108 9216.50435775 9360.08587411 9634.15045021 9760.94981903 9860.50078355 9886.55386296 9858.51826804 9815.91285453 9631.70829181 9463.74669604 9302.95097443 9164.28018297 9053.22107249 8969.34784403 8909.4804452 8869.65361663 8846.13252124 8835.87683209 8758.55392182 8773.99313416 8799.41427665 8891.70494911 8932.7366636 8991.21219372 9070.66537387 9172.44983475 9291.612553 9412.48149271 9509.34244987 9557.14569836 9546.08428318 9485.60003894 9395.19447212 9293.3564382 9192.52594087
3728.16369597 3776.80363691 3825.00392579 3862.64118645 3864.21515078 3831.33173837 3773.71595722 3711.23500494 3657.99668578 3618.01165675 3589.23495223 3567.57418118 3548.78039083 3528.97314271 3504.58821165 3472.21705424 3426.7023862 3367.88773472 3298.41752214 3226.97400148 3171.27120239 3134.25281331 3147.24608474 3175.04837357 3197.44300168 3228.0492733 3206.38010105 3129.8444661 3073.5246515 3023.73722659 3016.06292831 3045.32533722 3096.66613948 3145.2877816 3178.59819417 3195.22116648 3202.95980925 3209.43874345 3123.20230808 3132.18158135 3107.91993501 3121.7471582 3054.20842924 3179.77522189 3197.47153491 3222.39403701 3263.19434729 3329.41257139 3402.28902085 3520.32861922 3643.25408305 3747.89507854 3837.40207327 3874.95354391 3880.50224786 3865.94297704 3843.40816157 3822.63935406 3810.24373416 3728.65076054 3884.99474409 3908.15331733 3944.03481702 3973.96115744 4031.21656294 4102.71752113 4191.29453046 4266.9927593 4291.84154726 4565.85404417 4869.72315284 5069.34147356 5273.74375198 5455.62253932 5581.70815367 5625.91892106 5583.65876219 5466.55515645 5313.41650098 5161.61952319 5039.15299786 4969.47965462 5081.2134893 5114.38862601 5181.76257339 5269.28170612 5359.04858809 5431.73873996 5471.42372393 5471.57193433 5438.14373708 5423.44104477 5384.82470472 5356.47696323 5239.89365828 5377.01072146 5395.56676496 5407.34116245 5438.05234997 5592.72549571 5637.28005313 5687.46344941 5742.05842183 6004.30946315 6054.60581352 5995.84865628 6043.72576633 6086.02531161 6122.3394876 6152.52042142 6176.21044307 6289.6777662 6304.29337847 6307.98848361 6312.85960902 6522.11815286 6546.79808671 6478.61214591 6519.40766809 6556.7308366 6602.7847914 6635.90424734 6776.78620052 6850.67348688 6937.9504496 7041.76811776 7165.04882655 7308.55007486 7467.91819002 7630.93981065 7945.89619377 8048.37062612 8106.12155769 8121.58442784 8064.6765969 8034.87705493 8025.69855926 8027.78471398 8054.73444046 8102.69312054 8279.23265278 8333.76112832 8375.67461906 8421.31234208 8421.62137203 8295.12029166 8254.59832483 8213.38681514 8176.84487211 8146.28148226 8121.02884818 8100.78243456 8086.6105013 8080.64136491 8197.82169052 8217.55323135 8248.50954203 8246.77161708 8293.39853434 8350.77946973 8419.01691208 8517.77817851 8609.8323969 8705.81820821 8792.72293218 8867.97144636 8887.06708465 8901.96984584 8853.03465602 8787.43881831 8716.96893437 8650.91694715 8595.27189384 8552.91186399 8293.00045203 8461.14251328 8455.36529942 8662.29552541 8671.89264002 8594.06132253 8555.47723359 8594.38289386 8647.90903343 8718.59513999 8886.31808686 8987.17822587 9100.51226688 9217.75946074 9445.45327565 9455.30843872 9504.0813203 9473.79385444 9354.50960366 9310.54450566 9184.81949196 9065.23393291 8961.86061066 8878.41026515 8814.63040482 8768.43319162 8737.21927184 8718.54166792 8631.1032102 8636.3949149 8649.73031111 8670.51409687 8753.65656012 8781.41803215 8820.24973913 8872.67260117 8940.50259164 9022.0166216 9108.5619813 9184.19190131 9231.63963481 9241.38881452 9215.62420016 9164.47232336 9021.86503659 8953.61885508
3677.77336146 3724.46468676 3769.72313608 3799.77675234 3796.15490606 3766.0954078 3697.14961763 3622.56994015 3559.46115318 3513.57208537 3482.7298502 3461.61905059 3444.67385726 3427.26861673 3405.87129015 3377.67587134 3339.09709955 3288.11960859 3227.22997877 3162.99526243 3103.39396408 3091.02017645 3104.94669305 3131.28902586 3151.33421978 3110.34966987 3159.17864618 3092.61129898 3039.50649358 3013.38345988 3006.39654986 3028.02797465 3060.68933344 3084.99018261 3094.13165303 3091.46709643 3084.61698524 2908.62000837 2908.19025243 2915.25516384 2926.31877391 2907.18354317 2912.53208984 2912.94352772 3003.38771142 2993.06738194 2992.7930921 3017.56411665 3058.24288759 3152.54774081 3265.64497704 3374.83760347 3484.05145894 3549.64006032 3587.16877991 3604.00910511 3609.22130202 3611.02453683 3536.62350222 3537.42225765 3545.99996721 3737.72348405 3760.05361848 3807.61139684 3868.83474728 3945.99950145 3872.37270656 3999.43913999 4158.63726401 4454.16175154 4671.42153207 4914.77979181 5219.43805569 5416.49226125 5552.95908718 5601.244586 5553.72360052 5431.31198404 5269.84712494 5109.78796151 4980.2432232 4903.73478749 4883.10330739 5040.50742711 5100.62503708 5180.42419348 5263.04644714 5330.90045363 5369.77784302 5373.68870535 5347.29720198 5355.42021452 5246.42612971 5208.21037166 5171.79547472 5159.59135261 5323.77896427 5328.99119365 5355.01962376 5509.19274118 5548.57625695 5593.16630614 5641.2152107 5690.31811762 5819.80356909 5858.70164974 5890.91134971 5916.78939402 5938.51454744 5958.96478365 5979.84560747 6097.95646439 6119.27224504 6138.29958702 6154.93271705 6198.38744183 6213.0217171 6337.71151476 6380.58385715 6415.97737845 6312.89067973 6483.89056556 6434.33262267 6672.02689878 6738.47694361 6815.03089648 6904.81000351 7010.20695969 7130.42131395 7258.89245507 7382.90979399 7673.6256726 7748.90786275 7795.95800758 7766.79772318 7772.66097622 7792.21119212 7811.38733535 7844.2953382 7889.29335427 7940.91685865 8112.47444745 8151.28887272 8205.0613169 8116.63803863 8109.80301909 8098.66071992 8086.98456491 8075.11756087 8060.9032758 8042.71546311 8021.75733121 8001.95540403 7988.26327389 8088.93808481 8101.76810377 8125.19303287 8113.9767479 8147.99769071 8186.8523238 8228.84994731 8168.34577755 8345.45900569 8405.8857006 8466.58488102 8531.71958232 8553.90782753 8586.59402917 8558.80327311 8515.49929141 8465.09654782 8415.07368135 8370.89107201 8094.32401467 8062.56976502 8249.52811008 8244.9363397 8249.29269262 8302.60183634 8322.16631929 8143.32073773 8389.22537105 8439.47564349 8502.11468209 8576.79571806 8743.17730362 8826.6832362 8907.34602916 9115.54310403 9078.22251407 9081.77961676 8969.63403346 8976.57837721 8979.46712624 8895.98051129 8818.62765144 8752.41158026 8698.82775139 8657.41139365 8626.94220237 8606.10564338 8514.74168781 8514.20502719 8520.50371586 8532.63834004 8612.41576277 8623.29753493 8638.45193973 8658.54287617 8685.71835521 8723.23032592 8773.24686698 8833.19730462 8893.77438669 8942.05100463 8968.09170935 8969.24625128 8872.49179121 8841.35052401 8777.64634564
3588.57375955 3642.69283227 3674.33002796 3689.51521615 3673.60627407 3620.15978174 3540.50491439 3496.33034847 3433.66317036 3391.12221489 3365.80709184 3351.02130464 3340.06747013 3328.05727629 3312.18466928 3291.08016036 3218.7950553 3191.95469215 3160.02552054 3115.61839703 3093.61174324 3086.19876573 3094.7558257 3110.14990015 3120.11789075 3070.95879832 3053.41804732 3007.26536478 3026.29129862 3013.13151692 3007.6751722 3002.41954351 3035.21687927 3028.15179896 2942.20304037 2908.85978843 2808.25872989 2794.02539138 2792.89492985 2800.54632129 2811.34447986 2790.00551094 2788.49440707 2776.62043091 2753.54678942 2794.93579831 2761.109456 2754.21100525 2776.14945777 2856.19065435 2963.50710946 3088.11271504 3192.3756941 3272.65737558 3328.52543229 3364.91156689 3388.73419886 3326.95676507 3338.56415032 3347.88307367 3363.27095998 3387.92309863 3428.24252502 3486.14130131 3558.60178829 3634.49699297 3703.05557621 3833.56857453 3996.397282 4195.69782971 4523.86873769 4769.2230634 5020.18920477 5285.86296673 5424.05496345 5476.0088498 5429.36318575 5313.91963855 5161.12469592 5009.0808448 4885.26258028 4810.44864426 4786.65583345 4946.37875174 4997.52089757 5066.53358183 5138.56629817 5198.75512439 5235.48940686 5243.90223509 5227.48409964 5185.13162763 5150.65411528 5123.43067621 5092.20934612 5084.51948566 5083.36996323 5251.94091229 5274.80196544 5306.49624468 5464.25512519 5505.35870789 5550.05731032 5473.48150828 5525.13709932 5747.6813321 5772.0543843 5788.9337067 5801.58887003 5814.56035269 5830.99586585 5850.85633852 5966.76951891 5992.07074236 6014.44152973 6034.72446924 5953.77913958 6005.65486636 6020.77811407 6130.53656348 6167.36803668 6228.28185062 6272.84232207 6321.09851273 6543.64735609 6593.35025563 6650.84608673 6721.13619111 6807.72232031 6909.28173934 7018.00674363 7121.89154107 7257.5961802 7316.49325081 7433.53545617 7469.69531561 7556.93213844 7591.74662028 7632.57256009 7679.63972907 7730.65474354 7906.84497232 7950.86160149 7876.99449758 7949.3339546 7972.37107154 7995.62542885 8017.07191491 8030.43215586 8028.66876985 8009.51724726 7977.80882475 7942.83343758 7914.06369066 7898.43555601 7998.28852094 8016.19579133 7933.04278079 7974.64042244 8018.03227573 8000.7214084 8035.51962712 8093.65766233 8111.65044005 8125.95219268 8132.69176028 8277.98202607 8273.40529625 8289.48857314 8256.54433702 8217.60847265 8178.19028462 7894.43452837 7856.19776393 7828.62196511 7812.22709116 8032.46075462 7727.86601433 7787.87584575 7883.32394882 7919.61283062 8171.88857934 8225.34727388 8279.63849505 8340.68019892 8496.19355259 8554.17094971 8604.3375867 8710.99121451 8716.95104151 8703.68714769 8585.72113251 8545.751298 8658.46179668 8613.86706625 8576.5445377 8546.48512522 8522.59930522 8503.80428115 8489.47725229 8402.0345094 8400.52764644 8403.986325 8412.18836831 8424.46263989 8499.70475183 8505.38691107 8511.03358736 8516.13341953 8522.78207853 8536.28324027 8563.00622095 8605.19773797 8656.99323837 8706.68664887 8673.64360056 8688.16422156 8684.90786859 8660.39106116 8631.83326197
3496.34733073 3519.43668361 3533.72071893 3544.09610968 3511.13074531 3449.26725017 3370.14737778 3293.90910014 3236.38870913 3250.48319705 3238.86684549 3236.57583977 3235.46208739 3230.7087253 3220.94494787 3159.99859707 3147.95832264 3136.04868623 3124.03407077 3098.79678526 3091.853906 3089.71546886 3091.48768893 3093.99804576 3047.8083276 3030.67843069 2978.92811189 2968.2396072 2963.8271298 2992.06008603 2982.42337321 2963.30243455 2941.7079744 2898.09164702 2843.70538819 2729.18180352 2696.07102721 2682.41309772 2684.6331388 2696.01151204 2709.13592717 2688.62987035 2683.99638615 2665.62279663 2632.11175126 2640.70587084 2585.02025521 2550.16031281 2572.64899801 2643.21977895 2743.01852083 2861.10490742 2962.52293022 3044.3008018 3105.84625626 3150.88973547 3105.62441862 3126.85383177 3147.05302309 3162.36886315 3182.8604669 3210.75978955 3255.25867252 3313.60504795 3321.42686934 3408.18279134 3520.19631339 3646.75585838 3803.61240471 3994.16498341 4217.8381492 4556.87680378 4790.73099767 4998.48718222 5149.69421239 5244.53473157 5218.33948575 5118.52698701 4989.67910419 4859.88722993 4753.35248505 4688.40288042 4666.56962386 4684.43538995 4875.53267951 4933.86238871 4995.23650396 5047.82738247 5082.75668096 5096.43512853 5091.47296546 5063.00802722 5045.24229044 5032.89640491 5010.50319724 5010.79637024 5014.99029927 4992.50702108 5004.29759287 5228.17895175 5246.10976597 5424.37105164 5338.24671187 5392.48578852 5449.19051492 5504.22360171 5689.50738661 5705.82564731 5715.70479206 5723.63622234 5733.55499563 5746.58846954 5847.77082057 5872.35885316 5893.9100952 5818.7093312 5828.42197522 5880.65292567 5967.99684686 5995.90044877 6029.29828261 6084.89021014 6122.5982563 6160.19157612 6196.04975269 6387.31001453 6415.35334934 6454.49027361 6513.09042274 6594.59397713 6694.1136249 6800.13895274 6950.85871143 7028.87969667 7164.81536519 7222.06845003 7328.58195784 7376.30541729 7425.22460149 7477.09523731 7532.16930982 7510.85785562 7649.90856665 7712.49806568 7817.90368875 7878.40567476 7944.50078786 8006.74461754 8048.80599636 8055.80147378 8025.37375935 7969.81830453 7907.77286592 7855.33244368 7822.61041212 7771.7079291 7781.99922378 7846.88699122 7899.47654027 7955.93046809 7960.51353425 7995.39894859 8026.061199 8011.13704489 7984.17341794 7950.41815509 8058.77762253 8036.76966956 7953.11022604 7916.7653782 7740.54291861 7691.90191171 7649.78545136 7616.22029209 7592.37409885 7578.71953727 7490.92405872 7502.14881296 7564.71678497 7441.72526522 7694.21680709 7739.79369793 8001.11943868 8048.39525539 8106.89471491 8156.90654869 8294.92431231 8230.02517442 8248.63917512 8299.66446644 8273.87954445 8248.44511437 8223.16822776 8292.605135 8350.11193651 8349.04407978 8352.54322269 8356.61225918 8218.50334297 8221.97799102 8226.71116083 8294.1030441 8301.47066402 8312.13427895 8326.00557189 8398.58654909 8402.98533766 8404.12033682 8400.06246182 8392.6120154 8389.13091487 8400.19341473 8431.77121322 8478.96964624 8469.13438069 8504.70724803 8526.51216034 8527.67884878 8521.32350258 8506.73685668
3394.85691843 3399.89252846 3392.94235381 3366.97159087 3334.93396983 3262.12247917 3181.23097809 3112.1537019 3069.57491933 3054.85615807 3106.60799015 3122.03046887 3133.2879588 3135.78929908 3130.21836683 3077.23594325 3071.40803548 3070.51334157 3074.69816015 3061.81231918 3068.18417072 3071.72064349 3023.83907962 3020.82803954 3001.98266705 2982.44809262 2927.45324559 2915.63348718 2908.04141018 2942.17007962 2924.24782489 2892.6434579 2781.31645713 2738.94776965 2673.47996864 2620.0583132 2588.46949658 2579.88684391 2588.30236482 2604.79913455 2621.0526093 2602.85456827 2598.19176491 2579.53482817 2545.65307931 2500.48818278 2468.77461226 2440.99661907 2456.1911221 2515.7227767 2600.03938396 2700.30039348 2786.56266706 2858.04718497 2914.80232011 2883.16990287 2912.65274533 2938.51632975 2962.45461787 2982.23114594 3006.02014842 2875.31174016 3082.90234841 3139.74538238 3139.49612163 3231.55515359 3325.00484683 3441.05928677 3583.7691967 3755.82711365 3956.2734505 4285.12707673 4494.37942419 4681.18780255 4824.60391158 4863.09357123 4848.33241788 4790.35527149 4688.79052277 4569.58346666 4588.21597778 4539.28854183 4524.19037376 4540.5908114 4737.84531301 4787.97009549 4841.14198051 4888.43387149 4923.42461992 4943.70360555 4937.31677279 4939.11289128 4939.93546647 4944.92731691 4934.08953002 4944.918347 4956.42684175 4933.81819859 4944.7492081 4962.85125223 4990.86517567 5145.62913161 5263.469175 5323.22805827 5390.28622607 5460.38465955 5527.24785487 5582.81865968 5678.83600452 5684.5468664 5685.67106443 5685.56944139 5762.17070427 5778.61252034 5709.80608697 5710.46330242 5599.16889188 5601.22911194 5612.07786814 5868.96087474 5900.06921306 5952.54072682 5986.99105947 6018.76595128 6044.7389858 6063.9148183 6209.58366632 6222.09972807 6257.83124816 6324.62699505 6418.94689074 6527.86469555 6541.52939884 6639.84121675 6711.17403823 6907.75205426 6961.75218407 7170.13475199 7225.71844995 7282.81507148 7177.46704081 7196.80992357 7277.59959775 7376.73512645 7668.01433718 7811.0747308 7928.00966032 8039.69677321 8115.42201649 8128.38133172 8076.82032394 7985.34381269 7886.18939715 7803.5653334 7685.56157646 7689.0167337 7700.69740226 7774.31825594 7849.61052953 7891.81466913 7983.11391493 8034.78530616 8029.90137816 7992.77489294 7914.59327168 7827.3165039 7741.90490925 7782.85489068 7730.73830198 7684.53225991 7493.46462718 7444.99384259 7405.37797447 7375.12126729 7354.50684357 7168.05480476 7263.15978783 7160.94665038 7183.04827501 7215.00456296 7389.67354446 7432.43515507 7785.18232005 7828.18787633 7797.46429199 7840.27983507 7876.88445327 7975.23239207 7983.61744642 8023.48669091 7993.24454684 7969.1452647 7953.77945623 8027.78102406 8112.9723366 8143.54665406 8177.06355222 8073.72854974 8094.45267288 8110.6492403 8123.85923799 8196.64169143 8207.04662895 8220.09868918 8236.66683668 8308.7347551 8316.53727776 8319.46418617 8313.74032352 8300.03860888 8286.87401074 8288.42406802 8280.9752541 8315.28231738 8353.23224633 8385.29383664 8401.49774467 8410.09221827 8409.84523801 8403.12477031
3292.51727192 3282.06237451 3257.76760117 3187.44688673 3124.90885317 3045.64130701 2964.49704117 2902.20864132 2873.14286109 2875.39349316 2935.57089537 2962.28366829 2978.35444823 2989.3858336 2999.50947805 2989.94923193 2983.81855937 2915.8194562 2932.57732441 2929.55388629 2949.94022798 2960.0405173 2956.57329315 2941.94588249 2930.6740082 2922.8723654 2864.64999433 2849.91255003 2836.59410669 2819.99469397 2774.30822996 2734.74465477 2679.63572744 2562.18015984 2513.99928834 2526.17974558 2500.57120888 2498.59599179 2512.09585502 2531.07389559 2525.33259754 2530.66749939 2527.20665749 2513.03311762 2487.7074503 2454.50848559 2422.6974012 2406.16370524 2416.4925475 2458.68744644 2516.7386025 2588.40562008 2649.41585901 2702.08378238 2747.02321864 2705.83019913 2733.73426069 2619.88989344 2641.75385723 2666.73246829 2677.08779677 2706.70973445 2743.49785453 2894.88478525 2955.99351929 3039.11639187 3120.97839427 3221.4723901 3344.09254754 3491.16309465 3661.91412748 3850.0275794 4155.41000245 4320.19396197 4418.11144818 4490.35891851 4396.87254395 4354.20425775 4401.90315169 4332.09772678 4273.81844788 4367.2537349 4362.54722578 4381.4016789 4419.05340165 4633.01199651 4681.74604055 4727.25353963 4765.1850009 4660.7158292 4681.48162891 4698.09844832 4843.49634853 4868.0122275 4871.50520492 4895.13537544 4902.72404963 4893.6538078 4902.06293045 4914.11320395 4935.03232337 5083.38636801 5193.82149787 5259.32821263 5338.73236949 5427.84947652 5518.68688341 5598.66977006 5652.07311402 5684.33367088 5675.10620262 5656.71171033 5704.13609282 5639.42875969 5624.34380627 5512.60955217 5499.5113318 5496.75913228 5504.53383914 5522.93673297 5690.28470815 5831.86790493 5867.29880761 5899.31674971 5923.25707975 5936.40963266 5940.85310541 6035.69719701 6053.29621001 6108.87948049 6100.52236664 6194.2455048 6342.98325229 6430.10972334 6420.08942049 6493.71585305 6538.98130699 6583.18649113 6858.4463563 6921.00232432 6990.75211277 7014.60590694 7109.05042969 7230.5964624 7387.73148265 7740.81783318 7908.9274737 8071.80224762 8182.1938854 8199.38076911 8123.21666854 7993.23477741 7811.55640866 7684.62239135 7603.31656913 7600.47400134 7464.68651827 7549.32371694 7745.52386989 7891.06420464 8026.15243783 8104.40570596 8093.00127301 8009.39489414 7874.31575835 7727.03926269 7589.7836857 7498.89774768 7516.19738103 7311.79487093 7248.28068352 7198.31841315 7160.18870268 7132.7444379 6944.83955692 6934.43278419 6934.11240002 6932.4464386 6956.70785375 6990.17251348 7169.2857892 7212.6482072 7263.29961725 7542.99285809 7586.73644257 7629.14840479 7666.11734546 7758.11391568 7825.52261164 7706.29764615 7694.7535891 7680.43631136 7745.57875338 7775.87706806 7848.55768395 7849.22900727 7909.68034619 7953.05490583 7987.81511751 8013.95461106 8033.44838762 8108.83443038 8120.55768647 8134.98609619 8209.54868336 8227.5163572 8243.2510813 8254.59863351 8255.70331958 8245.08756854 8216.24494102 8217.17873608 8229.18842991 8252.96014472 8280.55831363 8304.30434532 8314.44259981 8321.50929489 8322.75088338 8319.60771044
3140.36892036 3124.49566762 3110.06175398 3059.99561814 2990.9859103 2908.12922785 2826.19537208 2767.41420664 2748.83535323 2767.8283001 2804.0844687 2836.07848833 2795.49802607 2791.03474405 2788.0334798 2832.05615779 2820.80450402 2821.93187406 2837.93015659 2834.90814382 2857.71961221 2872.13890925 2874.35940562 2865.48151381 2858.03091981 2809.63930139 2791.35999093 2773.70124769 2670.90670566 2650.0025101 2621.44291744 2554.58223863 2510.00264889 2485.37812991 2458.1015981 2441.30630682 2435.91963069 2451.20016458 2463.19460214 2477.1701276 2467.1204457 2468.14737939 2464.78730801 2456.53169938 2443.64361261 2428.24294947 2405.17546585 2406.52872085 2417.15620285 2436.59479587 2416.89526732 2420.39674677 2530.81491699 2436.92708192 2517.02320753 2539.99369032 2437.60739174 2457.57814961 2480.46372879 2506.60259972 2515.02061098 2544.10527406 2578.65143081 2719.67836531 2773.74813211 2845.66507473 2913.17842553 2994.80820005 3093.8002402 3212.64666572 3351.45954418 3505.98583245 3797.37939243 3943.05428398 4024.63288326 3981.05254533 4013.09505996 4006.70443681 4109.94016469 4076.96600967 4049.0415654 4177.97216251 4185.8834191 4210.42889882 4248.79237711 4471.86917482 4520.18843872 4567.7298832 4462.62414323 4504.42720905 4543.73790781 4583.84021732 4627.71276703 4790.31255467 4831.23277697 4870.63841942 4887.14294817 4881.26288981 4883.86521791 4884.45101492 4891.82851134 4915.67571205 4970.53053127 5193.32017779 5282.35011833 5388.3309685 5501.49794647 5604.93488755 5675.88022552 5694.14623623 5676.0256945 5638.39898951 5599.21721878 5478.34233267 5461.03984138 5428.10120996 5409.03829222 5402.54324772 5407.61818649 5424.1288147 5452.54805548 5623.28173467 5762.09506796 5800.53053477 5831.22173871 5849.34294208 5854.39671052 5853.51270262 5867.42236797 5900.82647269 5962.31877429 6043.26789895 6081.91756955 6154.22159895 6243.93958963 6314.9463555 6358.8875509 6395.64683456 6450.04167915 6512.17436559 6531.95060262 6833.85823076 6934.1992649 7067.01509386 7243.45433486 7497.1340298 7745.30488062 8037.62139852 8173.64790106 8194.89851992 8103.7460754 7919.87207599 7740.5057303 7594.382729 7342.56823812 7331.04578489 7356.08243773 7453.08876899 7613.98339735 7848.74933882 8019.34261869 8120.68724081 8105.26463193 7974.95969289 7802.46550885 7601.98092401 7419.11646672 7224.22210229 7112.15361105 6875.91709348 6801.45923122 6748.23460814 6711.77264729 6726.30413235 6708.99444983 6701.81056365 6704.06931703 6705.75970935 6732.27574058 6767.36689705 6950.15547809 6994.93508484 7047.37046601 7106.81748102 7385.34759149 7433.90495315 7480.05012204 7477.69391197 7405.3729397 7560.35684426 7563.49928064 7560.08228439 7558.66857648 7630.32156675 7632.43722023 7726.83315866 7799.03454494 7854.71749004 7899.51528429 7932.78642545 7956.40392484 7973.68523327 8041.74047742 8055.41839837 8125.40406852 8147.13589877 8177.32241359 8202.26079738 8217.58909039 8197.65758679 8207.09459295 8208.05155727 8211.26786134 8221.69727102 8236.09679235 8244.48509203 8252.09357298 8255.85556284 8256.3373931 8254.12376946
3050.87657936 3029.86621212 2996.69899579 2962.72051417 2895.84729241 2817.33208707 2740.13999844 2685.71996087 2672.70839285 2699.48876516 2743.38424517 2738.02229596 2744.35378594 2736.06049164 2727.6286446 2706.03852574 2689.65073053 2675.74074024 2682.97918497 2699.05786543 2727.78913777 2782.28268664 2787.99039668 2782.79248545 2769.43049129 2707.38917959 2709.71429226 2598.78918362 2576.51510864 2551.94975772 2523.3809372 2460.17074376 2430.74047676 2430.4691199 2423.49113065 2428.3489055 2434.95193331 2430.79834786 2438.03113384 2438.19829085 2416.39130214 2409.37015908 2403.71791254 2399.27131553 2354.06838181 2364.08936584 2374.62935792 2379.64793254 2354.31493703 2317.84126613 2344.22514101 2319.34951698 2303.15598359 2298.72850481 2304.22760342 2267.14368921 2282.80816384 2303.12242359 2326.97637115 2335.57134183 2360.297138 2388.52500757 2420.55696265 2417.78319355 2596.15112279 2655.71393487 2707.46776902 2768.60443206 2842.52420037 2932.50705014 3040.21742402 3163.85540087 3296.82106155 3379.3161475 3498.67380739 3592.52787152 3645.49451228 3669.7246029 3673.29874771 3815.92308031 3815.3099017 3821.82261877 3998.96134085 4031.35925153 4073.67162977 4123.38359481 4357.87046603 4247.60831831 4303.50018047 4360.68040016 4421.28819744 4488.03431083 4562.51661594 4753.06532292 4819.91840207 4879.86291181 4908.89165325 4906.69688647 4898.78528702 4880.0096347 4864.49643205 4871.14992489 4906.49443263 4978.35111757 5210.08027061 5324.26530354 5449.73934034 5566.39300437 5647.31722131 5668.4213996 5623.7373083 5553.63382351 5483.38023656 5410.45336263 5385.43984916 5348.54615703 5328.22505326 5320.77724601 5323.80280057 5337.314495 5363.30732261 5419.38040092 5476.38698662 5716.49228039 5761.41096654 5795.0701971 5813.02977452 5819.4734573 5821.60598306 5839.26778744 5880.79965033 5941.64622236 5963.84724569 5881.24695678 5948.48703667 5984.66655346 6024.10966281 6068.89093545 6288.52436104 6348.18716377 6363.55467872 6446.01970732 6553.66442957 6698.13100648 6919.4170898 7162.44135553 7560.39801357 7810.90140287 7985.48007131 8018.60175145 7946.12633419 7781.11381781 7606.00022611 7311.29974966 7197.65881475 7190.31616511 7214.11961517 7310.71261002 7472.78765296 7676.57335477 7894.68313101 8000.41565754 7980.06325517 7831.41310357 7538.10675099 7278.58176397 6853.32150487 6763.89095839 6600.01069711 6619.41663171 6547.31094721 6498.5122196 6381.99399524 6357.8526508 6473.78670234 6470.43486084 6475.64444037 6481.15772916 6509.91292451 6546.53846933 6731.76365325 6778.16266889 6833.0560191 6896.87927497 7104.3055233 7166.17157632 7310.27467069 7208.89729275 7295.95357533 7372.1343755 7490.85601225 7504.91160566 7510.10986773 7502.15589225 7540.51689612 7566.21870188 7603.06214218 7643.82838394 7828.96900571 7866.99998815 7893.23257033 7910.51506476 7970.99209101 7980.86583591 8041.71204315 8070.07988099 8045.51720087 8092.80825983 8140.71383366 8178.77708238 8199.91699726 8204.73991468 8202.13645339 8173.49873526 8163.93131652 8204.64931078 8207.69184053 8208.95613982 8147.44083822 8138.62011252
2971.67015405 2949.90340955 2918.99003406 2877.04120218 2835.17389767 2769.59478648 2705.52169211 2660.4499013 2650.52742704 2666.37150456 2689.79629518 2704.62206724 2704.44165059 2690.82204507 2668.99542397 2651.69310092 2631.37668741 2623.64458504 2622.79418777 2598.18457502 2654.30986798 2663.85764005 2646.78778808 2637.92939816 2623.01628778 2570.64627412 2529.25581676 2504.72560555 2479.64888097 2453.64602398 2427.0678415 2368.91706987 2353.5562682 2372.60583325 2387.16540447 2410.52125826 2425.96802343 2418.14010783 2388.25497618 2350.44867857 2362.45294597 2346.76163956 2337.24947984 2275.0345244 2281.65966074 2293.11620502 2303.58128396 2273.53207595 2256.92156176 2205.61928311 2146.33268992 2097.14990613 2051.52638977 2149.52282907 2084.03998717 2115.43063722 2132.84497754 2155.21202609 2180.74567111 2188.32726802 2213.40096671 2240.9175997 2270.76012114 2264.09099775 2296.27953785 2474.00254228 2509.87903875 2550.3228297 2599.3026318 2661.51500968 2740.77723499 2837.90485869 2936.44945052 3018.64906008 3134.13493437 3237.19124823 3307.06543617 3355.21226202 3433.16547658 3450.89958175 3465.23574106 3605.21405704 3806.38161758 3847.59108688 3895.88129039 3950.47981267 4020.61144148 4083.7083412 4151.7658734 4226.54825788 4310.85296431 4407.4731119 4517.32782641 4637.0173706 4839.2592337 4907.00315547 4964.01486801 4976.96614861 4953.01853096 4905.09462881 4855.2855151 4829.60338173 4838.92569954 4892.08125098 4988.60413482 5120.30911966 5349.00992262 5463.84937576 5505.89109902 5530.39193015 5486.39625902 5418.61443666 5314.72507209 5326.85661455 5306.96926298 5276.22158008 5262.23085494 5257.95944884 5259.18515321 5266.66585732 5285.31841387 5335.62417755 5394.16310894 5473.74111829 5699.47794018 5754.42195134 5793.44763005 5812.64216534 5814.47428104 5817.9943671 5785.34375325 5754.39060524 5759.31280368 5778.72174914 5831.58455183 5858.35598559 5890.86002815 5930.30987087 6141.56226705 6196.29183274 6204.69265787 6277.07453562 6368.92079289 6490.29693486 6685.17914892 6890.87448177 7140.21392534 7390.65534606 7652.29903452 7696.64607893 7624.95621436 7435.11596162 7261.08427413 7111.85097694 7012.39926222 6974.85264132 7032.32190371 7114.09454896 7196.76722145 7383.22426215 7557.64534859 7709.11781966 7676.71694386 7464.67111895 7101.04577784 6801.3471745 6532.80389934 6314.9978502 6316.42504183 6341.57155071 6281.27912472 6168.66902757 6129.21987724 6112.25756575 6239.61527239 6240.77466247 6249.31211469 6259.00793175 6289.84202574 6327.62243571 6306.55278662 6560.72758222 6617.39854519 6685.21597723 6905.37718821 6980.03878213 6956.48248917 7077.64420772 7198.52160129 7312.559828 7435.15645034 7483.95062621 7503.84399353 7496.73729273 7475.76057042 7525.65827032 7555.09589569 7594.75833588 7639.67162519 7685.27255987 7727.66974737 7812.03449062 7829.66934697 7879.1441178 7892.20752665 7944.01167247 7988.88128168 8042.27622855 8032.78592603 8112.01045949 8150.15587397 8163.19509272 8156.3482593 8144.30292994 8138.00138131 8138.52510463 8137.39827678 8135.66388534 8128.44004075 8116.31508664
2900.9906577 2881.13213884 2855.609789 2823.38981472 2784.32198906 2740.64338464 2703.96507905 2672.12167099 2658.45730949 2666.41741481 2676.84490881 2679.63289941 2671.21677308 2653.66016626 2631.73157184 2611.01680087 2598.83620351 2584.86002496 2580.61609403 2569.32558044 2552.60923881 2532.43568775 2536.97752272 2520.37986848 2501.57578886 2479.26738064 2457.50684727 2407.25335445 2379.96099217 2352.90000782 2249.34867457 2186.29125535 2192.55270402 2217.89702637 2321.17847899 2352.86184365 2371.50996216 2362.09515797 2328.12516018 2285.93560627 2202.94230811 2167.61376308 2147.66865205 2141.29883989 2189.46135991 2193.68901395 2128.10331011 2068.09964913 2038.80629826 1984.75200689 1916.88477916 1932.09201137 1879.5547971 1922.02949386 1926.11022893 1964.27978307 1987.34396079 2013.84185474 2024.95934758 2049.13672204 2074.75612722 2102.01512569 2094.09928554 2122.038364 2148.94030709 2173.79556676 2326.18293534 2346.93647631 2372.2308504 2408.78390463 2463.11754074 2418.49174058 2586.59946326 2698.56150104 2811.78009534 2922.2244962 3004.49763998 3045.02615695 3168.49359403 3206.2185666 3238.63299603 3270.56865295 3305.82939195 3473.23560317 3612.90296021 3597.44306815 3710.03999048 3922.05973849 4003.20952039 4096.3238065 4205.26152001 4333.58596858 4482.38290946 4646.97715792 4869.23154485 4989.11475003 5070.77181417 5087.9480141 5042.82213389 4956.02153344 4860.95598846 4792.75152545 4766.82965099 4791.88522962 4865.01834847 4975.1862253 5108.28237271 5223.21852264 5302.81031561 5323.02971479 5269.92458202 5229.65988268 5144.41186234 5083.33913904 5085.57825918 5219.49380089 5221.70114365 5225.61264961 5224.11017364 5219.58735262 5222.17902812 5257.30544707 5308.6008238 5388.97618793 5492.81551268 5701.64731629 5760.84312019 5780.62071257 5791.72420864 5770.51367142 5741.94783288 5690.92232815 5682.06075419 5691.17374807 5733.42306471 5752.45610341 5777.94723446 5811.01286677 5853.11891885 5940.35307917 6059.99026075 6119.82208372 6190.75739567 6279.76941365 6398.50571161 6583.36251956 6771.62552798 6966.43508687 7114.66396481 7295.13487076 7135.62160291 7025.80088975 6981.10056005 6868.11993788 6635.19141502 6594.52960966 6612.67293323 6688.08529015 6895.58757596 7024.84521123 7137.11394984 7050.17238678 6987.86703865 6849.37450914 6617.68843807 6361.24353111 6136.59052553 5959.31769788 5867.39283499 5777.3621798 5930.59800588 5893.80304621 5876.21080237 5868.31016372 6007.40462477 6013.58102589 5780.41911694 6039.83932601 6072.48227786 6110.78346832 6084.70618257 6261.04513203 6397.32420644 6466.53130704 6696.47409096 6661.58768589 6785.15536404 6931.88304562 7085.7341559 7237.00560298 7395.47909762 7471.13518062 7502.05380726 7493.12770892 7459.67731576 7495.2253695 7515.86449721 7553.19303198 7601.45873857 7654.31328647 7705.77089669 7791.30419658 7809.75528303 7839.78984361 7847.02187642 7834.21879817 7867.03965771 7915.89246181 7973.22990059 8051.33152678 8087.75954591 8105.71754809 8109.60084848 8110.7531328 8118.20467647 8127.71396479 8139.57757769 8140.02316811 8128.4115341 8108.73516222
2836.28867241 2819.18003093 2799.71036291 2777.53059684 2752.62955641 2726.1994559 2689.38125744 2669.92896344 2664.90542447 2664.31262984 2662.32292427 2654.34209991 2639.74408265 2621.41333761 2604.01912307 2592.10927458 2583.4356356 2587.49497239 2577.69323321 2550.50876412 2513.66951672 2475.02371975 2462.26138004 2435.91910258 2411.06058264 2342.75420995 2313.90716575 2227.1140478 2161.5279502 2138.6055016 2081.81747128 2073.01599179 2077.03577683 2097.59589763 2133.28358528 2171.01162108 2191.56531763 2248.05704384 2150.9125629 2142.90822752 2031.77820039 1996.92617392 2052.83296984 2042.59597578 2037.59907759 1993.19556797 1922.06664922 1900.68589903 1858.45754058 1798.19115761 1731.09798685 1655.72900264 1612.47256651 1640.71989991 1765.9780952 1676.64310968 1848.18258917 1719.50786309 1892.934591 1918.41203817 1944.58438942 1972.14852694 1965.78487498 1992.90423892 2016.90121586 2035.59457728 2161.60808 2164.83140044 2168.63455232 2182.29633878 2116.49975867 2174.94525997 2319.37416922 2424.23836912 2535.57075709 2625.70793214 2713.79862848 2788.26068994 2928.41908328 2979.67381469 3024.78130188 3067.74283934 3100.51909603 3159.225703 3224.50076962 3472.10706226 3541.05418538 3620.75676768 3756.41974071 3962.31109465 4094.1480876 4252.74620078 4440.1635165 4651.35123514 4912.90651158 5078.50141978 5190.4530103 5213.24737802 5144.20113629 5013.00273556 4813.76557118 4751.60899593 4686.07755887 4678.00320297 4721.55053356 4803.10966379 4909.36231863 4997.55238897 5058.82632033 5065.15319606 5039.002317 4931.56995834 4876.8118256 4857.42653831 5034.90440165 5080.29749387 5133.03423833 5236.44141061 5229.74491243 5203.89451727 5178.02208077 5185.44424066 5217.86806133 5287.26849484 5284.03167489 5521.20191062 5633.23309612 5695.07256551 5713.61366111 5697.50602627 5640.94781843 5613.66347994 5606.5875927 5616.94527785 5654.90349049 5669.1749639 5687.47644687 5712.41809388 5747.23038112 5828.45456397 5934.91474464 5985.01521728 6037.80580294 6095.64220739 6168.01322974 6295.812412 6422.39465823 6562.05354602 6677.87605245 6585.6762027 6729.17764533 6577.27633897 6482.51913793 6388.36398844 6380.66657464 6345.41548143 6350.32066074 6392.75615115 6461.65533219 6438.27514342 6494.58206804 6460.58541107 6229.23455426 6108.32898661 5887.78194307 5669.61864492 5484.23316516 5570.84228368 5526.80609551 5477.88452094 5358.89911974 5629.20852509 5626.29616511 5628.30160398 5524.3910443 5539.75624228 5561.68639342 5589.14856163 5858.5723248 5896.674171 5864.61408196 5906.92097715 6090.09098658 6154.27739961 6162.40095091 6450.95364584 6414.23697698 6751.82980412 6932.15140738 7077.19231439 7247.64048756 7359.6008905 7446.68090583 7443.86311941 7411.93274485 7417.9142286 7418.72061596 7443.98369874 7490.91245931 7553.84357969 7625.98140952 7734.29399998 7777.46570939 7808.66684324 7811.33456964 7816.73051629 7836.92041557 7872.93628881 7917.68295031 7991.49502524 8024.77524002 8047.51316712 8063.86237787 8078.41542371 8106.36304245 8140.96014412 8166.81947435 8167.84103579 8145.80742694 8112.42932592
2775.31006241 2760.3286591 2745.65607555 2731.429495 2717.57955999 2659.6333322 2653.92991731 2649.00479437 2654.02137119 2647.62626309 2637.79035896 2623.4197316 2605.92535154 2588.95959542 2577.19035967 2544.47394544 2563.8005533 2573.83070875 2557.43874486 2516.35154844 2462.55275397 2408.36932217 2359.81914681 2346.29773881 2255.74497069 2122.66529802 2089.59510825 2058.94360671 2052.85640343 2025.90914321 1963.11172005 1946.80768068 1939.72152452 1944.79010798 1961.72964151 1903.72866539 1921.65197063 1916.40557441 1985.98194802 1934.78913233 1907.30102342 1885.53710844 1870.86637742 1861.72933525 1775.93608172 1765.92943646 1775.42232984 1738.63930285 1683.37256378 1614.57577099 1545.45027934 1477.51936299 1449.3498554 1487.01127694 1509.21325504 1556.90161616 1593.77315983 1617.56482661 1637.7664353 1796.44442572 1758.72647014 1787.86673037 1848.4566974 1877.04274237 1901.21405021 1917.46295338 1923.63122065 2009.79623238 1995.47380267 1989.7596414 1933.93144807 1977.76352221 2099.5625926 2198.61905954 2166.90068711 2257.32006127 2391.64502645 2467.09011894 2533.013799 2591.61933773 2645.88593438 2821.03861637 2875.00095261 2983.43617095 3053.09470937 3222.21423661 3294.3456708 3379.92902336 3604.80260166 3727.39467462 3879.53525479 4148.14027187 4339.51524952 4598.32061918 4854.59063532 5100.75522477 5263.7274176 5296.70492991 5195.94156695 5006.24449576 4795.99744675 4605.3229769 4587.41258795 4547.70218657 4561.48044174 4503.0121179 4577.73117485 4653.19320351 4694.34796539 4809.46338143 4804.52839689 4726.96346015 4727.4552452 4771.54539297 4871.24517981 5101.81801129 5203.34113704 5257.47391413 5237.21556863 5157.62767079 5058.50565649 4997.52969884 4982.14764168 5054.14196694 5140.62493928 5141.64680172 5374.45977803 5554.1435217 5508.28222297 5495.73865748 5533.13015762 5526.8818327 5539.10511164 5588.97859174 5604.86125869 5616.67304115 5625.19304645 5637.28958535 5661.04216698 5735.48912377 5832.76403992 5881.64798446 5928.29821067 5968.00397292 6005.22951177 5980.41671436 6040.74852861 6115.86435545 6160.86865112 6190.31919991 6257.79302845 6215.58401461 6154.01769313 6087.81092115 6108.352933 6076.35295777 6068.50135421 6080.90864743 5980.12587205 5998.97848963 5813.09508633 5725.5599461 5602.38572565 5495.49756158 5312.43584469 5156.02316235 5043.01286259 4968.1647635 4793.57934494 4917.43344622 5096.90570025 5086.39303093 5383.98613349 5395.06288667 5304.02568817 5324.17370767 5349.95738536 5379.26047783 5410.02077254 5595.97172374 5647.80861385 5683.69371763 5727.65279627 5627.75297058 5925.91813598 6000.79560802 6172.42289883 6303.85832737 6532.57443715 6769.02846749 7032.31156135 7182.0314504 7261.92443346 7322.89356397 7321.93093288 7353.88918871 7364.08754395 7397.55264198 7452.70907736 7524.75432922 7607.40357525 7727.28916193 7760.9702038 7806.93688797 7811.77168057 7808.64692104 7816.81616412 7839.7112239 7872.00860743 7941.04294076 7971.15048836 7997.71811838 8019.75924585 8055.17431171 8106.08380229 8166.98050579 8210.5834535 8209.30551739 8170.26474331 8118.31846906
2716.89495372 2702.60682618 2690.48768808 2617.22375909 2622.03246787 2620.35437412 2618.87726962 2616.12858152 2610.50705836 2600.63059662 2602.37595632 2585.18621462 2566.58110907 2550.36634443 2488.37044059 2499.10262252 2495.57612128 2500.21045915 2472.19883155 2413.24991939 2340.04797886 2281.1528265 2185.46751351 2132.97585786 1997.55251874 2018.96375729 1984.73945064 1882.63822325 1851.77496231 1822.55637594 1840.05212132 1811.63703106 1786.96728001 1673.65238288 1673.07722666 1680.54620755 1691.31248744 1698.27770518 1696.58747501 1774.6011007 1770.70027962 1764.73527206 1695.33001567 1690.10576143 1655.81854895 1638.42170897 1609.72698122 1594.74660269 1529.29499467 1451.66603315 1365.26824099 1285.13210344 1271.47437935 1283.40572341 1312.26003606 1336.54502819 1498.87374201 1527.40984533 1526.1524521 1543.20436586 1562.64623167 1678.38667989 1587.40911815 1620.11873178 1801.53821906 1819.74189654 1824.92251531 1828.18749873 1859.43253609 1790.96876059 1798.35352885 1835.77091036 1896.18986626 1966.73843254 2006.21063499 2134.41654855 2214.83651221 2287.59004915 2353.12432193 2413.13318532 2469.86303533 2652.11323666 2709.16853298 2768.84416912 2994.18220539 3059.49072347 3133.39735561 3221.10693537 3328.13430199 3461.59444555 3630.01743096 3782.44472496 4071.81547862 4382.10374566 4715.6551138 5050.8928619 5233.47709015 5270.72736333 5139.71546873 4900.90625021 4634.28913502 4493.44262508 4331.44815577 4255.95756452 4240.78413029 4293.76126027 4341.2370898 4379.2590021 4419.6440195 4446.13423698 4470.73734461 4527.63669696 4577.76318084 4679.22776221 4842.44232372 5049.67561167 5271.5288593 5352.0435798 5320.16077769 5195.85972209 5042.56281255 4930.98679252 4875.14883838 4773.26629119 4834.27794278 4929.82753464 5030.56754383 5237.5456073 5322.28291329 5336.61480657 5282.93022846 5308.41924953 5358.47526118 5418.99838488 5599.04534537 5608.45894234 5599.76675628 5588.79214332 5593.311632 5580.66535846 5631.46721676 5810.88087505 5870.86073954 5915.5216623 5884.90900804 5901.70534918 5894.77005415 5898.15991807 5810.22286183 5775.39102415 5738.32527429 5651.59451447 5583.37235699 5786.35254346 5746.64874681 5797.93912825 5779.87613177 5399.63942988 5407.61780564 5400.33169038 5346.43952315 5211.5409359 5063.62417293 4892.41319538 4796.99442155 4689.67809808 4640.84927343 4530.0426254 4521.57307296 4507.78928478 4598.71868243 4583.64609959 4866.84531046 4953.51812346 5092.78228581 5116.57693778 5145.97129568 5177.42587056 5210.20677054 5388.34286964 5437.084187 5463.97064058 5341.65872165 5398.63235916 5407.12336131 5487.34969817 5653.7503121 5861.20818429 6253.7316965 6491.36487978 6771.76049265 6933.77968286 7034.30600648 7159.49949213 7173.80474688 7267.35319987 7294.6108059 7340.06538349 7403.64154326 7481.87385813 7569.29918539 7621.19789701 7731.63383823 7778.31786224 7802.10591305 7796.93488137 7798.62546085 7812.25613071 7834.94427666 7900.14571088 7927.04811192 7949.13722773 7982.4449916 8028.49721061 8094.90283893 8176.81698018 8235.85261531 8232.0475778 8177.78271619 8111.00362875
2598.96682797 2590.94851329 2570.87942293 2567.58303504 2566.82134234 2574.64089354 2574.67328601 2572.54899877 2566.50239115 2555.50649215 2539.61077332 2539.95002783 2519.80353076 2435.82385078 2428.21989627 2427.65508778 2400.97084081 2390.16363122 2353.47870675 2292.66665024 2154.44119826 2078.78117038 2015.65137686 1965.22536526 1896.50583359 1856.82655712 1818.68716624 1785.23472788 1751.7939888 1717.24936423 1643.93289925 1571.24656856 1534.23904174 1498.50945468 1470.34042438 1457.95870612 1465.48954883 1487.41802721 1511.8697701 1501.97362724 1568.34757634 1577.39602633 1580.36001308 1552.18807584 1542.21503878 1523.08854248 1492.12822926 1444.84923678 1406.38928708 1286.9659331 1211.15124622 1171.23210548 1166.96203056 1192.65994973 1234.89622148 1270.29633574 1313.57738869 1430.27152811 1447.11397877 1412.51563739 1432.22418818 1479.4829487 1511.45332718 1548.39592057 1586.95133943 1622.98641629 1652.25448444 1680.36473226 1669.75636168 1675.50253355 1699.21306 1712.62750736 1748.07672803 1855.9024595 1935.84285909 1999.61858963 2070.26452909 2135.83990965 2196.8314478 2254.47425411 2310.31375348 2496.13364559 2553.77966087 2613.66933459 2643.24576243 2897.94416706 2970.15945603 3055.2376889 3158.60340368 3287.24941261 3449.61513368 3592.21844767 3849.36699089 4174.87561274 4500.93439552 4793.02720008 5005.71194215 5046.44264543 4927.35146849 4700.91925047 4446.03113301 4223.51171774 4152.46660462 4066.67398928 4035.31417182 4074.38021256 4102.17704805 4119.89093466 4152.64652332 4183.88169065 4143.35185666 4323.1735994 4409.64261239 4551.36785652 4757.07261046 5007.54746594 5239.52000162 5360.71074638 5323.54804824 5168.31608932 4976.24931825 4744.92228174 4638.9033771 4609.55385059 4640.62118703 4708.7072867 4789.89041457 4902.1796523 5013.02049989 5108.1771357 5166.45395533 5253.38191029 5369.73070693 5489.92390164 5569.38078495 5656.05801723 5617.27871324 5567.01397395 5539.38204615 5512.9196937 5566.02016695 5667.41185146 5782.85169612 5896.38254336 5937.72152448 5894.47958071 5829.64234091 5682.89893705 5595.75499105 5505.21818931 5409.97705921 5342.44359059 5279.03444272 5222.34225715 5011.10523274 5265.20820901 5095.11064908 5085.82083357 5072.46348951 5039.84768455 4923.1788822 4801.3368522 4642.48335386 4473.33172286 4337.12460541 4311.03769055 4242.66841125 4271.13382969 4301.02438511 4315.07177489 4414.28608637 4412.7982776 4195.1507998 4303.02938574 4587.92644714 4602.9948012 4627.54461767 4661.31290699 4719.93163594 4981.79275834 4927.7635399 4818.84255528 4871.47748308 5110.47165598 5129.8644911 5227.83925945 5366.71467864 5553.31071542 5935.43505024 6174.18846853 6471.0761439 6650.3454833 6777.38028635 6972.15338011 7023.05512848 7163.80092496 7211.44194802 7270.31793952 7341.61479198 7423.11114649 7455.03116439 7554.81220259 7668.58409487 7711.94507302 7747.83757538 7741.08245047 7734.98706103 7737.07728221 7749.18152693 7767.40089517 7786.29043068 7910.28200179 7944.31270227 7989.99669274 8054.29786078 8135.00133857 8195.65725591 8194.48737992 8142.00397151 8076.25181641
2483.7860021 2482.9443009 2482.14453581 2481.42042733 2522.07446005 2472.65159403 2467.65921128 2459.4359803 2446.82380966 2429.29749793 2407.48867222 2353.3912245 2331.71725671 2291.02173729 2277.2365101 2266.06583409 2283.34161311 2252.20712556 2202.65083548 2070.72863055 1999.94311557 1937.67503454 1888.74582991 1850.96098796 1792.31634133 1758.93739734 1677.00323506 1690.42881411 1655.53593946 1617.06684762 1514.97187704 1453.09552452 1397.26660816 1336.43944872 1282.04055023 1252.31179986 1260.07921757 1298.98601261 1305.53212023 1306.39793204 1326.2560186 1333.92518521 1442.35813624 1443.89416218 1436.71071005 1420.51457812 1393.79801005 1352.12904413 1274.03008202 1199.00720611 1140.8365985 1104.64946947 1104.76038028 1136.38036196 1184.15430029 1224.29265673 1251.78138904 1265.2720608 1335.08371235 1346.92125095 1363.51245098 1407.4718401 1441.67982025 1482.95163008 1441.56571747 1496.34136261 1551.91322186 1622.6768673 1656.04938301 1666.86314111 1672.3988891 1680.53166958 1701.39460452 1732.98196434 1749.55004546 1893.16624421 1950.33643823 2005.68704628 2059.5265888 2112.4644083 2296.19560355 2352.03829634 2408.35462273 2466.5020836 2491.31848336 2549.60431757 2805.00054095 2882.72691394 2975.84689465 3090.50192777 3234.16144408 3349.29619974 3574.55095914 3841.47932957 4191.272541 4337.68492467 4530.1478892 4640.78976493 4550.12929735 4368.09519948 4158.13117199 3969.93586219 3807.79471399 3710.70376758 3808.57934889 3807.42032122 3841.91773489 3718.04576055 3754.5599466 3798.19079236 3889.5397129 3962.53811808 4203.69089792 4360.51123507 4576.09375423 4830.87423146 5062.18865618 5182.96198732 5133.84522072 4957.96420218 4694.52196467 4577.23992231 4462.15719172 4418.34227485 4431.44235092 4482.16508496 4552.60975887 4673.68427927 4745.1075938 4782.56141587 5057.55436042 5209.1355197 5400.23535149 5592.89265579 5716.52485893 5715.49098033 5606.29449208 5560.45643132 5454.73775846 5282.18578957 5355.52508517 5605.69682494 5760.13306443 5912.48202196 5969.86581345 5883.27611346 5695.73822983 5420.31567323 5227.91390449 5062.39809132 4950.61004933 4866.08560633 4799.99107513 4699.81230873 4651.86810232 4717.14905415 4534.86968625 4797.52109991 4777.34391072 4738.59263477 4615.71013676 4496.67518952 4346.35465799 4190.5757581 4072.84757072 4017.99392672 4040.37398973 4092.3941067 4139.50683504 4164.79205367 4261.01068861 4078.03433677 4065.33201743 4055.53868893 4171.90241898 4445.65826868 4473.52794524 4511.57043801 4267.68152867 4247.46093648 4505.53854101 4557.08551905 4716.37598261 4747.46840788 4904.20772551 4965.09215995 5072.58484626 5237.83158626 5453.60539552 5783.85551052 6138.04439371 6364.38115115 6520.43535505 6634.8658234 6866.88347023 7011.08124505 7117.3285274 7189.0591651 7267.11853103 7284.48068659 7381.44614856 7473.02031497 7605.06904032 7644.78112796 7699.37896978 7708.90124116 7716.37582971 7723.26995088 7731.38331032 7739.16869392 7761.74286671 7794.84043086 7863.79636313 7905.10622475 7955.68941301 8016.66228222 8066.28877765 8069.90119947 8027.53416888 7966.14236783
2457.4324053 2459.4242107 2460.95150391 2461.06231626 2458.62873652 2448.11868258 2436.50856638 2420.84983608 2401.32756411 2378.08263904 2351.5734528 2294.32623617 2266.41146215 2239.10578672 2185.75492279 2154.23463544 2114.77785376 2062.23585624 1970.58849548 1893.5604027 1830.36421456 1783.68807827 1753.72930937 1733.53254875 1689.19128962 1618.62923735 1586.01939501 1553.20348762 1564.74618684 1465.81363042 1421.59042308 1352.84894464 1283.51053857 1202.57362698 1126.06231284 1082.40427322 1092.78381318 1114.72844018 1154.31782157 1199.49041065 1227.29736665 1239.75702429 1213.13893595 1209.59186765 1205.687765 1328.16147646 1310.76167348 1226.86483619 1195.32271348 1160.24536141 1115.150755 1086.2055279 1087.0353002 1115.37589254 1100.35253481 1112.20536904 1140.91982879 1211.02450613 1206.92506896 1292.37564386 1304.73991905 1343.3030366 1308.56780887 1348.48289309 1398.81771788 1457.33257155 1520.11887485 1601.28870481 1645.97655818 1665.32950339 1669.37522663 1662.39221921 1651.7069968 1687.27958687 1684.47728938 1804.22813826 1846.29161753 1890.38696544 1936.27971827 1983.70784397 2165.29379496 2218.57967386 2272.34299583 2327.32146306 2346.24754976 2398.73191492 2456.90315028 2705.94819959 2783.27556697 2876.22630852 2990.61707614 3064.42445008 3240.1498209 3448.02214975 3641.9171323 3858.63739623 3959.23047494 4061.28385638 4007.80782389 3939.06283124 3794.05179903 3658.37068905 3527.26804998 3448.71415677 3404.84101602 3266.9712081 3427.66322221 3448.89228128 3481.04675205 3524.01628156 3623.60196614 3698.03420591 3809.1389413 3933.43611675 4154.42173164 4407.43354377 4623.04277416 4737.65866856 4697.47185827 4529.36706665 4267.90519249 4231.18887724 4234.40447044 4194.9880718 4204.09400789 4248.06496656 4315.13360251 4446.97491808 4481.70369892 4604.52165489 4776.03720825 5137.27391326 5394.15923877 5653.84346943 5820.63799248 5806.87959512 5654.90679823 5359.40576378 5131.50011723 5048.74655491 5102.98069389 5275.85663271 5584.06235546 5763.66453065 5836.77957543 5732.83526665 5482.50294487 5217.78387613 4997.64545192 4808.46993655 4688.39593114 4603.40975083 4541.10573721 4442.71222906 4398.52354151 4305.8362192 4287.79292905 4277.94602649 4251.71034212 4230.88728073 4156.39652636 4100.84076662 4161.93510328 4037.09527179 3945.10132621 3914.46362167 3941.74613778 3991.02782012 4032.10252532 4051.75771791 3889.86595147 3963.8958561 3953.83442181 3948.12965107 4051.26792401 4060.27500873 3829.28407805 3850.19473017 4093.37184458 4148.71788635 4210.20681974 4441.83349604 4417.66341969 4457.74317992 4488.1288248 4716.52000723 4792.60004005 4939.89536169 5095.75456647 5331.98794972 5850.017485 6071.14373625 6281.85809314 6425.8647655 6633.098718 6889.8316395 6971.47776281 6988.74221466 7082.16048567 7187.07308257 7282.06782602 7390.63278218 7534.65566702 7585.2610229 7667.7202963 7699.47719951 7722.5982104 7730.89698342 7724.43479898 7726.53211288 7744.70597242 7780.03873398 7849.14958325 7883.37024758 7909.08271369 7931.17688257 7949.41456301 7949.61927387 7925.82923667 7887.30856111
2439.72935483 2447.41437578 2454.51359918 2458.22114038 2434.45941448 2415.19970986 2384.70493721 2348.96365858 2312.10408827 2275.60334209 2239.53430677 2236.14374909 2154.41017988 2114.64251023 2071.64088813 2044.68914812 1983.60444746 1834.13384395 1756.60886174 1717.17180913 1658.01430596 1627.23916985 1619.48282297 1592.78213289 1549.23809877 1531.50167095 1501.48820242 1469.5882253 1376.85677279 1333.19325752 1291.56470246 1287.40511319 1201.81173696 1111.14444482 1004.55775972 963.787900068 974.710258763 1027.73481689 1075.93802197 1121.85119716 1148.36648905 1158.58833115 1129.67398581 1126.22439603 1125.4748233 1057.64073043 1061.6326184 1066.87000801 1094.91495533 1092.24238825 1115.37993697 1097.56974698 1083.58791204 1085.52049597 1090.82364445 1102.08587274 1098.78172428 1126.45822925 1153.65377299 1207.8859859 1214.02446841 1249.55469258 1272.68326576 1308.09207316 1355.55299174 1413.23291126 1509.61230524 1566.68743244 1603.84882482 1647.42933371 1654.13441407 1643.00197944 1621.86850212 1599.54294456 1570.32914053 1553.92849221 1749.26093855 1783.46840351 1822.54294435 1932.72941157 2044.08972831 2094.64038471 2145.32227804 2385.51415605 2208.8584459 2254.10844519 2302.00209108 2528.74232486 2586.48355593 2652.44992777 2730.38239949 2755.36565548 2728.14713763 2880.18674861 3124.93363722 3281.30586298 3402.99471721 3462.64602676 3457.54437907 3400.95000189 3317.47633253 3135.73581661 3218.18611448 3165.6089501 2952.61444407 3001.23793901 2949.03023167 3179.52138505 3206.9424821 3244.91534752 3304.20103236 3220.39504905 3322.67991235 3460.84377287 3753.1158694 3931.67671122 4085.82155654 4170.23875245 4153.26713107 3972.73892793 3863.44234304 3729.09853974 3763.43593685 3728.93730296 3958.16548936 3790.84148712 3884.61768808 3972.49799541 4049.33441909 4204.7140967 4423.41128964 4723.39558476 5186.50052586 5524.90911969 5744.48156787 5737.65255932 5531.30127857 5258.72904807 5011.42116253 4907.11950112 4930.11362396 5057.85991758 5232.25589771 5391.0190648 5438.2184748 5320.16682715 5114.40415581 4913.88398974 4685.65775182 4529.55506185 4423.48088741 4350.81639624 4298.10081104 4203.91341186 4163.48024801 4077.16245575 4062.29982175 4057.40088973 4038.86790643 4033.1461218 3980.44494737 3959.54616849 3934.88095128 3912.71122658 3906.01865081 3898.80820584 3915.69294185 3941.94907495 3959.8705377 3829.91002217 3800.85945658 3867.02804421 3861.29443494 3740.17126577 3751.30777897 3759.38082124 3781.13543294 3798.14540494 3830.17111934 4060.28025804 4126.01764207 4295.06565048 4335.03987101 4366.49082738 4378.71524127 4505.42148587 4553.86712312 4650.93458677 4846.76026497 5081.09329969 5446.35445993 5842.92380751 6039.64701458 6086.17129302 6355.32400043 6472.74294321 6583.22178441 6864.77973637 6994.6510883 7102.02003885 7197.96669696 7292.03678015 7471.86573072 7544.29843975 7660.52573395 7726.80438495 7772.18816365 7771.50292276 7742.98242469 7721.71459488 7731.63972606 7803.99700125 7855.88732148 7900.40094555 7912.76807907 7897.81460562 7879.39832409 7862.4474654 7841.20214622 7814.68424401
2390.01165564 2419.24268665 2445.59418137 2461.5332953 2457.8166982 2430.13911762 2385.01917626 2333.25461091 2282.29384641 2234.63323437 2189.87688819 2125.68119839 2073.84771068 2042.28311698 1987.93055405 1879.85309867 1786.6296536 1703.15487265 1611.59372866 1527.68255509 1464.87506573 1481.51628559 1497.28087758 1483.72082094 1460.0219143 1454.67208508 1375.94400348 1335.88006403 1305.01063193 1266.61544275 1231.69082779 1186.43252919 1137.55580141 1037.8629615 972.236884986 934.479560141 944.746574259 992.206455061 1033.17482272 1068.79099217 1085.67594075 1059.77831981 1053.03605867 988.320305705 988.946454677 992.049981645 1002.40208552 1016.24763322 1031.48513136 1067.19512839 1073.92550022 1072.68443707 1074.0708188 1074.3085808 1078.23801301 1069.1878282 1097.59529214 1138.37644869 1178.37867925 1202.58883689 1199.49436725 1230.66191284 1245.07767283 1272.18719483 1312.30668751 1363.63774033 1458.77429886 1513.68051222 1561.44279372 1599.91289632 1607.23718153 1594.65187025 1568.89596843 1539.76618333 1503.15999463 1482.60647018 1470.63398495 1588.86482739 1714.90140235 1821.35638646 1931.11732573 1979.47320887 2218.26971022 2264.99824624 2308.72021376 2117.49252359 2368.94395472 2394.25549614 2418.26949913 2428.71032848 2466.71975767 2358.3031579 2352.77760935 2429.83689039 2505.80483123 2602.63957213 2798.32753038 2872.51284865 2915.12591341 2924.4355425 2908.58621367 2775.23483602 2709.30696933 2711.02565855 2532.60907641 2521.36330969 2693.41160781 2714.10701109 2734.30462258 2767.71517243 2812.50636497 2914.65689929 2981.23679131 3065.76777497 3166.70903242 3397.03157099 3485.4300031 3449.6157316 3461.04917263 3426.59827813 3412.18736996 3355.63076288 3318.65213352 3454.32151629 3479.88214833 3544.06597255 3610.01665657 3604.75436613 3808.04103621 3959.56349155 4168.63799466 4449.0675809 4792.31220091 5212.84438639 5416.09882164 5423.93452961 5257.77910192 5001.74912235 4807.49231026 4707.12359859 4705.48797609 4781.02667083 4876.44885125 4956.59894646 4953.22975602 4837.27194651 4607.69041427 4390.08283115 4351.4167786 4235.80731392 4162.1635052 4112.57396865 4029.59043519 3985.99245668 3948.66472858 3869.48320833 3857.34204019 3857.53244389 3847.29026545 3856.5609609 3823.69396004 3833.42585194 3846.53854378 3862.48817351 3877.19077494 3891.76774649 3883.06384064 3813.43843457 3757.64201376 3747.22028626 3719.65512095 3655.43635222 3694.29876724 3714.79277237 3732.66531019 3738.10973983 3750.00901185 3756.94570706 3780.61263176 3827.98414821 3944.87427021 4033.2543817 4275.10686086 4309.9915321 4294.58484132 4302.33150164 4348.08779913 4407.79678117 4670.83090441 4897.21622384 5257.92324025 5631.50157277 5758.50696292 5927.94263024 6217.38460397 6346.36400685 6466.58509317 6771.09651807 6869.61693379 6967.60702562 7077.09230867 7211.80772951 7407.96764852 7561.01857623 7664.61266971 7782.60231419 7864.19736186 7853.72139133 7777.16929312 7716.87236428 7713.63781785 7794.40341282 7872.78929726 7947.52523277 7958.89481734 7903.9162131 7844.2127378 7804.73705529 7777.84143225 7742.00114614
2358.76341592 2417.67138053 2452.88856564 2475.77059146 2472.37668465 2437.18370585 2379.20448535 2313.56676737 2250.54948193 2193.4223098 2141.37199608 2086.30568802 2018.37907583 1957.46825154 1822.3639121 1756.68036425 1644.9828553 1559.39185496 1468.3761229 1388.43322226 1341.23270809 1348.40000428 1374.69761962 1389.00773564 1395.59523963 1341.04920987 1311.04117723 1268.40199898 1238.50804662 1207.37182735 1182.67331213 1150.39712233 1072.16417455 1032.73687604 982.629747596 954.138993297 960.325735952 974.434937292 997.671923052 1009.78140345 972.504206776 995.601962009 981.280947722 923.754937711 924.079110399 929.473554308 943.972274656 963.057875757 983.998018458 1030.69079314 1035.16000973 1044.40120091 1048.72974054 1051.23262746 1057.86071504 1052.86012897 1090.31658663 1142.65764672 1196.44857589 1223.34516867 1216.75140662 1191.95451639 1163.73070468 1240.05126053 1269.37192912 1319.17592933 1400.66207641 1449.04619565 1489.48655954 1527.96113656 1532.29343903 1518.4060596 1491.57989706 1460.95719267 1423.16204393 1404.16375021 1395.64487174 1395.08643211 1528.08654975 1756.35625131 1719.71167491 2061.57517377 2109.65994004 2152.88075118 2191.11123704 2216.61865341 2233.26672373 2243.62008138 2246.63043105 2053.26270978 2061.29388398 2063.89063877 1996.01627549 2011.15319206 2015.51271813 2059.94414759 2232.34094591 2326.02370523 2414.10847286 2481.14342464 2522.57638053 2399.96343922 2281.92688682 2280.77738142 2271.89262215 2269.39791013 2274.69630257 2461.47064026 2465.87508922 2498.22949592 2527.31128888 2559.95004792 2637.10496317 2667.23288792 2697.83704341 2853.65680344 2776.66524884 2819.12826026 2859.39188442 2892.46803546 2962.48127843 2979.6700517 2998.40519769 3039.54269434 3219.39543636 3294.59349901 3266.14633276 3354.14598887 3546.23352581 3674.53717346 3846.31207806 4071.74317439 4343.24005865 4614.4332843 4901.45933325 4938.7715537 4844.04189746 4664.03007295 4531.08985089 4455.56703492 4443.26648569 4465.16029746 4508.26716407 4526.47543523 4397.90713576 4291.71545077 4178.97616162 4022.6993494 3905.03323727 3955.75349889 3922.42018151 3899.53096013 3830.73245655 3792.84235463 3756.8483401 3684.75023267 3673.85105781 3677.1541285 3672.53070882 3691.661951 3670.53216797 3698.57860028 3733.64118895 3770.6222974 3799.21505392 3792.57978835 3768.5262522 3719.88855592 3541.47179408 3484.98167636 3467.57239401 3446.81801486 3575.21064491 3720.55779523 3745.50643398 3747.28346791 3741.00098617 3728.77621473 3736.0015138 3815.97263888 3889.10647059 3986.56706078 4096.34207405 4245.78403525 4283.04650975 4291.01127608 4299.74720983 4353.45468846 4464.47633395 4724.00559463 4923.02585835 5259.51539292 5441.71929962 5803.82047777 5953.28085956 6226.09486535 6351.27138501 6674.90846453 6774.3970735 6872.80971681 6973.2548099 7090.51292524 7297.16926503 7501.56380599 7639.59330996 7806.77224964 7938.25552629 7916.03389205 7789.06392045 7692.71878648 7677.5680915 7763.6940361 7857.61193986 7953.26256476 7967.52416016 7887.94105933 7805.66449693 7748.04699528 7718.5655844 7695.83682605
2336.14886805 2385.07394817 2431.14257092 2459.42227458 2454.01137307 2417.76550994 2352.51666107 2279.67384074 2210.32475096 2148.11753057 2092.08856941 2033.32907932 1961.82011203 1810.77043981 1752.11509363 1685.88796618 1584.07659791 1498.92511663 1409.29490737 1331.8325775 1289.37511529 1290.44902983 1314.28825741 1332.48522121 1334.74931701 1290.41857408 1252.47725029 1205.69079547 1176.31225477 1109.64411425 1096.18780903 1078.3326772 1052.1268338 1012.29325439 1006.13286141 986.620870399 966.571221723 973.171159343 977.768873749 942.376803386 928.109930529 909.620685238 876.935656382 866.766565594 866.398280197 873.056942336 889.228724076 909.99178343 932.392342988 953.88296334 984.633397541 1002.35313201 1010.08992427 1016.58544025 1000.89467393 1025.88918304 1068.11268376 1124.89715797 1183.79127591 1213.90176523 1206.6639637 1178.06592325 1142.48384079 1119.52333749 1169.39714604 1301.2837772 1341.31838409 1379.64714356 1410.58175258 1446.07492576 1444.73854478 1427.61231872 1399.20314254 1470.09579639 1452.50214705 1319.25086643 1318.60246555 1326.82446477 1632.35086241 1677.30369959 1823.64726678 1868.52813291 1907.59369424 2076.37545522 2107.34861548 1914.58431648 2134.09076635 2134.64019735 2121.55927489 1903.77655318 1865.42610374 1658.1683646 1700.21758917 1622.8026133 1569.1173208 1579.34728625 1646.52340596 1756.89715871 1881.88699665 1991.23159954 2072.23117393 2096.53332101 2000.64119562 2010.29156375 2024.51680139 2029.09568687 2036.72133044 2048.44472769 2057.3922365 2068.38688411 2081.37642687 2265.07311703 2264.11921013 2294.96006181 2261.11323644 2221.67019016 2222.02666121 2247.22804002 2314.40396928 2406.89837391 2547.0140979 2628.27010692 2695.08865147 2768.18133625 2687.10576229 2911.3660969 2983.29427354 3103.15478661 3202.07701865 3365.73231665 3483.48046331 3637.0339003 3826.39969979 4025.81657523 4183.65488287 4257.53877065 4288.43621982 4229.03339839 4212.11512994 4170.89224647 4161.18485562 4156.93307633 4164.51107405 4042.98212582 3998.78632921 3906.23240268 3795.04743074 3735.27523861 3670.40843424 3639.17200447 3726.80765105 3723.79949841 3663.96115974 3627.78098868 3479.94022864 3453.98790425 3516.89993072 3520.64183469 3517.20513985 3537.93805036 3517.91585013 3549.21465886 3588.75175503 3629.62781598 3660.41171656 3528.73928502 3516.88148018 3456.24268677 3405.90983773 3382.31398193 3404.75969485 3435.33623184 3551.30754775 3701.88640742 3752.13349995 3788.18692947 3754.04815448 3712.17685671 3693.9929222 3755.57860951 3823.31813922 3923.95546813 4044.84890517 4214.51646848 4268.20962962 4287.44648933 4301.28212351 4342.2638099 4430.79690462 4673.47935342 4893.29987606 5170.04696202 5338.4188451 5665.18436777 5844.46437206 6082.93572337 6207.95156065 6329.31266371 6630.40985922 6727.4843547 6834.1944382 6940.38141695 7145.29300739 7289.53904088 7518.12903097 7708.22205269 7854.03010974 7837.90722942 7714.98367664 7624.85097969 7612.19856837 7697.60937896 7777.72864453 7853.96144785 7859.77704738 7798.38748542 7740.07271435 7710.07264334 7687.78340884 7664.13985552
2295.81763696 2340.08487933 2380.27394472 2401.71957362 2392.46680861 2346.90268831 2273.78161808 2194.10210315 2118.62256939 2051.26455421 1972.3505185 1919.55993437 1842.90414965 1764.41120755 1707.32080736 1644.16758469 1547.50227951 1469.67813431 1389.2526118 1321.11759341 1284.77628629 1285.85311693 1303.92277326 1311.58127052 1256.36504585 1196.56763491 1153.30765016 1118.15473744 1066.13636437 1057.0221451 1073.82397204 1061.61102951 1042.03340329 1008.9224596 988.875878758 975.370598746 964.665742603 959.607842077 950.968763848 906.300933617 886.582759181 864.668611922 831.129335596 821.425258877 822.754765653 829.293436668 843.768008054 862.075093066 881.859762525 901.156840282 932.152992898 952.453538141 962.549343419 972.222532875 957.916042335 984.817281602 1025.50138142 1085.03999511 1133.42732251 1161.33194112 1155.91465138 1135.0638576 1100.54194684 1075.97785644 1130.50811537 1148.39584579 1281.40941034 1311.25335802 1229.37213796 1242.14046302 1358.92396314 1336.57505197 1403.64427919 1367.25520149 1344.20589283 1345.33460862 1262.08600382 1288.78686926 1422.14557645 1570.07262824 1750.52128279 1819.69806758 1864.32253301 1900.74830046 1928.83600322 1877.20009272 1882.26267788 1924.58166402 1898.78084154 1798.85323399 1605.52961482 1482.69431845 1270.35614793 1220.53014329 1140.39823391 1123.70957905 1189.19481941 1370.77358967 1532.29963429 1677.60819539 1765.45551946 1834.26472101 1750.7163804 1771.67065604 1794.327542 1803.35818097 1812.35240634 1804.26285677 1812.24824373 1833.95384031 1838.41092641 1837.34426846 1973.97337868 1927.84007287 1888.53635444 1806.69807187 1748.71357516 1757.55640308 1848.83206756 1993.20541924 2188.86964633 2321.46398276 2424.50513224 2370.65741079 2461.31004912 2523.87928735 2750.95092944 2877.12260835 2933.46979425 2989.71709478 3114.40339729 3193.87650342 3309.68096749 3457.74593612 3516.20871277 3621.21250762 3669.89697643 3833.2172095 3819.94403648 3876.05267673 3876.73815587 3725.89782952 3731.52186768 3728.19273037 3698.43693951 3642.5885709 3585.74938858 3543.80234906 3541.98757165 3532.97284274 3495.98819649 3448.70024931 3453.54235956 3419.6690591 3361.58526855 3344.40118781 3335.31431907 3329.35607824 3391.36833326 3210.46922352 3215.53204567 3392.98080455 3229.55738287 3277.17396288 3200.76780423 3307.95163639 3313.00957651 3271.2865548 3253.54681025 3267.46138679 3284.26187209 3416.08454883 3592.00349276 3778.38227943 3850.50149157 3823.07889161 3774.06117964 3696.10450978 3647.36142101 3533.6705438 3590.48120498 3748.58450072 3884.908392 4024.22520032 4223.13201384 4258.69370385 4302.62503798 4340.65423674 4413.49673716 4651.79321654 4845.93161236 4990.19543398 5253.86115095 5575.84514309 5814.70823217 5939.60015312 6101.43230773 6222.70682011 6531.88366413 6625.28486295 6719.13557475 6897.58548531 6986.06104222 7084.87908254 7213.17272109 7419.06296908 7551.43871634 7573.20751381 7527.75061481 7488.55185591 7495.02656748 7581.12706141 7639.52451824 7690.02200234 7705.03288891 7700.36128428 7696.69609754 7700.99859488 7672.70787288 7629.87973244
2239.81703299 2273.55122781 2301.60154961 2311.11129249 2296.84369613 2254.55771798 2193.41576968 2072.12988382 2001.33159297 1938.26910175 1861.42889314 1807.98848409 1758.10336053 1676.3619114 1625.24660851 1571.32219263 1507.37152406 1462.81673653 1395.64617552 1339.79040107 1308.42223199 1302.61493408 1305.44812488 1262.9896018 1227.65013206 1144.05678537 1120.14209334 1065.29732277 1060.56529846 1057.42903577 1044.84916319 1021.31234709 993.266877942 975.718637629 955.380831503 911.484337209 900.503962398 887.905371064 872.613149506 869.081984419 849.621218585 815.300130524 805.160849704 799.85671891 799.436217197 803.834328001 811.616567514 822.484335193 835.620281763 849.729931703 847.601598251 898.643913795 909.149853563 865.357902665 882.82578202 929.312036415 944.848436797 1014.0853429 1050.87160047 1072.12077539 1068.96447677 1028.47044225 996.097405278 1020.55422238 1083.43215313 1087.39982102 1108.49886856 1131.46281491 1165.10644114 1174.59395861 1171.607615 1278.88728243 1308.90951989 1255.53532336 1222.57033016 1165.03805106 1197.09343942 1243.71295783 1383.89258938 1560.7899833 1719.25482146 1773.85538214 1817.70587795 1851.42290532 1874.63098656 1820.69198669 1867.46643991 1849.39441256 1814.50658846 1702.4221328 1615.0613285 1357.67281745 1093.5171866 945.943293145 853.754413461 815.059859455 886.818768695 1037.01418604 1207.24853121 1435.48964899 1533.42863989 1491.43113575 1533.0562656 1557.25037766 1537.47026971 1593.42824063 1602.73258065 1583.34050511 1598.00454919 1618.21217901 1619.53600073 1615.03103133 1596.10800239 1587.14671077 1518.77060263 1418.39147367 1382.19064279 1374.32576807 1484.62741815 1670.63398557 1877.6995103 1959.47403641 2077.01876894 2165.90158956 2260.33948079 2323.04320361 2402.02454561 2512.83981465 2689.01550184 2708.8336456 2717.3255424 2782.02063999 2838.27818358 2873.90679096 3029.88432912 3163.28942358 3261.12766839 3300.76906049 3313.45578583 3385.20588353 3249.34046739 3449.33500546 3457.25009734 3465.52502736 3470.56365411 3466.40793311 3477.93936718 3499.73095336 3512.66455207 3497.04028899 3443.4357156 3371.52060888 3202.38695625 3281.99588342 3275.08849781 3286.52343254 3292.9524763 3227.51963128 3190.52653666 3139.53984088 3106.79496343 3042.11435458 3050.8809631 2933.92065577 2961.73678316 2980.02786974 3079.8088796 3076.4710653 3087.25287611 3061.69658524 3182.11448034 3354.21255033 3574.1230893 3780.14572062 3885.8867134 3849.43713591 3715.65235562 3565.53181027 3403.51718012 3450.22488146 3488.70519472 3583.78625538 3758.41058679 3886.09638923 4069.94566591 4125.76425208 4204.89824434 4320.83858355 4389.43380369 4688.70622953 4809.14330217 4930.09110335 5049.74182609 5361.83695633 5717.61130202 5839.22629796 5958.79098533 6075.41821879 6427.790772 6516.25851107 6603.73329025 6764.59091155 6831.99249976 6882.54711636 6930.1688849 7035.86083828 7139.4779944 7237.34926404 7314.3309225 7345.64864319 7434.4916909 7471.98519209 7494.47136241 7535.53934623 7572.1527004 7630.59301851 7715.58581967 7746.71523717 7688.39038654 7617.11283186
2174.48199134 2195.45819588 2159.95111338 2164.56265701 2147.21965969 2108.76389841 2057.08908649 1994.371012 1939.04388566 1887.63872602 1839.68460984 1771.3170528 1726.21344476 1650.85611525 1606.10314583 1559.79566582 1509.57435179 1432.84353217 1382.71343624 1341.53027307 1314.37831861 1297.52838643 1265.48006724 1230.34617879 1161.3474673 1118.37628449 1064.97351292 1057.65907586 1062.45551507 1062.90452571 1045.98804145 1014.15766738 978.486641108 956.176205122 883.276390366 829.00985795 811.161570566 847.463220642 822.414471424 807.618891979 816.840236962 791.576423164 792.437324361 795.548263068 795.912141925 792.868778602 789.259446149 788.799710338 792.640131783 773.794524482 728.56814273 737.031611893 791.506056712 803.175479572 817.779627915 838.154320454 863.406302798 873.308812116 902.656242358 919.44160566 918.649858439 903.848944845 908.03001548 952.248465033 1015.80355309 1032.33205188 1053.67227516 1076.05383529 1111.30713496 1121.97860786 1121.03917812 1208.12549601 1330.84065907 1222.18696682 1152.11769837 1076.52121052 1129.96184998 1202.05550866 1451.61190644 1531.09877127 1586.80954707 1727.91670809 1770.79244409 1802.35660202 1820.75227447 1821.30451904 1801.05243562 1779.01830759 1742.93139907 1642.72313066 1535.56148092 1263.21807696 979.204045592 799.431388774 665.994344543 611.638422174 692.041312076 860.626161738 1044.56545051 1150.57371911 1357.88619873 1308.21076263 1344.16583246 1364.84793899 1342.92291474 1352.03513007 1380.30823468 1386.11987079 1399.46294385 1419.08868521 1421.28648473 1421.71657307 1411.78794158 1411.22576098 1343.25990909 1231.77000886 1152.64973022 1131.07166705 1249.6191341 1397.97469482 1624.91483178 1789.76746527 1909.42718161 1995.13850354 2084.46959464 2143.73425603 2221.43953926 2327.88819882 2360.34797249 2366.04930242 2441.08586193 2333.40511137 2389.06600172 2492.10397377 2655.73564718 2814.19289451 2938.91334441 3005.67084819 3041.07802084 2927.50532555 3014.42246665 3006.90030077 3025.75784854 3056.12286215 3107.84759364 3194.46996203 3393.17993064 3472.62176639 3508.17905231 3459.98006695 3327.01010609 3199.91086118 3116.66674872 3100.05741612 3127.72060627 3161.21194156 3284.49198262 3254.52248454 3192.83977695 2996.36930658 2871.85762992 2780.30650271 2756.06421587 2726.83794547 2735.47159843 2747.11043561 2743.01320842 2874.47539804 2815.07736252 2890.01561338 3016.69442295 3215.68260088 3445.59987559 3611.39623327 3764.96226866 3719.49941095 3554.3393783 3418.75605379 3292.00238868 3227.33886078 3362.47497917 3441.22929739 3607.25718487 3720.00625371 3927.95404821 3993.37638254 4091.17432205 4161.07910799 4218.84040214 4671.37276027 4771.86584229 4873.94607345 4977.15065824 5180.16583212 5476.1081268 5736.81248301 5856.69836415 5972.27509681 6082.72172297 6399.12071778 6469.71963079 6637.71397921 6688.37991762 6702.37147644 6677.16089278 6693.69831058 6794.96972759 6966.53304242 7094.56497075 7160.66440615 7216.86794844 7341.55530302 7379.0859842 7413.26466839 7456.62766906 7545.34558152 7675.41415062 7724.20130534 7655.23898692 7577.43360131
2038.85700666 2054.89816764 2062.72668603 2058.26891964 2039.51564794 2008.48857179 1970.56397253 1924.91442713 1884.11427007 1843.74360874 1803.25417864 1740.7805711 1700.2719662 1632.86743674 1595.57580279 1557.50431064 1515.14653884 1467.73804162 1396.75077337 1354.67765526 1321.12601941 1252.30486007 1219.81083332 1179.95728688 1130.9670831 1093.50670809 1045.71982734 1046.05441837 1055.51324594 1055.15826993 1032.58193344 993.705391239 909.777638803 866.313133073 808.323725224 783.106136437 762.88965266 745.511367106 731.360756255 765.070475794 738.632037001 765.117444351 776.484596967 780.539592691 782.325607333 761.771039509 733.549025886 706.680645671 692.34973821 671.738581658 672.125169278 676.581259994 679.276393616 737.742370928 747.481162005 760.355583391 754.47874124 772.524417392 786.821966557 794.324995162 794.331329393 789.782721556 811.016410808 854.602306714 951.160183696 973.797963534 998.899361088 1024.21286863 1047.22788965 1061.4584995 1203.7319162 1174.8230194 1266.8684922 1118.17735349 1015.5004626 1015.15159108 1104.75136393 1218.56647316 1425.69269424 1507.1953624 1559.08330509 1597.80948559 1720.85233666 1752.09479486 1765.18432469 1756.54283313 1728.54383849 1704.9198712 1642.27453735 1591.07833026 1495.1965201 1225.86351252 1025.01612316 773.52982066 599.426193267 543.208542103 610.133178421 743.222603419 876.344691705 1071.66333148 1097.68119108 1123.31366482 1177.13695023 1189.75544199 1164.49896597 1173.19244296 1200.00224428 1204.47439396 1215.10136471 1215.5604694 1236.23100945 1104.88001849 1137.90948631 1158.76296212 1174.8391101 1155.99366979 1071.35086012 1051.66332938 1142.59333784 1310.71387559 1524.09282721 1677.19787463 1783.7528452 1855.34994621 1930.9932524 1983.26128486 2060.99253763 2123.59317812 2211.52488598 2218.22228179 2182.70494783 2137.81188922 2127.22973175 2234.83920275 2404.93559774 2470.55180435 2583.3114877 2650.86269568 2693.08730444 2718.82996386 2733.66613646 2799.188916 2817.73957116 2853.66834626 2914.12948168 3016.20287611 3156.30895554 3286.13163586 3346.24465798 3270.65639527 3096.63650367 2948.69214192 2873.9419968 2893.13964419 3013.86517176 3225.64101816 3361.4647746 3300.3035303 3067.61920608 2810.01305546 2605.83724979 2638.0774335 2555.56486246 2527.65358007 2520.28730477 2524.34863838 2518.3531998 2558.35801526 2603.72310204 2681.64942328 2625.01976476 2828.46855481 3070.26947393 3292.35560205 3464.01809032 3439.26400705 3267.55974067 3099.51844926 3114.01172344 3066.71660832 3210.55096395 3279.13776827 3441.44869125 3542.76374308 3641.22561792 3779.61429645 3982.68851442 4052.30654688 4130.20268163 4432.23660899 4731.46704533 4820.56021947 4909.66062737 5195.95041064 5371.8749348 5543.58916565 5754.17059502 5868.9786476 5973.07602184 6088.35338045 6340.91071728 6494.05058907 6558.33731457 6574.47013393 6525.76866472 6478.11067785 6580.63396401 6781.30583376 6960.96006951 7064.43711024 7128.09915594 7177.50394368 7278.12246409 7300.00540879 7321.39389881 7372.7875889 7482.30436647 7553.30119129 7539.05516373 7508.31020809
1975.1875395 1981.79943631 1981.42526382 1972.26421326 1954.33962208 1930.15332413 1903.49089251 1876.73788551 1843.20644689 1811.20602372 1775.62520489 1717.47320404 1680.38224085 1648.69995976 1594.09163502 1565.08845279 1529.06176668 1484.0324739 1397.94729603 1349.61020419 1275.5115283 1230.91213031 1145.56666069 1104.24156635 1064.84950575 1027.08771232 984.66543557 1016.19651036 1022.3145711 1017.09916864 991.002227516 913.497122692 861.990040885 819.077141733 771.689285316 731.241177322 710.52036335 693.676229364 681.000780057 674.598944185 644.348025826 664.696315194 709.339707646 732.102320105 711.155282035 684.566548129 645.255742915 656.261666154 640.133580513 605.889392291 542.89579609 541.888077163 545.0100731 598.046603975 606.706721376 634.901076298 669.780236007 674.575544023 675.716363257 674.322265391 673.487021425 676.724175901 750.189595191 771.153596457 881.702557123 912.780428901 943.36335498 973.20530566 1001.87595458 1024.29170264 1182.86350185 1167.02342843 1260.47097357 1095.52943502 975.552886091 986.473035929 1108.00095303 1298.18483942 1422.09340107 1483.19441851 1518.62724218 1555.17405794 1593.52750576 1700.20409822 1706.59506346 1722.75902855 1653.60618438 1585.33726108 1570.36682432 1548.13981038 1485.32217942 1240.62832912 1062.76558279 827.025648363 668.5417575 613.77248472 679.529910063 759.997614554 860.443636236 904.065663961 921.094531633 909.67790909 832.686695406 860.209040981 860.637001077 1009.31930325 1001.65908891 1038.90353202 871.528470101 875.508609886 769.222575218 954.415918657 1003.36677375 1053.97201628 1109.37454134 1108.30793493 1081.76201912 1078.97151 1167.11411255 1300.63775794 1482.10937931 1607.50753815 1691.5281567 1742.38796455 1690.04053415 1729.57415132 1915.82120164 1988.91113753 2095.55981948 2122.76976535 2102.01661714 2055.69882095 2033.90477128 2092.5446033 2213.93440293 2334.61639083 2429.00824635 2485.3989931 2522.64927413 2548.49240636 2561.82507995 2618.81808358 2629.26563536 2654.50942984 2705.21087985 2792.93508333 2912.74932672 3012.1507634 3064.27261724 3003.03534705 2871.4740571 2772.68979945 2732.53099041 2745.86214499 2905.83893623 3134.4906304 3282.9309554 3214.10120513 2922.7546133 2687.3001256 2471.68345109 2272.83654221 2176.63211575 2329.48285205 2078.73568323 2067.99135412 2073.24904889 1995.13348907 2144.83227838 2228.1488093 2363.60589281 2518.04794835 2697.78549306 2863.7396069 2965.9607033 2993.62304442 2919.25638782 2818.27832563 2734.5774816 2696.72359308 2908.13949861 3101.02528508 3266.94169483 3274.06030305 3374.95133135 3618.77515141 3711.46669809 3970.78270144 4082.21153127 4203.82611323 4511.87677973 4695.86189289 4865.66491893 4942.6890059 5195.70979712 5440.12359773 5555.87754454 5676.18732472 5777.38671862 5867.63276437 6183.15042703 6281.35934121 6447.29877829 6509.59096016 6492.52343205 6458.30169211 6545.6399657 6737.11194931 6910.73880074 7005.35068143 7057.69213608 7101.93947506 7172.25834291 7189.12879008 7171.58503173 7166.98312858 7254.61626987 7353.54802024 7390.48235861 7399.96041026
1921.88019346 1923.18229475 1919.12209032 1909.2031903 1894.38936131 1877.20116473 1860.28738713 1843.82717482 1824.59042693 1781.07650489 1744.69428514 1720.49586111 1666.11707102 1640.75600103 1583.30985294 1567.16309367 1533.05771171 1482.59118365 1415.8680116 1355.08348903 1263.26570247 1155.50743124 1108.28723752 1063.77162526 1023.8621459 984.630919948 931.965445506 930.098737632 929.797251831 881.793119002 846.970649427 837.138593177 794.268824004 757.677205368 712.837558335 673.433753778 653.993862012 637.838564472 625.08541094 585.691790475 579.057113043 590.187220317 587.093832782 609.146692795 609.658914964 592.458716414 566.9105117 543.238842363 500.554916948 493.810585876 487.706593643 486.064562518 487.337088204 490.237536179 558.99553346 563.63997171 590.685578974 584.439073277 573.693556239 562.849534199 559.182397312 572.672622632 630.896095853 694.83099412 810.671223009 850.881178442 886.291348211 919.806112086 1087.67703278 1125.61650285 1168.34785125 1172.81231199 1325.97497294 1189.43984846 1089.83565271 1111.62921013 1213.72419925 1352.8784236 1429.29077382 1439.62063053 1446.1301655 1486.89480388 1547.58126245 1802.85853132 1586.48158372 1623.87053098 1528.97300455 1462.30375493 1472.7327703 1497.86665407 1358.57727839 1289.55676733 1158.23902264 984.899929099 850.234107115 776.095063928 810.785058327 817.800831855 870.596936788 870.959308926 854.898141256 819.473144672 732.471551944 736.76300428 739.763761984 750.895685086 746.502368487 758.151894412 751.939964161 638.392953479 655.684860089 693.505161048 758.237726484 842.682175337 952.95255448 1023.1813197 1053.47779709 1072.90964439 1103.01376174 1240.66290441 1382.48777663 1470.6535846 1537.08917065 1579.65917419 1619.25553866 1645.19045484 1693.57556657 1768.40299078 1892.98860818 1977.2461325 1978.90086668 2037.42538541 2036.92584912 2051.2313111 2093.47082097 2257.3006621 2323.92151356 2362.80824145 2390.62206939 2413.59244084 2424.07566885 2469.62665771 2468.4870588 2474.94138355 2504.66089215 2564.934664 2537.57697826 2623.77968647 2629.39337032 2609.20588959 2543.89384064 2480.25245555 2457.8203063 2533.24426031 2669.0520989 2764.85485277 2889.68254124 2825.19524474 2618.16259373 2451.36801997 2223.11415935 2088.01959346 1971.31292402 1909.91596058 1896.15375893 1880.32244358 1774.7472073 1792.36605905 1923.13163919 1981.56302489 2079.04358691 2178.48272357 2294.71608304 2407.19373394 2490.66503144 2555.37016386 2541.56752538 2507.53064303 2478.97021429 2475.93484858 2571.68903756 2618.35697185 2747.31446571 3085.21159322 3207.0872199 3312.30654271 3580.92479508 3889.74281178 4041.51248719 4207.12632239 4519.01803186 4697.92560409 4751.02156132 4800.4928615 5081.07788516 5194.69974119 5333.84077519 5597.53259382 5681.08500473 5738.47980729 5854.1022395 6071.7342609 6240.25257281 6431.12158716 6498.73619814 6549.80409293 6633.1502442 6773.72938426 6895.03127339 6971.76535955 6995.56725883 7053.73514251 7109.56160286 7139.77767033 7109.2909244 7076.79012202 7152.11947866 7241.29250686 7283.05480264 7328.35858141
1833.75642713 1837.22666373 1837.25853013 1866.71545769 1857.05010575 1847.91902524 1840.90092062 1833.63348461 1819.47661015 1778.92131131 1737.02984464 1663.01027412 1631.91646025 1620.82337513 1612.16348365 1608.56833858 1576.21580817 1513.64179608 1437.45028796 1341.9781968 1246.39578692 1124.75949134 1069.23632397 1019.70447151 976.007758451 939.534316107 863.624702246 795.670734929 785.041475111 765.827329498 735.778005232 699.845223668 664.717667887 625.680601888 618.622839931 583.100695355 594.192166054 510.43544852 463.148621876 458.376534534 448.118025025 451.625755216 457.215964494 466.195521359 489.35491062 483.485310322 475.11429918 441.723191928 429.165647778 423.257089241 432.191730301 431.542359658 432.305970673 407.491091228 455.128033026 499.502694296 494.832154825 505.899154635 484.358550394 462.749377767 453.653746437 458.769737881 537.882920702 589.156111885 713.352795429 761.827838727 799.80890728 834.847547816 1197.59619574 1081.26758622 1133.17680385 1483.4340414 1440.2177837 1365.14757919 1311.34942095 1394.36996486 1491.96763814 1624.80288636 1580.06392076 1355.37718757 1325.88524162 1388.55221895 1657.30326817 1760.51902364 1742.20698812 1602.84077335 1360.05532695 1298.07056755 1337.10538967 1430.24255671 1365.53940693 1351.32897423 1401.79482855 1150.19608739 1005.75011904 956.482287036 954.880127687 974.561693347 867.0982252 837.829571412 786.113369768 723.533209176 627.457709627 600.788301061 623.480720282 634.163520574 652.853129226 662.775794283 554.521724316 545.63638881 542.50060185 566.914503071 631.214620696 726.39315442 854.967067413 953.022723664 1009.83731324 1049.59528327 1088.47049959 1154.87913017 1261.63144855 1337.64482661 1428.79641914 1492.99985939 1578.00026904 1589.51225706 1623.79122801 1690.49950501 1737.03990408 1832.99370368 1918.04800291 1980.67323632 2001.67130468 2038.87338956 2067.24715496 2104.16394236 2251.76009067 2275.2278261 2292.99335232 2296.50474569 2304.5208809 2309.5492777 2349.00306581 2342.23344585 2285.46040573 2308.99495862 2312.27837541 2347.79739719 2350.62271761 2328.50108307 2288.06353829 2249.53971047 2177.2145955 2202.28956295 2224.39208296 2317.38912465 2364.05229056 2315.06241244 2189.80873783 2005.4175303 1972.74931332 1853.70666987 1775.62302454 1727.2996812 1718.11422849 1588.62811163 1592.27344661 1600.33992767 1589.07703197 1638.82539145 1796.74149949 1844.82582355 1906.55398217 1977.24642659 1988.98316496 2143.15857265 2179.36373986 2200.8286327 2226.42600424 2248.9178213 2370.61620091 2426.82255591 2563.30419035 2666.97365 3026.35633291 3147.60032592 3291.9102233 3604.40920069 3888.56848367 4127.95046974 4426.9617926 4646.07454089 4784.20443168 4798.76393732 4830.49768098 5042.30993903 5281.70407925 5415.53767204 5503.58460016 5581.83022279 5642.69546109 5817.77873477 6040.49662529 6265.79864933 6485.3548569 6610.61070595 6702.75922725 6826.2228046 6892.28625356 6950.69755945 6944.77442433 6969.42016385 7059.04102679 7107.71436852 7115.39854952 7111.852631 7168.83897363 7228.07986575 7254.85781574 7266.63996756
1802.35562844 1806.25735941 1808.37670445 1809.92845907 1813.2213823 1836.22708453 1840.05221684 1841.88374608 1817.51812576 1774.08841702 1716.80295809 1658.67011435 1627.51518445 1626.73189958 1636.28348475 1650.15977809 1616.17797588 1536.25143358 1440.77827244 1328.44700839 1163.3228775 1088.95199813 1026.22613997 971.180038382 921.742710942 877.156970292 754.384005173 698.970632908 672.47667086 645.169956659 618.544828379 595.168423459 575.818713567 516.660452362 500.146080238 461.06624408 444.723879486 425.033519598 406.831291028 395.917699284 374.471436092 362.04036747 349.419384876 339.913274114 342.310661097 349.432869244 357.758314651 364.682497836 363.326085108 364.620151362 378.159751587 350.941691541 353.445143866 356.247185342 403.652497615 403.623000845 399.110175546 394.357293152 384.808747152 379.737357222 358.064456671 373.776142668 455.553666878 505.730155126 657.443250693 708.258923883 739.29632639 765.989328115 1104.34757961 1182.13529326 1439.76430698 1516.5296234 1562.99027486 1557.15221149 1777.07224245 1661.46045008 1931.73927328 1721.7524532 1547.52312374 1310.03213196 1209.85932627 1356.94032138 1606.48853257 1763.80457051 1709.67646858 1731.25129745 1150.11595865 1073.37257926 1159.12791606 1308.50099168 1421.44118567 1565.17542006 1535.33775159 1455.33621319 1166.00611754 1109.93787082 1074.39193283 1043.53548237 868.584446787 778.612881599 712.522184636 620.047831615 515.770505118 459.59844034 446.291012477 470.213144416 576.213070262 515.669414519 494.285072848 465.603972399 438.984556018 448.112288907 512.058477154 613.037059646 723.868961437 870.196057573 944.723066619 1000.93875746 1051.29073404 1107.46107244 1196.75665377 1317.83759413 1421.86332164 1505.24965122 1559.59612591 1562.82497979 1549.69056509 1567.23318851 1669.76428182 1753.04861356 1833.10379578 1903.29580036 1937.84336805 1958.47708347 1986.53732031 2029.62499708 2129.13942311 2148.89867575 2231.9852972 2224.68321251 2226.92678824 2236.29765862 2244.57732877 2253.43453475 2260.82121323 2221.28628538 2183.29855738 2142.83691771 2123.89638001 2091.33557108 1896.73375716 1862.37918872 1797.3694153 1808.05933477 1819.22249991 1884.00089113 1862.38746676 1821.361002 1771.68616933 1678.87599919 1614.9961377 1634.33889186 1584.20414554 1548.55075619 1435.04325236 1423.06728777 1423.66836659 1392.48197414 1397.67108099 1425.71160474 1428.76933996 1540.06334002 1557.74066901 1598.84975905 1610.83057364 1782.74017532 1857.50463149 1920.31553163 1980.117628 2029.31748298 2051.45282748 2123.99737604 2383.5290912 2491.95461544 2628.55395719 2862.88253916 3031.2676483 3352.41623236 3689.24584179 4135.62382124 4496.81712508 4714.32742465 4849.84907315 4831.42034689 4817.9398423 4994.55610233 5138.34407709 5356.40037939 5443.38920564 5456.30357682 5462.93491675 5586.13567347 5874.07491839 6168.48294214 6377.43679111 6630.81520051 6731.68521691 6819.83535936 6895.27513665 6923.70418634 6912.63642907 6934.07756673 7033.35592163 7105.97049742 7139.68289778 7169.10065696 7206.15475328 7242.6116091 7252.90402827 7253.14087109
1780.44229227 1785.70607391 1789.9427964 1794.84072187 1803.57318194 1819.46098608 1840.74880363 1853.52377485 1832.08602897 1769.00069569 1689.94582815 1631.28864966 1584.83757723 1601.11794972 1644.70639888 1664.72449933 1617.67887464 1515.22905397 1346.35597779 1227.30819024 1084.58640465 994.103009104 926.90689543 868.930593137 803.469618164 748.653274743 657.027320782 603.676647645 561.884311724 525.727587448 501.262484705 490.070094805 487.055707812 446.912593394 426.136684933 405.169594908 392.198795485 338.938913686 325.554917866 310.110161935 281.39032205 258.224607327 254.517001328 233.696896308 217.449318181 230.650688772 275.949649728 291.615148154 303.673767197 283.102121214 286.910279713 303.39070538 306.513693637 305.499211082 311.345295037 358.720956771 357.143842769 355.486986396 335.405605729 310.695467953 298.142185263 314.078436364 385.220368898 465.951720178 593.546746717 661.966731328 673.656107491 681.302465872 957.453207824 1069.66018415 1381.07169115 1541.02757859 1644.80840838 2037.73344486 2066.20372736 2075.97164303 2183.91429937 2082.2675692 1758.22720325 1370.33923376 1214.44914945 1378.78102629 1668.41049483 1837.14045485 2112.9090695 1662.97543366 1086.63003307 964.788417981 1094.00502981 1309.63782599 1479.51842519 1556.30218836 1664.27292411 1614.5682401 1297.59717935 1229.63367927 1164.23158508 939.698305414 839.068920904 741.891481539 625.681949301 448.347776258 381.63031266 360.125924896 347.140627482 353.366066956 383.830222341 396.596571811 398.788225741 411.027681174 366.435077805 364.398583929 427.332156495 533.460352936 644.915494881 753.709267398 876.927310023 941.7342419 999.533193836 1063.57279853 1151.66800578 1235.05129292 1307.20816249 1442.20998041 1537.54558317 1541.50562685 1527.08987052 1532.41749853 1566.36114018 1671.81663366 1741.32228052 1814.0293049 1854.95339601 1899.9473016 1957.15373613 2040.33402658 2160.59501648 2192.89144627 2168.09059252 2116.54094251 2066.15692416 2084.89532417 2157.52961011 2243.33300894 2272.98078203 2151.55789465 1994.9128234 1884.35651893 1797.63417599 1741.97831828 1704.68896458 1614.00076825 1591.73795928 1570.97215021 1540.42131458 1483.10143762 1405.30830759 1426.7062875 1430.94636629 1408.90550363 1365.85388061 1226.97991214 1303.57245326 1282.21262293 1262.11707084 1271.1665515 1237.16649604 1234.78736024 1232.12146408 1223.86333084 1222.89793001 1195.25774902 1259.5265756 1241.96363122 1306.60752862 1484.24496817 1587.70339479 1587.84400355 1759.78170709 1795.29519904 1868.58276215 1980.10837043 2064.14507903 2334.80545686 2454.73849164 2694.94244055 2869.56008645 3101.46207865 3567.53904318 3951.89338171 4446.18762095 4761.72792186 4887.6273191 4842.97069131 4794.26041738 4951.03831142 5096.92955764 5321.6165806 5419.57995061 5433.20833474 5401.89547269 5494.39065736 5821.09349518 6137.48967538 6421.93433654 6576.56677546 6768.91754265 6853.6915624 6900.28038553 6939.20739994 6971.68095348 6995.86589197 7050.81708367 7100.01285149 7145.59137268 7174.66538838 7209.92187323 7252.71916798 7258.09956481 7248.92215773
1708.36002749 1722.32920204 1744.61239921 1755.2750949 1770.83416771 1795.84350215 1827.04368759 1843.72606444 1820.13890594 1753.72531937 1671.81751244 1604.45156468 1566.16549903 1572.89072235 1598.99898234 1609.05276837 1542.46809682 1424.88468146 1283.51746523 1170.19213305 1043.40407227 934.301111325 867.817959515 818.623479762 748.302571209 642.258018578 587.079450495 502.543368759 446.378478839 411.665885778 388.242652472 390.041765773 372.265755147 382.871484387 371.056348604 329.066921264 309.706358941 294.765879558 281.482639899 264.394289593 231.919405664 201.578441808 167.286091692 141.711860574 139.959148706 163.849092917 187.527479305 215.380435617 229.656158145 237.789219042 242.800083003 259.887987168 259.477315827 262.104429179 268.695228717 317.407492727 321.151629288 327.801005337 316.513641411 296.89579573 280.566186441 298.602221367 366.929268494 451.728630434 575.352449627 592.296107906 602.84757094 573.876688497 749.058518672 912.541648551 1292.23686829 1843.96981241 2079.68839288 2246.36605291 2454.57367564 2480.87028226 2527.50702846 2363.35339011 2074.66916521 1753.10080914 1624.65102182 1801.13322708 2075.60788844 2017.65636498 2335.81104239 1886.71477864 1373.56850267 1148.03758172 1201.49622443 1423.85772823 1602.95535912 2276.46919985 2329.80302411 1617.11251259 1455.14615737 1181.45136301 1090.00074301 991.130538404 707.923932726 612.010640029 503.426663351 398.143760994 323.097146101 294.639050026 318.376947788 352.03712585 350.992852661 362.943792194 391.140742848 369.252789155 342.443353269 340.690896218 371.123392225 497.783314443 508.564555069 575.521691783 767.552884466 744.828048836 803.196066142 887.322124448 961.626534498 1075.76338924 1186.24399772 1337.89003274 1421.07915926 1434.29492372 1393.97223447 1369.53248566 1379.89239009 1409.59644774 1649.57819778 1722.08589132 1769.01485414 1829.39822959 1815.97330636 2045.03579831 2164.73206456 2254.36299053 2176.38259276 2026.32783781 1935.85420885 1941.70724469 2022.15346337 2139.02679513 2154.73578411 2025.94835434 1849.97230051 1726.82652918 1633.31023888 1576.72815021 1538.05447279 1447.56616704 1421.32757336 1390.13893137 1340.87588434 1255.19438237 1159.27375677 1128.32429269 1152.2645096 1147.04623979 1114.12560059 1084.34978625 1051.35201798 1135.12329503 1122.37551402 1101.24361591 1101.08187522 1098.21814281 1094.67374884 1080.9088948 1064.53432431 1010.7526779 971.466965876 1007.30183868 1077.85950277 1253.20642255 1303.83255907 1401.02997354 1484.11671593 1623.09814646 1701.81953797 1815.94057369 1900.5736874 2159.45912384 2275.06418245 2508.16987493 2670.55304765 2886.52168247 3264.31049041 3732.10659543 4162.49407667 4585.42149105 4760.29640859 4715.63313116 4636.71648686 4761.4994594 5119.42202446 5282.52156721 5402.35310092 5452.0718952 5489.90168804 5627.39554531 5924.88691032 6192.34962842 6454.51149485 6600.91523936 6696.82181002 6866.6635077 6941.05605145 7002.5770471 7064.55093061 7071.67454357 7083.9344298 7135.99213277 7162.45388958 7188.6345729 7213.01467763 7232.8678063 7238.47986079 7200.90510526
1706.4088234 1723.32848963 1736.05339903 1744.9570795 1760.56622606 1773.03899468 1790.43187097 1795.26495844 1766.68718191 1706.73805594 1632.80001766 1567.95434769 1527.33638811 1495.35641463 1499.12455555 1467.56573785 1407.77570777 1289.11764738 1180.22321603 1051.67244613 974.461752907 875.950308282 815.383708429 758.27576234 653.157943438 588.96232482 526.212088462 454.071344613 361.192700225 304.050043911 287.412434534 283.859485504 310.625860377 331.078707923 293.223476977 288.092239646 269.272366207 255.664065881 244.256023338 228.846037963 197.419799581 166.066674115 129.155059549 101.443810025 98.3759846846 109.453654866 138.82458978 129.57974032 160.828784799 198.968583711 203.65692995 207.574954609 219.657184065 221.817012047 227.802682476 232.33736861 257.148315744 279.642464512 279.217149232 286.453405974 301.333986035 317.807534036 400.363043638 484.867898595 547.149203038 576.486923463 526.923410722 513.927650111 525.004464487 804.403241444 1408.65556521 1877.38200624 2183.92248292 2397.11868234 2707.96534222 2765.30382159 2842.8256404 2733.46227669 2549.44547476 2355.1875133 2274.35699368 2363.99850726 2501.05159272 2874.91437134 2749.73840219 2409.33681069 2029.83375888 1747.58817426 1512.05020023 2151.1717201 2397.6399316 2534.82054043 2503.75092195 1761.3776801 1580.58491316 1271.16764802 1157.92541076 1010.23351182 729.288235045 625.181865919 510.277794429 399.359903689 316.039386855 290.866456061 313.330111101 330.850394636 348.25763252 359.801552193 372.253355281 365.876912983 355.315885904 357.623526403 381.828070841 423.654688464 491.481738067 545.167680855 597.477471595 699.308277691 753.595583221 831.522249574 893.492215034 986.602789744 1061.57517312 1139.5773435 1240.83335476 1264.8107897 1260.64538806 1270.99975238 1298.2592226 1328.98924755 1410.96948984 1483.60571692 1554.26768575 1630.70222169 1749.73315878 1920.51393845 2122.62203877 2217.38353798 2132.97202012 1970.25733982 1862.2044937 1837.06631432 1859.74144131 1904.22348392 1875.78463069 1769.79440513 1630.70991283 1543.00938621 1475.10113307 1431.05297982 1340.52651522 1309.91600056 1286.53110814 1259.66355776 1215.650691 1123.97064032 1046.9193234 1027.03730121 1041.22185233 995.412265884 952.742673449 882.975258955 844.015228126 908.382011499 999.269810283 869.970477591 865.253118455 868.924155264 983.115188365 974.731471841 896.564276349 860.561120361 825.357804614 833.245265924 883.236921407 973.05151119 1162.56434323 1257.06080827 1317.35289567 1472.70615469 1551.17527354 1663.62850311 1745.91751843 1816.6505033 2091.91089601 2306.06689715 2438.65698497 2609.75828658 2929.68758398 3342.64780686 3726.94154781 4081.99445822 4352.03770414 4462.18397043 4467.77307302 4669.01698423 4891.97507218 5209.58979373 5360.35765095 5467.176376 5549.21870599 5800.9556925 6016.04241286 6241.32965748 6442.15973096 6560.53928014 6724.40424829 6822.51618139 6973.34315195 7068.75779292 7155.33405483 7143.79917795 7124.81783917 7160.44641059 7180.61863377 7206.557582 7232.15548123 7231.17205726 7192.14606103 7170.5222829
1714.75528795 1738.50780199 1754.33598328 1758.67902624 1753.43914419 1744.61305489 1739.2289548 1736.73225625 1703.56979911 1644.32560256 1579.92324851 1518.12176164 1468.646781 1409.47857653 1338.85944497 1296.93560815 1227.57044735 1133.30739948 1051.74408065 951.33936433 897.132061244 814.655382758 762.887605014 661.396742344 611.829725166 539.357951839 464.468146602 388.92478099 293.680522558 232.774541381 210.486056328 226.533763577 255.378990758 262.07862256 260.149632834 252.04409607 232.338653946 224.079308643 212.592636314 193.765573399 177.179052237 149.848718062 118.47430089 93.4783989659 91.9837557336 101.82104833 109.203567284 112.453586611 111.494705999 108.886252165 140.086035314 143.068284849 154.385365475 159.858698533 161.471792735 166.08912686 206.415612444 230.944604018 258.251895643 279.645920779 333.285307389 357.360958548 585.84127834 516.744200628 828.088827008 786.058197126 628.422515959 452.045151165 457.319997764 780.55291519 1743.85647133 2346.53187955 2778.15425409 2749.75002437 2946.78130095 3031.92493227 3150.28379052 3107.06728527 3027.52505324 2946.03136258 2912.78027377 2950.42586088 3687.0536737 3726.80371221 3297.31627647 3085.54570587 2858.06208238 2732.4575525 2527.32928312 2667.0989209 2788.3588747 2838.96955533 2757.19186268 2604.50561002 1693.81759593 1354.74902081 1190.15784284 1054.54204762 758.43932124 652.257576702 546.377958399 446.791589763 367.256655233 323.463775643 338.834675304 340.099623027 350.411072981 359.006215018 361.857979263 363.808012456 371.266869897 378.022675835 396.161865066 424.427092111 458.532234021 520.765777461 563.815435675 606.929621029 704.104578427 773.380167684 822.185088774 893.368450437 934.171626515 971.759033331 1051.02366907 1085.68837734 1116.28864306 1161.83720295 1211.19248638 1248.90330458 1291.93515559 1399.719486 1467.00746475 1531.79741583 1623.23254366 1755.96881838 1904.67780427 1977.19487853 1905.8896603 1784.43569702 1745.16272438 1705.97493825 1680.14784388 1662.57678853 1581.59445751 1459.32596431 1361.30984605 1351.6681455 1340.57794735 1317.77823541 1228.77863013 1199.27247782 1182.64975178 1167.23159764 1136.79843013 1076.66735137 1031.45139156 1016.59969324 1006.81464678 920.140547911 848.118506557 802.242540541 774.326758465 754.063380871 730.795307556 794.841520777 789.789556082 795.489012184 809.756109575 823.512003948 788.931953417 791.44443123 784.010152874 785.789717288 810.588491288 905.931331721 965.459985425 1128.39980984 1193.63558931 1260.40033681 1414.75314272 1522.62412027 1581.38218619 1661.49155439 1748.72242824 2099.22681525 2190.46518103 2364.84462873 2522.47264043 2843.76822539 3164.8267878 3499.21084946 3858.74298604 4126.97730911 4242.2330665 4323.81255077 4753.35469873 5097.43964567 5331.0663736 5491.54588403 5646.60311598 5893.92009613 6153.59240794 6377.18414136 6461.95651756 6544.44624786 6694.05654856 6785.38309753 6928.52087962 7065.60787422 7174.12924347 7157.79451476 7131.87775579 7167.52724615 7172.37933466 7193.7465993 7265.15726849 7233.07654184 7179.40665163 7145.36385138
1733.00029904 1770.73853145 1797.59016734 1802.01478065 1780.77549638 1745.76547629 1708.46679585 1674.96990042 1636.2816841 1573.10428419 1512.88167896 1461.29276599 1362.43639603 1286.57256252 1213.06564358 1141.91623799 1058.30302059 978.33260832 882.915604309 848.362714804 820.162118755 787.04733882 713.024749388 621.635197958 577.385321085 511.847633934 442.803230579 370.846062628 277.0703088 215.992493602 196.739568866 210.974632345 228.414685365 241.801380111 235.990464787 218.59564931 197.138930053 168.912110908 165.530858945 161.318332663 163.410806536 131.353014454 104.176365257 96.7954548405 95.8144747442 101.157445855 100.604115832 98.3257840015 94.0344022422 91.0407716772 90.6903032236 94.6858408883 122.853567769 104.096596681 130.446351249 120.318566834 161.332726425 188.9833445 226.074786536 261.276122571 334.683951316 387.934686417 687.976944039 764.092158817 868.926121916 1076.40845221 892.457260633 632.649796561 662.288189747 1003.86705159 2029.24592129 2581.01317387 2997.20955474 3287.976121 3647.93502366 3736.82086004 3396.8818657 3389.72127723 3379.85580399 3387.7293466 3418.02525974 4180.47206154 4289.96327992 4314.75063035 4249.88685723 3770.39746903 3645.7469501 3562.68536812 3502.4839187 3194.25819207 3197.06335292 3154.27712289 3014.75607922 2814.03554197 2428.4093347 2216.66128627 1243.70578051 1094.04675857 788.755854857 685.949050361 593.271182198 499.496622768 444.362342093 419.16506698 375.257319483 353.414382835 354.295637148 358.597434678 363.670799775 365.38429755 350.194472399 386.079171082 399.498743264 418.100208475 441.579101793 486.308468304 531.779743363 569.385035412 625.002791262 717.3523776 756.845394174 789.354693233 827.395477464 834.262637817 884.275547439 928.990864495 1004.40217807 1060.83511735 1108.6930979 1174.01537646 1217.97727308 1318.84088262 1377.85284972 1421.49570811 1472.30930431 1550.29084945 1622.33635246 1656.43838908 1648.52388647 1600.46353277 1543.18619052 1482.35683544 1492.26694734 1456.88488867 1392.03948824 1293.23892469 1231.96231855 1225.70334016 1251.0018145 1192.03993693 1145.33484281 1119.24922447 1109.99772908 1101.27146889 1082.62129636 990.756721791 960.877273932 952.846363928 909.331242748 836.590662402 765.3478365 731.371963461 718.664944849 709.448032237 693.205179373 674.118109337 726.540131984 733.242739176 752.556830489 731.867165079 758.18408149 775.212567742 781.726050674 786.862097232 798.09738539 814.605438031 827.552648507 940.561627472 975.22201643 1143.82933638 1286.75257574 1373.99254472 1442.97298191 1516.50945843 1594.57968216 1756.06254575 1861.71045361 1907.21632425 2159.54759547 2302.80113128 2584.05823911 2935.89158565 3282.83838736 3696.4852894 3937.84801155 4137.76412425 4474.62733224 5017.07133108 5227.59491941 5439.64501593 5833.06186848 6048.9356604 6299.84805962 6516.26466254 6538.51675422 6575.060429 6662.64597665 6796.33102024 6852.69169468 6981.29891101 7066.10030902 7094.56597216 7139.68470365 7237.34197445 7213.47383377 7173.07600614 7216.37153923 7193.3135317 7139.88913313 7060.9080293
1756.19251542 1816.71968451 1866.83054102 1880.13057593 1841.32682493 1770.94095629 1698.35664459 1638.44935449 1585.25759538 1516.75167552 1455.95359255 1362.35406214 1298.08090191 1208.26289461 1114.65295983 1018.63715028 906.073213944 796.945168846 761.65462696 753.49381351 751.950948306 733.388544489 625.640112739 585.301775621 547.056454946 509.834068771 419.915920269 363.908406673 300.757856579 237.327790275 217.213527707 220.058481759 226.319029506 221.659491481 193.840772027 174.599590366 150.420512515 145.776739206 146.812683454 147.462519342 113.670526471 109.13647008 103.656053969 97.8367778146 95.6111217689 93.6349958715 90.9258009972 84.5376583365 77.8483183377 74.6440939838 75.9028068229 81.7485518509 84.7355379386 90.8935304617 87.0675716823 95.3065242628 100.424948002 125.983606001 166.285674383 234.661206228 343.249689677 670.818955597 752.994124513 1168.10310827 1298.81377866 1284.18241099 1209.56505365 1150.14648013 1241.33149994 1604.26924981 2423.49927096 2856.18311068 3220.74368331 3658.90995643 3824.37611237 3883.75027849 3842.73739886 3496.38991792 3507.18107388 3610.81992654 4414.65890019 5187.03384201 5370.04209096 4864.61883234 4830.38180645 5532.62699809 4271.53683616 4746.86307025 4350.0433667 4341.62020218 3569.35690377 3372.58713379 4070.9678563 3007.70489802 2573.96370801 2318.93754706 2082.10003937 1121.66482119 810.271789678 707.422389147 606.630915445 544.988139722 501.826390044 476.170042834 384.44885365 339.926018967 351.028627694 351.409893158 351.941554537 361.800952101 343.522811217 381.064686696 390.301768549 402.189438527 418.911635285 457.533576198 499.7017617 523.280778745 557.467959957 618.686007586 655.744748259 729.050384385 752.81666949 739.207953065 756.488655836 810.315155417 891.64604229 980.044510682 1040.09514984 1109.90037751 1153.36320053 1200.89512828 1241.74130767 1320.23972514 1334.7120574 1338.25292208 1368.24321991 1411.42489545 1437.17483634 1433.07480548 1404.79934959 1328.45587671 1277.72382545 1324.0114899 1267.79042597 1228.07760311 1204.33821055 1202.758865 1169.67398997 1095.53263943 1095.08693816 1072.38012631 1053.94784505 1004.84461877 911.580548767 882.954153361 875.164266925 850.08458388 811.011044844 734.791518052 693.906705053 684.392626258 683.398754421 678.973092075 667.132834977 657.973419211 659.132782562 688.176970479 664.87206955 680.112323744 722.477347007 731.313206818 751.090822194 763.889049001 780.030932094 783.398581818 775.323327667 778.834328628 787.908205013 939.136506789 1067.21038575 1154.91148385 1314.36536443 1381.04366542 1455.06765166 1519.94812121 1673.33926946 1650.11252884 1727.31334044 1750.01830571 2019.96930511 2412.03022055 2818.41327493 3274.22055311 3541.89344001 3950.23259846 4325.43011941 4755.85313927 5155.77396287 5409.33019513 5704.53732615 6160.63459169 6498.59559438 6650.36379348 6619.39310801 6587.40510323 6675.08913743 6812.74168722 6857.66762204 6858.17104006 6975.08652488 7022.57221072 7057.09042129 7154.6007572 7157.03776264 7113.04531719 7116.56327285 7119.53411268 7092.23689296 7065.07530759
1771.85722214 1859.23143342 1942.21443434 1972.76198459 1913.83245705 1801.86192303 1693.40700252 1609.38764133 1503.81532186 1432.04366577 1364.19181695 1299.78232051 1231.15269853 1131.07179438 1025.93076605 911.352240639 775.311390817 681.942117079 653.867322069 677.701369429 700.093464408 654.132179744 591.403169564 550.164913073 494.390534528 469.936070357 426.681219171 384.913197555 334.663106562 276.812653259 236.48500163 223.126628281 214.481506714 186.047885707 162.998056066 141.430237111 125.364288076 121.681486644 120.356568322 118.753818367 106.324919065 103.631979064 99.1493052725 92.722882761 89.276824154 81.221347338 75.0275813111 67.5350986374 64.2551839935 61.1392787843 64.0677823413 71.633778879 74.249514241 81.7638398531 72.385548401 72.623026333 72.3054327341 98.9391702473 149.305154769 198.934277987 605.743984965 708.473902212 804.130700572 1280.79639215 1444.38729677 1502.43014139 1520.17907375 1552.5138987 2030.40407196 2347.34544846 2699.93472197 3056.51605428 3779.7056445 3793.08832047 3942.20603593 3963.99101062 4190.97595324 3584.91819939 3323.01104407 3929.73440478 5033.35035608 5546.53340118 5876.05468712 5973.11954659 5924.60394885 6040.4246944 5325.43272708 5701.84090022 5255.44389672 4640.52110026 4600.626756 4439.67892824 4256.86844168 3122.13703996 2658.53155185 2396.8303921 2127.43933202 1674.70417266 815.478533034 702.941338306 603.867225384 550.814172388 519.632492217 411.922600859 398.939903187 331.903716902 324.348406653 318.897650895 337.543653171 345.295702883 334.005379631 340.450704249 373.525493593 379.660371033 391.792836523 426.433121726 461.095648665 489.326738354 519.360624886 574.922988933 612.704199479 651.777975833 695.398942268 694.894286245 686.578999768 746.28077895 840.935975576 923.449631524 990.482397475 1048.10088481 1107.80677656 1141.28014878 1172.52671739 1207.42123764 1239.28523995 1215.89442212 1220.46506116 1263.40795472 1296.99055924 1289.48429818 1248.52988776 1219.02251735 1168.8322255 1148.51268085 1128.78688597 1142.39782209 1161.66133053 1145.21360162 1073.37272524 992.660597404 1025.14545444 1080.94373088 1050.25155676 916.70963061 853.782561693 805.131593455 770.012752412 747.120004131 695.674911233 677.875908474 671.450545584 674.155356271 646.855681758 608.761856999 603.324020916 632.592762881 663.23330975 646.34581447 603.600429859 591.528093519 595.161780045 681.562887356 701.665081548 722.537442884 725.055400582 748.315772335 737.951885394 740.295523941 749.862793145 769.124915466 856.322642719 967.589109238 1023.45018099 1086.44037744 1235.69314454 1343.63576005 1402.25029082 1444.04331369 1362.19337346 1386.32176388 1675.29501794 2117.64999131 2562.29915593 2896.95959497 3348.64372328 3736.63557936 4169.00517769 4420.29814325 4864.99611577 5175.5789281 5604.00827117 6105.33118286 6543.09953272 6751.61507741 6613.58715778 6503.90663849 6642.90066306 6785.0068505 6842.84980424 6814.7055784 6871.90082871 6904.03094682 6918.39594083 6985.39277334 6995.05709469 6957.70510402 6976.2249941 7042.93871271 7154.37321465 7094.29440727
1764.72732435 1849.04122228 1966.70217075 2015.09346367 1932.80290677 1779.98155734 1640.3463207 1539.95537417 1464.63583365 1401.08698126 1324.22175524 1260.50299539 1192.23087092 1090.52802357 983.198739297 861.355463181 719.759559095 607.877992017 591.078848207 627.374292482 650.817161949 628.97444017 563.725283884 499.303660909 471.271430135 458.572694606 433.596717757 404.144897898 365.522174752 278.14873454 255.527302369 228.420351747 211.045201113 176.868687245 153.569981774 122.256931588 118.490640772 117.666339464 111.780859815 113.624049942 99.7886098033 94.6880341959 88.6071534373 84.1183747829 75.7224592944 70.9895218671 65.7947355468 48.9691996672 51.7684614535 53.5044203555 53.1346256085 53.5394365931 55.9987142437 60.2300102362 69.6961242528 65.3609634783 67.5729969246 95.9186363141 140.847538742 189.001609983 568.952935936 751.142815945 860.834777391 1379.96116094 1951.27798153 2095.01523994 2127.1729618 2195.20470763 2511.57502434 2789.23323348 3217.53857013 3717.60057717 3837.25370067 4052.40601093 3975.60779911 4463.49940059 4076.03028258 3287.39681101 3001.64804626 3958.12115051 5139.3358966 6425.85990636 6888.2355224 6410.49965456 6630.16256296 6459.74200331 6088.48503715 5653.65289645 5358.82062108 5130.07917079 5251.40547377 5224.18297598 4381.50154009 3899.06613417 2740.54295453 2447.34696322 2147.49293668 1668.69709884 805.276697417 668.858778709 559.14925293 510.948189909 490.095935993 405.636760738 390.738405322 331.282245853 320.156602759 312.365881853 299.57923798 307.236222357 323.298143676 331.310081727 334.248677754 339.348182484 360.337078806 383.189642983 430.900448907 460.969483142 484.83980131 530.016952439 568.082813029 616.511882637 663.206111733 684.699654246 690.883015479 730.463411697 829.174626412 897.029491188 950.616658709 1008.88102109 1062.34816238 1091.99991716 1120.65736221 1134.64996824 1160.77190442 1171.23471483 1168.9437662 1181.77314455 1184.46624347 1171.41958891 1154.95513155 1128.20202515 1074.90406523 1041.0829435 1033.96569492 1048.23136459 1060.58479845 1044.12435139 945.317562802 913.936400323 929.047695864 964.565399804 922.208119414 786.1442339 695.01457504 632.204191838 599.217489509 571.518019069 545.017083239 569.169148277 615.823671913 639.87924678 617.591960029 582.143463765 564.967416855 613.90776632 647.941148588 628.278048218 578.616370386 542.998260259 531.048123366 541.797210108 559.799659395 673.357294642 684.847261384 641.450474204 712.124026876 715.264621689 723.126376678 708.552640266 779.131026763 925.027285002 964.135114073 1008.86595771 1098.12300255 1263.64066182 1345.28479082 1390.77000699 1294.07373407 1278.97382002 1575.87849628 2039.88933088 2446.95738583 2766.8754466 3029.57882014 3591.70259835 3846.92326227 4098.69498142 4549.52580919 4941.03390671 5414.83427492 5759.31601728 6192.39212697 6489.19256145 6426.22571587 6376.88613703 6489.77192687 6632.81391959 6691.25663855 6718.76379824 6751.72153305 6806.44394561 6872.341584 6939.18264409 6899.32199409 6870.38196788 6845.88202662 6944.28414157 7091.34888685 7024.37358774
1664.92866863 1790.16833217 1888.70129615 1926.02874609 1845.04161305 1705.4075945 1581.79653911 1492.61840233 1423.70892974 1363.82580691 1292.0018471 1231.99932789 1168.85748367 1074.28865009 988.810004291 866.965549079 733.916766975 620.310901467 604.291938528 631.652548763 622.068634504 593.350854855 530.847629434 469.361354678 446.880685802 442.90430138 433.611357996 399.261620936 365.225783368 300.684538152 265.689107692 229.168427291 206.886316245 146.1298933 130.849514568 121.248600091 117.814778928 115.281357417 107.915184993 86.7635953335 74.4707288866 63.8489512028 57.7045818435 49.5398937209 43.6428444027 41.968552744 43.0682968496 45.914260438 50.3546253036 52.4335848113 51.0215146346 51.0900958795 53.3712640326 56.6022139301 64.5929002794 69.1759899552 87.5777633813 109.365213386 144.181121128 184.501676228 591.194983389 780.760722578 901.106868805 1499.62583279 2079.76046147 2179.11328555 2278.486679 2610.37099245 2295.6137672 2223.39377748 2705.60390563 3522.49515141 4038.71780437 4098.17213574 4174.10149105 4417.53978249 4471.38882117 3624.93621552 3232.44728907 4574.58573991 6034.61427085 6868.09238776 7296.39775781 6808.77056712 7009.15465386 7264.23937477 6605.53669074 5311.16213076 4755.50483546 4769.50215486 5123.61157216 5280.55417273 5117.88300822 4652.9639517 2783.26130098 2467.25225051 2146.79047632 1723.0270653 1359.47202743 646.084496029 477.724704551 432.981073933 404.488784958 401.449366069 386.245039682 315.513123245 311.415507655 302.006298279 288.062434021 288.179015165 274.337139744 305.463961148 320.925366979 332.97873058 333.893170766 344.105818174 396.346087668 422.725913335 441.245487958 469.785029793 511.019696354 565.513142042 631.788272305 678.946232732 698.913689826 740.260864336 796.033332231 841.049240563 903.628737768 960.381122492 997.676424768 1024.77177189 1049.52945569 1068.37250025 1111.07203718 1150.31620667 1162.06842239 1153.53211461 1125.98862164 1083.50390923 1060.1195531 1058.78213003 987.213630869 953.957696197 945.530536493 951.687508889 953.938199843 887.512093559 834.667993896 799.457427402 780.291103049 725.094469553 697.156536293 646.822441026 594.339372932 529.428336168 515.349077672 485.7687517 460.988806528 483.10993932 521.38218834 544.602508747 535.954446917 510.518672906 514.245405011 541.378034843 569.21900001 554.842701793 518.94761631 491.54576422 481.351428313 489.57560683 500.972070486 543.543014304 577.906269229 632.391099401 679.799926629 706.402309779 703.27631443 707.423334993 777.286004902 895.506589125 912.788297705 933.586889637 1013.12062539 1188.59832605 1305.53937898 1356.62972574 1375.33451918 1398.98315185 1660.08226444 2111.27962055 2447.00820086 2711.83973488 2939.27485866 3277.97804078 3693.04999196 3933.75278583 4367.24935077 4724.34478371 4952.39076982 5245.25851692 5497.74647413 5793.72488348 5983.92534073 6112.85138238 6261.76424548 6451.6843833 6516.47417852 6671.78425767 6823.44267041 6756.89246517 6784.85412037 6883.5946001 6800.04016095 6770.08529178 6825.62869374 6800.55378024 6820.11630894 6727.29400751
1577.0730085 1650.906514 1712.53334874 1722.32838931 1669.26095189 1579.40236215 1504.87549036 1438.07763158 1383.18084242 1330.69401118 1280.17776252 1212.55416894 1157.72149326 1077.01382391 1012.28784948 887.249472056 794.053327235 713.385381762 665.881581523 642.131386537 627.513831525 589.77621159 524.242794672 463.942592758 443.985381024 442.252611459 424.522041205 394.332753655 359.661740211 282.265862291 252.014037996 225.649492487 162.093870922 141.785097412 127.130283337 117.828880888 113.51914881 99.0928986038 90.8823892751 75.4254847034 65.5315343197 55.9820903369 50.2372452203 42.487210423 36.4438226554 35.0858830678 36.0052200576 39.5004824982 43.2675311511 45.2223581356 45.7631636514 46.9302709522 49.0733937311 51.7393413082 54.8380824187 70.6152724993 100.582857977 122.37487463 146.077551783 177.553994118 600.54718804 791.751733998 1044.78910743 1314.36371151 2150.99384222 2269.13900153 2803.37686251 2618.85225018 2043.94627163 1592.53909626 2230.24906165 3475.38796922 4302.37181322 3782.87885933 3475.53572678 4345.82026975 5286.65835171 5427.17622569 5417.79889764 6044.64525506 7075.21837113 7292.76467164 7626.4208977 7764.4338998 7339.64463539 7559.49880921 7145.96840342 5309.14907713 4273.95519072 4579.28497911 5060.05076077 5340.7016711 5043.73822048 4556.02748897 3491.01608576 2498.48869623 2170.76767782 1707.96487022 1334.66540454 908.181180245 431.239819002 376.153875088 392.952157882 394.581950579 374.513690831 303.139417069 286.083087133 287.280659323 272.767171132 240.639261585 261.782615513 284.182034628 317.597049387 334.214766534 334.278610124 341.551291401 364.69735199 416.600639042 430.406363706 434.764517585 467.960955876 520.971303859 603.684903365 650.014886593 700.174460494 765.628438484 824.355891518 873.416743717 890.218749173 889.9179255 966.065382735 997.97095912 1014.17733383 1035.84241897 1067.05437301 1096.82341818 1105.53215297 1078.10179174 1041.07983457 1025.89337353 1008.07730412 991.235103789 938.688731183 897.742840834 890.162730095 865.688308456 830.22730566 766.000548367 698.628534486 625.766937299 561.029907136 536.622367401 527.777921695 521.116931673 475.496422074 447.187611759 393.413411608 378.641581104 371.657819226 383.911783162 415.381344133 442.159781833 426.217005087 441.334412039 445.973691791 455.689870634 468.455494317 455.86974917 417.676024265 405.343469707 426.269634097 430.373078727 448.851107009 496.421620338 525.59550469 588.043160534 667.799947383 700.260739134 699.109208343 703.39171726 777.988129231 834.886030999 866.332513651 881.774118749 952.004434084 1064.94022861 1257.40301015 1371.08106558 1433.95724709 1583.48473898 1795.48298637 2036.26330243 2403.10936238 2704.18893631 2873.75956275 3046.56694098 3369.21566139 3767.96335492 4006.43218017 4436.84634696 4634.65688153 4718.16468509 4891.8106678 5207.12737909 5525.93132441 5755.85253836 5908.89780075 6141.16666069 6342.08705471 6570.56763843 6782.71019998 6669.06561881 6602.28094077 6618.71717356 6607.44873853 6740.09133512 6943.40981068 6648.22105197 6496.99569964 6421.93371195
1481.89604077 1521.01731059 1543.9329168 1534.39218728 1495.41363728 1452.01565527 1416.28360999 1373.68124906 1351.59538008 1303.04311319 1256.70240947 1212.21271532 1158.18803044 1090.82191714 1051.3508672 965.37708331 890.034667278 789.180805098 741.540022239 672.719800923 638.012122903 593.463870538 542.052393648 474.168466166 441.456884568 432.097772978 417.517341795 391.077481577 333.629006979 282.581051003 252.29199899 208.697782318 167.568820369 135.423827742 120.46381933 108.873978909 101.182615484 79.0452513224 69.9563324142 63.6552922482 54.8119695957 41.2142480329 36.9223327854 33.4546283342 29.3661527796 28.4199813471 27.8787347612 29.4889781037 32.3127014045 32.1286590457 32.863856558 34.1099396363 35.6069963949 45.8308003615 57.9260713459 68.4468074578 72.6093029563 74.953553482 124.502819855 161.465668089 582.137997382 834.363360643 1040.40131473 1324.71470505 1985.06626907 2292.85544 3136.53145788 2983.00565692 2434.13535516 2073.0209961 2738.7837898 4176.07021868 4373.02809526 3175.42459114 2403.20175122 4396.63534193 6294.23037422 7342.39591475 7525.6245679 7524.32121358 7271.49632459 7708.94281542 8180.79343228 8304.6507669 8003.35669296 8395.11105317 7768.87276207 6050.0629843 5018.5411027 5121.05795965 5353.02595239 5281.66731121 4942.81619114 4476.7733799 3913.85211895 2555.91274518 2204.93759072 1676.22085216 1392.33744203 1010.11118031 624.296684674 417.384469559 421.472101989 385.540969848 308.792873472 281.710005592 266.427530664 257.166930936 253.81844065 223.316534377 241.503053045 262.580741096 287.494838396 314.870569683 320.593451687 337.902664787 362.042773772 396.181605675 424.423754874 429.763083673 451.13027027 494.494435745 555.968135111 623.365758831 674.040551033 768.258656887 842.308550253 906.789223148 912.758013713 897.735767105 944.410781707 1006.3781445 1015.67682578 1014.32661203 1034.27169013 1046.66812307 1045.38597469 1024.54035965 998.385292957 979.410569805 974.615486131 943.964264985 889.89599388 878.019937039 875.860574728 806.339151174 738.878266273 608.627778637 564.126407621 517.449317237 458.953987415 414.074572425 419.707306478 418.153344335 397.765421269 377.681725198 336.593265268 316.261948821 295.832935758 302.255404258 333.503678655 335.984200359 340.039363819 353.177429499 376.036302177 375.206680934 354.871374462 342.526764043 335.561140814 340.20821006 349.824199509 378.332420125 392.58040931 426.855478096 469.835915839 531.260970257 613.417077911 651.533353714 674.042712249 682.895289424 727.206422109 829.10847789 864.245798561 870.558088989 937.01477377 1040.40376105 1231.7997706 1358.10893551 1487.51450001 1663.53117852 1971.21589885 2207.35670954 2415.07069955 2525.23264405 2729.95624754 2962.40266696 3259.78142612 3378.26463332 3750.25037973 4039.70466411 4453.26408721 4511.11421914 4525.91277517 4779.43668243 5135.38303019 5360.40882468 5649.42415079 5873.99298885 6047.36974567 6150.28098787 6236.0578924 6236.474376 6216.26051736 6201.77079745 6210.48134069 6270.51135801 6422.19124879 6233.6183413 6064.74893887 5986.68888507
1400.94846019 1421.47535787 1430.92496874 1424.00735932 1407.32926918 1395.37976586 1380.45156391 1346.79663537 1304.3908801 1261.96242737 1241.35669075 1202.62871827 1155.86560929 1108.51472239 1074.15750252 1047.42500091 953.408547644 867.406014907 797.560788915 716.147792623 648.800761008 599.883225219 516.891307106 457.858894237 441.433822975 425.935933636 404.640177343 358.551585735 327.348711781 278.588242587 249.297555133 205.806757528 162.76388813 128.108658054 109.554520649 93.5368744502 72.3732626233 58.1913633314 55.7000005118 44.2390402142 38.7627562784 35.4491738207 29.922183619 22.8605939998 20.8907538146 19.2472768352 19.3404776427 16.7882943287 18.6044575235 21.7036676018 23.657044124 24.8306555322 29.8045352358 41.9620995334 52.9334537317 66.2158379595 64.9687906047 63.0621305386 65.9680886352 124.343134228 530.239601503 794.21660902 1206.78230538 1539.09680217 2058.41849134 2453.7882481 3093.28121722 3217.0360778 3275.79162913 3565.00153027 4283.24882816 5271.10480959 5768.0775436 4600.49163809 4036.35106381 5929.63101756 7691.87579928 8583.59507453 9037.48643513 7889.89869631 6527.63866992 7336.57327546 8356.91370176 7763.21846051 7791.41311527 8450.42158101 8693.17940445 7986.09214063 6812.09507231 6613.86194753 5680.81513167 4951.57748649 4285.84581822 3993.66736746 3272.58002786 2800.59816542 1950.50536142 1746.40926127 1456.33316752 1217.87099348 936.563303159 483.233333729 452.424385457 358.836460846 305.067148296 249.560994577 241.963322103 238.179135467 211.891579241 203.74681546 210.330410739 227.068270004 251.567004576 279.520717616 296.363106844 309.750405642 351.397307327 381.897540948 409.278497528 417.86858501 419.029346813 451.564628147 496.226032377 558.740753583 623.170970548 689.027623052 801.32592068 888.016841853 900.035534287 887.581620042 934.123453193 988.082079685 1004.19838707 980.642493039 972.301362825 1013.35351001 1010.57158406 1002.10805797 975.108012125 968.789455791 971.444176264 908.184149083 854.04358706 835.120680548 798.423555294 704.150839533 602.45969523 530.270622576 504.699826907 468.979561122 412.104108836 390.267575961 387.745331605 366.20666398 331.636217797 303.086004372 289.371955494 274.403114565 261.359493445 261.320331418 269.891644803 270.480012866 279.3162764 265.418056627 270.398018031 289.785576003 275.276140823 270.519091461 269.857702464 287.356892801 299.548601898 311.819768331 324.264344418 364.904051798 401.081917887 455.507984943 511.540950473 580.194363914 597.349459746 651.880553442 694.043048765 803.768888662 842.858489549 864.580954231 894.511723651 946.807192787 1102.26066352 1234.85185866 1497.97779632 1706.8761025 1961.09294112 2350.02145596 2607.5174931 2692.083391 2737.00772269 2850.09799477 3028.68695578 3206.44429236 3397.20296209 3827.38165132 4242.25842161 4446.52048837 4479.92567412 4582.76303296 4839.46428519 5013.13840777 5274.18226621 5442.40599715 5494.94663244 5462.88743523 5508.26891841 5692.11141026 5770.7238559 5775.72121994 5697.5009497 5555.95415039 5397.33296854 5523.98243305 5611.49333302 5530.98733948
1341.71907888 1355.86764108 1366.3851016 1374.6062876 1384.83346153 1392.29320496 1376.00352167 1313.17759613 1262.43102431 1228.88796288 1221.41666618 1178.17838241 1138.3620766 1109.06265885 1127.78867602 1110.37351779 1022.7223077 914.525201557 799.34299644 690.482622922 638.868552444 569.605619378 503.343863285 454.751669213 432.733081417 416.259587419 393.567804999 348.12545721 306.764119636 282.822151382 241.104271769 201.861670003 157.781893265 134.292532258 98.5546158102 76.2391786476 49.5267595208 36.5898906247 35.6351899796 32.60794085 30.6340072838 28.433126026 23.6037033991 17.2835937129 15.3188878805 13.3719456985 8.31792321664 8.07164044491 9.27024134001 12.3224251231 16.3315649559 19.604206331 25.0242894431 27.5297796831 44.3205067378 53.593390285 49.8240143324 45.4086429632 80.3066742367 151.914559068 539.016968947 1094.22133552 1279.0706705 1446.58885824 2006.565044 2019.69957168 2605.15189495 3078.11346454 4026.31674392 5159.46256772 6024.9133754 7285.78206046 7627.72615998 7591.69011926 7945.91780308 8967.65386738 9691.8925269 10814.5296582 10513.9824141 9274.76796788 7864.03510733 8443.8519883 8778.89851479 6946.48625068 6499.90685007 8449.01655368 9735.10469958 9687.68026011 8697.6502629 7876.10299474 6260.06145136 4200.27153812 3057.41456303 3266.49309894 3081.36286196 2509.92040955 1721.12866482 1434.65207537 1507.30858895 1366.57910218 1101.1305848 549.537102684 458.960051199 326.086050284 260.354985622 211.565818063 217.565981673 217.290912537 209.604315505 186.513286067 183.521791018 193.970222665 212.269474596 232.282895665 268.541980008 279.213342552 328.135501233 360.713916138 380.59456858 391.269353403 397.234707 429.938794125 468.616633348 502.04628813 574.571783364 627.249029422 701.827901752 793.006334785 837.762400313 857.278648443 903.307192062 942.109256329 957.559918159 957.950860374 952.625877004 957.481773179 948.608422769 947.911173013 937.278137104 926.874055154 918.137636148 874.032582942 795.686518039 750.079604286 697.909773957 597.380378545 506.602727182 468.954059852 463.954894628 440.450863227 395.429918918 379.849456232 341.54750209 285.107196837 268.52446606 264.223510315 255.341895017 256.878868441 248.886681146 239.021327477 218.813593457 203.575399087 207.587189999 214.747625964 227.394329102 227.448881301 230.973654305 231.618609409 234.461145826 252.00095354 269.786969791 265.257378938 282.121927557 290.196173119 333.003316044 382.051746572 431.591795628 464.625838813 534.215608404 601.871372661 647.972045398 748.317063105 812.797863079 847.605485899 888.09894355 934.454068693 998.93377613 1212.3964962 1334.62267202 1589.28595183 1856.41421521 2318.95984807 2692.00692073 2793.68106571 2698.50804092 2753.59163144 3042.49777267 3233.64409141 3317.82142305 3429.58509149 3896.23261371 4257.93301138 4366.9666122 4511.78229478 4636.10950111 4779.7329777 4980.79786934 5060.94031375 5281.37029797 5206.25391618 5194.9848492 5256.83864009 5257.50285414 5235.25459288 5258.9569949 5107.64253785 4935.92623296 5071.22518178 5115.72838785 5100.10159739
1250.59210076 1289.12345077 1302.01245928 1322.45331562 1367.82499833 1379.87854633 1349.49637536 1292.92148983 1253.97741065 1236.9563416 1222.53435616 1177.29649926 1119.64715648 1111.19101641 1138.42434437 1132.02963891 1018.90964848 890.27320668 763.888009604 691.493254734 616.029540675 574.844591944 498.443980703 446.023540589 417.605795145 398.096621788 362.922700062 347.880209782 294.699523955 273.699720854 237.156992809 192.416472386 168.761034105 130.132889817 103.369379989 62.2061073472 32.3732148304 20.4495894119 23.3563440311 24.1099210087 23.3285370329 19.8936564076 13.4508859601 9.97008900729 8.66776044089 4.54220030399 3.28116078882 1.64510119094 2.50019215261 6.30878684288 9.58517639329 11.8801962168 17.5757995605 23.4093108614 40.9798643209 42.6734493205 44.668225513 49.2107375955 28.6289126456 272.46065609 595.988999073 957.995094902 1086.20917731 1663.30712716 1844.7998542 1804.36118061 1484.30992237 2327.02328666 4240.56654728 6192.50985362 7392.90283178 8410.58103724 9825.40908724 10305.6668418 11439.5792008 11942.5441547 12022.1876589 12293.9963186 12231.2080419 11648.3184684 10922.6643988 10720.1381319 10341.4747661 8572.21220325 8095.87432485 10006.9728617 11326.9505088 11401.0994382 10311.3945525 8763.49876212 6725.99922115 3740.08288824 2120.69542846 2760.46720799 3195.09592071 2523.64541303 1537.40936478 1306.73651487 1577.95522667 1467.74534537 823.159962645 578.015907707 458.384925222 350.947174368 232.186140139 191.544404682 204.258230205 209.704280355 181.168809938 175.026514416 173.775084065 179.404790711 183.9792551 196.540402274 220.853950281 251.853619621 279.553249011 333.904835693 351.995726902 363.958493562 372.44218181 392.94306872 437.420477137 475.308503602 519.766085503 545.897841198 598.727714222 677.343358435 758.620270776 810.313291943 854.693214296 900.18236173 930.877015244 957.430740303 959.441016159 955.001404218 947.170829413 954.658696009 951.202028242 907.917013558 863.306795524 825.226274239 756.336481334 680.152767151 590.702009055 508.986997631 462.91455063 454.216920285 442.538577257 399.856737069 363.639010625 314.075999665 273.909438464 256.763077326 261.867082635 249.436717362 225.648202872 193.142027172 190.708789279 178.384247994 156.937017303 161.332357801 172.127708437 180.006857741 185.224788603 197.482049708 213.92314205 224.652613273 228.315055005 240.277219169 240.034404639 247.483046257 256.989595089 256.762982683 284.13594829 323.638745125 356.819331995 397.5207896 437.678997491 487.414849836 575.145016589 630.215623609 766.016607512 831.787532711 878.190445838 915.784571234 971.107434212 1156.53580267 1276.22808994 1455.80371914 1731.0053485 2154.04696505 2498.4238714 2613.26541135 2524.26602873 2582.7184213 2976.20079068 3303.89285108 3341.33136344 3284.02927909 3385.24045801 3678.29954014 3977.47131344 4258.63476813 4547.95192154 4769.74859876 4906.72311554 4932.18012342 4958.17570162 5068.84291764 5126.75611806 5043.48571678 4988.58962695 5015.68446167 5002.28719451 4928.00309575 4907.11184455 4823.77044755 4690.30045435 4564.36432033
1250.53547451 1276.95623739 1290.63177685 1286.609143 1299.69393548 1313.9100776 1292.95631339 1255.12027882 1241.46895308 1259.61010429 1259.36848377 1200.45338996 1098.55005973 1072.12980299 1072.32752041 1046.50208617 952.402295407 821.320936499 739.376126133 679.481665028 608.606998618 534.721258409 492.483649202 449.749401873 398.918893537 378.814740383 361.421855828 336.189850073 305.354567979 273.141314198 250.988247015 188.802694662 160.149828284 136.941506954 98.4209796444 57.5320943283 23.2343787017 11.4626866067 19.6466866556 21.0410105766 18.8846364723 16.0180024499 11.8986579387 7.01096620848 4.91073853865 3.37274981211 2.3416643452 0.61516948123 0.932012219079 3.80794887705 6.97861169719 8.68810631646 13.6633975977 19.3737499725 37.0613275598 40.6183245559 46.5014793016 71.0614250636 82.015088812 347.451756639 721.280455474 702.448166343 691.717086865 1301.4940874 1803.38850821 1432.41210953 334.163343119 1639.68066183 4497.5565919 6848.35568935 8557.73381674 10094.9011811 11401.6761985 12263.7256817 13053.5293079 13250.2377772 12977.6696827 13155.658697 13124.388427 13199.2157757 12837.7959179 13411.0815239 13163.6354511 13093.2067271 12907.7040263 13466.6534274 13704.2966082 13424.4720462 12328.6638806 10462.4861976 8235.8639782 5160.50902226 3440.56101522 3715.20053457 4058.08945185 3033.01116777 1941.80630779 1704.78318667 1703.9424599 1507.88288394 816.102352961 567.748213502 454.334426067 337.742034793 262.262727573 226.654597229 209.233457768 183.470287915 174.582922749 172.305814509 170.906604545 167.218329113 166.571802147 172.813781435 192.29525368 209.4546113 245.095493741 282.597056358 329.417295453 347.593631268 357.193927434 368.976078205 391.267600884 446.332599942 454.942225221 463.7414118 507.034857027 595.594182351 668.745341279 742.801937818 811.406463228 860.555501213 926.116992971 1005.60542335 1003.58343832 954.258866179 943.172658798 996.354588208 1010.46145526 913.641750096 821.083086612 736.977784085 653.695318273 568.107314635 500.707683186 460.190474436 424.188334888 411.087366623 385.004898052 321.952113826 287.003260823 260.703595951 220.916703536 189.236737838 193.908235731 182.500238763 154.242102638 140.830179152 134.696854497 134.641680701 119.664101244 131.249537069 148.217485783 153.146319826 154.522283637 166.571324101 174.692478165 194.685674348 208.944983613 210.279153999 208.724229056 222.305740932 245.785178525 249.536228746 249.758024544 260.854570925 282.345110908 319.812303318 357.71232108 430.126459727 481.874641115 548.670907204 674.74732775 833.859132185 883.353228216 904.084451661 948.124919956 1105.63168422 1206.8177221 1331.88382624 1518.59534954 1758.99555149 2091.44647265 2237.13111352 2285.34100381 2427.37685853 2700.668745 3103.33536048 3174.15379455 3105.48136235 3099.43405752 3331.92944627 3425.08513571 3856.97060781 4252.1778909 4664.41860481 4945.10197621 4813.59967294 4667.26851512 4812.84407065 4814.22777993 4808.9645325 4930.25191614 4982.47487983 4771.63328093 4690.0191546 4636.36702721 4447.03235965 4366.68876843 4367.19262545
1274.37234476 1329.29381455 1310.92301931 1265.92783957 1238.36583651 1227.66745898 1223.77272632 1213.30102764 1221.91341076 1258.6391823 1262.95322756 1170.7373829 1078.04397139 1012.36787473 967.075142517 930.678037622 824.973000534 755.119356662 703.906637982 659.929620001 599.34564184 533.267101201 492.062230113 445.284724563 388.919547372 367.350597212 363.338725687 341.447034234 301.434877743 280.043903143 257.898481663 214.865217431 161.789642159 143.165439585 122.845661424 76.6550274136 41.4034247469 29.3382719267 27.8664409963 19.4629254069 13.5478968613 10.2372086509 6.65709824823 4.62501963245 2.9602018094 2.49137985152 2.49324755624 1.73528321234 1.82410539191 3.27581215422 3.92681764826 6.01134954007 7.29664891438 15.1925715577 30.2027590197 36.2172689217 126.265115268 135.937659475 276.508286172 355.13609096 765.680307404 481.130168372 173.638988329 944.287530884 1981.87393561 2209.49508579 1653.51227214 3192.54829871 5876.03396394 7794.09507217 9617.70695893 10886.5372833 12014.6158598 13204.5349636 13383.8698487 13408.6512087 13450.1518364 13441.9684768 13252.1025534 14112.1890475 14840.2497626 15534.9814127 16117.2859028 17738.2079765 18379.8207032 17565.1917961 16367.9609952 14653.658595 13762.7107738 12669.7149206 10867.7598962 8228.77000553 6549.57606177 5803.81336419 5185.69192516 3834.9924089 2594.44198091 2086.32928297 1817.51742932 1438.32390543 764.660597635 536.263795075 405.616342287 348.860545723 307.594679867 269.563548111 214.698718898 176.308939269 165.739139036 153.890343953 139.885433187 146.083938901 142.91842325 139.865707675 153.912285095 182.657435104 197.388810901 242.513439492 276.096443912 332.050194793 357.257713185 359.335631888 374.16453439 412.257699818 433.611705702 418.426560303 461.913728423 555.15581757 624.3698391 698.054643674 756.977333596 809.27821401 896.739837916 1022.41059969 1020.79328989 929.519427978 914.494332476 986.926255492 1007.12862108 878.292651679 741.189753589 644.987602263 577.171556255 505.773502797 400.390194723 354.738050483 331.902846387 312.943818156 265.379488687 235.248428445 204.771978077 155.247705672 138.286125429 122.411002959 104.789763744 109.535292224 108.46382457 104.749809727 105.167453954 106.294002521 115.109390809 114.203513928 115.453081186 131.177816805 133.708907883 136.615526044 148.664167154 162.153698772 171.503656865 164.900600966 187.221008804 197.638505066 214.991811439 214.965738348 211.227531636 223.002621041 238.652217414 270.959019766 296.066928912 332.697201627 424.804838997 501.282711668 627.826008319 804.903421994 921.534636035 905.214031044 922.462447257 996.407165486 1157.08698269 1215.7559473 1307.45666775 1460.3406671 1648.00188877 1781.20880356 1955.46981474 2136.76948382 2335.38904344 2524.6080419 2692.98464438 2624.13673914 2607.32077896 2676.57714386 2942.85625747 3163.6644418 3768.65621433 4161.97091925 4413.25181676 4315.01625604 4227.18584213 4187.81588452 4421.26739642 4464.64224618 4599.21302351 4608.62268991 4285.84021555 4121.05721561 4094.22582328 4167.49086109 4316.9089724 4221.02103952
1275.07952264 1366.05997179 1333.11471249 1226.34501366 1182.42334592 1157.69757933 1161.85034268 1152.1725485 1144.5379962 1176.1618197 1174.13830322 1103.53837206 1010.09120929 954.95149764 881.783048584 799.95027747 733.078021094 695.532145704 670.85994087 625.147947799 563.814860439 537.380282622 502.080714506 455.689258636 413.249881556 376.961001113 358.288340592 337.199378716 282.702202055 255.582036686 241.010558016 212.0746348 169.435781127 149.299886867 132.195209153 103.644460125 68.4728877536 54.4255394059 39.5088970463 20.5014546718 7.43426995734 3.44334525757 4.94582562589 3.76896034649 1.16066531044 1.58087248266 1.7396913982 2.38555262378 2.26423484476 2.82749449336 2.22964083775 2.45427651127 4.9799580834 6.09179208354 16.5770387355 24.5777048414 84.2798029282 234.386753319 423.065706583 581.210682772 999.346306592 677.349088724 434.51158199 1230.85942371 2584.28745067 3330.23913807 4416.06971562 5883.6441015 8105.80934655 9740.43143763 10672.7614286 11722.8307205 13203.1142155 14571.4513758 14330.0374627 13932.8319501 13942.8657385 14389.9997181 15370.8265454 16349.2651164 16188.4981281 16916.6317851 17983.9344272 21641.6336017 23695.9748795 20887.3382474 18101.9550589 16841.0112392 15543.9228385 15038.7694819 14205.7998399 11875.0492721 9772.90224506 7967.62589897 5810.71801733 4637.48196665 2921.46353985 2203.57816588 1615.91680012 1151.00872405 673.721869816 495.344668078 374.784790726 323.868798189 310.635334934 284.816938066 204.706229691 165.78202116 141.841620468 122.388899795 105.125945132 93.702121049 92.4951214199 110.416323096 122.408831955 137.011273319 168.360845887 198.652758892 240.363814454 285.408814154 330.654368129 341.646383009 353.831051562 392.674928663 423.275964117 440.82617923 473.022810673 549.882422111 602.132467833 643.840652812 717.687731278 754.151790875 792.207111954 875.592343498 895.271943796 848.590786124 824.43472948 840.07914512 795.442167386 709.637483202 649.009368939 582.575573175 504.530234352 409.621780674 339.677384877 260.342008917 203.852081717 200.728806243 193.188948039 176.39994557 132.204893689 105.736010809 90.4057961959 73.4877616556 46.712810848 60.3666050588 74.7276684788 72.0703545847 68.2415171253 83.5390754068 98.8494525527 102.241053542 106.233552816 118.175256816 130.731997316 123.835508376 113.557270209 132.596868015 136.351173829 121.668878241 143.498536678 145.840340114 151.607033458 149.398480052 133.336673689 151.874945214 192.336643044 215.579225991 244.506922868 276.121392551 357.237003569 424.284325627 547.64659131 759.883187852 918.88729103 880.924412134 866.066561598 966.816182686 1090.79947016 1192.0249954 1207.37019671 1273.14710592 1383.47815515 1482.86004278 1607.03133349 1839.84575193 1962.88734087 2076.99136525 2156.60735393 2256.06082599 2306.21214615 2335.1451186 2496.94804489 2821.16889693 3023.93363507 3342.72404538 3450.78750158 3628.97144208 3667.4734787 3786.98282121 3796.50001943 3915.81997374 3796.8291731 3658.97939681 3619.62070131 3648.9928411 3659.09546053 3713.06963276 3869.96895095 3882.99596844
1186.73898645 1252.51171473 1225.46194434 1144.04986009 1088.56195609 1074.83068542 1045.60010014 1050.7258639 1069.36425425 1072.37189441 1061.79395282 1009.21166031 936.177038261 891.696626062 794.628010796 735.97575815 691.512087988 678.680066307 667.013127906 620.481438692 552.268220714 542.290128457 516.465093854 503.489601259 430.605060403 399.503099322 378.4889325 311.679575591 259.259456044 215.895189624 215.546110205 207.576703233 160.753241707 131.914379223 133.756551195 124.869223226 94.3196337016 78.4149573788 48.5394359229 25.9745383795 11.7689563544 4.7613179414 6.22711893563 5.19709100719 2.40171128107 2.98271145014 1.98126748371 1.81461438199 1.04305422198 1.27551010536 0.518195500792 0.519032669162 4.08897999838 4.58552200585 3.2717912991 10.7623228633 159.829759937 350.468935608 512.785204082 719.560810667 997.183272757 1245.82007963 1439.14149866 2120.2569595 3482.27419564 4582.39349501 5852.27218045 8136.00721745 9965.38267642 10746.2243632 11534.3674409 12613.0362789 14139.6426595 16545.7753111 15923.7080998 13801.1303497 13988.6009164 14657.8073994 17980.9066658 19567.2516395 17793.9015432 18161.3317645 18804.2970458 21958.4633323 24616.8793513 21316.3957202 18941.985692 17572.3436365 17156.6103997 17734.0543236 17645.2250196 15554.3847129 12360.8528677 9692.07172284 6709.21294386 5118.3457462 3171.72076063 2094.54022999 1112.95403631 515.98537905 564.645123025 541.825509505 337.978779082 273.975512832 290.142074606 260.275566773 171.105457963 134.49246255 116.666181379 92.6130781189 76.9027045891 63.0653004745 66.4654023425 78.0902624496 99.7712847536 112.442176649 125.459502257 159.559348222 179.776793692 208.267857916 250.085219511 307.573633872 332.342087374 363.497947026 420.726006292 442.159986587 486.022350994 535.020864372 583.583262657 618.878000668 663.410842149 695.694697386 708.124393149 731.369993315 752.273462833 745.40553532 728.302314728 689.502088122 611.358375472 548.840771406 542.358683802 493.435116942 423.484951155 365.647428209 282.774317327 181.206138671 136.849782887 137.860370625 127.669614446 108.860950205 85.4652617978 71.1555448572 60.1369924588 48.353032266 46.8952601673 54.0931362038 53.7269464286 50.027696586 49.4812354633 62.7900713782 73.7398265908 77.5663772389 83.3271535912 98.4304895535 100.427469124 96.5582619403 92.6332016741 93.1317923606 94.6756063303 97.6866818528 95.4218762943 92.070672546 87.5099342549 76.8438456939 76.0301528167 85.0747041992 121.403730107 149.238695235 167.237121839 221.178171807 240.015347239 300.65254023 371.850540094 551.672273421 695.146974274 710.088659981 775.517595593 881.736550846 1005.98911265 1139.35175706 1127.46298065 1174.13253313 1221.0356395 1253.76571166 1315.68464709 1469.21781808 1571.22414706 1713.3677326 1951.62071403 2037.83381882 2052.57259567 2129.01830219 2267.81188566 2392.10791534 2664.90366653 2693.13940445 2757.7781968 2873.06799389 2998.39853369 3121.52681634 3274.09964681 3356.85163278 3385.23462592 3312.43219247 3307.37838407 3305.41392522 3311.86968683 3330.26635426 3344.25754726 3334.64052246
1021.54748059 1038.72791862 1029.13249636 997.384848159 963.952360784 957.663781875 968.598437253 989.033715353 985.077454853 986.423102028 940.138689458 904.889286279 878.805153614 799.935376871 753.010874936 706.417195121 680.309870138 675.753238702 658.232196962 589.450488857 551.602424904 571.36051627 554.933903257 499.66870799 450.13709173 417.250965834 390.199056298 337.395563013 261.800246735 193.079175992 206.7662353 215.718040791 176.229799295 137.376548376 139.275463579 141.838145254 122.673135351 94.3391773217 59.1791880839 33.4823780694 24.362204548 20.0645362017 9.95354008048 8.44002101391 6.36143699504 4.26008471607 2.16612766603 1.867624746 1.09961932023 1.46331813834 0.922595428572 1.25223018116 5.09712622982 10.805579273 5.82315770168 34.3984187103 100.150981504 312.696849207 589.527545706 893.714624965 974.618673567 1218.68310059 1877.4957989 2670.35341244 3633.0649282 5176.96784662 6535.68361798 8663.94137447 11265.727417 11067.1541831 12156.9336736 14266.1577703 13756.653672 15186.5267102 14641.7209287 13211.1342306 13489.1590598 14010.0307922 16888.8532913 18980.9757563 18169.7144682 21210.5231425 19227.5925813 18609.4413374 19462.1893549 19201.3822395 20030.8687679 19057.7496525 18115.8605659 20141.4364351 21959.1376606 18706.8649758 13912.5129959 10418.9370457 7196.58890856 5434.94255646 3347.33326331 2148.87694475 937.011436693 356.061548735 528.784309521 572.896543975 421.22382081 284.442746122 270.373004819 242.567031881 153.144796985 118.185393154 93.3044367907 79.4025245362 59.6853816382 49.1879860603 52.5882845012 60.9765092224 72.7731487469 82.1258882269 96.8395613799 117.589748887 118.00909027 134.161613474 182.916950723 246.822989584 284.743642995 345.992089535 386.54012462 452.36061153 495.027643133 524.405455095 542.297832069 578.573280859 609.55083851 660.200583097 692.692457882 687.092995113 673.632555208 663.501173862 649.524565464 595.119303548 546.294401393 507.376687872 506.04870983 424.626556726 356.944406695 308.715491753 251.387942203 186.900486741 137.981057911 117.981932575 89.2469481172 68.0209556164 56.9305450775 44.7789968297 25.5405791644 28.269601051 35.6691900653 38.8601417698 40.7828272073 43.0501804252 44.2643177739 45.0608423169 50.4888826063 53.7471914888 62.6264958292 68.9482053878 59.8741807717 62.4704191622 74.8452096299 78.0747724144 74.1306014363 71.5341344144 72.3490421471 67.1077478547 61.8312000082 49.0447318711 41.2514401991 51.2052582871 85.535637247 106.274117366 118.649218523 140.412985782 167.121351169 174.393916111 197.047491519 317.007528839 451.881976353 522.872630262 571.809941287 754.989433771 864.349397523 963.371718373 966.435621458 978.129383206 1055.61281329 1097.40875089 1139.90667528 1205.94988374 1355.12465021 1541.72801238 1918.72592496 2017.30339422 1783.04853162 1981.51931089 2039.02844223 2134.797188 2229.38465717 2493.2660537 2569.91836844 2632.45973444 2710.98542027 2739.6199962 2797.41181553 2810.33266578 2825.40791174 3123.03286756 3167.01166532 3058.26595345 3198.16645397 3298.1848066 2991.37001326 2820.56121027
928.27068686 955.971622887 953.441248476 920.875470501 895.079470815 883.08892509 900.605574778 917.096558381 910.93650771 920.857907365 891.613357122 866.247404963 817.901942158 771.673925343 744.912382265 696.792229299 666.014811915 634.466787465 597.155811598 551.610371529 535.152989712 564.247110749 547.659831835 489.001980471 466.574327942 436.05788225 525.38729442 363.240757236 306.574614856 296.025962314 319.107693967 261.389775097 232.583888748 184.472897375 174.86994231 150.181513044 133.90411182 106.11122697 78.8102636504 41.4812496977 31.5204291669 28.9165447951 25.0171234039 11.5618686691 6.74293574767 3.60294567669 1.70127431457 1.30915057432 1.04754434273 1.57588649931 1.92946385648 2.65168636682 15.8640895678 18.9367498952 67.6426443252 86.0224242849 126.443655163 327.82627851 634.037543522 915.25129425 1178.43563687 1110.0862129 1545.35764989 2788.57916584 3901.12764467 4950.95155951 6601.26363393 7880.55390624 9242.48472054 9847.50942387 11275.9676863 13651.9091794 12570.0296701 11794.5034121 12228.8510253 13380.6556995 12697.9003362 13648.591439 13559.5853465 14168.8203089 15598.1232931 19691.0926216 17048.7966518 14621.7468098 15323.6553893 18062.0809501 22631.3446086 20410.1075775 17733.7688245 19882.5908774 22352.2469208 18468.0946092 12802.2928897 9425.80231169 7149.04364745 5490.29453566 3587.45328561 2540.40299458 1614.46678191 856.721474269 740.498455479 679.651703266 527.558482483 300.701774352 235.281915593 137.619060103 125.917117447 91.344833553 78.7069168674 70.4653271193 62.4669232111 50.7213489969 47.4250075473 53.5051763213 56.6767686964 60.0277409367 72.6396143145 86.58175694 81.2613583984 88.2256874921 143.287120131 195.536500193 250.358414848 304.689278361 351.351243541 429.097222092 509.942307106 522.373849197 540.855469993 591.195516656 604.246524705 615.431649166 635.126362262 638.198424077 639.832170001 629.175990692 610.414161002 575.128187857 536.086068272 506.730899479 458.921328232 360.836010088 327.205246649 316.746881762 263.600664559 169.115100454 132.100652875 90.5282120821 49.6135943444 27.2761088352 33.6356275458 24.2091912808 19.1684488104 20.8735483769 24.3165764567 27.0706010752 24.4162065193 28.1757847214 20.055683278 25.8137740373 38.2449390636 41.8684386837 53.6831613237 43.663596533 27.185043403 39.0468112847 56.0856706011 58.5947328379 53.4098823256 53.5384725587 52.7683240869 47.9166373222 45.9799944387 44.2514473298 41.2942637154 49.2708153358 61.8136158076 77.3143883673 92.8303506909 109.622000999 143.535726137 146.759742271 135.476043423 216.405529614 335.080342142 406.74088531 465.750989843 562.998177308 649.924425604 732.492143421 869.526386524 888.06173679 897.788039203 905.913832309 947.246808011 1004.97307918 1092.7990811 1198.74842279 1471.67177698 1644.87818695 1600.8848713 1745.0668301 2113.2842271 2098.9206298 2071.68210675 2305.24281326 2394.42958194 2312.4234103 2382.19824891 2497.75356498 2438.12564059 2463.77137308 2410.12740147 2543.24202306 2654.19412145 2758.78520745 2830.3506694 2757.13203572 2470.68731737 2419.36512493
888.445410756 968.928362987 932.838882981 850.922032852 839.009899614 833.582937836 815.853293767 844.141407759 855.570171269 859.907064048 890.801034858 866.221932148 800.591622287 754.066043653 751.056987397 721.366377821 622.951949877 562.755293977 521.664415683 472.572918534 496.503020691 492.371903957 471.018305326 445.428005211 451.965091586 586.035504908 562.019347855 554.189809824 465.766047939 476.025918216 457.72559571 450.327222374 303.555681225 255.557321296 191.245988574 153.325702198 133.053080834 109.720175569 88.9620384506 47.6255977278 25.720677296 29.378968075 27.0972593679 16.7640090474 6.6333141436 1.06911872301 0.81542467694 1.20432397975 0.720861735429 0.573390015471 2.06972406114 4.18701460556 22.2043228408 39.6665595539 109.538184653 112.223511108 139.489314875 309.58017758 589.071567083 850.328907987 1026.80063218 706.008121342 853.578844809 2874.32613816 4201.03575163 5094.82381396 6248.18342212 7420.80257145 7374.44511768 7367.61340786 8271.62277213 8877.28214556 8499.6235054 8744.921837 9286.903958 12084.4716403 11005.4641151 12340.9078391 10425.9811495 9332.12490063 9905.20560669 9324.25426063 9953.0858832 9903.7772649 10639.6023534 13566.4966976 17932.5594087 17122.2708735 15321.5490308 15600.2043993 16174.1202999 13169.5400899 10254.2160889 8229.44201481 6670.37684852 4716.49662115 3665.5894201 2835.66809959 1921.47409048 1552.39120364 1062.9396474 787.956424559 580.944267161 301.393954484 163.354289488 92.9524544432 98.4146948404 77.0027096432 59.5709113504 57.9186476785 56.4444584969 43.0651869788 42.3774749488 43.0195889661 47.1830460034 49.9915112714 63.5415747626 82.7025556609 85.6755909976 100.202186396 144.186244798 189.350275268 215.5531087 262.660885232 306.909198434 357.418790092 446.066272251 485.397769457 512.424624846 561.719332966 584.762811044 582.60218979 592.030928339 611.543012352 646.589390891 616.564856901 607.786628332 583.409685748 512.022848302 457.130011889 381.261737547 333.702715394 314.125787564 296.071698186 228.214781239 160.262669715 117.10925011 71.5459517112 35.7843934467 24.7049309283 20.685373277 17.4130315519 13.5317236272 11.6098835204 10.9556057631 12.8607366299 14.4946946642 14.7043396125 7.65695483097 19.0286522535 34.3938271079 37.1529371581 47.4761895367 40.738030246 22.274744411 32.5461116578 40.4086511514 33.5424938966 33.1589053645 31.81018591 28.1163849577 26.6215444898 29.8839610235 36.8744014208 41.4596836045 49.3928413312 60.17356706 74.8003731406 81.6979895378 96.4803382508 128.90124734 146.584620337 157.166976551 191.39380911 257.360338244 330.068447585 381.563084703 433.918547748 531.929064975 637.975597152 813.809424944 910.176219309 828.823421214 838.153891863 903.193505482 895.187118477 1015.56274381 1044.59890481 1038.99203447 1099.46097013 1266.43194443 1524.81530473 2062.94206827 1967.20126463 1716.25002306 1900.96221925 2012.90706189 2115.25433934 2206.87090586 2352.2839239 2257.15508372 2287.45662591 2357.97174446 2299.86627698 2230.81262615 2298.24267431 2242.33944972 2183.68090759 2084.34604204 2082.44629859
778.141656563 831.815587699 811.273352444 776.596305035 762.696047423 756.856568713 769.083211913 787.315007743 828.677031663 828.051675221 842.7753782 816.07488087 748.979154061 721.371547387 774.92672818 765.368346313 596.358702039 478.640478553 401.572240931 382.434064973 416.852510323 401.558489298 365.690338632 380.316457233 551.943109307 593.408181766 747.761799962 843.054557416 655.205284615 571.811670166 566.289117878 560.669881632 502.420782789 306.711231512 197.042384954 99.8127336208 140.664524867 107.505351228 83.4463720329 61.4432133318 32.3911614976 29.0768237389 23.8061990786 16.0404227794 7.44624043299 3.88585557254 3.33086578525 2.25520466105 0.434655937256 0.325997263075 2.6096021056 15.996383831 25.8332299635 51.7862335911 106.333235159 87.342820509 72.5455873514 305.323313186 473.837920681 442.491638547 1076.59687947 1315.25420918 2068.66562874 3473.04221124 4003.85490695 5117.53702054 5898.77141772 7732.41198138 6453.67329807 5964.97383837 5664.62976317 5398.16778102 5575.29158945 5950.54222627 5402.94518936 5280.95044939 6715.59089518 5778.76856259 5121.68521723 5852.50205206 5156.39566777 3502.62938188 5059.18893744 5635.75372006 6270.47415147 7110.93011548 9311.33739435 10581.8938198 10934.7314282 11179.4296329 10099.0776322 8663.97086224 7807.15586988 7050.01661232 5958.69017118 4533.88214976 3622.28976237 2818.5082577 2469.54726125 1993.49979664 1262.90941666 862.137311489 458.910402587 310.563534163 167.672803613 90.2993770756 90.8169687404 75.2111291523 51.9847223194 51.7989311105 42.6348806507 29.6707744394 30.8565506571 33.977340678 43.4946206931 47.8333372774 61.0555605866 76.2741801895 99.9142512441 120.642939956 150.666926227 177.622963209 200.546471169 234.959858568 243.731505305 269.92592153 359.27992456 419.89149213 470.220268962 509.477749004 535.359543471 542.597841854 548.320245778 574.548977331 592.412014453 557.53581483 586.398554592 576.050576968 459.70450272 387.385950468 327.847286221 259.851090341 232.623580112 216.326434405 167.397503065 124.342005251 72.1896967788 48.2304685566 32.4299163831 17.0484545378 15.1691528814 12.5312135205 6.66496394572 3.02867689244 4.86474162596 6.77568226873 8.62989518727 15.3041013676 18.9088022527 30.2637554992 30.1036373727 20.6585269474 48.4791380274 57.6896563751 69.4235822339 68.0016611021 32.5843444428 23.5383058593 27.1667882232 24.670571505 11.2465256481 11.1000438989 20.6262347873 28.8967479333 28.3163194558 35.4703999017 47.86335759 59.9647007638 71.1243077047 74.5900152595 84.093729129 109.717220604 160.833413653 198.204277029 213.488530962 247.909424723 318.20077997 358.982106393 398.511258375 472.260932109 615.792832946 725.499374104 695.862819371 770.1239585 923.570626801 814.413941264 841.470335396 876.340178752 796.986969233 819.795904106 892.749812948 1097.31246904 1253.66543678 1343.79702311 1323.9596453 1382.02773308 1567.01443826 1730.72699305 2063.21845377 2267.61048857 2015.75048197 2016.51908039 2043.79609847 1921.96664237 1794.63666509 1771.99273691 1799.90109723 1824.53347458 1958.28795205 1939.97328923
647.571453325 699.737749933 762.555959563 770.676047735 746.420125137 751.877834509 750.097026321 790.926859588 857.100878936 815.080208564 773.08549386 712.753413845 671.755106967 640.526983414 681.728621532 659.012006203 502.550873517 398.464037618 319.867854939 290.619698051 298.530883242 318.287774045 255.885521139 365.660901659 524.189438214 690.123126278 861.818591947 779.640545839 513.491024239 629.211388709 754.846815657 683.212407079 566.595679102 370.418185 279.979814674 169.112372021 185.898260839 106.751636886 77.0249090092 86.1828481295 59.8262692274 22.313148408 11.3691702807 17.7703683657 4.80740569257 7.32802676956 7.8373365175 3.47246615738 1.86546957594 1.69696855362 3.12591320445 16.9068324583 36.0151819149 54.1607981243 59.2450320509 112.032302935 123.18980911 298.993018136 414.386018903 130.031801964 1007.24795484 1895.20800088 2818.00521747 3629.34867036 3941.58961881 4908.3830369 4994.81455925 5018.24206936 5203.9536294 4909.68030736 4858.67819122 4626.02993664 4467.48789846 3863.10508602 3819.96303051 3736.31545363 3504.62685088 3347.8871155 3053.71569245 2983.8152964 3158.44614977 3381.69427523 3138.65145336 3287.67253466 3819.37324571 3497.22861519 4510.79809068 5967.08299415 6716.33337347 7298.03665012 7301.58742254 7214.90193614 7191.19469874 6384.63070358 5085.58193131 4696.01532239 3802.65182212 2616.0273086 2560.1731831 1892.46818175 1201.21382493 825.762035205 458.758697683 341.14329499 249.146988567 131.858419335 104.653769939 66.5225418844 51.5920070536 41.374087073 25.8098180399 22.0020377797 21.0949020688 24.5322707861 29.4761732018 37.7105226996 50.743774804 70.7067639687 102.352416697 133.798949259 155.409092708 179.142778711 185.509317038 205.333064444 213.640054761 222.349394815 278.68266568 342.132209797 406.552699399 480.00766357 569.568955998 536.385285279 551.179630362 561.179364414 497.890617507 462.277937507 444.178643995 386.435676797 340.988649694 301.982861465 239.662473506 190.009956118 166.640857607 148.895147585 125.939180733 85.140665093 56.5396044656 35.5556626894 11.6023719117 6.834786253 5.1313108389 4.70610793701 3.52376992418 1.35368624732 2.8614448846 3.82237575936 1.89765439523 18.7774098593 36.4453621964 43.9550113294 42.8343363691 37.1942551516 92.0350180579 115.505842257 116.189628202 102.922892466 44.334800604 11.323631359 35.3226206068 19.6206952562 9.53118062828 8.55935949295 12.5157522902 17.4448170265 25.6452146056 31.0744016786 35.5089001392 43.1563054849 51.9475870834 62.2885716122 74.1243050954 100.025854252 131.867644914 202.600795018 219.935836753 202.777683027 249.413137019 262.443336293 321.743906149 337.796368528 410.679748138 469.916111088 510.729302721 547.014305774 573.844449863 544.791915765 586.548003387 577.881428633 569.574031925 626.549347007 682.617184318 767.157687821 744.990524167 837.970666867 1020.83664417 1123.09971232 1263.80744366 1432.21027322 1519.91687648 1613.97243933 1666.5102895 1620.49098816 1613.2608878 1632.5045793 1551.9377038 1585.75582237 1542.18146754 1513.60432306 1617.53571635 1651.57268965
519.114425862 575.197826291 660.962365306 670.921689155 690.591753481 828.721603445 770.070080074 784.178780383 913.231723584 829.419274125 708.640575447 648.579899694 587.69601314 543.703494014 486.491498786 394.696590574 323.191754243 276.857020654 249.501978159 242.276997274 224.58196511 267.927483262 254.86338641 391.482117404 628.532342605 552.28549892 737.955517923 906.274644108 580.772210601 851.283613576 936.359049681 805.637058136 718.155750722 464.571033451 424.282472639 338.837289079 265.147852821 180.008338071 146.64307161 124.755773741 84.2127133721 47.7883575879 31.6157085305 25.8358661989 11.2639022547 12.7089432583 10.48533617 6.04751100544 3.783643476 1.89100739692 2.00640272528 21.6665115228 34.3575144636 52.4537246756 66.0056553702 155.12929962 241.047458632 461.367658989 656.180215641 839.228802804 1362.56362103 2193.64550922 2782.03728382 3261.18658094 3633.11623535 3850.00212624 3818.7434475 3663.43905358 3974.17662613 4099.10826949 4901.88830496 3440.01455119 2954.6160833 3413.84153331 2792.08068289 2490.67526186 2673.63846407 2354.06933368 2278.36813052 2325.94731362 1878.81136216 2224.42801455 1963.94400014 2442.20039156 2637.20702164 2891.85258127 2747.11823386 3791.97429641 4458.40465102 4955.83066199 5410.89096566 6192.74970706 6091.42408757 5167.61779405 4962.21710436 5221.54936773 3761.21158591 2589.36256252 2138.32203895 1425.57637322 916.345105163 589.548684439 430.824377259 335.746657725 266.531350538 167.626392527 102.483743405 54.2487233225 36.0095418472 21.3868791753 14.3505595477 12.5938762242 14.1940020159 14.4921744938 13.7735944575 25.8146378177 49.4403092383 78.0451891096 105.162944473 134.855895688 156.213874901 177.018032959 184.13164728 193.889812285 216.409583186 231.201979488 258.935024322 301.436220627 338.408539741 373.000424236 443.641875998 454.728052441 465.796736524 450.12067965 381.867405504 350.248922127 291.037040216 233.720859216 254.635350963 217.069536135 180.10903821 158.152817593 141.640863332 122.756632805 89.3327827247 67.8187726103 43.6855838962 26.4778340557 4.02200376601 1.02229567803 3.41566029097 1.87969886892 2.12397725153 3.02587499253 4.97189698393 8.93552237447 10.4244993752 19.8609120853 45.0124627807 61.8114805566 83.6910390766 95.1910269389 134.927141263 196.340674797 197.483322502 166.256537983 101.876117088 53.0675024825 52.5834211655 39.6061187919 17.7961447969 10.1090406384 10.0803909581 15.1065429259 22.129243839 26.9976773482 29.4500578277 32.781025198 32.6066211047 52.984471375 66.2348239212 85.0301568015 101.295665037 149.051007989 181.220325857 207.585042064 288.038624714 253.901412252 283.555001987 312.972752334 289.609022573 287.816945187 301.572806153 360.054584489 311.916832589 332.206052192 368.240301588 416.676502771 509.0338623 513.848500274 584.519730717 607.119500599 684.28493652 695.61232072 731.109086002 940.15038082 1074.31968942 1126.21790844 1184.60366797 1191.92800996 1271.64664106 1293.43940118 1298.15083001 1335.66766431 1449.30692697 1455.80137736 1398.44497194 1414.69768326 1269.935214 1218.29231996
444.107785725 450.011290614 484.90660509 515.582296268 576.295211177 670.41168564 635.928547895 658.701126487 728.276080378 688.868304845 640.768567462 596.777433122 526.14094972 460.302524338 348.302854923 205.801931583 185.408241263 180.9832384 159.769597076 161.036763444 183.630361004 228.476166327 321.817920938 566.376228351 731.200093706 419.831218294 786.0021467 1323.47810916 1330.89389506 1267.81623535 879.666152639 882.285751718 639.220295504 603.411969525 446.007568838 384.343115475 329.332251041 234.55747817 199.736889605 156.322932493 108.528528048 82.3549905788 63.2965819301 38.3736294741 23.0221176233 18.3638063697 9.776074619 7.04810795465 3.94973058953 1.40982434563 4.2859857252 19.0814694474 22.3861142536 45.198738636 7.73730250364 131.806181832 307.322486603 567.874969419 868.094382658 1467.13356737 1751.84036912 2100.7916214 2856.31439648 3583.96069527 3209.55641233 3228.23422394 3440.08983056 3022.30192165 2727.01292164 2059.45460259 1699.6059284 1937.7953482 1549.46821027 1090.93534251 1049.10733516 953.371590074 550.019271439 893.843077059 826.381194266 682.701435695 580.331188035 706.665705532 684.995704867 824.914146084 1136.50897551 1073.91206189 1095.11189921 1911.52864321 2259.8153087 2950.96427645 2718.52284596 3451.9866517 3929.37276905 3944.45215799 3792.44779335 4161.5472546 3150.61894016 2198.37614893 1433.52738041 985.392806758 663.012793718 578.401393994 409.019286052 326.124323157 265.188406359 142.476244547 90.3849521569 43.8477392235 23.8124887575 3.88622651417 5.84990973968 6.20951527451 7.03398742747 9.74217775182 3.80163225959 20.486704545 45.8723930094 77.5234540152 105.932057658 132.94302384 153.123533615 161.859039291 167.928224793 178.559037435 201.575608531 215.423606914 224.596438167 244.284769654 271.8310891 285.783692107 285.792980689 317.093371736 316.785556202 287.610635744 299.951886797 264.79989621 241.336779076 214.850713576 191.635268778 149.428989012 145.34035563 130.115887167 117.94858752 90.37921026 60.5700967001 49.5778537962 24.467797752 15.8160582742 10.2071893099 4.65661958903 3.45677051271 0.855171059353 1.21786258744 3.77398917043 6.24465906032 14.3723128646 16.2349030369 25.3627241926 45.0981115436 81.6907678006 76.6630917382 122.491765518 241.703022574 262.664822689 235.993072353 194.658797652 170.02010763 147.141078307 77.7029610463 51.0364372381 21.8044796813 9.93422174213 7.71789738037 12.1981943109 16.4877905221 20.7621189251 20.5559457212 29.1811621308 34.1809405131 50.4924702149 63.9968421022 69.8971845771 81.0781497194 90.8425878561 113.808086122 154.615866244 204.612819447 180.660103689 166.542034754 194.976334067 169.032563527 175.739123169 199.939720719 190.197099203 248.949787112 272.657180105 297.833660609 299.184953769 348.110044019 405.949177977 448.411862007 453.470492431 567.77781702 647.746199865 675.934935125 732.001790781 872.746383139 974.310989993 1080.56800917 1134.84039134 1136.06152972 1104.22631429 1083.0948511 1031.02692939 1093.82925846 1131.91458629 1118.93007663 1087.85083974 969.008526757 984.985098063
413.554408865 407.689282286 350.39151455 350.392750407 374.733637358 392.4269288 425.570370464 490.068105326 547.646533061 582.422874473 584.077119073 542.645530069 491.085851505 406.68611958 301.57558756 188.581916796 169.780769358 144.963847849 113.930295317 128.818440224 121.021006465 190.104290987 353.316607428 694.036396639 952.38255644 1270.78399753 1522.38247629 1939.26550177 2052.55652981 1764.49252409 860.612504018 1023.3038661 716.604102749 730.497243961 526.165996249 397.734846649 357.533037695 288.387998766 210.42977839 153.805711713 137.622606867 86.8039845638 63.4089897745 43.3925827582 20.2290664705 18.8957479818 12.7842256753 6.71872913243 4.5761854312 3.92748088916 10.300512935 18.3057400715 11.3598381532 69.4963727209 91.4650342295 174.713423214 348.869505264 484.163487551 848.960600459 1557.05564517 1697.38980712 2281.0035566 2540.21151534 2803.12112181 2886.16299463 2921.2051826 2067.74834392 1618.69691592 1451.5366512 1360.73446068 1027.28713465 581.540544605 553.932406824 294.105690829 325.311174261 274.067486452 240.640959491 239.54079786 293.370098303 170.587192904 184.402106231 184.806955394 316.733007434 431.27670271 547.856572477 745.353317537 809.470342601 966.943078525 1193.01420822 1384.44996699 1421.82775893 1690.61763509 1941.77473182 2020.47601354 2176.19497806 2170.55316491 1938.04622394 1323.84768176 1007.83016852 761.981618303 548.956738352 496.970819207 284.928182755 210.557692547 139.373547754 68.1031505541 49.5874022658 29.6897256819 13.6180341857 7.36222206776 6.02951908896 3.45926139019 3.31960603397 9.99729674857 18.4814152963 30.3891664183 42.3654900015 89.8164810951 120.948366892 143.658460189 142.380697325 151.647129429 163.261448702 173.780045286 171.434068431 202.841154042 218.492953819 202.552826666 212.169985855 240.987183024 259.047353562 254.571627224 255.188508181 257.698213927 246.381712868 241.115252141 207.56774253 178.635991027 153.367016882 143.345326152 120.130022887 83.9988680131 72.4929100912 52.4362545144 41.5988020438 38.2132475502 21.7636346991 14.6019012184 15.2312911883 12.2466952275 8.84159901594 2.88016969811 2.61675946437 4.92368235245 6.2994488282 9.42092720543 17.9963703989 35.6943509793 48.2153262291 78.6152876948 207.16663897 243.426171325 254.645414737 312.662927224 319.371834682 197.206588351 162.154425331 168.778759341 76.2388390775 52.5843823619 23.8868113553 10.1232280094 0.949781321919 12.2916510733 9.05429347881 15.6431288403 4.31093366103 23.3603735826 37.4438202338 46.3604806947 52.6526287305 56.4836564965 57.1789829943 60.0132594145 72.7663974824 81.7616933747 87.9655827595 95.8746189841 93.6582385652 98.2176000868 109.770903893 113.056455778 108.74840107 124.825246033 126.565349768 150.565861029 182.471634968 197.264124727 215.32259193 258.301515885 332.763726247 365.230381983 427.907597141 552.227086369 641.136050763 805.634818007 823.284691842 936.10171013 976.642691284 1021.40561232 1026.43968607 1018.66443132 954.759714514 956.884814921 904.656059718 836.705359507 841.260859367 808.016667529 885.867962244 871.815522074
260.450533259 224.557455815 205.169802743 228.548719066 251.756778089 246.285697615 304.156739243 361.377280298 441.17377763 554.417293991 608.464708866 505.807051388 446.374892172 379.641440421 320.410191996 249.482672558 153.978855286 100.444156393 105.407515159 118.237377258 156.4304789 292.389362456 409.169683349 778.391006173 1218.90328789 1770.12084722 2110.83211215 2616.63114817 2834.78141246 3024.05166297 2554.50411142 1663.20848779 1068.29055122 844.376634854 631.563932723 491.59883547 351.641892853 294.464953291 187.829566935 132.361337691 115.467874918 82.3977551706 53.2926883741 46.1697240982 35.3603674299 16.3860775259 6.6556210804 6.44663514478 3.60940186806 5.65194712535 20.2441007475 36.2782139074 58.1997369449 110.696551433 167.339895236 309.65950909 351.93083104 431.230419057 638.622545818 811.075620521 1246.91192298 1728.75066318 1873.94142199 1673.94071609 1510.34326585 832.92841073 878.564448838 847.942771455 784.457596506 619.97288643 413.548542757 365.671382179 294.624924871 212.685468971 111.253702495 80.2194863278 115.1615304 72.7947938575 41.5951668735 42.5548787914 59.0919917026 85.1221743096 107.757067497 205.914609092 364.204171955 482.496591115 728.239892064 1032.28102489 968.39384203 1158.66369532 1234.0015363 1087.60826298 1234.85630397 1230.47706406 1129.72485945 897.616898971 965.179862616 844.497289428 667.967028321 374.977096257 283.612721724 254.157772251 185.61415172 137.391304946 73.6870155841 26.6010732293 37.6623052241 17.1434530159 14.834796325 11.0169961476 5.84172751554 5.06284139521 5.29909620682 13.7898501033 25.4408223513 26.5339074631 38.822859441 92.8051263731 116.398704273 134.892961324 146.108800365 153.85140279 162.979418051 166.020006227 155.508372664 162.472125644 171.993980996 172.995576144 204.087798829 186.441046148 185.172387728 219.921724206 216.874543472 189.119152754 206.277363743 182.90908731 153.483898526 137.743200407 113.398978229 81.9949513141 73.326870544 57.7141745158 42.6861954949 40.0463423979 39.3399905674 32.268339785 25.2157609748 20.4524478113 18.4839271903 22.4844909097 17.9626894659 15.9015968226 4.99495002573 7.97711286562 5.82619461658 3.49145627959 24.1635552567 58.0136871022 133.803757176 177.539938597 303.2868746 341.775569266 363.322378324 297.965911539 368.055689045 321.181897431 197.733498369 115.63152613 73.5298729633 50.9862757635 19.0758242938 18.1177486675 20.4375031546 26.3340502521 10.950596877 33.0569411914 40.2467360959 37.0238094084 40.424758258 39.9971637852 40.6085037556 37.8233634676 40.5919112906 43.0033826812 47.3504241586 56.8973610244 59.7468318924 52.2279460846 54.2529051589 48.4957925196 59.2825601701 72.4136132962 74.0072809867 75.9924176258 64.3690496297 69.9442966453 85.0164744441 134.232886077 156.753665993 172.030182605 234.251102971 325.385751744 398.996475345 413.733777292 550.764343999 690.814770755 751.434374582 868.61538109 920.056347546 931.053361337 943.427012361 936.674804858 876.609749797 792.896212612 703.422690454 648.870031997 598.387573815 546.716566199 595.759989452 612.927055701
149.329095292 148.525481658 151.393083921 165.668248945 175.366741424 227.258687947 284.180685197 311.242541618 370.563328285 428.577134567 492.969076797 493.862334604 507.062844838 375.430649921 342.388557019 237.494756942 117.076401043 68.9725385898 60.7717851315 70.7651243479 143.771239006 328.954913927 417.990924041 734.478346877 1182.27139712 1795.84518829 2848.7658821 3399.90583972 3564.83526392 3994.78784055 3821.39446398 2038.56746721 1329.97040209 867.637174284 658.780676634 516.830376655 299.837048761 160.890908339 128.916291796 95.4856539114 79.5585642199 67.2806334423 72.0489911504 59.8805705304 45.2950315937 33.2939468947 21.8533779023 13.2473076283 6.03118564816 9.75676987292 22.3811175185 44.6535745367 59.8326371331 129.618417763 159.548365698 235.011534009 285.40613164 407.147773525 487.748036523 635.010132698 775.265206218 851.366454886 854.617287056 827.1878996 602.3649067 495.724202149 475.697918993 313.740851525 298.148413931 256.434560516 204.636488177 197.375690854 116.30030541 109.592800865 64.0720351136 18.1982336867 18.5623021144 18.6454131716 15.9508667395 4.62113912388 15.0407340107 12.8201514985 40.1805464255 67.4667041747 102.658698384 390.861516122 601.432631844 679.537697409 764.610327292 726.678889511 698.775924933 707.700056865 632.706140161 722.805446501 751.979363478 784.466763894 578.882568085 341.310196745 279.051133291 254.896480924 265.32690766 172.849188707 113.712961293 82.192905575 67.395914118 43.9724388643 32.7101136405 22.00311576 16.2310863227 12.5700750389 7.27513531065 5.5788518699 2.3465774697 12.3684059161 17.202746061 45.0703984437 76.3532393646 81.1869570395 125.85733028 123.178464906 177.279723213 170.123008799 178.414025501 160.49322911 162.142780892 136.24854032 106.513338297 107.583237671 101.151203869 99.2880345461 106.503787673 90.5531592146 73.4884154039 140.368833646 122.749562347 46.9783680794 126.435234062 123.9830279 82.9448844155 18.0994328715 30.2376468683 27.9172619546 29.9333532967 23.5098346542 28.1716903309 33.3385884588 36.6573044433 21.2770993626 15.3508591987 29.6669286267 24.0385386193 9.80975867169 25.6099361082 21.7511009539 17.279089014 20.4410421297 34.5818367496 69.7179347143 149.481071139 212.677031771 293.05426216 459.077194896 642.231049745 765.487088308 647.162116417 457.30528165 265.351901462 74.205737693 49.7595124209 42.0049193535 15.0386359189 22.7068291559 32.903424829 53.5161819854 58.0007250945 83.9089466113 75.6952756197 49.8628378444 47.1167853679 40.1866400809 34.1495492956 31.6360881355 31.1173812062 37.1945639072 40.4754219152 47.6318878767 46.7614510198 43.176282867 38.0615699622 34.9926746392 33.7134205827 32.0467369824 31.9285988282 28.2369642052 25.9908313126 28.7844574779 37.2753739634 52.7056187378 82.2226571339 122.149560886 139.888958531 202.859928545 246.118525658 330.546995775 435.673681798 509.096621231 620.188157156 793.204599191 1013.48520023 932.261759044 1007.87079478 842.716020987 710.089346574 602.753233813 545.634972315 536.574450798 460.745826996 493.569021371 447.632066231 387.801444965
73.4070440826 90.8146472177 120.440088512 128.696396515 131.534319072 157.370156202 235.896559601 280.650505781 368.127141794 346.973759582 385.167720705 439.639048982 434.902472112 358.441683739 268.967607658 186.599445006 91.655340412 41.6138855796 23.4685131957 39.7351917476 59.9976385953 138.088430844 313.030707736 674.882834344 888.429667584 1733.46024696 3696.19506026 3815.13122607 4704.20722496 3152.99779018 2303.25703493 2348.64760109 1572.83635137 1066.18878535 466.55576886 298.017840295 234.148551143 141.642840086 93.5447260975 75.4908111757 60.1726411689 64.9845434248 61.4547373021 58.6100814188 53.3750702135 40.4862799541 29.4537936327 15.8264434152 7.18480891113 8.12976687289 21.8751274983 62.273151191 119.631903039 191.843021557 143.666123634 108.256166007 83.6286212406 90.5383336407 225.011766144 511.306121756 675.240439736 726.140424893 584.884243731 278.313696891 219.020177548 168.715910028 148.884739355 171.259659985 197.687871095 229.633568101 237.089248365 165.557535484 140.105076979 47.7446011786 38.1824810809 27.8549595456 14.0916356632 1.70745285278 2.88975443443 4.46629127969 5.81167419476 11.981786633 27.3724179513 70.2374577749 179.89630265 369.855542862 627.456907612 470.105673063 741.331835769 573.406291261 513.325131826 579.555366218 554.14537547 659.395321451 454.875627983 384.403392206 360.594293284 299.556361505 307.662133801 199.907503804 144.255871182 102.457569457 85.5021966682 83.4623979269 69.1641106893 44.2419184706 36.0263145658 23.7791397297 5.80028592757 13.9473951498 10.0227978724 6.60144848572 10.0165958804 18.6512026563 18.086922213 76.9415580316 126.629808808 153.813208908 185.407915836 208.731632171 225.588987963 197.044763576 176.841349067 125.551430239 109.993634246 71.925396289 57.7984837609 56.8257566309 33.3021574322 38.2510886183 47.8315863235 62.9317729295 71.8027451363 59.5301987228 134.278792026 120.813365231 107.058499472 135.735314991 76.6050380943 44.2849333854 33.0435947622 9.75605461576 19.888989819 21.7781736489 35.217773112 48.9627031353 44.1466325316 36.906667052 27.2013038745 28.7944495284 30.0117100065 44.7400059692 31.4934270676 17.5797079632 38.0089382205 39.3673390233 37.1030618976 67.6633982597 103.518846801 296.42070566 596.174914195 942.667560948 943.775544333 975.530715017 723.321902019 532.104821605 478.143767056 203.197951272 100.085204665 56.9950227099 32.2595839193 23.1308535035 39.9478156252 71.8534952566 58.3790253339 117.060625386 113.327926016 89.1268519753 59.18351096 37.485611529 24.2423685819 17.4452444819 16.9494297939 27.2687972741 25.2168661386 58.4117310428 48.4092031682 46.437090506 23.191082015 24.6480634327 12.0900700924 16.3271143064 15.4972304364 7.25024551837 14.6276822165 15.1582853236 17.2005230476 22.5362402709 37.9713036912 66.3042760328 96.023603784 121.563235098 209.7456093 311.445594091 357.84753777 470.058376735 582.484344078 683.21992638 762.138504426 733.474123254 737.986676052 655.952714062 570.730100132 490.292025993 442.917550385 380.710229489 338.134079083 307.579763797 261.655330456 249.931161194
61.128915741 58.7935629771 62.1966605484 82.032156566 88.2366581524 106.444025959 106.105383394 168.854898475 222.141787692 258.103596069 319.325279824 386.518191386 428.619791794 364.829278999 223.0260095 119.244751335 64.6471847047 26.1846255748 17.3833762031 22.176794636 28.0643494092 65.710330673 192.295127022 369.310298777 648.011236633 1049.96636331 1454.84015337 1979.11052706 1684.08837299 1224.47931567 1016.32063087 864.497842224 700.757130743 464.940100449 353.405787743 220.744998467 142.724426562 88.7335640134 52.72529936 26.7308499513 27.3461853494 19.316604435 27.7953829905 46.73935234 54.354083442 41.0242432215 24.0298674227 17.9041109532 14.7059589245 15.8681938225 60.4306654126 126.841393939 207.692449089 178.774430833 78.3741496243 1.5849856914 4.27675805683 16.7416879437 42.6820580294 158.154002339 501.773166242 504.343885197 292.681160854 131.788212148 73.2568359942 57.5767524671 75.2719683722 129.511220412 226.069886552 358.40766823 310.715341255 289.209808532 345.390129703 180.490932822 96.90091214 6.76706079965 5.84025485686 4.31358584479 2.40071165533 3.08246733611 6.27129809199 14.4587843273 32.488139615 112.752175529 406.895667361 448.501222943 781.586663977 716.312513 642.745123355 442.145140815 305.728085992 303.535859634 289.721240248 266.383117422 236.884159749 196.501573461 190.35200607 185.524961859 155.264485623 103.519936428 57.8139215713 44.5519842719 46.6861657357 41.5580184919 34.7385408221 34.5964573182 33.7944146158 32.3226951596 30.6650021025 9.91639657588 13.0516544281 5.8830203642 19.6962902916 37.2906620368 59.0745980009 102.845828605 167.13130865 210.269696754 234.661753453 246.075750431 274.39301715 199.367629817 166.348026184 69.3033603587 46.5370852257 14.392314833 30.8954113287 35.2417669221 45.5336773942 68.1857248732 49.5888813085 86.0338969112 155.617692436 211.884397226 292.282139472 328.294240444 133.445540962 166.238935257 80.0998838592 109.570618825 54.3362938999 22.0081427313 25.1275750294 35.682412287 42.2098624484 57.3891063235 49.3036904905 31.1648831916 68.4049725243 91.3822625229 107.194060256 111.590680646 101.579252299 74.3609656564 29.4988164884 35.7994098653 56.426632582 91.4102979698 148.582815573 243.151866728 402.185819801 662.085301767 849.667435998 552.89255518 457.289704547 398.47637701 260.994230397 184.779178282 118.437932371 57.8848069994 36.3949750898 29.8588804912 36.3400337454 66.9712413277 174.442658324 239.924365434 230.853639919 146.186331431 80.679201742 42.9980089007 20.1934897304 13.0906958687 29.7951874763 52.8036434114 116.397498871 98.099539232 108.737329027 66.7144165658 46.3670689736 10.1239310019 25.818590583 30.8360346406 30.6645811701 23.9058200087 7.71589222484 7.77347838415 13.5524154656 16.6699682936 30.8832763839 38.0941588505 70.5662748149 99.6125271442 134.638963929 207.77601201 260.917352915 385.81268028 617.135852338 582.891386507 626.900271032 554.716226206 543.921452125 561.272371111 520.749253137 432.522625754 437.125080846 232.807041004 194.464163672 162.262343147 190.253213384 198.838829011
29.4005526143 13.4639221892 25.0421745279 29.4866019751 32.7628631941 70.2550513718 91.9589773521 109.276206909 146.614918716 218.767257149 275.292296195 318.030492339 363.167452698 402.776384487 360.118191794 169.758291958 61.8040690923 19.5813556227 6.32533202369 5.62592627267 11.2168635971 46.4783003629 105.255178386 223.32835743 614.993276719 758.611119974 801.671010598 661.091026431 494.605029983 323.35837017 198.852095043 160.615839809 114.092130655 26.4797929205 59.4099307095 33.6449343184 35.45338867 35.2863833666 34.4283908062 26.1244987979 5.22126218595 13.5434365353 6.11227431972 6.80965087645 18.4116418199 30.5522332115 42.4361150656 34.6653795495 18.2359155529 23.4056779353 91.4185916892 186.152585292 306.677832009 169.626046852 24.0915483684 1.54813624263 1.28288460883 10.8627993152 60.1858459473 308.396841909 386.652075268 199.208953106 94.6187463281 12.8171745207 7.87065184299 4.62812009403 44.7729766271 145.777559507 371.788908516 700.469692832 881.276961317 891.444138256 529.780413838 348.286695248 152.539696938 72.7735297977 17.7463670284 4.59223775772 5.10099462459 7.00318963775 16.2841422445 27.2292712897 176.204071408 478.712009988 1277.75619165 1963.30070059 1800.20615287 1171.77875005 620.203789844 411.29695257 273.11993152 211.252503061 186.992114813 163.114731839 116.794620811 88.852205103 77.7433688387 60.4732788976 28.4501643017 21.8344291733 14.7597910411 14.1726377051 11.6800174679 15.7193415234 20.8249217992 30.6451192739 48.219584257 57.9399705559 55.2987800544 36.131009526 33.8139432378 27.9241737345 14.7401803064 32.5583140002 59.8127297599 123.885544961 157.798874312 239.929657632 299.065204508 250.099729796 216.100801628 90.6023973396 28.2293854833 23.1909753057 16.9132827905 24.2359168512 22.910801469 45.3623388265 71.8481602879 119.955950027 158.197698855 155.621789448 175.989553744 449.377362797 480.027782059 649.852251145 545.778721573 385.866863477 290.761860713 182.696042972 97.5752612371 6.57228212666 29.6895840051 25.3474328294 65.4156955031 85.2134729134 95.7763804828 87.8580159446 87.460275478 103.004925306 129.090601058 162.116819508 143.01316723 123.725651886 100.978753414 70.9334743363 72.701092971 84.3108483745 117.126045294 214.862642552 229.632592445 214.364514765 208.034875042 175.827988945 160.647865219 142.552582268 113.457374482 109.271806884 90.3468699207 56.6347036254 35.8436607193 25.2113100048 44.1071588108 155.980850275 277.514218596 394.046466527 387.39392667 283.235384336 180.63792709 80.9466235412 55.9607385081 34.6186951986 71.9454940469 121.759546112 199.525122427 324.851191726 252.277655217 142.936313619 119.521111293 61.0142582778 134.831730371 102.834714792 65.7222567621 74.270478794 54.9438641634 34.9002690167 33.4742437665 45.0501314179 46.4837903921 47.714841428 44.504754375 73.3116809885 107.861988769 142.250474883 219.130215709 284.908295966 320.109402643 358.513022383 448.967302477 460.652006215 461.265440019 402.585120212 339.493032521 270.157487152 162.840534878 86.1317314173 64.6534022385 64.6618868877 43.5673228269 71.7175965554
16.360824912 11.794955349 12.4364676924 11.1060582072 19.1873990866 34.1260735801 44.5641577792 78.4926910359 92.0403541441 118.06963433 150.534131397 185.830538869 213.927072655 255.089525391 314.631219271 172.114860298 52.468787918 14.3306478541 2.62663402804 1.54540296653 3.33348799018 12.1082067497 39.4701525336 93.2612635511 112.532459944 227.582381843 230.298108342 222.176804383 155.574874181 78.2946362179 28.5205194897 28.7510992571 18.9329342879 19.8045301934 11.8100057011 19.1414455113 21.2537029787 32.6175995866 52.9881861636 58.7487417709 53.4745168493 52.9123870099 37.8642040876 13.4743483224 11.0870781723 16.1869559894 34.4235145645 52.209162813 58.0724527138 44.090455694 132.402505279 337.539670327 394.539811523 100.585895535 12.9700518708 1.25939857222 5.01692845788 15.8680440586 71.1629599083 138.066060096 191.081789516 186.111119167 53.3363787012 20.9002186496 4.21588782752 11.4825391553 57.4118323599 296.265349649 502.372323663 722.075116453 1599.95465838 1638.53013169 1383.98323011 853.571069684 422.778367469 46.9677473808 13.1100981908 12.4965447978 16.4132656957 16.7166753587 16.9320482785 101.703682844 273.537308739 1205.15837734 2258.08568616 2710.89647974 2167.04619816 1592.68659201 864.423886839 277.853320606 167.664453995 114.289435513 98.5010649683 76.1412389122 67.4431099893 47.6394434304 26.1739693297 19.0551187701 21.4506096212 31.7969209224 45.2464662418 25.050410912 46.9822749401 7.00916619489 11.4632687803 24.5485243224 45.2383889273 71.8645863428 65.5829014469 50.6058268708 42.9294264647 43.9605830841 49.42003386 62.4328000639 84.0272989384 121.705700359 173.8954783 173.067697221 167.865373687 135.576412955 68.7689269106 42.1758390007 35.3848654348 32.9843263272 34.1991606251 35.9168823442 44.0400378368 96.1281004302 152.996723187 165.32080108 164.675142216 132.834923457 128.810923065 182.769493962 330.777985627 462.14798594 744.134468604 613.350411374 308.516807983 199.096089998 131.286063624 131.311250095 42.0668395014 51.3404733849 112.61769695 151.985516346 162.770133165 134.911701391 109.672196598 104.14280456 101.620118956 51.2076386241 55.7081093512 69.0054155749 87.1670348112 83.2741333004 72.3480605605 45.6559462394 41.8690136002 41.4426867629 62.7481704704 101.729201354 95.7769362524 63.3883486247 77.7257968166 70.9207562738 55.3538194018 67.6554149384 72.1739084234 63.3169144964 43.5574144757 36.840653895 55.2859951175 123.167129056 240.418291067 316.955752701 346.689540009 282.982842467 183.563973682 151.196794952 117.782649331 115.065373525 128.983911866 267.895223542 516.545800906 587.953418751 363.751723281 271.741997274 213.370028543 292.984783133 135.3381682 144.714788743 253.915660605 216.180339814 202.868510453 210.313829984 136.787480655 256.249668206 219.253921304 90.7046174872 50.8158308366 40.6379362737 52.3680862613 83.8932849831 153.371416583 230.021369201 212.10435126 181.879776141 147.127914939 231.376944513 318.506055488 315.963807466 264.253406123 144.305625117 108.573733393 55.5610001058 34.9758266881 32.6346537945 31.4883375052 20.4139790388
3.54969486445 9.83884879783 11.4254539998 11.7997767332 26.6284476875 23.9399706767 49.6629804306 58.6920411434 47.6768563402 48.5804344925 77.208223215 97.2278960821 99.3460770762 122.931584414 151.937566244 142.542984667 64.6301077361 24.3130381066 3.7228238612 0.613674858007 5.83176823421 24.3262000559 65.9254833969 59.2556572643 44.7740218076 44.0014547062 44.2537969472 47.647549935 32.2792594702 23.2316717503 28.5376856933 17.8829465268 17.0784688492 58.6894658815 66.910426381 54.6459494537 98.1772500943 99.2227934809 85.3521463226 94.431160468 86.0763227757 104.161535423 75.9705289615 55.9972343704 37.5830142344 29.8006274643 45.2991289856 88.6445392711 125.228085722 64.3692807026 48.9369839142 368.670602021 258.609824072 98.5977139815 10.7960454137 17.0090662067 31.4882084699 46.1222685572 24.3579434033 32.5612332333 176.839137105 198.017006079 108.855213146 14.4878974472 17.3846923204 15.9235642569 59.7233376955 94.6064770874 217.794277112 544.094825145 414.760559018 309.287431155 415.098694802 380.291713718 375.572976868 153.617126535 21.5322938311 24.9698611978 52.7606342181 63.1305921192 57.6869481711 130.687066904 666.470656817 1468.01843956 1304.42842064 912.771672931 603.003964858 482.321587536 306.388638698 157.357419865 97.3367670248 74.0777092344 63.3684376296 46.5947122018 30.6761886051 20.0049977923 18.6646578515 31.7039709459 30.832649922 45.4166439294 129.027857982 127.404446825 153.50945286 82.0654844117 69.3267710552 41.4168044771 50.2407160313 91.2134469921 101.011586696 78.7831107258 49.4285986017 41.0127187801 69.3009022916 79.6089411471 67.7860674662 78.2401721626 84.6214911808 68.2177168848 19.286601476 29.4884316907 40.8220430132 61.671918031 43.5151913624 56.0040993602 43.7643325851 50.2928696431 92.5828881261 142.329443582 136.898252003 97.6764123535 85.7811362845 153.723447546 300.222439096 209.150198668 120.972261225 131.858901062 223.064285881 276.55515877 215.462405779 161.572169478 225.873039529 216.538217326 190.081776592 107.015982322 194.737356108 233.626006183 212.969045583 134.856031139 100.359702601 183.246736693 161.263461414 118.270189939 56.9573579172 31.2739473794 49.7481676589 78.5790478161 72.3779965197 43.9388286558 28.6795276007 23.6705983928 75.9287940385 118.003224935 168.600607359 136.719181286 56.5344598715 75.7087323438 23.6973127374 36.2020586311 101.025988464 122.584225789 91.1348091919 69.6244785509 78.9145929826 83.688255628 175.090440678 226.11604033 228.414245308 280.99102707 212.36812747 198.833272232 184.568998562 175.689357512 184.245978522 288.926176612 500.104288461 386.872279283 323.886121935 235.081968332 462.853047143 593.028512848 529.317088687 474.677143317 392.278142619 374.472037768 448.047895956 541.474526519 565.170436911 629.08416108 317.538652768 205.187646031 78.1632086349 51.9019989592 52.9469985869 82.4380693515 145.732996637 257.954119842 277.305528299 140.843026784 82.479541585 93.3276233928 158.864263573 222.074802736 193.431222526 92.0325524925 29.7752378446 22.8307694188 22.1296919462 12.2327041681 13.7441699695 16.1805982433
8.09515257752 6.10046745336 8.8618770691 10.3642090624 20.0411670872 29.1202094776 106.294346816 120.239174025 24.3848161179 14.349433783 55.1709201599 59.2737516563 33.7701160152 55.3606217145 104.136311938 76.3098544119 78.9196901446 86.5135723553 63.693014608 30.4831760085 71.5084551497 254.697085942 165.110228882 71.0684805038 20.6962111515 20.0453785099 21.634264285 24.270937461 42.8579310344 57.4490268819 51.2395121584 59.1266189749 110.340885917 169.978405661 227.296419881 287.087939805 198.961444537 168.368323501 249.278359353 151.040009735 135.433651252 195.195834921 228.685700723 160.833713619 115.548945122 139.625213743 71.0675740485 115.607069861 170.056703464 114.472954493 61.7648075868 171.542335484 157.87173939 101.604187756 97.8604877618 94.5120414165 111.511511071 116.90056035 27.2516024389 35.3078356593 364.515086083 333.84964939 135.787732946 50.7072225937 45.9735728315 30.6189939269 35.1735368744 35.1357375012 61.1180702165 50.5849840666 38.6510448614 36.6313374868 41.5548099524 59.6728400352 23.1453739821 24.1836130052 11.7400876565 45.8302695815 105.471968692 69.8837062946 48.6107787322 115.489539708 298.851657895 303.544024218 307.197285996 117.424895554 56.513990499 20.3709701008 12.178761349 11.3904868045 27.1453285604 30.2291010138 25.1951313337 28.2828524449 32.4700763477 34.9763362154 33.9192416318 93.1554251743 138.483915619 359.669066632 287.128287218 297.480258287 347.206879322 295.997822553 231.099267378 181.658696377 111.246955099 86.4568912317 113.238878453 92.6275457 79.2673491546 74.2316196491 64.600262992 111.591176382 57.991908372 48.2644881124 59.0718506322 59.4730412101 98.7962217517 132.207996921 120.404810981 118.964834653 98.4180157838 94.4197693605 48.9570871698 62.3003734505 120.315565347 99.5075881539 91.5810926866 62.1441197923 73.9849796699 218.147946289 387.453925813 442.391382594 378.143861368 219.231512993 139.832423766 199.430588923 186.14922506 137.390412664 212.1774563 455.329326973 360.146955163 286.427412639 307.555133436 258.685244567 183.841944553 103.200665617 202.86699972 315.449555946 351.290848925 234.383022207 94.9555142118 57.6648640418 38.8453574516 92.6625176436 86.448626083 76.910121396 46.3871492806 38.3452822366 127.999736104 253.061807236 235.805553419 281.71771139 230.361775684 218.037081424 132.7651653 67.8483565831 109.582213632 243.459328232 247.070394558 172.979663614 157.270051928 137.185963864 121.873698389 107.65376792 87.8508469534 94.4916391733 119.969535671 157.66434959 121.439493863 170.964921448 163.161978745 153.017288911 161.106635858 161.59714966 136.145819909 144.535008111 355.800213497 358.154068316 325.96013572 260.071402787 208.392039759 216.263308931 459.83963951 488.512709155 731.647898604 831.90201457 416.738603134 249.550812905 126.185752412 73.0466456626 207.534594341 235.795038285 89.7093767696 247.438831632 204.753322156 133.699573009 47.086630375 25.4027996668 86.5321365317 126.755288173 77.8626302204 40.3016215102 15.8487517426 9.32148009195 5.78315606796 5.44369800254 6.22947700185 6.92984400719
10.4448428835 8.59713066471 12.7695024097 18.1355496514 25.3730831489 65.3562544001 99.1651236724 154.746546852 125.214614964 31.6125437256 87.8666205738 173.205714818 155.776964483 118.29846445 195.724554139 206.515528995 259.293963091 279.242057868 248.533711954 197.364422676 283.443606995 103.432461297 52.6656137777 40.8332369392 24.1215440525 19.7467701233 19.7275290324 25.9618522254 43.7292149993 91.412351949 124.671487261 166.47989471 195.043007001 184.564514338 116.966516486 270.947029015 207.359070052 107.219351324 148.816638549 179.735785582 190.363166951 149.676915253 132.766344973 125.363065542 113.882832198 183.450046702 117.739499078 84.4729754962 125.841774399 163.548223824 131.144968101 173.790452702 258.707142153 151.690597927 106.528308045 92.4175775278 147.104938734 134.553188893 100.761671857 60.3576536986 48.9760529452 8.07720397721 44.0786379144 38.6609690408 80.4461034971 101.130904017 65.3769882915 171.057296612 256.313266342 103.159248307 72.7788630291 144.819474801 161.991549819 270.019309666 30.3300230897 28.6937634077 21.3489531974 16.7019366808 21.1444539649 10.272134359 10.5647335311 15.2185612956 17.4902447545 17.9126581008 17.7979681762 13.7086041272 18.2904350439 15.2925181616 32.7990836048 22.7428172649 25.0415178712 27.3198801873 20.5613144895 31.9685359764 102.445838677 252.365585727 156.455392185 109.65252174 97.7891901303 157.031876449 138.657399332 117.681064904 198.541532195 223.396116173 260.522530064 243.927011138 387.700391696 369.681234843 257.914713503 230.714978654 220.647353476 214.305127378 125.501221116 139.333334681 105.573135346 106.695885714 73.6379046995 96.3493701562 125.229510361 128.251620537 54.778130856 58.9792186848 112.761222888 97.5344842677 125.308920055 66.0737010264 83.666007358 65.3096216358 49.4270283216 55.3272723547 60.5389295238 104.478147876 171.592666976 123.540316567 190.093175746 204.732910762 206.870530365 116.227855584 165.057329635 148.873065819 358.846043707 367.029365347 543.625881971 607.867548196 440.706052646 212.875259831 74.2373123057 168.948624236 157.528914453 164.038409504 133.604990823 79.8510527215 90.779421017 87.3751049121 37.142209514 112.440963592 146.587566787 146.785806042 83.7351514164 80.6417533602 62.1104356737 66.2863330748 42.6823960965 89.6260274283 76.0649147106 95.8257240933 163.809316821 138.583839285 93.3806522297 126.032022309 112.715508494 186.975572929 282.87347816 297.88671128 213.001003792 183.719152589 113.554954483 126.069834425 85.6179119163 118.145462936 96.495297881 281.708055477 257.988224421 132.665353713 115.48524773 168.580848965 184.506772994 211.485120983 186.009053104 104.356540331 115.525592492 204.384924242 122.615896272 112.024723672 119.788140927 179.027982037 252.809247877 217.426780827 113.625875487 80.7183382273 110.84625354 222.481645888 243.620617328 209.027812256 208.499881645 195.018593666 110.715567884 63.8716290822 74.1832658613 42.3524969219 46.0603466297 62.9827452685 20.5128370893 8.36362657328 9.70343871275 4.12220148358 4.93964488647 5.0339040429 6.68712298316 5.2481470487
