DSAA
220 79
-53.592207168 1802.92421264
-662.694837057 -0.984596983233
12.1555741309 5910.05958467
22.8041249632 22.7799932511 22.7848580168 22.8240536416 22.922556158 23.0506558156 23.2161721506 24.7868059327 25.3569811243 25.3997958688 25.3759535041 25.2670242268 25.0764634818 24.8413502951 24.6367541871 24.5651984096 24.7292445383 25.1967206041 25.9764974729 27.0178274037 28.2310392021 30.9824414419 32.4839791131 33.8642846223 35.0981090395 36.200543493 40.1966348796 41.2694499676 43.0920377425 44.3446987615 45.7695727748 50.7459902907 52.4196441543 53.8905570585 54.9197938307 55.2787968727 54.825484721 55.9302917623 53.2135772712 50.9933268265 50.334034965 52.0770857989 56.4611669776 63.0373632556 74.1857943987 83.3687890286 92.0862375552 102.998357005 110.516970593 112.219863125 129.566750991 136.084395417 142.553611429 149.081434019 155.711520046 178.317504181 185.743985611 193.237441836 200.880973105 208.79095953 217.08299774 225.823331461 242.137507421 250.929527789 259.40582292 267.071941011 273.42616827 278.129736603 281.176400482 289.899488025 291.232590018 294.22084896 299.200495148 293.357731541 298.393796303 304.390209407 311.024876826 325.31502056 332.805367765 339.931575646 346.563523716 352.65145903 358.210514863 399.422943064 369.882014203 373.654493486 377.212079092 380.623164062 383.925678452 387.125494766 390.198122085 393.093003171 400.640941563 402.255688085 403.527861453 404.45564089 405.059075171 405.376629396 405.458734998 403.86865056 403.333478477 402.637523133 401.846587593 401.021766497 400.215911528 401.908492703 401.167800521 387.956457233 386.774330799 385.783202261 384.960842485 458.83634503 462.842178291 461.122477269 479.375159975 484.114088824 489.234559129 494.772198658 493.473327698 499.525500504 488.793105138 496.133286406 502.284509874 509.599556989 516.712206441 523.351791385 529.212146583 605.56418944 605.298486442 602.516431943 597.363976152 590.379285082 603.192897419 593.477486548 587.237928959 586.941737621 594.907183434 661.201532799 699.000449503 751.078935831 852.327217424 934.016339862 1058.45248265 1157.08665932 1257.42704092 1357.0867482 1454.27530823 1547.77118978 1636.85717749 1721.24354771 1953.12102354 2033.49654656 2109.72726998 2182.62929668 2309.77105492 2369.64232902 2481.22049985 2542.6591497 2604.12580511 2666.17858196 2903.88484548 2967.82438371 3033.24509399 3100.62945754 3170.53293332 3240.6542784 3315.53696144 3394.95166703 3479.6286176 3732.97798963 3819.67075487 3910.73942929 4005.0049742 4100.3776382 4193.74900602 4353.2627247 4407.25755893 4458.95704775 4494.55816171 4512.57481059 4566.97324493 4562.0606837 4552.35059523 4542.81297764 4506.35175973 4501.6470007 4488.12723005 4495.9906069 4512.27660199 4493.08275319 4520.19399978 4554.11902862 4594.32413235 4640.39773928 4692.02473872 4748.99176173 4811.27939263 4879.27644812 4937.97061421 5019.87918004 5114.73610773 5226.61367554 5358.27893487 5496.925999 5650.1150714 5794.31373201 5889.26252731 5910.05958467 5853.0711446 5737.31281152 5592.59864249 5445.8819267 5314.26673506 5204.67183781 5116.62908733 5045.57384918 4985.5250157 4930.88388799 4877.39045008 4733.840036
22.4734446524 22.4255655298 22.4098786053 22.4342229291 22.5056297593 22.6471907691 22.8318588067 23.0608363726 24.5073764308 25.0360886854 25.0642180078 24.9855545856 24.7931526465 24.5220042797 24.2574864672 24.123881865 24.2489833205 24.7176681408 25.5399653085 26.6514696747 27.9414298171 29.2890262454 32.1766961771 33.5289531231 34.6812964826 35.6566497262 39.2378460369 40.1184002794 41.7277230877 42.9162215339 44.3815087554 46.0964342013 52.5570443578 52.9158488357 54.2776919371 54.9048599739 54.602993848 55.5950761076 52.6735988957 50.1825463886 49.3542256887 51.1907135365 55.9846552016 63.1937242406 74.9434959532 84.6224586159 93.554922804 104.195076377 111.397093793 117.793094873 129.142013374 135.333087995 141.600770501 148.028474927 161.811980011 168.515053382 183.5154243 190.877634929 198.37333799 206.186304197 214.515356506 223.504787604 239.819011158 249.3858229 258.784859014 267.358218134 274.401648139 279.404717148 287.250434738 286.924534287 287.696236589 290.538858354 295.835200153 292.497651779 297.945415102 304.48293336 311.689549953 326.170370383 334.083287304 341.482650211 348.240118279 354.325361711 393.903460603 399.304104171 370.834092811 374.478756343 377.9591465 381.356825715 384.711831904 388.022789863 391.251043597 394.32738416 401.429765166 403.138887782 404.462321647 405.398165056 405.972805282 406.23464679 406.244549127 404.963554671 404.314031153 403.49533192 402.583696117 401.649842772 400.754737943 402.169028828 389.995097637 388.591975775 387.433495799 386.499002891 385.750364849 385.140311198 454.171715725 457.644359223 461.404007378 479.732163851 484.692934457 490.133876855 488.910274412 477.835463669 484.891007084 492.338428361 498.635567231 506.149723345 513.467733093 520.273178615 526.197692381 598.530542658 597.315326693 592.990979267 585.610248835 575.688844998 581.418705364 567.260855583 556.746214618 552.953649277 558.813842207 576.583396968 650.303591425 732.133753831 810.010969859 900.188632267 1031.6012312 1139.59980389 1248.62024758 1355.9609346 1459.6605135 1558.43334964 1651.57408137 1738.85965113 1820.45981049 2046.80377784 2122.92406715 2195.22405235 2312.6435753 2377.50238917 2441.34652225 2547.46527711 2608.28923111 2669.87962186 2732.70590143 2844.12443056 3029.647321 3096.95698709 3166.91790643 3237.60826834 3313.14737615 3393.87801557 3480.85535462 3575.01407561 3821.98933032 3919.97713249 4023.16075056 4129.33479561 4234.91059456 4395.20381179 4461.99673974 4522.4099577 4562.79890549 4580.66381852 4576.96177134 4556.29525754 4582.78851821 4564.18165427 4521.76331388 4510.88245499 4494.95934411 4500.38674428 4515.50673263 4496.70617817 4523.83128949 4558.08873783 4598.82829969 4645.56017286 4697.8415853 4755.1964146 4817.15714708 4883.50306239 4939.45618077 5015.21133734 5101.54386714 5185.66371878 5310.4784297 5455.99656141 5604.918563 5749.18296627 5845.74804067 5867.49779943 5810.44612714 5695.08844779 5553.13458734 5412.71902192 5291.06273502 5194.21644432 5120.12896356 5062.35912614 5013.25105428 4893.21944129 4838.45108136 4778.15565989
22.1192234977 22.0396268192 21.9944166002 21.994526386 22.0508430728 22.1722065426 22.3787513009 22.6431201512 23.2372449947 24.6607280003 24.7789419662 24.7755947196 24.6302001376 24.3716988232 24.0910418446 23.9290313052 24.033865205 24.5046947958 25.3534572575 26.5063403233 27.8374131643 29.2100986549 32.0073942067 33.2828675156 34.3033692269 35.0970249242 38.1621015116 39.3418257607 40.094752165 41.1837335582 42.6877498973 44.5785661233 46.7156924124 53.2776641352 55.0356121194 55.9509013585 54.838408757 56.4820269313 53.8835387962 51.6300159029 50.9947683768 53.040299509 58.1035586573 68.04274969 77.8079786135 87.4961795404 96.204864823 106.176274367 112.714393699 118.434869458 128.640444604 134.414360404 140.461905676 153.43093336 160.103426123 166.769602102 181.031838985 188.120910999 195.277232001 202.781644033 210.95093019 220.038864442 230.127831341 246.704388545 257.147400259 266.800209156 274.721698234 280.198906353 285.833910719 284.922464693 285.271924131 288.078522727 293.762207123 302.018846585 298.096959501 305.212016502 312.989431596 327.718868267 335.957875125 343.513638603 350.264611147 389.219404118 394.073821164 398.969055349 402.297723265 375.062283049 378.417295034 381.780299386 385.186875352 388.619810869 392.017779405 395.286380438 402.06065277 403.872267094 405.245989695 406.185115203 406.727940668 406.936651814 406.8835626 405.8792464 405.129762635 404.203733697 403.187227921 402.161025137 399.605140695 402.382749315 390.545297251 389.172997043 388.09729437 387.282455047 386.670248684 386.190378826 450.958729931 454.138286859 457.613025663 475.16030201 479.924761141 478.577775314 467.160633135 473.680363931 480.758480306 488.313116832 494.7739958 502.528028239 510.118625272 517.187139369 523.30524378 592.440233708 590.607217608 585.089551394 575.816290382 563.242436252 562.567130646 544.045062673 529.231840489 521.876735944 525.603046582 543.205617016 606.944708398 689.080540782 774.511604586 873.44652566 981.303553815 1129.83845245 1247.44085828 1362.27563205 1472.2264856 1575.94996256 1672.75048068 1762.46622917 1845.37262938 2064.67186887 2139.9361512 2258.50533237 2323.75453689 2386.98348384 2449.30843208 2554.69546032 2612.62705125 2673.45907227 2735.71608631 2845.34627901 2907.10472115 3091.66730687 3161.09307608 3231.61223531 3306.88436704 3387.85288961 3475.93814137 3572.52409625 3816.63528656 3920.88612416 4032.6725306 4149.79386668 4268.26298147 4432.35545969 4513.30900673 4584.04926746 4630.44912873 4648.63334347 4639.42782374 4608.78097257 4566.23240631 4562.90522779 4534.65956979 4517.80810323 4514.01682436 4503.55962631 4518.14069516 4500.12252791 4527.58906938 4562.33932866 4603.69965264 4651.22871626 4704.47029335 4762.72433534 4824.96915004 4890.0664344 4943.08916253 5010.94316517 5064.66147759 5151.38546294 5255.46020855 5379.30743397 5506.41680481 5634.54387247 5721.99382401 5743.33225046 5694.42133296 5593.74871408 5470.54632353 5351.2271222 5252.04047993 5178.07827335 5125.80665903 5086.88766559 4988.57855088 4946.19565296 4894.80928872 4832.93924077
21.7433548417 21.6225489834 21.5364816478 21.4996816929 21.52792095 21.6358394876 21.833163625 22.1339058996 22.5041933706 23.2767799893 24.4806406258 24.6029360029 24.5642893277 24.3840845145 24.152122063 24.0154393449 24.1316044529 24.6074766019 25.458469133 26.6099841267 27.9319114348 29.2806701664 30.5306215058 33.1157969012 33.9556999288 34.5154424082 34.8907836888 37.6951356173 38.1702358151 39.1244643406 40.6706290264 42.7738508512 45.2535829928 52.0827391299 54.486687169 56.0673463389 56.6029835304 58.4142603985 56.6865490002 55.2268553728 55.2055214743 57.6140646866 62.8001337702 73.1992465268 82.5868066002 91.7559780556 99.7870257563 106.350808435 114.204628023 119.004513297 127.840199915 133.171107517 144.894171346 151.504358212 158.266588358 164.906441047 178.326435902 184.952846356 191.511368328 198.422931394 206.16909172 215.150433786 225.538450138 242.500064765 254.068212667 265.051333855 273.979826102 285.973384792 285.494048808 284.421792602 284.666637988 287.615789844 293.722324301 302.598656639 299.159739205 306.831880871 315.117050385 330.093467114 338.504095287 377.803986236 384.573655693 389.865585878 394.024854208 398.206941462 401.049666046 375.272216177 378.462201926 381.785384986 385.261368391 388.842888167 392.432611024 395.901679715 426.305022698 404.398589984 405.813836751 406.746171556 407.254135564 407.41804769 407.321150496 406.532091191 405.712457068 404.709253427 403.616568885 402.525473049 399.822407768 402.538449781 390.975578919 389.703708154 388.78764057 388.173889839 387.779353717 387.504218625 447.77826204 450.627605818 453.776908548 457.336231424 474.929138762 457.146163016 462.896378903 469.315685828 476.389697897 484.041671901 490.675755911 498.704242693 506.63376871 514.071094318 516.041076871 521.15762779 585.455264997 579.305095466 568.767969319 554.202915811 548.570751814 526.312331884 507.70659345 497.166066825 499.027628946 516.655941193 572.128488794 657.340432459 750.060740954 857.35835731 973.921061067 1130.24578987 1255.80846618 1377.54933245 1493.20273521 1601.35098352 1701.27823765 1792.85103288 1879.99358796 2001.82417816 2161.15523486 2274.42089929 2337.29180707 2398.18529374 2458.39063129 2560.32531193 2619.01433053 2676.98710424 2738.46791659 2846.02801393 2907.05538251 2970.29031271 3036.32936642 3222.82477004 3296.75331565 3376.63302483 3464.26907032 3561.5405038 3670.11477445 3910.9194983 4030.07034439 4157.18790532 4296.25732244 4418.96174853 4553.66716036 4635.50189777 4688.68619883 4707.71879155 4693.21532537 4652.65069706 4598.25045406 4578.36729244 4542.54615601 4520.92764557 4514.88151442 4505.36533316 4520.42406816 4503.81931356 4532.03925284 4567.40621158 4609.38146962 4657.79976694 4712.43806388 4772.55602037 4836.59529996 4902.25295718 4954.12128754 4993.66983936 5054.82061657 5119.5848993 5194.9577943 5285.94879122 5377.61046271 5476.60966841 5546.21093429 5565.49775958 5530.24637881 5454.50074818 5361.99358477 5275.3334117 5208.9083036 5166.58378404 5143.06671963 5072.73123882 5052.10843664 5018.49208274 4967.85063273 4900.67308716
21.3506983798 21.1782398941 21.0380708403 20.9486162744 20.9315279091 21.009042132 21.1990675392 21.508240996 21.9368272042 22.7935640508 23.2680305223 24.4069959732 24.5336536786 24.5005032885 24.3892060983 24.3405765497 24.5076033955 24.9964372553 25.8274883146 26.9351542759 28.1976457765 29.4745457544 30.636211813 34.1316156468 34.6902471039 33.9211429351 33.9784465143 35.862789696 36.0002745674 36.7932399328 38.3948881346 40.7519819637 43.6236778317 50.7542397419 53.8816120175 56.2362993542 57.6247680916 60.937046828 60.4461392697 60.1641993417 61.0659785219 63.9774600482 72.227137938 79.9357739466 88.5317095816 96.7846421636 103.796029574 109.246288535 115.503462574 119.208647326 127.545543772 136.25727556 142.531924491 149.405034092 156.382971587 163.016399758 169.051918932 181.374433533 186.993347742 192.94627591 199.944313525 208.580108134 219.124788073 236.591438356 249.301471653 261.437562342 282.994203551 285.982297145 286.309432331 285.756197621 286.398688425 289.740958184 296.275787319 305.595689902 301.397844338 309.544134013 318.21087493 355.772389256 372.380948645 380.161363008 386.044604195 390.34287997 394.372921828 396.730638801 398.935999234 374.930023997 377.934648193 381.242799569 384.839292572 388.624546217 392.445366807 428.599025757 425.979988115 421.843443123 406.116457679 407.029012397 407.50138214 407.635880999 407.52391822 406.854344615 406.008360704 404.971001431 403.841654157 401.360914189 399.872278265 399.338723686 391.283629293 390.19867519 389.537466734 389.22650652 389.152344567 389.177344077 444.665239493 447.155096082 449.942532543 453.15381533 456.91307488 452.991029972 458.495632122 464.761720016 471.791042699 479.516138586 486.319038597 494.643181601 502.967932287 510.876945802 513.182004947 518.806083195 522.387881905 575.996018136 565.123067659 549.643248617 541.36981943 516.696100047 495.506617601 482.76885017 483.453009794 501.456335178 547.116106396 610.402338662 741.101195041 855.518572833 979.506512219 1143.03087293 1275.36571805 1403.02531936 1523.57725151 1635.47762429 1737.9203657 1830.72957239 1916.89084691 2035.90264015 2102.26773877 2293.80144222 2353.41700382 2411.18848817 2468.61683686 2566.48768278 2623.48968757 2682.32483301 2743.18796422 2846.43108637 2906.56892785 2968.61914519 3033.03124515 3100.65369242 3283.10489433 3360.37778274 3445.694075 3541.44239019 3649.89359209 3887.8190878 4012.01231859 4146.77607256 4293.85747383 4428.85617439 4553.68435179 4665.34100093 4725.04390996 4745.37341586 4726.76918628 4678.21377167 4614.5185039 4551.23399021 4542.66072975 4518.79599083 4512.7555382 4505.98384871 4522.95752303 4508.67303647 4538.09301526 4574.0500861 4616.35702644 4665.4680248 4721.81558828 4785.01871745 4853.21343368 4922.832495 4956.54824933 5015.13291223 5064.09463625 5106.30272472 5149.46873167 5189.85426386 5251.66518152 5315.09596049 5362.12279266 5377.03416304 5355.67715211 5307.46956939 5250.16491723 5201.93255367 5174.71136861 5170.51591862 5132.73738247 5145.25480566 5142.68398798 5115.0846006 5060.27341315 4982.09338052
20.9500188854 20.7156640823 20.5074510881 20.3476809295 20.2647339364 20.2904185335 20.4537532365 20.771114909 21.2351303052 22.1731720502 22.7799754211 24.1189578243 24.4552125238 24.6237847555 24.6929860161 24.7873491178 25.0438954232 25.5608131642 26.3635635318 27.4019296427 28.5716887575 29.7442675646 30.7919900896 34.0687820592 34.3501990132 34.1884890637 33.7293964433 33.9928949378 33.7618913275 34.3880423741 36.0681877642 38.7130920959 41.998540075 45.5027647446 53.2701690168 56.4029454987 58.6785132214 60.1756113195 64.3903691515 65.3894830225 67.2846346718 74.4224472876 79.9425147664 86.9724527898 94.6041764693 101.762302856 107.594876938 111.791693601 114.685095292 121.906701929 125.320091767 133.229738501 139.880487554 147.26498966 154.606138859 161.238295561 166.798556773 177.400200517 181.642547572 186.190510729 192.075701878 200.139444967 210.749618182 228.472857523 242.448168802 255.989024147 281.145143541 286.10024584 288.084110142 288.866817347 290.520699144 294.567662828 301.548535167 311.114884164 304.943513853 313.436272067 322.313705576 360.651665186 376.193969848 382.868606076 387.468746771 390.388597461 392.978572685 394.18330151 395.580518035 373.807802567 376.640143594 380.006204673 383.826566104 410.195700538 412.654678087 428.662288092 426.609585879 422.700013334 417.745925736 407.035779968 407.476723354 407.601907786 407.506364837 406.826142581 406.001478131 404.976465334 402.796128058 401.214200679 399.739446492 398.505176268 391.479143088 390.681715227 390.388006181 390.502865553 390.876156278 386.264063438 441.678495503 443.792395865 446.188680429 449.010390254 452.403984996 448.834135047 454.017192006 460.060459764 466.986509349 474.741398922 481.689037056 490.308999269 499.064830244 502.603344596 510.27769993 516.63931059 521.000455521 522.663935081 565.216613527 550.251502276 542.419699089 517.33748437 495.506624734 482.226969059 482.895933161 501.813722338 549.682333567 616.472673827 751.293030083 870.743933134 1000.11108013 1169.67096684 1307.11131074 1439.40544743 1563.90728536 1678.8527102 1783.22820155 1879.51612875 1961.17247631 2076.29339157 2139.46746238 2316.90534795 2372.28948958 2426.05706963 2479.98044034 2573.1381466 2628.16078107 2685.63534393 2745.57206475 2846.87296909 2906.12851958 2966.86243858 3029.27737391 3094.05733362 3266.71659932 3339.77604852 3420.70392723 3512.38355151 3617.6761675 3738.85882952 3976.06377591 4124.93204295 4266.09022727 4408.96101986 4542.1755689 4661.44949173 4725.99729153 4747.92246371 4727.70510484 4675.49218847 4607.91281551 4542.17688285 4532.77634667 4510.54068725 4507.69524748 4521.37036963 4526.88935676 4516.15442037 4547.21194 4583.45236226 4625.28057229 4674.22403108 4731.99884622 4799.26425482 4874.39008143 4952.69634234 4998.02792205 5060.18467851 5102.69115314 5125.31712881 5136.3386425 5136.37674413 5155.13042339 5181.03919697 5203.25193793 5210.63956633 5199.41044633 5175.55628292 5152.02795447 5143.07709444 5158.07811595 5150.70617485 5204.66264129 5249.06297976 5263.35035587 5236.84347154 5170.8159119 5074.38435861
20.5546711116 20.2502203118 19.9615415727 19.7143699692 19.5443757948 19.4949933247 19.6097995505 19.9186009391 20.4207123245 21.0741460388 22.1579423413 22.8654724373 24.2626110439 24.6625309635 24.9467675479 25.2188433502 25.5943204135 26.1592141296 26.9422971124 27.9098389357 28.9788457183 30.0379385225 30.9671830053 31.6551280962 34.0985833064 33.635332638 32.8236695874 32.3796821634 31.8105975136 32.2972538741 34.0751781479 37.0025083686 40.6601333657 44.5588887408 52.7980111804 56.603309306 59.6707308216 62.1028076913 67.9239667389 70.0732379678 72.903237449 81.5346887542 86.8671157864 93.230565113 99.9041150118 105.968007989 110.628937534 113.587835995 115.256208935 119.608276389 122.53940097 129.874047815 137.215738429 145.352087382 153.167398555 159.750049514 164.619545808 167.8642428 175.413901996 178.055990087 182.473099389 189.824198394 200.546885816 218.582630986 233.983878964 267.156394509 278.525535061 286.090963568 290.485437111 293.347563057 296.596340072 301.678080504 309.175467208 318.854982798 329.958989578 345.591810927 356.743925428 366.420635785 380.552395676 385.713552367 388.608419534 389.720723648 390.454990773 390.181084963 390.577708877 392.215351156 374.367262332 377.933490492 403.69260007 408.07830681 427.701324787 429.190564608 428.195980194 425.0109439 420.503443236 415.927742451 407.275222711 407.407478577 407.348501819 406.501152854 405.73083185 404.7519448 402.395812978 400.83653329 399.421477383 388.336801016 387.053130538 391.179225436 391.379985182 392.064639395 388.222757944 389.255583499 390.058283728 399.928928997 442.636552087 445.029345774 448.00071411 444.78404403 449.550342197 455.28007279 462.021891172 468.512174322 476.782583826 485.670550035 489.820748005 498.770519126 507.20092265 514.501358024 519.976329918 522.906696488 568.889057075 556.036808791 552.139489147 529.100562885 509.089922298 497.433119894 499.643304174 519.511610176 560.281724478 641.608975045 730.480105775 862.500434208 1036.33946843 1210.38672797 1351.02867052 1486.58661422 1614.13157995 1731.54871223 1840.51194392 1932.97228712 2013.40022302 2082.71691229 2182.52431434 2344.01277867 2394.07756685 2442.84201664 2519.45767458 2580.18706868 2632.9618058 2689.03471927 2748.18185523 2847.6966351 2906.29784128 2965.8280606 3026.12453437 3087.58453136 3151.36607643 3316.13864911 3390.58554626 3475.53310715 3574.39393292 3689.9858572 3921.48783039 4067.78651867 4209.82896749 4354.39589547 4489.70608908 4615.59567081 4682.28495656 4706.11986121 4687.95080957 4638.41432938 4574.59286501 4513.99084593 4512.1941243 4496.3993967 4500.59272468 4521.13831346 4534.08277877 4528.55430362 4561.69993488 4597.5498027 4637.29510977 4684.06590496 4741.69608858 4812.8746599 4897.10826116 4989.09776865 5054.35671224 5129.42929054 5173.72110677 5181.7546939 5162.08075695 5122.19886271 5097.2271054 5085.06382774 5081.08413003 5077.7493806 5071.7608006 5066.93205604 5072.90488123 5101.054573 5111.18451585 5201.7545947 5301.27447979 5379.19860768 5407.9073598 5376.19972515 5291.01881346 5169.04360569
20.1826295567 19.8044043881 19.4276449611 19.080635495 18.8064382463 18.6619504143 18.7089261843 18.9945276182 19.5264518732 20.2573157367 21.4376439366 22.3005140942 23.0567257991 24.5742239871 25.07993003 25.5404737061 26.0498521371 26.6807378881 27.4627330912 28.3759591438 29.3577100557 30.3157310835 31.1426162921 31.7303235396 34.0110269729 33.3487106888 32.3070414131 31.222322761 30.635142695 31.0457087454 32.9112249454 36.0367655187 39.9285623277 44.0612801362 48.0491413625 56.9339487084 60.6041969054 63.7763618124 70.8491163204 73.9021020347 77.441119995 87.2763569912 92.4041446495 98.1563791614 103.957048224 109.025263284 112.636637281 114.512835571 116.436930611 116.989691134 119.703002387 126.848423498 135.087680663 144.079741426 152.354542024 158.746693699 162.650543742 164.204317273 168.413724879 168.674201089 171.365567503 178.034956652 189.118967272 207.68400138 224.761745474 261.03725386 275.479000502 286.050700743 293.323811777 298.7444889 303.995793352 310.384626084 318.510024808 328.26494382 343.127481036 354.156076994 364.294762948 372.753043206 385.251986065 388.519244688 389.285040681 388.131275233 386.548359951 384.424012556 383.608535223 384.858723208 388.308411927 393.383468164 399.432716395 405.436062297 426.730310532 430.088292722 430.626532294 428.656121854 425.07893472 421.165387317 407.077737633 407.216374163 406.449690992 406.00456648 427.094030295 403.255868984 401.752148483 400.243157679 398.924767652 387.784689877 386.968383373 391.706211892 392.536524524 389.26787913 391.124097541 393.020164075 394.540334635 403.632027125 403.457413923 402.397757766 437.656793802 440.985178671 445.215355489 450.514987735 456.965005501 463.314946909 471.610371937 475.71994424 485.038538656 494.55770852 503.798244295 512.178529974 519.034000949 523.672390098 525.487423702 566.179392737 569.56355618 551.01529571 535.350888284 526.598165526 532.031981736 554.784361559 597.447563853 685.144868551 775.109550074 911.390457648 1033.80048957 1162.2355546 1405.82143561 1543.46383742 1673.4153626 1796.4159034 1902.46084644 1995.08415796 2074.03448696 2140.05753224 2227.0799753 2375.43554891 2418.96476283 2461.58164592 2530.80880414 2587.48907281 2637.75857396 2692.46804143 2751.11162613 2849.22144799 2907.66509689 2966.42333585 3024.8327367 3082.85774786 3141.3633955 3202.31535971 3357.48876344 3433.19717097 3551.92279277 3654.1875546 3848.00843476 3989.20962947 4126.4016245 4266.21515355 4397.08223466 4505.21487563 4594.21198726 4620.60857166 4608.60178967 4568.50586319 4516.38580804 4468.64479975 4409.25464342 4477.90633444 4493.19304503 4523.93423109 4513.38203978 4549.13979739 4585.02246266 4619.5005754 4654.58706714 4695.55405421 4749.35662182 4821.95896656 4915.19285475 5000.35494586 5115.42622635 5212.10105479 5266.35148025 5264.95329503 5216.42846516 5137.49197853 5069.63407138 5019.9173211 4989.77621897 4973.86839405 4969.1724488 4978.03840153 4950.63137445 5015.4609142 5120.05524963 5258.16556972 5403.6385551 5514.80645382 5554.87027999 5512.40100154 5402.19467083 5250.34675843
19.8252421168 19.4069267126 18.9432523003 18.4939845301 18.1090452202 17.8597788811 17.8288001342 18.0834315589 18.6399873612 19.4427214329 20.3790662381 21.7026123134 22.6076208938 23.3727291702 25.0842763004 25.7221471696 26.3644265232 27.0711905223 27.8707310569 28.7531428868 29.6727791808 30.5560326557 31.3113154999 31.8409827516 34.1546909335 33.4477026128 32.3705806871 31.2554004679 30.6547068982 31.0755400345 32.9737571665 36.1282547302 40.0290723781 44.1669259968 48.1967379446 57.4805890184 61.5177505561 65.1903367485 73.1169289098 76.7948786261 87.1799751552 91.5646712373 96.4675386505 101.677791121 106.728981567 110.963827558 113.743822683 114.832901519 115.067698434 115.132339832 117.88892262 123.711646788 134.266619134 143.937599172 152.45389276 158.418140211 161.087451695 160.634657147 161.149570639 158.746248118 159.675826525 168.13668192 180.678176815 197.590536221 220.45862825 255.317328389 272.861102833 286.489632999 296.734805028 304.844962792 312.249269417 320.085441463 328.933928182 338.788637937 353.489613704 363.602347746 372.561289956 379.589738743 390.192421544 391.253491938 389.50890384 385.643958374 381.276640212 376.910223234 374.670742943 375.573576513 379.715963114 386.401093713 394.454373964 402.471148808 425.758265213 431.351018546 433.77830029 433.392152003 431.113729051 428.182259136 425.820574534 407.220844279 405.949649026 429.81760212 433.594069355 402.399194407 400.911240555 399.457056653 398.25431852 387.037467901 386.778458609 387.573937483 389.147979362 391.627875263 394.608852568 397.604123375 400.051917339 401.419564793 408.261517268 406.92574949 404.435531888 437.608110577 441.153947633 445.876968706 451.898034975 457.984996038 466.193734289 470.241561206 479.83037404 489.866227408 499.90841133 509.426827256 517.82014647 524.465395245 528.819270804 555.316453047 592.432657497 580.322486299 568.888983952 567.184074941 577.344012953 603.451117296 648.117121186 734.355869044 832.855242951 972.522435179 1094.75673044 1224.29721643 1357.1129117 1607.85458192 1740.04978354 1864.49314661 1972.44648141 2065.70527383 2143.33687746 2235.45318481 2282.33838947 2319.43448177 2447.13443179 2482.28804582 2542.90927491 2584.47693046 2642.32991217 2695.7764617 2754.342323 2851.67260133 2910.75265872 2969.55120323 3026.75652903 3081.72863379 3134.86789131 3187.91633807 3324.370339 3416.70977575 3490.81189366 3581.47342068 3690.36969058 3894.26171067 4021.92945348 4151.91553415 4273.45797116 4374.40751074 4472.40448253 4502.43103688 4500.07853177 4474.69091901 4440.31912118 4386.45016964 4366.97520666 4369.52670645 4394.14228586 4532.12925652 4536.93973817 4582.01329706 4621.93379458 4654.09673004 4681.05533112 4710.69311796 4754.21118614 4822.21169626 4920.02982712 5021.70214866 5160.5379319 5281.62533629 5349.88857184 5343.228173 5270.04192723 5156.47573542 5050.56644492 4968.65722832 4915.71727936 4888.06893082 4882.56724153 4837.57735618 4887.18470382 4977.65865987 5115.09239258 5292.01451213 5476.6532283 5616.38444101 5664.70702531 5610.00966072 5475.40108316 5296.26208102
19.3424114661 18.9729513555 18.454897935 18.0136753537 17.5290302465 17.1833015983 17.0796974686 17.3049962993 17.8816855154 18.7426584421 19.7566783798 21.1589083066 22.1778892497 23.0636443369 23.8250958795 25.7810200052 26.5408773703 27.3228106966 28.1523017533 29.025795329 29.9109511648 30.7510077663 31.4717438674 31.9913544555 34.5494920268 33.9622458675 33.0592181812 32.1412051046 31.9530817114 32.466667659 34.3188918341 37.3049974799 40.9717359205 44.8799240117 48.7446702673 52.4408688147 62.4230471016 66.3604382262 70.8633309631 78.8267543203 90.1442013987 94.5551002908 99.2281133084 103.986840064 108.453618811 112.087704233 114.357124919 116.548785375 115.21770756 115.300804403 118.292116429 124.495071396 135.453271368 145.317919762 153.675190024 158.954309329 160.270292247 157.790039653 153.060410653 149.944528148 150.150203407 156.853499257 170.750391122 189.539648305 228.28146739 251.562396606 271.836486791 288.193612998 301.141103796 311.745775869 321.197538153 330.457756624 340.055237788 354.61133333 364.48737491 373.674403018 381.398238924 386.898854675 395.475734334 394.146601356 389.633483014 382.720547844 375.196620561 368.256772301 364.431165646 365.074136852 370.262702403 378.970357834 389.413601838 399.725512224 425.215781778 433.199345476 437.662727039 439.022658303 438.211805649 436.410759935 434.750989359 434.055421226 436.552105367 438.349560617 441.02577231 401.432176011 399.916773618 398.493572656 397.400644483 386.089442955 386.440728957 387.888471856 390.534737958 394.231044005 398.563614528 402.912069508 406.524719355 408.663671161 414.086294785 412.40469216 409.115919604 434.819517234 437.502162312 441.471358921 446.897550426 452.569682252 455.695577935 464.408975788 474.152487846 484.607850048 495.380489199 506.005385991 515.965089896 524.734071739 531.866283089 566.334047004 566.78610184 609.494943945 608.160732313 613.40778432 629.280809148 659.406720047 706.324132637 798.819019247 885.325209367 1040.62676402 1161.54976148 1291.27236411 1426.16624788 1562.44794337 1814.08971891 1938.07478396 2049.11566369 2144.13026426 2221.1530322 2304.69743024 2345.03808324 2373.36359567 2413.65934817 2526.16413292 2555.56529103 2591.82122368 2646.35342132 2698.66693102 2757.68206731 2855.08721542 2915.88297878 2975.940421 3033.1492867 3086.06670426 3134.41275612 3179.5286412 3319.58399336 3368.80196584 3429.84197919 3506.61538783 3600.99822736 3721.49845508 3905.82121273 4023.13029233 4132.96543878 4225.26565641 4291.66224698 4367.57778764 4376.89926694 4368.87902956 4355.25587095 4318.66774251 4321.78192536 4346.58935824 4393.13908582 4456.42193362 4527.48068394 4631.20518526 4677.84302002 4707.5120079 4722.50212845 4733.63848592 4757.62748061 4811.06112457 4903.53774545 5010.09012388 5162.62875303 5299.95503407 5378.56790359 5369.88371326 5278.58073072 5145.89817084 5015.57592809 4912.80356569 4845.06274857 4809.81837712 4736.93800114 4759.84665733 4818.63474141 4921.56117261 5075.01119156 5271.8939149 5478.18149899 5634.76275327 5688.42198057 5626.84849821 5478.24772629 5273.50874204
19.2019261996 18.7878699344 18.2224697479 17.6461734356 17.1158096078 16.7360970478 16.5830488078 16.7883281073 17.375381748 18.265513894 19.3148328876 20.3825597822 21.8292893378 22.7884183939 23.6330710645 24.3948213863 26.604129407 27.4512770466 28.3153705269 29.196247688 30.071380428 30.8983940291 31.6201998097 32.1733705644 35.1516839382 34.8102269516 34.2357827717 33.678761106 33.5098764052 34.855571229 36.6007797749 39.2751488043 42.5323793754 46.0390078691 49.5820585047 53.0710407257 64.0231930196 67.9874753711 71.9230593117 75.9497021293 92.0944064509 96.4516539352 100.910317172 105.329780634 109.414420084 112.738376028 114.888367976 118.284144711 117.494815999 118.107352796 121.444601938 127.75105455 138.86862528 148.331232737 156.117454513 160.585976059 160.74631172 156.725688927 150.248503834 145.1632517 143.630678572 150.707763258 165.793737065 198.960154123 226.279283573 251.806590938 273.565119035 291.983583523 307.075961434 319.735192365 330.929879365 341.446210908 356.656436458 366.574347133 375.97707406 384.302744615 390.841666461 394.848909486 401.463013682 397.768781808 390.472221869 380.438781361 369.657910572 360.02629866 354.590798107 355.098004479 361.601230524 372.554762495 385.515198753 412.050220412 425.910363856 436.138148688 442.514499197 445.532825438 446.12907812 445.412214611 444.412474104 443.882677283 446.433827413 447.350384931 448.838400962 400.407273153 398.792051442 397.347327845 396.329378598 384.888469229 385.850292605 388.038673339 391.768004791 396.804556437 402.674381917 408.60843995 413.620508026 416.701806332 417.093494146 418.586566873 414.318888681 432.721079163 434.338038771 437.353484388 441.999167408 442.719017345 449.710064655 458.198461902 467.960457147 478.705508885 490.085692715 501.704867232 513.136935285 523.965129505 533.855532564 576.571193874 582.23851244 640.601759436 647.054737808 659.566681659 681.497686719 715.974585119 765.399309767 831.160910322 950.147109347 1109.58891011 1228.77263543 1358.33649427 1495.23567322 1635.91097277 1885.44493964 2014.17789911 2130.12644983 2228.71144532 2313.84628829 2367.74842914 2415.03338416 2433.27258826 2459.04617191 2547.49976907 2568.46103635 2598.5544915 2639.41893253 2700.69098691 2760.70615567 2859.19858575 2922.99258015 2985.88660234 3044.83915784 3097.38470475 3142.28753779 3180.23921232 3290.84402284 3327.52993575 3374.38701345 3435.93281217 3514.34678173 3618.16507134 3704.29356841 3891.87817541 3989.60488671 4073.39004168 4137.12990502 4230.15581849 4251.43725754 4260.87623737 4268.12138462 4249.30849596 4275.96259383 4324.67807479 4395.83883165 4484.44519121 4580.21661799 4698.28632963 4756.35368469 4785.06225902 4784.90174296 4769.78262806 4763.41445699 4789.7274546 4836.12191615 4955.6416337 5102.44793805 5237.8960982 5316.43927074 5308.42851437 5215.4258375 5080.77682573 4946.45043415 4839.36193838 4768.65546512 4664.74240553 4658.07522649 4682.6721323 4741.20988608 4840.91727533 4988.58804736 5178.97806168 5380.54386304 5535.84048377 5591.46398931 5533.57669962 5388.8948479 5184.84220028
19.1507653383 18.6269607509 18.1455202681 17.5528027732 17.0029568637 16.5900284023 16.4303007842 16.6267629755 17.2043768486 18.0779773686 19.1038094795 20.149415478 21.597063538 22.5753708502 23.4574550551 24.2682619418 25.0381930064 27.4770671701 28.3742539332 29.2727126462 30.1566877601 30.9954397013 31.7472633058 32.3665738865 32.815737659 35.83635207 35.6544526598 35.5173892187 35.6929598074 37.6438716343 39.2573936741 41.567453964 44.3459517182 47.3746227591 50.5163865072 53.7140032801 64.7068460561 68.602068261 72.5334578744 84.7878956128 88.8976147092 97.4134856084 101.679822976 105.872995841 109.781506834 113.090460828 120.839017941 121.213275256 121.530709325 123.049364618 126.814143958 133.024892779 140.919245995 152.791546364 159.809908651 163.603668429 163.173086452 158.612449624 151.662069069 146.583683416 145.080522969 152.495589447 168.013359103 202.545281091 230.364369956 256.480049482 278.905324463 298.491936765 314.99515136 329.12550039 341.639779783 353.15044905 369.041827655 378.982796639 387.996777555 395.588241723 401.098810278 403.799625663 408.75407158 403.008211458 393.282247384 380.495840536 366.838242762 354.799910902 349.025048661 349.814504031 356.277442218 369.278244327 384.406839441 412.969531697 428.918217506 440.88837779 448.765213774 453.107087753 454.835639631 454.978976551 454.465446063 453.977099855 449.281883378 456.369065285 456.635915204 399.341462864 397.531775681 395.98700643 383.257277993 383.330979455 384.7068701 387.712955661 392.494639606 398.883805531 406.364427506 414.019746464 420.597774617 424.756863621 425.457011738 424.85598438 419.453523189 431.251978796 431.601966263 433.465547608 431.192792943 434.583069853 443.429343222 451.553937852 461.196360166 472.08727307 483.920052431 496.36303058 509.077720695 521.752953759 534.164896991 584.781801049 592.634900751 667.88495665 681.613402148 700.971167188 728.702449255 767.465428317 819.496007399 886.391648126 1010.18473847 1173.57356057 1291.03972185 1420.43913167 1559.46483373 1704.9882722 1953.43443008 2088.65358631 2211.73362715 2323.15944515 2401.53759716 2453.68334573 2490.96012463 2498.00223029 2507.23307746 2512.49498691 2581.04670324 2604.1351941 2640.98566979 2691.39834389 2762.70790452 2855.00772121 2931.39867791 2998.89043262 3061.73383356 3116.2237693 3159.82874223 3192.23241691 3272.99279594 3297.10832001 3329.34964204 3375.05451779 3444.83346464 3519.77713276 3591.31670958 3678.40938053 3763.17383189 3929.41192878 3990.75810582 4036.29455741 4130.80838149 4155.89338845 4148.53530846 4179.59185631 4228.64607655 4301.00259308 4397.76301501 4514.42670375 4639.71125255 4737.99829786 4853.86545444 4885.26291328 4868.68532154 4821.04394926 4774.7368107 4762.31579649 4773.24560124 4862.47736007 4983.11712979 5097.70887626 5165.03680575 5159.15119705 5075.21922039 4958.10258766 4839.71800868 4745.41717569 4616.58035091 4586.03850522 4585.56475875 4610.41074494 4660.79112476 4742.63071384 4863.35897031 5021.057499 5191.15860186 5325.85013286 5378.36187677 5333.07609015 5197.5113358 5021.53471639
19.1886041908 18.6835465323 18.2287122625 17.6671286747 17.1509485392 16.7695082135 16.6303691455 16.8158492916 17.33193944 18.1760489375 19.1163708919 20.0801602363 21.0011801439 22.4258252525 23.3024861215 24.1280718756 24.9243244383 25.7103499595 28.3408353222 29.262305005 30.1681634909 31.0365681728 31.8385512564 32.5437346495 33.1295228546 36.8761504145 37.071766387 37.3252523915 37.8134580104 38.6925122174 41.7629304798 43.7223535008 46.036996965 48.5937327642 51.3283095982 54.2159969533 65.089937273 68.8564331843 72.7033202472 85.2431655528 89.2324843197 97.523259057 101.598853469 105.645199526 109.542035515 113.075748532 122.879888283 124.575709228 126.301943385 128.945182543 133.257293206 139.398240481 146.797852478 158.388262157 164.766631313 168.283617529 168.049269855 164.160751956 162.673409025 156.193933797 155.571308793 163.122630372 189.435393809 214.513540923 241.071965715 266.31056145 288.899309787 308.01219493 325.144068025 340.123204006 353.498541844 371.028561472 381.994435737 391.962712219 400.695625047 407.74195904 412.487943944 414.230321059 418.078167871 410.916146105 399.543719776 385.300704899 369.344387696 360.872954218 348.94831813 349.805002657 363.311963874 371.46115139 387.821109176 418.321371247 435.339027251 448.215516664 456.921823547 462.043053313 464.456357966 465.09632544 464.788904494 465.60057155 457.82900346 456.396839165 454.950401955 398.21826199 396.104381114 394.359031263 380.957478417 381.273448458 382.962372104 386.584076554 392.247305112 399.825568049 408.788283551 418.095720606 426.232649039 431.493736021 432.51004649 428.777744893 419.283572511 407.715830699 429.003136238 424.723577664 423.267504031 428.540827935 436.714091333 444.368898553 453.775527177 464.677195819 476.799836179 489.866697042 503.615878441 517.829181286 532.37974133 586.589235775 601.649802595 689.25903333 709.25434655 734.542421286 767.360584656 809.967814277 864.430326901 932.473638887 1060.827825 1160.55467704 1343.66034564 1472.86116059 1613.94634008 1764.41785343 1920.1952399 2156.02694468 2295.47458666 2405.75630046 2489.50728406 2541.61155332 2569.15287512 2570.17746767 2551.98390101 2544.30824143 2533.40831518 2607.80637685 2640.29798246 2689.5031977 2762.67838384 2857.31208361 2939.56247477 3013.2318108 3082.16494213 3141.26108794 3186.32511267 3215.55584618 3268.05735491 3280.24125225 3297.97324576 3327.66960316 3379.10162249 3437.18935364 3491.885472 3562.50503383 3633.09907462 3698.48255559 3856.91602466 3905.41775502 4017.17114479 4054.87817954 4058.60489408 4107.54276919 4175.93988946 4269.38830819 4389.98962585 4534.25303092 4690.5490754 4824.95397179 4936.64423495 4990.64862901 4959.12051208 4877.21950167 4787.04660114 4730.17199145 4697.0594266 4744.8897442 4826.86417376 4909.55556665 4959.10740656 4955.01186382 4884.48398731 4795.61777561 4706.31220814 4569.03031761 4527.41090603 4517.10727384 4529.66802411 4556.48991082 4594.27480705 4647.61850295 4725.68225307 4831.84835578 4951.51879279 5050.55142444 5092.3750377 5047.12312626 4945.73335996 4800.74274679
19.302176437 18.8394749708 18.3561372712 17.9557124011 17.5159269536 17.204051426 17.1074744801 17.287832668 17.7427838992 18.4025858999 19.168833948 20.1247558949 20.9433796411 22.3142746706 23.1526708045 23.9667906784 24.7699559657 25.5731893552 26.3832968367 29.1683655309 30.1042458676 31.0135502236 31.8773015601 32.6770400918 33.4012248913 37.8010948186 38.3148938294 38.8833811893 39.6128327356 40.5887905901 43.7668218072 45.4082921637 47.3096642402 49.4466833601 51.8207161278 61.5719772016 65.0533858769 68.7035863512 81.2120298718 85.0946632009 88.8838332453 92.63504725 100.621039587 104.532550202 108.974840456 112.818501433 124.298360037 127.478704088 130.751893161 134.670170371 139.728377822 146.043377487 153.214072258 164.847287055 170.977592672 174.760038849 175.497159361 173.313344613 176.608051352 172.737783684 173.661959504 193.842595712 211.400773809 233.801676076 257.737879073 280.90124518 302.145892618 321.157071946 337.495965527 352.760467197 375.021776049 384.445251621 395.649625862 405.666554874 414.25863534 421.008585173 425.350491184 426.62613326 455.841088676 458.912299562 410.576672433 395.869587462 379.418206519 375.001031236 363.062980743 363.918610696 377.349806932 380.915653286 397.0989389 429.256111625 446.015717133 458.731591403 467.415904732 472.627144615 475.160745239 475.841178568 475.388244495 468.53949751 466.209126243 463.723229997 461.070732851 458.175404989 394.460844393 392.397336767 378.186614199 435.430110086 380.338066274 384.300851325 390.512317157 398.895250691 408.933118759 419.511931542 428.907300816 435.085872993 436.354570856 432.066587019 421.64582892 408.390031888 390.350977693 420.233611534 417.489731141 421.819527028 429.336852594 436.478370558 445.579806509 456.388964577 468.655180995 482.145411634 496.660378017 512.058105607 570.61424077 587.999162743 606.510333845 703.704979355 728.722645154 758.765668988 795.674757029 841.385078574 897.801051523 966.70706516 1099.0096767 1197.76736998 1383.00981158 1511.61429111 1654.13279418 1808.84197139 1972.14917438 2217.78164104 2357.20755128 2477.96531891 2569.31916075 2623.3213122 2638.43337518 2629.7789483 2605.10115635 2571.90756682 2548.62236028 2543.59687041 2636.51897694 2684.33968853 2749.43486404 2856.47692239 2937.21435733 3025.64626939 3102.26034487 3168.31243281 3223.03903453 3249.69093298 3258.08039216 3252.06605874 3280.4511031 3300.11750483 3327.57236255 3368.8236848 3407.04758905 3461.77994084 3518.81362848 3574.28531114 3625.70013838 3785.21429686 3909.54029876 3956.14712857 3967.10292149 4029.29241983 4112.16630828 4221.56265303 4360.52994555 4526.76540856 4708.9228483 4873.63529047 5009.0975842 5062.95920308 5020.57818351 4910.40374412 4782.6320997 4685.70911218 4609.41602555 4614.91100105 4656.36349875 4705.70394151 4736.52217032 4733.37305178 4675.72863982 4617.67350067 4491.52696099 4455.04592357 4449.78622111 4471.66519081 4507.77703817 4542.87652758 4567.95220592 4586.35236811 4611.41348204 4654.79146579 4713.44284092 4766.79757895 4788.35851276 4741.48015657 4662.59584763 4547.69848245
19.4672835162 19.060790709 18.6478852 18.3491035319 18.0050868365 17.7763233445 17.7248816512 17.8896646373 18.2629403744 18.7924112483 19.4097522565 20.0606013831 20.7160999485 21.5965414373 22.9769829676 23.7652945994 24.5649873684 25.3790797131 26.2081057013 27.0501387821 29.9608618847 30.9165599145 31.8464865962 32.741417615 33.597664456 38.5316826363 39.2924605309 40.0912052759 40.9816775793 41.9991898369 45.1046869683 46.4445834288 47.9780957904 49.7594768426 51.8490337466 61.1184167214 64.5226886684 68.1314810101 80.6571677619 84.3804224353 87.8708841252 91.2259703687 94.6290445629 102.75522699 106.754016599 113.869352415 124.419872532 129.197079318 134.140373348 139.513713375 145.597318898 152.461066585 159.834472386 171.961577899 178.357807318 182.95498795 185.271065601 185.453572784 194.433102241 193.76589739 196.633489884 223.641985333 238.998760633 258.168906329 278.796756352 299.173753546 318.40022125 336.167938182 360.342033905 375.442510252 389.278961217 398.718317251 410.095152697 420.217585507 428.844305862 435.593800477 439.960704881 478.793668708 473.269046014 478.627212284 461.869764369 413.554681124 422.253816032 402.912774496 392.039606097 392.743584356 404.787273359 424.791889016 428.304736017 446.240487443 461.335135664 472.7463747 480.483197918 485.028739603 487.063179597 487.284618671 483.854637143 477.745646468 474.41117195 470.777537805 466.880534672 462.703594186 458.230199547 458.327991514 439.520429526 434.92170132 371.834655915 380.558967137 386.837305335 395.426864261 405.844128733 416.963302066 426.957791765 433.590019011 434.93347832 430.217548168 416.411567986 401.963749724 385.250698937 409.960398572 410.41123772 411.587507541 420.9957928 427.668740412 436.463566951 447.127992992 459.427916538 473.164216294 488.186980763 493.304046416 566.383951459 585.945518075 607.064000389 630.383555461 739.772546231 773.316514151 813.188418207 861.062181346 918.687577208 987.847630836 1070.3402634 1220.33237226 1406.64861392 1533.69677898 1676.23351973 1833.34792036 2017.90300322 2187.28955994 2397.39116592 2528.79011818 2628.70702215 2686.15996729 2697.83700908 2675.49005105 2635.91981236 2590.29850334 2556.25697588 2543.2802454 2570.40179835 2674.88096866 2740.72970679 2850.2755387 2935.77694647 3025.32595703 3115.84239308 3195.72778138 3247.926228 3277.30948307 3282.53814804 3268.07757578 3245.52243497 3276.07321783 3287.58695241 3312.40332034 3334.63648074 3374.14094783 3418.11571188 3463.65673793 3509.02005848 3554.1080221 3705.05351199 3733.57047524 3870.78657087 3940.68642421 4031.67035287 4149.48789664 4297.65152831 4474.67359581 4669.73179205 4848.10522197 4995.51325075 5053.35759936 5007.99762876 4883.85870653 4735.65899101 4584.89017526 4503.75168629 4474.94520398 4482.25403824 4503.46860699 4518.72034163 4493.29271459 4470.42171044 4364.16033432 4345.0300782 4353.31202857 4395.24120834 4464.07440548 4539.78381865 4595.42137186 4611.4305227 4589.5484811 4551.81734074 4523.16027988 4513.51605077 4513.76731412 4482.55394257 4445.09754731 4377.85844595 4285.18697719
19.6539824528 19.3056408782 18.9636054773 18.648692119 18.5089527633 18.3515246754 18.3298532017 18.4641351455 18.7450073603 19.1384566831 19.604536745 20.1144954502 20.6556200507 21.2261603431 22.3643420118 23.4977145916 24.2942223525 25.12024181 25.9698646356 26.8376118771 27.7190957404 30.7352066894 31.7295876974 32.7145160675 33.6926993793 39.0290120919 39.9743294426 40.9318464348 41.913949758 42.9175299772 46.3977063328 47.3239329479 47.9634306571 49.4435733865 51.3374018712 60.0018171512 63.4946786315 67.1849844887 79.6496754893 83.1679250441 86.2102257668 88.9504825722 95.2148439416 98.9804318587 103.008477685 110.78331841 122.710656623 129.267471234 136.089262509 143.173091348 150.615397683 158.441912086 166.485903998 177.986330589 186.722075474 192.602176291 196.90783287 212.590528753 214.374188071 217.000477808 246.170726376 255.606952092 268.989110403 285.024550668 302.265220676 319.643266469 336.570996653 352.800989427 386.750925132 390.613703783 404.397311371 413.800929385 425.352844112 435.678699927 444.541703801 451.608869192 498.690474736 498.477621059 494.355550581 503.475638549 489.861061607 477.674062284 458.63132582 442.669021036 433.646248711 434.048769988 443.686410098 459.863227203 454.447047088 469.011016824 481.170600664 490.205863924 496.101847448 499.23837789 500.159745945 497.10208749 494.396756266 486.943535316 482.432840293 477.555999608 472.374384339 466.910192299 461.188167287 445.402106491 439.528601732 434.028721013 366.569811214 370.506806536 380.945869078 389.006852308 398.909264027 409.576671983 419.21787058 425.585737647 426.696459707 418.414955993 406.067244634 391.942453989 375.290174598 359.592406287 401.408955859 402.065422778 411.357470914 417.708458233 426.274978584 436.804672685 449.07717059 462.921003 466.273332271 483.047399494 559.471555647 580.543695018 603.467043712 642.055279986 669.997917412 778.638446997 820.326375909 869.326660559 927.233836579 995.773525997 1076.80765767 1227.40536322 1413.30327096 1537.25828473 1677.60621372 1834.15344526 2013.04860827 2196.2831403 2366.7630632 2546.11259128 2653.32477043 2714.7008635 2725.32470804 2695.56233602 2647.08258695 2593.46243449 2552.50352155 2534.34864002 2543.44321881 2595.3835608 2656.37337389 2836.49666294 2924.54910437 3018.42889425 3123.77297634 3200.04887602 3259.05930415 3292.44154219 3296.90464382 3276.65844496 3243.28830966 3217.61816787 3253.33001465 3263.05215044 3270.35475816 3295.73084234 3327.37048485 3363.05156182 3401.49663437 3442.74576329 3488.37463137 3583.89219166 3767.00062329 3838.65908036 3930.56596675 4047.88307983 4193.87167327 4367.17397626 4557.48429376 4726.98811135 4868.79754005 4924.32880722 4874.35355241 4761.8387389 4610.12872274 4465.7846332 4370.43212305 4320.54400279 4304.53091266 4306.13482991 4311.17062218 4282.76370256 4189.05138842 4188.36706697 4209.63636322 4266.72240484 4366.03201092 4499.04029179 4636.17405683 4730.84572674 4743.56449225 4673.12021774 4558.43982128 4446.06669448 4360.93213222 4302.44683208 4228.16396182 4173.58013194 4107.19472348 4027.38470078
19.8329265361 19.5342631732 19.2501719848 18.996711814 18.9356202728 18.8210765842 18.8029787601 18.8894003526 19.0726449194 19.3351156202 19.660725024 20.0427216979 20.4830034825 20.9858928048 21.5522345642 22.9252694465 23.6869968201 24.7887341411 25.6647713993 26.5610784208 27.4735780188 28.5097472378 31.5102912545 32.5745810551 33.6619164188 34.7825544421 40.3646370696 41.4342954449 42.4620414507 45.9378634628 46.4856285296 47.0360160587 47.7758606463 48.5075218815 52.534771118 55.1559597612 62.0590401386 74.2680546878 78.3403279427 81.5748351069 86.5631872411 88.123804484 90.6685254603 93.0346335514 96.802211597 105.696730578 112.665244864 127.512597583 136.541946385 145.660753459 154.804534154 163.971302197 177.169543938 185.891213767 205.862755265 228.067334738 209.862683111 245.137985796 235.124186631 240.886726151 277.319787056 286.924852905 298.702739923 311.995792831 326.139850955 357.432240784 372.92777212 388.354677919 403.522156686 418.244557978 420.143166204 429.583712556 441.383751151 452.042963356 461.348976038 515.027002924 519.280774435 520.606707436 518.677338236 532.59164023 556.824907192 541.583284043 502.553676044 490.791100795 484.028866836 484.045454996 490.732867731 502.207838643 515.810418666 496.73178166 504.95090909 510.713277662 513.988731717 552.476347305 552.017551414 509.156443765 505.103508111 496.088171754 490.246744161 484.041590291 477.540263721 470.784248063 458.345899025 450.761098028 439.174681862 432.69989715 360.008283533 363.014651933 368.272037164 379.60059274 388.066598675 397.234324619 405.480096308 410.756035818 405.810283797 399.961308202 388.302780561 375.795500864 360.345021626 342.957004702 330.044371747 390.542681173 400.121661056 406.395068605 414.889675388 425.35719257 425.199017089 438.921442373 454.260653813 471.201125513 489.817704662 572.050689213 588.593279743 636.434802029 665.566226268 698.729686956 818.02664264 867.110817699 924.28893318 991.17472701 1069.59104497 1219.16377209 1324.95430822 1521.69956008 1657.09874974 1820.02378215 1994.84018271 2164.92932845 2336.20127526 2493.4863848 2631.14962404 2695.61453275 2707.87512442 2679.51683193 2630.95913585 2576.12543793 2534.00626912 2514.75975697 2522.70880654 2574.5170798 2634.05636683 2813.5090949 2900.90385681 2995.19273597 3101.53898201 3181.39778467 3244.50385996 3281.19271235 3286.67937367 3263.9268405 3224.88665324 3190.58112782 3158.06144414 3214.69193019 3209.0822884 3222.1381368 3242.63990495 3268.87310886 3299.84766058 3335.60142283 3377.36657012 3340.36331597 3511.79438475 3582.50952407 3674.18762425 3915.84126331 4048.48993999 4113.266231 4295.44652752 4470.40920085 4635.38526751 4682.7296106 4641.57149976 4559.48064657 4428.99991537 4310.89573386 4203.68347256 4146.83186046 4119.33023106 4110.48913405 4005.926804 4011.73702158 3993.66536468 4020.29075574 4078.98568178 4184.5924556 4346.3818435 4556.88854325 4776.74885439 4930.94489794 4946.23520698 4816.0403495 4608.35524984 4401.932681 4237.80264843 4093.66484827 4001.37931821 3925.22100862 3853.20212502 3779.39484675
19.9804589857 19.7164857157 19.4700637875 19.2519476949 19.2298203873 19.12424512 19.0803615501 19.0999947244 19.1794730879 19.3157107583 19.5129255198 19.7839317757 20.1442520986 20.6034125008 21.1594111546 22.5136775585 23.3082308935 24.1486534477 25.0160816402 26.2195786647 27.2708609985 28.2314168898 29.2228646903 32.2977430021 33.4769784368 35.0489886285 40.4776237485 41.6432456277 42.7039126354 45.8746553995 46.0670557497 46.1834393873 46.5357552396 48.6059988691 50.6671328652 53.6034123935 61.420455314 72.7355960293 79.7509820618 82.4173012699 83.5384227584 83.6236021801 84.4952192709 85.7524626659 89.3239862763 95.5254149979 107.25807432 117.295497674 135.770484116 147.264390806 158.3977453 173.625328424 183.968090685 193.958213107 216.510550788 225.696969391 267.444347556 264.839094426 272.772000244 297.108595218 305.977467295 315.71930507 326.152210705 352.558717129 364.594497716 377.454641658 391.113985682 405.406626104 420.041690167 434.671201858 448.956898503 445.935538396 458.111092143 469.242407887 500.437493598 535.653183995 541.323551804 544.659903799 545.493858977 604.976489463 597.308657205 588.230929001 577.71121217 543.594303163 539.20644272 538.824254134 542.424911335 548.922023639 556.726816156 528.229795775 568.423394696 571.425679275 572.347664046 571.336082934 568.668361192 521.510533107 515.828793011 505.077832702 497.784395575 490.187566559 482.344093845 468.854902263 460.040646822 451.284204819 426.843489493 430.886041016 352.261527506 353.942007487 357.553617073 367.560971045 373.819380371 380.608297383 386.567559309 390.00869951 380.29945165 374.665997274 366.974803636 354.30876997 340.998622431 325.408943028 314.526347618 311.740462269 305.853535888 393.607250551 389.958066034 400.158384709 412.152436485 425.808944419 441.070531898 457.957304217 476.572980047 560.802828938 577.282462239 626.582312945 656.109706718 689.431716668 727.469726475 771.337481363 911.149487668 975.315054194 1049.88006759 1196.6482647 1296.17394248 1487.68356529 1628.2078154 1783.18029756 1934.60291054 2097.09377901 2261.70401912 2413.91806631 2535.29566333 2623.93751126 2640.58703808 2620.22099486 2584.35399314 2535.96352562 2499.11370073 2483.33366367 2492.71867311 2545.55270148 2602.64961614 2679.48783957 2864.06251189 2962.22641558 3057.31863906 3135.28564553 3197.84915303 3235.42761255 3242.73803295 3220.68995959 3188.5123895 3146.05161044 3108.33498329 3080.93604856 3146.2199572 3149.43107374 3160.48949471 3178.10460377 3201.48680651 3230.60449341 3200.17586757 3217.57143483 3266.76606958 3447.91595991 3526.42189884 3625.21060687 3760.64380359 3894.75748218 4038.95398896 4174.89615386 4326.00495475 4362.81688835 4333.60312465 4289.78423081 4191.15709861 4098.66686428 3992.18950695 3952.47413377 3923.80638376 3796.96175487 3797.22687096 3809.62869702 3801.66561068 3849.86662662 3938.17216416 4083.41440287 4299.33787703 4582.82149726 4888.48772117 5110.66973167 5132.20518251 4938.36859989 4635.59867881 4340.28810648 4106.90992035 3909.60995779 3783.77100659 3688.91762984 3610.63585467 3540.14129615
20.2276719478 19.834600425 19.6044061007 19.3959591503 19.2140777325 19.2468108787 19.1503021889 19.0833854225 19.0475554811 19.0536606693 19.1260185362 19.2982099629 19.6005326659 20.0465653165 20.6274427658 21.3161781604 22.8389097578 23.7396931234 24.6550511016 25.5708184512 26.4878308848 27.8650052717 28.8734923812 29.9526519733 31.1419217715 34.7917321737 36.2269772422 41.5938044411 45.3519790106 45.5677783289 45.4053767794 45.0709106377 45.0263306712 47.9198755585 51.0121172191 52.0270043655 62.461526968 74.0919127906 78.4538617025 80.5032090837 80.2296196587 78.3216331186 76.882389578 76.5961488939 79.9033828802 87.2766639417 100.62290691 113.466717233 134.438063615 148.555667508 166.481944045 178.921050081 190.689612642 202.03519974 227.129038526 273.556919084 284.362969085 294.788193732 294.327303581 321.050886821 331.077130074 355.345548507 364.18885395 373.283379092 383.190203381 394.398730894 407.072046167 421.006718555 435.754215297 450.783090127 465.604652553 476.076457225 475.454970301 509.610170105 519.342845254 556.994672541 564.305895186 569.935417118 641.178489394 640.84578378 638.652173415 635.497767594 630.814169851 626.712747543 595.93904141 595.183153366 595.787451316 597.387581055 599.389176554 599.784184216 599.274579014 597.600267911 594.674878324 590.549751852 585.356334317 533.861931707 561.623643266 513.753144263 504.932247978 495.911966767 486.724060302 471.376251694 461.335725811 434.286069814 425.106922893 416.552110383 343.548994943 343.619145578 345.226404837 348.243171794 357.062963288 360.897833589 363.979516709 351.637404338 350.345665713 344.86821451 332.810728954 328.948033696 318.345594707 305.185189736 296.906611057 296.682761821 292.599576486 367.118771225 375.756318642 386.178815011 398.22258538 411.796935441 426.885070225 443.542863537 461.899881159 538.747864991 563.151883232 613.141895571 642.425482684 675.207679987 712.25345788 754.486145738 803.022617442 949.855062079 1019.4195171 1099.84638433 1253.178837 1451.93935042 1565.69886374 1708.49892091 1847.61344392 1997.13769842 2148.89434011 2289.83699466 2403.74056935 2480.53883582 2503.88191615 2525.68134139 2510.22286591 2474.74353738 2448.61315772 2440.23804565 2453.40701157 2488.6300934 2562.63702175 2653.35677769 2743.40034191 2903.08782236 2982.04211513 3064.21907685 3121.56620731 3157.07960142 3166.02541408 3155.00907886 3121.49862542 3081.67666459 3044.31262202 3014.74941794 3081.00865425 3074.91908377 3078.51869683 3088.66302145 3104.73683047 3058.16244967 3083.81259668 3117.72142932 3131.50126384 3303.57688735 3364.59215282 3440.06632041 3530.28430776 3647.46940483 3749.50374874 3843.87099263 3913.24362559 4002.60531719 3933.90403053 3877.37092498 3914.71489738 3819.65637161 3763.36725832 3725.10304846 3595.22418485 3585.02580716 3588.82474968 3607.17421598 3604.87942647 3665.84547538 3770.12788343 3935.20866559 4177.58772491 4498.67042913 4853.41563691 5118.88379917 5144.87003014 4908.14618434 4544.55791252 4196.84122942 3900.77123819 3698.59312789 3555.66286967 3451.87684971 3371.96273777 3306.01513189
20.3192348308 20.0358917813 19.6498254883 19.4310835417 19.2242576984 19.2081019487 19.0387305678 18.8666157328 18.697754894 18.5574669478 18.4941381333 18.5689066191 18.8320027865 19.300037497 19.9500034547 20.731646051 22.2907590823 23.2767971017 24.2502153478 25.1938093994 26.1118106607 27.0283808182 28.3908587131 29.4647066591 30.6824354915 34.265930096 35.8373963377 41.2873404138 45.1103640116 45.2402300212 44.8344239076 44.1471388227 43.7829500726 45.3754195555 48.8799866882 54.0791802817 61.5354679397 73.3546569471 77.7374029471 79.0386873911 77.1730864614 72.9706900377 68.8265283417 66.7279497248 69.794031447 78.6611365556 93.1634238344 115.501407086 133.098893236 154.997793381 170.409412481 184.400874503 197.42608601 209.978304308 241.761165478 286.871984702 299.756719959 312.402501303 324.756867802 351.434892063 365.771852908 373.653951753 380.775615838 388.040487386 396.580162545 407.188280097 420.016308618 434.651445614 450.382525151 466.455651689 482.240190047 493.526293369 507.062968492 528.139809419 538.629840611 578.605835646 587.614067523 666.655011539 672.024229384 676.010642955 678.901491219 681.079026693 681.654075438 681.775658751 681.405394904 650.768753653 648.531258599 645.452282293 641.849788382 636.000967825 630.07242424 623.681512391 616.798931391 609.414259972 601.543140316 582.777449212 580.645721859 521.903655748 511.535157336 501.099241544 484.731517069 473.425383868 462.183873181 433.334181113 422.944346865 413.110199569 404.002138922 332.471410178 331.893754076 332.264472651 333.233186627 339.455872856 339.376715898 331.545506573 327.91815917 309.658134846 301.872411886 293.025904187 293.653813379 283.302252009 277.949583159 280.544042134 267.489898426 351.324683931 360.64046403 371.43769227 383.598502013 397.082648272 411.921306189 428.209888102 446.104106326 522.694850732 546.703958491 596.757656043 625.312515496 657.030285288 692.52292211 732.517963404 777.890100006 829.71049278 980.34337587 1053.1123803 1187.53213128 1326.20849205 1504.39837468 1615.72368374 1739.81194038 1873.22164077 2008.78593843 2135.43930788 2239.91065314 2318.19706866 2349.34218088 2369.53152322 2345.68525101 2397.55342259 2385.47510189 2387.04836893 2405.67396157 2442.02045205 2515.36045453 2611.97965775 2676.83963037 2748.89521916 2900.68812749 2963.84445538 3025.32402114 3056.55117907 3066.35576678 3061.59288691 3034.36695108 3000.75927363 2967.72230725 2939.85375858 2899.78892942 2879.56931589 2995.60752494 2999.53492931 3008.86433034 2950.57725785 2968.08442674 2992.33657908 2994.22150414 3029.60584038 3195.35784845 3245.48670215 3303.86023785 3368.41559441 3449.45597493 3504.63113929 3545.14066521 3514.18076695 3560.51016055 3532.06619204 3492.58518572 3413.99992341 3517.96964089 3389.44826006 3374.18073597 3370.37720557 3378.42378895 3400.40231055 3397.82905312 3460.75624983 3563.71401394 3721.59399364 3948.72509397 4246.73641676 4575.84681662 4822.55224395 4842.13083402 4609.53223283 4257.21795326 3903.62113738 3635.41762042 3441.59893054 3304.24544803 3205.35073351 3025.77309316 2962.38435649
20.355326427 20.0598925071 19.7731134486 19.3713376934 19.1295029208 18.8752807877 18.7944896333 18.5040309102 18.1819895133 17.8683116448 17.6430566932 17.6086342313 17.8462228771 18.3748204569 19.1454989621 20.070225196 21.0579595175 22.7900746787 23.8267975909 24.7861937991 25.6774489806 26.5357582628 27.4193055362 28.4041290632 29.950663464 31.3914053231 36.5203786637 39.7287519773 44.7943684834 45.0466383732 44.6424860291 43.858502102 43.3968115626 44.5927000902 48.3495616902 56.0352020774 63.1164735949 73.6800589984 77.9178179984 78.5080726589 75.2527217058 69.0454252788 62.5126357102 58.8019268426 61.7513952189 72.8399450072 89.1927412275 114.074667207 134.556259791 153.225922038 175.376941842 190.431608355 223.554225959 237.316493318 250.926946093 298.54962161 313.120070577 327.475119219 341.280059896 371.290572315 379.240351646 385.283304987 390.311174344 396.008253062 404.069982386 415.371407513 429.751759603 446.349079399 464.059646227 481.869667537 499.026998516 521.575954502 535.330047762 590.150969457 558.010484937 620.889928777 630.169679421 692.767475172 701.296258181 709.132896753 717.429150955 723.213519711 728.327515202 732.074928447 733.63653347 732.522950673 698.861348577 728.917250171 722.010150277 670.627686775 659.527269078 648.576482727 637.816199615 671.992030612 662.185781763 602.934429516 591.51326697 529.278326351 515.123940981 503.052469389 487.431853704 474.929674848 462.531756091 431.983730223 420.373841639 409.218895771 398.616320585 388.658434912 313.056913834 310.834737154 308.80930511 306.531878216 306.775225637 302.677413239 297.244614571 277.496952571 270.880060015 264.301413319 258.475946075 260.716576228 258.413168405 253.22618278 253.407006906 254.526693992 344.914906034 356.207681725 368.529390754 381.904006056 396.421684562 412.224067784 429.495511612 505.088534419 528.421629566 578.039543171 605.527324355 635.828273212 669.408020884 706.79789935 748.618046808 795.623128102 848.774639353 1008.72183428 1144.52340429 1250.62122435 1413.31157451 1510.08022977 1618.2598512 1734.95404699 1854.1592642 1966.89628567 2062.80661727 2143.85372954 2183.94412819 2228.6373009 2225.25144897 2310.86026202 2313.88845003 2326.39394754 2351.32556174 2389.46110833 2455.03391375 2549.69175423 2605.02436199 2664.78161311 2725.04381 2780.63738799 2836.23672303 2947.2276062 2966.62085085 2956.98688663 2936.48294241 2910.3116792 2883.43303064 2839.9923183 2818.32624493 2798.6548133 2784.14261508 2910.71371213 2840.5475465 2844.91359315 2854.22186817 2868.52086344 2858.40121607 2878.12634222 2902.70637759 3050.67692791 3078.34628092 3107.10899534 3155.25725036 3175.2156094 3190.23435861 3076.95547582 3076.64819624 3067.64407017 3049.27110394 3026.91253353 3142.33291154 2990.99857253 3152.0314376 3154.91205789 3166.09245753 3188.40213418 3179.49730015 3234.11452109 3319.60965001 3445.0889545 3617.81095679 3834.65758564 4063.5397096 4224.25046438 4219.30722675 4035.52153469 3768.91546624 3493.61204665 3289.29572043 3138.3935609 2935.64600916 2848.22506442 2782.23031813 2731.49223798
21.5908018986 20.0170904846 19.7069250459 19.3990321817 18.9577365893 18.6540069338 18.4776485131 18.0690369393 17.5808267743 17.0650066936 16.6423534589 16.476835281 16.698117655 17.3269508035 18.2715248217 19.3874333603 20.5399715253 21.6338182345 23.4202124154 24.3720642705 25.1962263808 25.9403696049 26.6825157376 27.5255437654 28.5847699454 33.3664617977 35.5402800279 37.3890102171 44.3378833197 45.2394100487 45.051661832 44.4500850193 44.872901096 46.8773600247 51.4141483587 57.9541215886 64.9587560376 77.1849001034 81.1348423542 79.4217661164 75.5063136812 68.389098469 60.8119823507 56.3963628231 59.621514857 71.669322389 90.0108019257 110.763105418 139.365738281 159.368693879 194.106327125 215.82782883 230.553787708 244.59923765 258.824757649 308.199846026 324.09183609 339.678885515 367.063337227 377.415557051 387.086977082 390.408904387 392.932362505 397.400424961 406.045749903 419.512051324 436.952073398 456.794106922 477.425220721 497.555676904 516.350452897 539.294129858 594.867795757 609.071751181 629.593369135 640.585648044 651.272251237 716.854453671 728.095030791 739.156129008 750.910260283 760.539785809 769.357282131 776.061530555 779.174790655 777.790452936 772.137429764 767.947652505 757.166467432 702.339941418 686.461585109 671.26422422 701.610412045 689.219109669 676.949504581 614.227902747 598.599959781 584.957851583 519.323057223 506.048164066 492.968490808 475.808563578 443.335713773 430.229004341 417.429895055 404.965248784 392.857548034 381.112466238 299.653131838 294.9136456 289.991493109 284.569171931 281.609071069 274.782433149 253.233774851 246.914181184 241.047832804 236.345634893 233.184444203 238.202864834 235.214558354 237.07840867 239.665791623 242.736248566 246.144971726 340.828031067 353.307948582 366.523700962 380.639066365 395.850516225 412.374092465 486.292285395 508.750270427 557.539450429 583.751293115 612.44100264 643.942327038 678.598985483 716.773397568 758.886532806 823.556989169 874.148831799 995.249994449 1166.30822873 1314.38346765 1396.64346034 1489.59921219 1591.06019394 1696.17455418 1797.76156534 1887.76689274 1973.13163067 2022.64372288 2089.86038476 2105.52425412 2115.20363465 2238.23835475 2261.41642221 2311.78661747 2348.41865939 2393.31966187 2485.29908641 2532.41192139 2581.5399893 2629.54743419 2672.63898014 2706.7249441 2740.97370488 2859.30671886 2852.47246576 2837.77134569 2818.44385513 2797.66507273 2756.09490103 2736.67893216 2721.00972616 2702.27272304 2617.37183245 2744.31829906 2742.23349231 2743.74963402 2748.55420594 2727.36967888 2732.66491569 2739.00692958 2725.42292668 2726.46576888 2860.02073771 2853.72731997 2791.65999671 2731.71925567 2733.85883038 2741.46735157 2752.55142037 2761.51153115 2654.39963376 2667.17295126 2766.79698139 2769.22183772 2775.52446542 2785.65832142 2802.87468638 2833.46828084 2992.52648969 3050.42589511 3129.00157665 3226.54920975 3333.46268493 3426.17663452 3465.95046037 3420.18331611 3300.74210318 3090.23316483 2953.2778101 2840.88494662 2723.86866928 2647.737346 2587.00583992 2539.87021076 2504.55982305
21.5566347031 21.0928358652 20.1730745478 19.8229930661 19.4624573939 18.8022992133 18.4938936886 17.6462983695 17.0028670313 16.2744754582 15.6286021757 15.3125771705 15.5248112736 16.2860511525 17.4425595882 18.7769005523 20.104860466 21.3077772855 23.0720054354 23.9790006594 24.6824712726 25.2419795561 25.758052206 26.3678676724 27.2277870499 31.8079091362 33.5245425815 39.5934892578 43.9378196033 45.1312203239 45.6142482084 45.6309457279 49.5526214068 51.4081409707 55.7132223551 61.7555150586 68.2429380792 80.4697616895 84.1607540794 84.1166956587 80.1028614491 72.1647338014 65.5651148051 61.8893748385 65.9423702579 78.4771187256 97.4794840825 119.043983386 148.415526816 168.5164897 202.86302828 223.156436284 237.110769241 250.751647405 265.066300314 319.530858969 336.086551965 351.990287367 375.139552151 384.214113765 390.551799679 390.615086147 390.541759734 394.336783388 404.674075971 421.643816733 443.391419809 467.444995752 491.614566776 514.339815814 534.747545014 557.736750182 613.134085928 635.206541335 708.947097992 723.565640378 670.512271949 738.321034487 751.77433046 765.326143299 779.554357774 791.972510879 803.467668787 812.31936292 816.548035265 814.909394241 807.661279364 799.949415396 786.288595858 772.014996774 752.736651957 734.128475972 718.604908299 703.651696594 681.219043369 665.391844646 605.180541668 590.156417056 522.332773816 508.020150759 493.971908168 475.978108273 442.217726861 428.067791901 414.156846904 400.455674539 386.913228063 373.447170565 287.077933003 280.104021176 272.595056083 264.32530412 258.216061884 248.675183487 225.772635496 218.589212042 213.019696965 209.778793495 208.996534114 213.187097243 217.026867912 221.69648689 226.683645523 231.689376483 236.591501698 241.385758699 338.244638517 351.206420123 364.817405392 379.337861555 395.016789668 466.634451592 488.085820023 535.735005938 560.565870666 587.580671518 617.008280231 649.026671846 683.747698145 739.301072267 778.694414872 821.176936353 928.099938793 1079.41884697 1138.02323491 1279.58192508 1359.0044106 1447.99425575 1542.64548662 1636.99926839 1724.43131884 1799.50877397 1886.65774768 1929.53000304 1993.19872846 2019.55488007 2044.81604132 2110.43567585 2247.93975494 2287.03681989 2355.03673756 2421.72891874 2462.7300128 2503.99000363 2543.09425754 2577.3339195 2604.06102189 2621.19959923 2656.8288147 2756.96408493 2746.62276554 2732.54592158 2694.95345622 2676.27300062 2658.53789788 2642.71742586 2579.35276922 2534.31470357 2518.26163649 2643.74856681 2638.1697534 2634.4678039 2603.89766161 2596.95657522 2588.13191059 2555.65891131 2534.12196521 2506.05107834 2472.76153002 2492.44116076 2436.88923213 2432.26123986 2446.27940593 2376.82085311 2402.96346966 2424.99049388 2415.91386012 2420.57055277 2416.36849308 2413.77156972 2415.68328917 2596.72497472 2615.88899916 2609.41497801 2649.29130354 2688.17011101 2726.13646641 2742.78645519 2719.87482341 2650.77315446 2561.29147863 2494.58828291 2406.60725419 2387.43578988 2429.57939725 2401.18383348 2366.12896055 2331.72332536 2303.55142849 2284.14597071
21.446379048 20.9313687516 20.444047048 19.5813076021 19.2196474034 18.8257261023 18.3353698265 17.6057626767 16.7766088174 15.6735077897 14.8239282386 14.366089087 14.5772137925 15.474876414 16.8348204431 18.3653996773 19.8380288566 21.1152180654 22.1294288327 23.6342389163 24.1530876145 24.4462680445 24.638182429 24.9109634496 25.4802666712 29.6360572282 31.6264927377 37.6310963672 40.8434465523 44.7029188102 49.0063065192 49.5807072363 54.9791230475 57.2650464201 61.3635777433 66.8181267849 72.6641548892 85.0254130247 88.638122082 89.1979779541 86.5570271413 81.6090265162 77.5432197161 75.6529900257 80.4767828029 93.0360160885 111.561038009 132.620994919 164.146053506 183.049886632 215.192228777 228.574842061 269.685288757 284.939910661 306.112682529 323.594635131 341.304045411 358.031790473 372.257085731 390.33114607 391.674648277 389.408787662 387.439374184 391.396245723 404.222765096 425.338907872 451.836028473 480.327216433 508.035972789 533.128808216 599.041591191 622.427495994 637.616544096 650.829278894 722.472913638 737.998085639 753.423318478 768.664591191 786.78045215 799.846626529 802.831074438 816.721305479 829.568918465 839.515465904 844.333627045 842.55605653 834.392358842 824.228674853 808.817646513 788.92318494 770.304572627 751.987571335 734.288258452 707.297602122 689.124369838 626.298300163 609.497690077 593.364509197 523.948963909 508.817216713 493.979248028 475.354100068 440.566948918 425.493570422 410.595599047 395.797523122 380.979369855 365.969259919 350.54842598 266.869072919 257.124086843 246.325497058 230.608693743 218.708557461 201.279366848 192.862726953 187.139725759 184.97490311 183.890653763 193.241342006 200.061445957 207.5085956 214.848366377 221.714413015 228.015425509 233.824632693 323.635414214 336.191777133 349.170466472 362.902697278 377.666954148 408.879571156 466.770463013 513.021724564 536.435615878 561.801409264 589.288976929 618.951770932 668.44248419 701.216780683 735.211786725 770.349618494 863.614293936 902.105544071 1037.9660162 1161.81546611 1229.82827512 1309.67553589 1398.00910283 1489.33641295 1577.53793348 1689.46205567 1755.76777828 1810.87290941 1892.09649527 1932.14721172 1983.13289023 2042.11168913 2076.10730834 2113.50868507 2178.11083299 2334.41113909 2398.64410985 2435.22119222 2469.28487832 2498.89562641 2522.26210715 2538.06393572 2575.31094378 2568.42387774 2554.75278923 2658.61811064 2622.15319774 2604.97082172 2587.28457217 2570.15276335 2483.68004461 2457.22312765 2437.19373832 2419.78354555 2404.71527665 2527.77984725 2468.33739891 2473.51608876 2453.28859746 2407.00887205 2368.7752764 2320.93796399 2265.66166119 2254.17804789 2187.48460292 2176.47322854 2122.9368518 2157.7958132 2197.30018709 2230.79407881 2253.9658128 2240.13671435 2238.92788552 2235.31787969 2233.4602496 2235.99766958 2365.16110644 2378.64191034 2393.10651664 2394.06646979 2378.22248324 2320.94339388 2207.37889807 2052.38132749 1881.63938891 1855.23675907 1914.19911876 1991.44487633 2038.91800164 2049.16270189 2106.96652177 2091.1107329 2078.00295435 1947.29276192
21.2548282588 20.6658092843 20.1225130897 19.224627543 18.8828163918 18.5489860653 18.1401519861 17.5445587899 16.6221177679 15.5793010397 14.5438143965 13.9656643194 14.1832004775 15.1673936276 16.6457048252 18.2802635876 19.815920634 21.1012077997 22.0574663247 23.3631998764 23.6323670203 23.5764359583 23.3425326354 25.9381346478 26.0576790186 27.0272168264 28.9407124296 35.3289481597 38.7442268102 47.3273320032 49.9983858653 58.1441133052 60.217844153 63.3306188329 67.4429051412 72.5051723832 77.8692922266 90.6315532827 94.4262966252 95.9877243093 95.2916164456 93.1448674865 92.7290250798 93.7241629122 100.07947097 112.681861694 130.5652478 150.383344311 179.824562981 211.606692488 224.458538497 234.879746493 272.773003247 285.242137129 306.23521206 325.103048613 344.302655018 362.096629145 376.603427628 394.323059551 394.633629044 391.437023358 389.278780346 394.445507861 409.933397549 434.734500693 465.251113259 497.399355046 527.862105649 595.192776802 621.822531196 638.731675962 652.348519428 664.37725407 732.316915802 748.982634435 766.078486594 783.061595245 802.989751944 816.904647412 829.883285305 834.546059603 847.106577791 856.817519572 861.592721542 859.911188289 851.775542413 840.627633395 824.671576153 803.302295237 782.92426196 762.552421676 737.545663281 717.634635288 693.397674952 628.925799448 611.161195663 594.279036785 577.900990712 508.302318915 492.887680017 462.246441249 438.335185969 422.483059551 406.763680383 391.072338981 375.228513308 358.969150548 341.962269948 255.577608631 243.981755941 227.331889823 213.205912399 198.880590283 180.072359041 170.090107234 163.801633567 160.706583656 164.063407776 175.048640309 184.803285604 194.9634986 204.544089284 213.119951877 220.651248475 227.306808332 233.343154016 321.666455619 333.861778958 346.717059715 355.896800168 390.360341882 445.098575344 489.716155905 511.701126441 535.476419351 561.226686029 606.158255312 635.153615045 664.894504266 694.53047125 723.401090683 802.959962498 830.451499132 940.777967549 983.094378583 1103.85737528 1178.03819928 1264.29157365 1356.70742833 1448.78492298 1567.82466609 1643.26582687 1708.89756911 1809.18777622 1867.3718339 1911.83842774 1979.34130036 2018.57479034 2059.18917347 2124.37428718 2162.71206002 2227.87786045 2264.60192816 2409.53784227 2438.85076195 2463.15768857 2481.20121698 2520.1361593 2516.89456039 2506.45609589 2488.68386645 2564.23147592 2545.66485633 2525.49700395 2439.68432962 2415.58795643 2386.83674644 2362.70766008 2341.00004668 2321.32048919 2280.2569717 2233.23077871 2208.4382303 2181.23965428 2281.28514766 2232.72205685 2172.08396603 2101.49785346 2009.54189626 1964.65085648 1926.84372842 1946.85927526 1989.31254431 2036.05301327 2073.31734703 2096.54575989 2082.25813935 2079.20857505 2071.53304134 2064.27303871 2059.31426077 2057.42140267 2016.67723692 2161.87840096 2141.80776819 2100.0829559 2009.42478396 1854.32214915 1621.80537988 1485.69665126 1479.07843155 1587.72587169 1714.65466024 1795.18800074 1822.92536527 1793.42842574 1776.84498925 1765.25468073 1763.58244626
20.9791676714 20.2790493134 19.6442915461 19.1158650199 18.3840491238 18.1580875434 17.9282075357 17.5429311832 16.8650805589 15.8704959851 14.9154594395 14.3764418977 14.6192063656 15.5447878056 16.994854771 18.590930122 20.0757097021 21.286783956 22.1271625191 22.5404576059 23.1646984914 25.6272467456 24.4336490263 23.3246677141 22.9140093323 23.7183699313 25.860301019 32.2180665339 36.5431556421 44.6955159587 57.8314252067 61.533496621 64.9700293763 68.7401557333 73.1644769209 78.4013435869 83.5764464216 97.0224865917 101.24449122 103.997775244 105.365863046 107.89054732 109.130430454 112.908427195 120.849979109 133.573392033 150.512285603 182.907206084 209.500941833 222.323027044 231.359586502 258.575088284 268.823276335 283.280240213 301.751933099 324.363088365 345.654096476 365.037907417 392.522526518 400.003442589 401.44848151 399.62326037 400.047727619 407.502397093 425.338306019 452.533136017 485.406978881 519.579386131 587.855077299 615.166083963 639.171379969 653.122568258 664.228199578 674.678947513 737.379502871 755.964970996 775.487668385 794.680875174 812.502637306 830.71572949 842.82657049 846.226078136 856.786409242 864.826569087 868.860408488 867.520413216 860.483245969 848.084851515 832.229887826 812.232346969 790.510568171 763.468675997 740.527412708 718.824946671 647.868709765 628.004122662 609.754157761 592.591827916 575.993400125 504.745881795 490.615197895 459.5646152 435.460727068 418.980597432 402.630004585 386.301742161 369.768044055 352.673625144 255.129916321 243.796451237 229.500201632 215.380376375 199.287174085 172.718406044 159.536475031 149.185963335 142.334108299 141.965314057 146.958756448 159.382564733 171.914969357 184.587754434 196.164850977 206.188824714 214.695604536 221.96261818 228.35499381 237.049705201 242.525255601 330.901643944 339.167660081 372.158140528 387.511617863 466.073401074 486.584856716 508.785444248 549.309686976 575.526703733 603.112355772 630.987685968 657.633232726 729.286657195 747.666760131 764.688508651 784.737567317 878.619873117 982.045253815 1054.04985208 1142.43447201 1239.85384988 1362.71454682 1456.74209355 1541.96995408 1637.31868625 1731.27670475 1798.16591983 1878.89577422 1923.6044219 1966.90929382 2010.30248839 2076.08508447 2115.58887547 2183.40041223 2222.14218237 2261.19765131 2299.33650392 2426.44399082 2450.9740369 2492.84971924 2494.57128673 2486.40520264 2467.69837338 2501.58343785 2477.89209636 2416.74982647 2384.99140932 2355.1514932 2323.18134516 2294.80542838 2269.21213262 2245.78314968 2201.65074687 2134.75621974 2124.49347096 2094.57662462 2060.15901386 2018.4229131 1986.52703749 1950.12201914 1890.28268288 1836.38370199 1806.47043856 1827.9975838 1872.9185487 1918.76685032 1950.66012039 1965.67599223 1944.60729891 1935.65884929 1921.95881776 1908.79715598 1896.86771238 1886.30978577 1835.38922205 1828.02819941 1815.39559009 1889.77249984 1729.15808726 1608.03758259 1446.0964115 1320.10717221 1320.26511867 1432.05133206 1555.91612833 1627.1367291 1622.03868371 1606.64070041 1589.48448093 1584.90734043 1595.17844086
20.6277177927 19.7617215959 18.9716914368 18.8581565354 18.4435098499 17.5268992091 17.5646003874 17.5396136355 17.4908465988 16.8534897987 16.1104168612 15.7003623995 15.9757236116 16.9599999988 18.1936875769 19.7195507284 21.1229769397 22.2250142171 22.3491352574 25.9981515514 25.9997500901 24.5861730748 22.6339441145 20.7396577838 19.7637430343 20.4479977882 24.5736289367 29.3035111388 38.0784572172 43.8579838599 57.4971655691 64.3517281423 69.1006954055 73.781280173 78.7086571372 83.9336529834 89.2725075208 103.922475403 108.745451807 112.709230699 115.965216768 121.1000971 125.00176668 131.030369798 140.246018425 153.020800127 184.031829039 199.826351237 221.947348153 230.379722708 248.318818317 251.836133343 260.539291013 275.9088674 296.802073318 320.666475973 346.326162638 367.897314101 398.197109357 408.316836225 412.961691898 414.974006864 418.952366776 430.428644375 450.221644804 478.434233553 511.773993773 580.98460572 612.163194142 635.498330919 653.846546441 663.390485986 671.301941767 680.287172025 736.742186946 758.736440033 781.990356636 804.255618244 823.867382016 842.712606054 853.426620453 853.941975231 861.230538906 866.470770983 869.108492391 868.112906509 862.370979077 851.416013559 833.259230398 812.050574465 788.7181957 763.151909941 738.088294797 714.620660173 643.084973327 622.929430418 604.809432952 587.986427207 517.276565667 500.901003511 471.756918524 455.939797297 434.520528403 414.882217449 398.087287753 381.408837219 364.591247188 347.186387269 323.63255205 235.569476588 222.201909022 206.884112281 177.387004536 162.524188294 147.773811515 134.282644537 127.268088382 126.57433342 132.123828747 144.381173712 157.584678476 176.976653934 190.081229643 201.144328013 210.283589216 217.873485713 224.373096173 232.872742352 238.288677418 243.874081875 323.046660176 354.467388932 368.830292068 442.321701003 461.212895545 473.161374134 519.790921196 545.101484963 572.227690348 599.661194446 625.043473227 687.758333949 699.09079691 705.97772569 714.494939743 771.970208947 812.46574518 939.069102349 1033.69519886 1159.77913335 1268.83133991 1371.79934356 1486.30848923 1566.79446437 1637.25101838 1741.23781322 1827.26184471 1875.68394925 1921.77852255 1993.79199132 2033.23037104 2074.52121127 2118.46618891 2188.88546145 2234.55935488 2282.39923291 2330.53553864 2375.15921246 2422.03198532 2502.54645713 2496.04649415 2472.86448784 2484.62198741 2450.19726571 2380.04510054 2338.81734871 2301.45294666 2268.83442076 2232.95943412 2204.05301968 2177.74580739 2131.89365841 2062.68334328 2053.00723214 2023.07560068 1990.01944219 1965.18371456 1920.19645418 1841.51737262 1793.40875431 1767.14346733 1746.30633903 1766.58723839 1805.63936146 1839.82677783 1856.23379227 1855.20162591 1802.14382402 1805.64262531 1785.07544079 1767.02929486 1749.44002573 1689.08527915 1673.79315233 1661.81924757 1651.67178226 1546.64110714 1602.46878531 1523.52312768 1412.86200534 1325.38477807 1324.90646183 1400.42886303 1478.36490532 1491.70977796 1474.54124781 1441.3921624 1419.88437906 1353.79478916 1368.08725586
23.2977242781 19.6589156029 18.5620576603 17.677911496 17.1773807038 17.1591427109 17.5317472512 18.0003743169 17.8540448812 17.7856119369 17.5234905842 17.4106752715 17.7420335126 18.580319147 19.7705942099 20.7511437807 21.929381211 22.835448271 23.3302168922 26.2960522859 25.3895682613 24.0194519403 21.4460943991 18.8979375236 17.468133128 18.4538516193 22.0933464254 27.4359652174 37.1099129649 43.8579522028 58.8044232566 65.2452627719 72.865447961 78.4219336419 83.9544315781 89.5783100207 95.2430800004 111.234667996 125.866704555 130.585384084 128.680385502 133.642089079 139.508527052 147.101251681 175.000271283 186.968985881 200.232536133 213.070033559 230.45374099 234.506232121 241.815728905 241.846871818 250.10586125 267.596156397 291.824119851 319.059079204 348.599683176 372.759586098 406.561924512 419.406026311 428.493744209 435.548501312 444.344584816 458.535890222 506.739584452 509.580217331 577.359936699 609.682279099 635.440531301 655.364168743 663.206295264 667.134620281 671.7058901 708.227736133 730.561050192 758.061088195 786.697423367 813.092866379 835.046997265 851.482637768 861.865928406 866.780461108 870.542610933 869.916971648 867.454667734 866.111153953 861.202912347 849.734745052 832.751025707 810.487182661 785.203053707 756.961828126 729.315713746 703.927310164 632.740022274 612.950669301 595.778453561 580.135934112 511.278273551 481.609902003 466.551320623 451.350075566 429.757040449 412.838479868 392.927236037 376.181053801 354.09597346 337.184721979 319.168732572 299.204746039 217.961800131 202.035219245 172.630536881 153.580293058 139.337575693 127.267766186 120.026855326 119.38052692 125.613810403 135.393845834 152.918908287 167.423850364 180.074804019 190.722125102 199.497120992 206.729473859 212.816992865 229.431533601 234.589612948 252.033509275 258.899367347 266.436948027 351.01273217 407.152917479 427.33536196 445.945154215 489.516758844 514.241328824 541.887884438 570.520478581 596.753711965 652.937269222 658.688885305 655.943441825 652.893083597 661.90494861 754.059503812 831.089632796 934.418451601 1075.84517314 1195.83041566 1307.75528864 1428.02062471 1514.04791844 1588.77710802 1654.6385915 1785.52010084 1835.8391656 1883.31687247 1954.6608975 1995.2020286 2038.14698468 2085.04958496 2161.26982639 2215.29236807 2275.74299532 2341.03020134 2405.97345597 2474.88035216 2501.18384607 2495.7354013 2450.04511124 2419.44295799 2352.38220979 2254.83330421 2190.26649325 2136.48709885 2093.15034842 2052.92052799 2021.38036426 1994.72743086 1951.82980905 1906.66880277 1886.14537346 1866.11709808 1846.31650571 1824.51139332 1757.38997815 1801.50192304 1772.73156702 1743.51287782 1736.3611943 1750.56664185 1773.6216024 1785.59288959 1778.32829662 1718.78454129 1687.93198134 1661.37874326 1658.99649931 1500.49922615 1482.84681318 1553.09137122 1529.98305478 1513.19103658 1422.85584469 1430.15507258 1431.05768675 1413.92845303 1384.64780072 1381.84094072 1377.85341411 1368.36932788 1411.38541673 1339.00255049 1294.46385545 1250.87588401 1229.83283618 1236.30809963 1261.08791312
22.7632821463 20.840506669 17.4592553025 16.2033759574 15.4763120108 15.5361589907 16.3392930665 17.4725249553 18.4375620269 18.5789435279 18.8587537406 19.1019737917 19.5507405632 20.2965966081 21.2725375935 22.3248601903 23.2823828668 23.6042944671 23.9487828447 26.9398721143 25.877258612 24.2857972546 21.4595290229 19.2229970862 17.1061552822 17.9596482043 21.8444079272 27.6171598607 37.5386365124 44.7281877445 60.7821972823 68.0482642701 84.7102694787 91.3757106902 97.7767324196 107.086227528 113.10985099 118.940374694 134.776759073 140.47180671 146.100196971 163.093055354 152.434026157 180.217290103 191.088675987 201.912852126 212.97669716 222.822980441 236.350606816 236.297028684 235.936840582 233.808341473 242.675343401 262.773019679 290.222780979 320.378379371 352.463180313 378.914920011 416.157115514 433.809279837 447.636695788 459.901754531 473.524300209 522.781235984 547.895634424 577.741325689 610.868149902 637.08450779 655.513520895 666.334405088 665.999257437 663.623795545 677.135823626 693.843157134 721.526180341 756.56196096 791.938394696 823.232854096 847.981273663 876.082579108 874.673120543 877.593916905 878.545461579 875.323085859 872.62874153 869.68399983 864.983693296 855.699744759 829.538910018 804.82537336 776.217438886 744.06739585 712.932795868 685.243564558 615.68249937 597.10317256 582.003637178 568.711321921 503.329117332 475.345635901 460.741610395 445.134651314 429.100669623 406.609490365 381.233741491 364.728607533 348.842763884 332.915368806 316.000531726 297.05785413 216.705227917 195.881101897 167.371195105 152.938710028 138.82252876 126.965251637 119.877464249 119.247285662 125.390297375 135.050690367 147.100590855 166.921707863 179.619044726 190.372834492 199.24983682 206.489414964 212.415122625 217.458170236 237.53048875 243.237408457 254.337582527 262.127197871 304.780847637 376.159306507 391.452885767 407.942604888 449.488120306 473.894637886 503.227063634 535.275324616 572.085057017 625.361582104 628.087243118 617.296849012 603.4163048 613.296711768 646.882254439 749.492265627 863.81703755 1015.28961438 1145.93848843 1295.38804633 1389.85215192 1479.14962537 1555.73448363 1622.55887928 1753.60579049 1803.98269635 1851.34168584 1920.48903185 1961.1475853 2004.83378452 2053.83032637 2135.01043248 2197.16335904 2270.88539436 2355.50356503 2444.88182022 2533.21521501 2576.54231929 2572.57780768 2499.79451784 2401.62133145 2282.11487981 2241.63314748 2163.8907416 2102.78590242 2055.95811598 2015.75304109 1983.47777982 1955.93146947 1890.82133863 1868.4834653 1833.43584667 1830.04205417 1753.61218519 1742.55356744 1732.25712586 1724.8055564 1728.17210217 1727.23153041 1731.48382761 1723.07293082 1699.80522145 1659.65813896 1607.10682206 1519.05098385 1472.69992854 1442.18331166 1432.72356031 1415.19998776 1396.603202 1372.695758 1322.25678037 1238.85761824 1243.42621098 1258.13234266 1277.0945788 1291.74703281 1357.41355264 1350.9746708 1345.87280796 1317.92436731 1295.80370356 1254.54586459 1200.85018088 1155.46485184 1138.99925569 1152.97911757 1183.82336088
22.4287713251 20.0919431619 17.6382419822 14.6798488921 13.5836598827 13.6481036729 14.909596308 16.7634963436 18.4762601632 19.6965155461 19.9870582527 20.5806737124 21.1867466364 21.9120704976 22.7500614321 23.616897591 24.3942865764 29.5545425648 28.7019221643 28.4527742227 31.6104335283 28.7489794939 25.136895684 21.6244915302 19.7395387255 20.6463834811 24.3089596816 29.9530833383 39.9045597444 55.1957804342 63.6964038381 81.8336898028 89.6476765091 96.9223557749 103.885925056 110.67907084 120.239725002 126.598541023 132.850833918 150.002954093 180.536301632 186.900506043 193.663445792 214.180803689 222.496746693 230.605804197 223.500817936 230.710742889 241.435389609 242.832314361 235.831644088 234.637433947 244.552577848 266.36748943 295.462213417 326.951849026 374.972823591 403.729955428 428.008100529 449.603824296 467.762279338 484.707769934 502.539408644 564.429592278 589.554621002 618.514725963 643.544991673 663.039509243 673.253441589 674.305948997 675.130292214 659.595386217 659.700844325 680.266542994 716.972615986 760.897987632 810.183278363 847.587257601 875.639636008 894.488604886 902.060173885 903.060751581 898.563036214 892.821800639 887.516536714 876.714419006 869.12987637 856.530731325 824.957041539 795.563499875 756.584739678 714.573720712 677.851585962 646.55299331 590.426754525 574.179593561 562.727163069 503.267376007 479.853847789 468.091172766 454.197973481 438.395165977 421.44323506 399.097134962 368.260500067 352.440543908 337.879967489 323.78002002 308.971793608 292.219460591 212.978795714 183.486325452 169.995493858 156.159235406 143.070406792 132.368475707 126.298416542 125.693200216 130.033605479 138.998707417 149.8414127 160.882083924 180.915527457 191.345730507 200.143894861 207.328636167 213.013180667 217.532696801 234.504874323 236.787301976 243.351503612 251.220718291 291.198867818 356.357063205 368.378106495 380.958973187 416.361411569 439.769421202 470.953093632 507.316234824 543.181114977 599.361599418 604.92477854 593.290561386 572.178960067 567.981474547 600.375783125 685.659989584 798.640789594 983.170999855 1148.9019916 1275.35622086 1372.29600626 1462.14683486 1537.94892369 1603.2680495 1731.21087505 1779.82402451 1825.55741723 1890.91243865 1930.37382329 1973.22930792 2022.3292116 2081.22237629 2173.50807443 2257.64891379 2359.12907369 2471.62360156 2575.48976112 2639.25622249 2636.07375129 2556.92690986 2430.67050357 2286.78919841 2163.48546477 2131.73861727 2066.8964745 2019.89565763 1984.75035482 1950.87627064 1923.2954617 1860.56874167 1837.9504894 1804.49837034 1747.8277062 1736.69883874 1724.28938563 1711.62302634 1701.83742747 1694.60982778 1671.58549036 1668.21289876 1638.4146437 1583.91527779 1511.24330616 1434.53305127 1438.73575509 1389.33213711 1360.72955709 1344.08360192 1260.49647962 1244.61374545 1227.81997936 1208.50161512 1179.91503547 1179.44761984 1190.85307194 1208.35630266 1224.07840273 1233.3641943 1231.496021 1201.25947477 1251.1316933 1223.82243981 1185.43402137 1141.48836991 1106.52394187 1096.18753476 1110.67799207 1137.82372268
22.4974261951 19.8447739926 16.9232335171 14.1225115004 12.1555741309 12.1881639857 13.8695427126 16.3558511495 18.6729477295 20.403882125 23.4748179498 24.536788868 22.6298074024 23.3772406136 24.1453113175 24.8982274917 25.5624247662 31.1504252142 35.906299044 35.4435212786 34.0559365307 31.7650697023 29.2968550424 26.5855493473 25.1291110114 26.1042127249 31.8147873043 37.4430711218 47.7262182841 59.7728201488 78.1097248066 86.8252257496 94.7668854277 102.455889056 109.888536683 117.161359129 149.046822138 134.096283245 167.002215223 185.292610333 192.402013651 199.526392452 206.82567103 228.544870722 236.533894227 243.696971914 249.102545971 251.655516503 252.024062033 252.278534042 245.670868203 248.611460852 259.297996152 280.951745265 320.522130185 356.676739309 388.87779705 418.065764824 443.917803626 467.589562462 489.341183801 510.201271258 577.455167728 601.369015518 626.5920114 651.554534894 674.782025568 688.260827899 694.123158531 684.330772779 668.288944444 657.018344798 656.699098527 681.197531682 724.008585274 773.879508001 827.856189761 868.322593859 898.250341577 918.02830387 926.219331736 925.786569795 920.85195552 913.809904873 906.05208761 897.331489207 877.801700167 859.580987335 833.059605127 779.552079455 735.143983219 688.657233046 641.674673895 602.419898112 578.419539074 538.215906717 532.186371212 528.633125217 469.436055332 460.264990237 447.318871494 420.982658551 399.249315741 380.524108261 359.808843854 344.464094845 331.321747855 319.388898263 307.140581846 293.016515073 202.833875716 188.190195892 174.927827524 161.992069787 150.350863073 141.217097954 135.873036761 135.892527211 138.244567686 145.350580463 154.309877045 163.962528963 173.661080016 193.026815016 201.802375334 209.116269666 214.692580679 218.604060817 229.270466437 233.826478032 240.26151908 272.968128247 285.222943155 310.664024918 318.923367554 326.516564908 380.560170691 402.47185619 436.03975964 477.954683306 525.728838117 583.540642592 595.73588511 587.307143344 566.105195009 558.789636733 595.113581366 679.9386648 797.615356724 951.837732125 1101.13462392 1279.50026472 1386.71925269 1462.95963892 1535.16102558 1596.37541605 1698.70413881 1762.95401583 1833.90093907 1865.81835062 1902.72012122 1942.83659 1989.25554296 2046.22203379 2139.07729613 2226.80389064 2336.36473594 2460.43463167 2570.32078844 2654.85768892 2652.55976344 2561.38237579 2418.31614618 2261.478955 2108.44136011 2011.10471506 1944.14921626 1897.82622669 1875.96802545 1843.40406462 1793.11312311 1775.52327839 1759.10378348 1749.62872641 1743.00838193 1733.20482068 1717.72070384 1697.91943229 1678.87288775 1660.75602871 1615.59307111 1601.49010865 1567.40854212 1508.18797472 1439.59912451 1369.427828 1363.97904565 1315.64055133 1236.70371982 1228.59213373 1227.96238674 1213.74011814 1193.08385249 1158.11132766 1147.52231725 1145.54843121 1150.49458187 1157.30597448 1162.11735364 1159.98116077 1128.733045 1118.47974549 1103.86558291 1088.83925489 1130.07013515 1110.2700365 1096.17688495 1092.13643293 1098.94357532 1113.11230963
23.1395871125 20.4120074691 17.3397947511 14.312562779 12.2513332884 12.1819926163 14.0809681665 16.8480399429 19.4088647429 21.3563135345 24.8198215361 26.1026972969 27.153269392 24.7162424404 25.4560272939 32.2145733619 33.1214531314 33.7435025142 38.0019266635 37.8774230869 37.0727810937 35.6433948083 33.8739640478 32.7852142962 37.2639887528 38.6647693802 42.2028760125 51.912386873 58.3801251144 70.1241463735 83.2439276405 91.6666857982 99.927836 113.78436461 115.765447447 148.696608715 157.411764461 165.869353429 176.483157264 193.014975235 203.420913382 211.163900764 218.931888838 241.825139186 249.899267863 256.889471225 262.021386305 264.481560938 273.411243601 269.610566439 265.22040967 282.003261897 294.681268847 316.510545719 344.337588357 377.581483305 407.589546185 436.071930533 462.653813657 487.468355633 559.192249464 585.227071053 611.085286284 637.182550865 663.035807124 686.964774975 706.100284914 718.088540278 754.136392157 730.931087231 686.253341613 680.593869738 681.304319352 707.769758621 759.275032924 813.320030151 858.67362497 899.176196294 930.255822859 948.586588361 955.487436797 955.202710926 949.983267418 941.688280971 931.231759631 918.105709288 900.669589713 861.497355609 825.43039384 788.678036316 701.372606279 643.064037381 590.245757506 550.140637998 526.824562445 493.451754056 500.488448219 495.064424568 496.181921946 490.759600323 431.549315694 414.153128139 391.070011628 370.703615477 349.599493463 334.547386412 323.028521414 313.766097939 304.694293966 293.768862442 206.295566941 194.225867086 180.979400347 168.777195775 158.395052566 150.58828921 146.019940406 146.232415443 146.472230616 151.700950034 158.733045227 166.919356829 175.897984345 185.455942912 203.638106458 206.835415037 214.044011641 218.169883561 224.083301424 226.915169164 236.373913358 245.204030246 280.069250474 302.807557859 307.68421098 310.318772213 316.245517249 362.819901442 399.345885218 451.880589989 502.569343498 569.882218762 593.160231288 596.400402607 584.886101114 586.715390577 620.542333624 715.556766224 832.295578718 987.424716607 1136.02196055 1252.66145629 1349.37842978 1426.59967863 1487.55467617 1636.3749215 1694.56369804 1781.78363867 1815.88186646 1850.00914258 1878.80262713 1914.46958848 1955.3006541 2005.76561787 2071.65349205 2174.43948308 2240.85029134 2370.7908784 2495.27954644 2574.89098251 2570.12680189 2477.64753967 2349.64701736 2178.77867799 2056.94633989 1974.0744812 1923.27308262 1891.18603183 1864.15795773 1793.93193226 1742.91391032 1713.71103476 1753.84440989 1750.47875492 1752.1921739 1746.568426 1726.57600736 1694.83263671 1660.53468586 1586.10886307 1558.91185511 1528.449427 1472.16843181 1434.15870444 1373.13689432 1313.88301226 1266.31435065 1228.28282517 1222.77616762 1218.57492178 1206.70891981 1194.20618159 1171.11711154 1141.87952147 1139.15617454 1139.18685819 1133.41482537 1121.16747406 1107.08427304 1065.68531177 1047.25459066 1032.8925657 1020.18278833 1011.07369272 1016.58197379 1035.63331646 1058.13475812 1085.4535175 1086.00766862 1088.41240359
28.2469889932 21.9000048068 19.1288400448 16.446334461 14.6772385711 14.8025310585 16.0234058213 18.5286547616 20.8485761104 22.659776541 26.2577884032 27.5983934881 33.7847243838 35.2914161777 36.6502088165 33.9058247378 34.8418315248 35.5434217767 40.2111297929 40.493249278 40.3203451731 39.7701941431 46.8741018327 46.072408314 46.2137875639 47.8667361406 55.5120385218 59.9489593236 65.065615697 75.7606095267 82.1843011463 96.2434890999 110.610616573 119.015550556 136.544865392 164.471983894 173.710429856 206.030596663 214.85999072 223.229213865 211.054643832 245.874858004 254.819612329 263.409244018 271.370572351 278.254114864 276.723646823 280.61113908 293.24364413 291.836114861 315.848506674 319.664145241 335.087264621 353.510511198 377.025685001 403.307760263 430.720952778 470.638048954 497.946746563 524.381645822 581.636252937 615.338310813 644.254818531 672.816891838 700.277809153 724.932176842 744.127533552 768.817387915 806.185022007 778.109587465 753.520676267 736.685535005 740.701172997 771.209979436 814.489518732 863.341900942 907.090645331 944.359673799 970.694620452 985.399762766 991.743180723 991.306864111 985.714782787 976.153769143 962.946515245 945.600166497 921.066512345 871.304741433 835.174112956 774.055061926 687.188033309 599.797737978 534.135246831 486.770839248 464.189259693 446.193705317 459.489806212 471.815948383 481.884408696 481.688348838 426.469272197 402.300423216 379.751543155 357.059077111 339.914097649 322.598574454 312.790614992 306.608095862 301.187096719 281.143570307 213.869841504 199.15972841 186.907281051 174.972243426 165.306249861 158.252021348 154.007996393 151.763618593 152.591934331 156.27100692 161.6989626 168.617137659 176.946969509 186.671233381 199.64069201 210.429324889 218.889852829 223.067776284 225.134872754 226.153390796 234.043799325 243.261060174 254.532787991 285.707091154 297.752222122 294.750670841 295.430089632 310.984034897 368.411778751 423.085227423 480.583653184 531.233781221 596.98484222 613.048346024 618.626382928 642.240681832 680.925407135 766.484672789 871.473697583 1048.40762932 1193.21637882 1306.99427379 1400.25662577 1471.87851268 1524.88327226 1592.3040111 1636.52002415 1755.31429908 1803.11747454 1833.8604399 1860.04046608 1890.43664283 1923.54187316 1925.42399613 1981.14682601 2057.12637061 2149.093445 2254.2158734 2352.14015545 2412.88993258 2406.48950621 2331.58709959 2217.33205229 2089.78609702 1995.28247656 1937.95720116 1911.44588513 1898.9032414 1881.73603778 1822.24620203 1762.89806609 1724.6630105 1713.98729669 1758.2656682 1773.32474208 1774.63504765 1748.25395263 1700.06534671 1646.27186086 1550.66417437 1506.28293276 1463.43570235 1399.51669427 1349.99201982 1223.36296959 1270.70022185 1191.25625684 1218.91585282 1223.38429771 1220.24724596 1170.31728216 1117.73639739 1137.92038996 1127.49219462 1131.14068405 1130.71956108 1112.42901384 1080.75911938 1021.90830201 992.20812696 964.608831382 945.249406989 927.512350531 921.671495778 930.533743831 954.818957537 983.525605867 999.759763933 998.103355148 982.931981233
30.3708441532 27.5600449678 21.9385626164 20.0019431232 18.8585710762 19.0907565092 21.0590547636 23.3136271525 25.4802508281 27.3408235253 28.9286880445 33.6471539057 35.4081476381 37.014550628 38.4587433982 39.7191504551 36.513187984 37.3404829716 42.3990186572 43.0866287228 43.4936142116 43.7018672952 52.931260854 53.1171710532 53.8714327448 61.0115576976 62.9363253864 66.2866208199 77.2645873703 82.5239371452 86.286761268 106.69804389 124.169443627 133.16687173 141.911595555 171.145045847 180.940367481 215.139895022 224.556578106 233.509911659 279.846691502 266.149990596 265.761692334 275.179133192 284.172142019 292.450273898 299.637378577 315.506753496 330.837605469 332.26060102 364.511073292 374.942851795 385.153821863 400.82055052 421.155274273 445.037881134 465.878419909 492.627151849 520.035558356 547.696686222 575.50383049 640.508501331 677.405413806 709.008326288 739.390742317 766.964390237 793.297890665 817.999272981 868.297458122 856.358780621 842.109069563 831.135426457 835.51545379 857.72917546 892.697336315 929.513242706 965.83997772 996.104676046 1017.11315005 1028.09303459 1034.88676315 1033.92271048 1027.86697224 1017.17673286 1001.52811992 979.906021359 948.920385556 900.614703583 841.20442887 765.382221792 661.588913707 568.028801943 475.368144194 418.095367813 385.69764446 395.255953393 422.644553619 452.732087285 470.060613208 469.321922862 458.174722333 397.955375376 372.508214909 346.674139271 324.623079408 309.446134919 301.282728794 292.270133867 289.42455002 282.604733391 272.772533319 204.775351291 191.604549353 179.466676462 169.977565736 163.143138613 158.84896226 153.19917273 155.7843462 158.28356214 162.46592768 168.314632663 175.971144241 185.640185993 199.377611327 211.565851492 221.699593437 226.683540117 226.114560277 225.494111579 232.122276974 241.413939744 253.345232355 265.13660423 291.22121732 283.985332519 280.665065433 294.550349272 327.501805186 373.489653062 463.640276916 518.7477282 563.339667284 629.883927078 654.364114672 703.123500513 751.365976064 826.557144085 946.971381252 1141.0946277 1265.75223318 1377.86051397 1468.56908782 1533.96094714 1576.36603038 1626.56859316 1668.59959616 1687.63444007 1743.56408496 1771.96529851 1808.51348013 1837.94236732 1865.4011186 1894.09312113 1930.17453979 1968.71496005 2043.96884713 2117.45760259 2183.84692901 2223.01269046 2216.44415925 2164.14188642 2085.40065582 2004.07241276 1936.04141085 1910.81411138 1888.91860001 1909.13217861 1901.20582728 1853.31710013 1784.06224205 1730.42480163 1717.38610515 1763.17518476 1786.97578869 1797.92784501 1747.11988497 1653.39050071 1552.34005838 1512.29661365 1353.2590584 1290.437 1229.70191585 1205.66563531 1176.26180354 1163.13976679 1169.33437496 1184.08715999 1210.08216459 1200.47540621 1153.45482563 1097.50532259 1111.78131344 1098.00247272 1096.45614616 1087.76792026 1039.20264444 991.242907574 945.753509078 911.081175786 879.656765383 853.174142921 832.584524763 819.042968235 820.877269207 841.768161708 873.094732152 899.229979844 908.467566509 909.052971971
32.6987859076 30.5044313396 28.3921323185 26.6452469496 25.6734485113 23.8370883491 24.7841298491 26.0556008235 27.3994547825 28.778108349 30.1763816987 34.9062294718 36.7832816986 38.5156117241 40.0731204151 41.4395106038 42.5985462498 43.5324247809 44.5776248833 45.4948500485 46.3778952796 47.1673252907 57.8366017564 58.5359497444 65.5808299714 66.5061109262 72.7905047056 75.3681518711 79.9124631433 85.183237005 91.5910119981 109.278276431 127.722921703 137.527092414 146.898870701 177.258281412 187.569536509 223.4060727 233.336399455 242.805626805 291.24555634 299.146492039 302.497659116 285.882039015 296.194989003 306.311623842 337.749564834 344.579559672 366.65327353 354.828251662 402.535204656 408.491616962 417.329027016 429.978026359 446.937766634 481.046589741 506.219217871 533.713080373 562.608508049 592.277413353 657.333665167 670.584937968 705.391732562 761.928194944 797.412033114 831.607118352 855.278754141 878.378655917 946.896699373 947.791554021 944.447960105 941.801910117 947.0922448 962.552706901 985.960255187 1014.83661043 1034.79396906 1055.7331193 1068.14491466 1087.89459134 1092.65999709 1082.71104765 1076.32377426 1064.97971265 1047.71196053 1022.80715693 981.231884427 929.247954805 859.613458847 770.077224378 662.410114845 536.265344396 432.608746962 358.344346333 334.86330958 352.964403263 396.965319288 439.908217691 467.040131116 468.013226665 457.311680539 396.209926909 367.493274775 338.193406422 313.510024895 296.079076682 288.331260729 287.869411891 287.716615832 283.169684176 274.671796928 208.38948197 192.633762832 181.581005089 171.960684454 165.043776544 156.055104418 154.003639965 156.088734168 157.679688751 160.845041121 165.675742763 172.427800407 183.677708546 195.163517284 207.839563508 219.028505791 225.40443537 224.941959118 225.99219433 230.340393431 239.35850781 251.337690806 263.561932048 285.462971434 282.715449751 279.164656962 292.48939581 324.943793501 369.453573349 418.572775664 467.416487932 546.601152918 590.279063834 684.293411513 756.512526823 816.030581356 897.057852534 1027.53346628 1186.90249121 1344.54318266 1459.45609423 1551.58511057 1582.59926885 1612.12193917 1669.42644929 1690.67629881 1699.65943675 1748.42928264 1740.01980417 1775.40395421 1807.76413946 1816.93251144 1827.70221106 1836.37155447 1901.63846047 1900.04583543 1989.81516741 1967.25468143 1990.44213731 1985.45724115 1953.09472821 1907.24953859 1861.5907501 1845.48288573 1858.68358271 1908.04236205 1952.88287844 1949.57356594 1886.47830193 1796.97160568 1716.5296616 1697.27957581 1721.72485177 1772.80077748 1785.16313632 1728.95159084 1627.1208862 1516.26608287 1378.81846394 1297.9320218 1236.66116445 1166.90349816 1131.42214991 1124.97964969 1118.36309527 1107.24291982 1134.74348306 1150.12307446 1137.50156205 1104.43054524 1055.7975964 990.803234773 969.405807063 958.467354278 935.443995301 866.157738178 809.759894244 760.259366109 725.220324909 700.988377933 768.272668101 739.92262355 712.613975599 701.829461805 718.531966058 754.916013069 792.309380671 814.668083162 828.635368617
39.188798677 36.9863606754 34.9444361496 30.2057979541 29.3189697839 28.9072551445 27.0662823616 27.5446847052 28.3576455967 29.5609494642 31.0156900743 35.8259185529 37.9141003836 39.8109864295 41.4978251647 42.9802537353 44.2630305531 45.3471281791 46.387817466 47.7280068472 48.8504651209 58.1440095142 58.9387601342 62.2671344293 69.660409896 69.2916322562 72.7800325428 74.4068887073 78.8718338076 85.1137145351 102.769962331 113.559700437 130.61442302 141.557550877 151.66675288 182.879890717 219.785569743 230.739104335 241.091624675 291.993337837 301.080455146 309.536802982 312.464913815 322.472192319 306.838191202 343.02043046 353.163433994 381.670125508 389.129088881 412.176504569 426.145472386 431.281782755 438.97105511 450.10853841 465.880766543 499.682558139 525.141326197 553.456370282 583.614510981 614.915391105 647.058964755 719.735762168 764.306458124 801.916300939 839.868858477 877.712366731 928.586195567 958.998066728 1032.71421769 1049.55215344 1059.99095156 1066.35162155 1070.97144977 1077.89061214 1087.73180916 1099.36377926 1109.65503528 1121.17277099 1126.95740362 1143.65137443 1146.5449083 1146.23056664 1130.93702205 1119.87180901 1109.0741273 1080.93515181 1029.68218769 973.136524723 896.535549944 796.942235625 675.662998148 533.495216918 412.682612999 330.310807267 304.605607627 331.037397904 385.550852123 441.348824692 470.978590097 482.534563896 471.096183948 398.275134689 366.52061379 334.247006782 305.82032773 289.663236469 283.976369644 285.113287247 286.512095588 283.028385378 274.94971607 208.858257186 192.381590579 179.184175527 171.172220134 155.414061156 154.699088283 147.372597786 147.097742722 148.334764432 151.047288443 161.523794075 167.091784974 174.677782494 184.540752676 197.775399729 208.519857113 217.849915264 219.085094183 222.807093406 227.571397703 236.403754339 247.967483568 259.985592098 278.456299218 292.0089842 293.499868597 306.717081216 335.497169237 374.725360537 419.107579903 465.318010158 511.497693347 597.905316591 679.988071969 736.888514764 867.016023812 955.277618705 1092.25726812 1258.18488527 1388.66726358 1515.81850604 1621.42217487 1684.98840252 1700.8284336 1696.86794666 1674.40430013 1671.51970993 1711.82400777 1755.04062779 1799.28773066 1839.89692336 1853.32055868 1850.2848485 1831.28365913 1814.32954691 1827.71299541 1838.49731852 1834.59982918 1841.26879513 1835.49803945 1817.84195258 1796.91454035 1757.25714577 1770.29780046 1827.97632732 1897.0866166 1954.34802054 1951.21031469 1879.31959478 1779.85367831 1690.78123426 1660.72290828 1665.72203969 1699.50289279 1701.57548901 1648.04706701 1552.62261069 1446.7933783 1304.70121433 1223.8702086 1169.47165391 1100.06315073 1067.20907695 1064.33483668 1058.55250798 1039.49788582 1057.63261 1061.71471033 1049.64342651 1016.89440162 976.373658421 927.396200405 896.028947309 869.453644589 834.372422104 761.074422574 714.563937024 678.941757772 658.404844605 645.452735346 629.674042255 606.016053546 618.690827986 595.302550988 611.883257071 655.805732797 697.768591226 730.876631326 752.571370975
40.9892731913 39.1102888021 37.3445580298 35.6524327037 33.9456955036 30.023504946 28.8950366622 27.3490229352 28.0333200807 29.5527479903 31.4419384231 36.4837930395 38.8637040451 40.9311539749 42.7336332921 44.3202118964 45.7153503013 46.9288471132 47.8901019503 53.8310521943 55.0712927757 60.7133247541 61.6014068129 72.0691496603 70.463401005 68.2158380782 68.7377803591 69.3236961438 73.9173728867 82.5915030122 101.407728848 114.866815605 133.40557079 145.6704375 156.479117637 188.089984624 225.768013173 236.984415586 247.665319208 299.558117251 309.140430668 318.048554686 326.511763072 331.124079961 367.936487532 377.589853648 396.203573621 404.679392917 417.941181212 428.033529825 438.911071335 443.405772891 449.430489458 460.643951798 489.169937308 512.961291465 540.814290456 571.430458257 603.734767913 637.049230401 732.237249413 770.193838383 791.641363241 833.012831177 877.689958094 924.667330333 987.74365439 1033.72448176 1065.52297968 1160.21303244 1184.82237121 1198.10583785 1201.03255088 1196.16021532 1186.50003296 1182.2119986 1181.93912526 1193.84424646 1193.99845573 1196.90295271 1199.35724383 1220.82368341 1218.1291421 1204.39670909 1179.43218433 1152.53299625 1113.12302203 1043.98676861 964.800164836 860.404459737 731.797303646 581.32576551 445.842161565 356.707117195 327.671887498 351.622359312 406.405203512 456.419144426 490.849033928 496.947607192 482.316657961 416.447661498 367.37810235 334.651963483 307.526122356 290.661480468 284.541383022 285.500601347 284.443158305 279.42234784 273.995145061 206.13941607 189.718098138 176.653254152 159.661701491 152.628028727 151.902513807 144.349929876 143.662506985 144.258832288 146.039117384 155.608402514 159.361640132 164.626163338 171.731598473 179.386446126 194.50660801 203.762762852 207.906149362 216.226239716 222.625866825 231.881709073 243.112956676 254.668121387 268.787390605 286.03009197 313.082065943 326.652232249 350.868823811 383.776473544 422.760969811 465.880654021 511.92090119 604.040811689 697.873381962 764.70049984 868.667523905 966.037073188 1105.35598861 1260.01478884 1408.17173813 1592.34415716 1713.58745117 1783.58722114 1787.59187487 1752.11771077 1709.00155748 1683.52075848 1693.91579133 1741.9433698 1824.74809371 1881.4891719 1906.42520235 1892.40373167 1844.94902521 1793.39029105 1747.82384841 1725.19169858 1730.01561456 1723.10839477 1714.42584958 1703.87582081 1696.60936643 1670.9013011 1696.27734384 1750.16175293 1828.4801733 1879.81758204 1875.15117452 1811.05268746 1722.99207769 1638.11892392 1581.94423426 1579.31667775 1587.34157039 1574.92884352 1523.19651447 1440.42544599 1300.2890939 1214.15785347 1141.51770833 1085.49862564 1026.85852763 995.914490054 966.322865853 958.39640854 947.897211792 966.467138779 963.125828022 954.057761258 931.887166963 902.109034237 856.4421963 821.529109611 787.992887643 717.442046902 675.105967528 634.656843731 609.042061022 602.086942038 601.702091228 592.937323708 570.108679077 540.474148265 529.273403107 547.67374871 555.21480864 575.626023076 663.197459471 685.29841871
42.033018637 40.3154793385 38.7167387918 36.99113837 34.7530386178 31.7202084376 28.4087088684 26.3139744591 26.859735762 29.1449451426 31.759073914 34.027060926 39.7439196809 41.8977927353 43.7584801956 45.4224757834 46.9129180103 48.2277898238 49.3821517045 55.1974170396 65.3555385611 67.0448359902 73.574345664 73.2660720729 70.0873942077 65.4433444086 62.4145608509 61.8699710824 67.6732352017 91.2533930051 117.826037267 116.784981337 159.820693613 150.416634964 161.624872961 192.884031364 230.563660264 241.865022198 294.217074988 305.172462141 315.22108322 324.405100767 333.056466042 396.141943693 403.681063044 411.550482396 403.940473028 414.273877114 432.348362417 436.651193604 439.022863541 444.951583719 451.225308413 464.220214271 494.192887557 522.435554229 554.356741342 588.407040384 623.477519181 664.889453461 753.52235094 793.118728537 816.239771006 861.352138473 911.994381283 985.800061147 1046.23152924 1099.62144328 1164.20204145 1221.22705858 1315.33022732 1333.19985459 1329.40750381 1307.69062434 1284.28055968 1265.01818624 1253.16733019 1257.49960119 1252.6548886 1252.99149092 1254.93578854 1270.73519209 1285.31958454 1259.31925145 1245.4028503 1223.72692923 1190.10223235 1126.3466477 1052.3492519 952.498101281 827.679330351 678.460135222 541.38139378 450.298213721 415.086986953 422.243793715 459.543064009 499.53406203 522.795144846 520.568165994 500.418385701 429.199490243 377.418776566 347.745268583 319.362903403 297.049594318 290.32539615 288.858124129 287.345120447 276.840572539 218.635541209 199.328648692 183.878796145 171.607269752 160.142458028 147.735546516 147.874054029 145.498292769 138.759832006 138.808358908 147.091614958 148.218254638 149.906874877 152.368604644 156.07099139 160.157852238 174.520307217 182.355884252 189.489658345 206.253205654 215.241877639 225.665232309 237.067414003 254.092912921 263.748161194 287.176117047 326.47736156 340.449410122 361.431539315 389.822902661 425.095867599 466.276577432 512.414465477 593.72367878 710.389149563 780.972012101 891.711930518 1017.9928936 1131.96822907 1287.91529404 1440.75809876 1605.98054969 1766.9829155 1845.64128402 1843.00277607 1785.00949826 1721.01445696 1682.85864427 1689.2416267 1742.26422748 1820.44458299 1910.38194452 1950.97820981 1928.89600994 1854.33159301 1771.65481397 1699.04499133 1654.33869606 1626.64050886 1625.49238605 1612.59009674 1603.33203258 1561.15526134 1577.28570709 1600.95152848 1643.77307946 1684.15966704 1723.28860782 1739.64138155 1695.01502931 1599.13462977 1538.0735121 1495.82403777 1475.97370717 1461.37748951 1434.88641081 1381.73274006 1258.4653229 1178.2826942 1106.23395941 1048.58820105 1001.19336691 948.424668756 919.023985973 886.29056681 873.178449892 831.732273511 844.039398043 837.48286653 831.796116549 847.908202341 784.248306049 765.738031914 721.447785762 684.043816264 651.617131999 615.731278126 582.58339814 564.167546836 565.5385575 572.63297031 569.339431152 552.390758678 530.309364072 518.765898756 523.446612098 532.384785366 538.37072587 526.676519268 529.139149706
42.1454153154 40.4616248145 39.1276904416 37.7408867447 35.5493674427 31.9300757632 27.528196108 25.1573553901 26.8319202278 31.0877123228 35.6338025893 35.0161496456 40.6044281903 42.6493416629 44.4890274938 46.2218649363 47.8059442822 49.1887490686 50.3893290021 61.4923574297 66.8403452551 68.3796832429 79.929386241 77.7935046009 72.4866369002 64.8706121382 57.7973794736 56.4187189753 68.286905663 89.8895430416 118.751554636 143.962357641 165.052794923 203.196791905 218.005997393 230.690453281 233.616063979 244.921462929 296.834099649 308.657992717 319.18363096 328.348194141 387.395433707 395.041420178 403.490607866 413.001537865 422.932195374 425.584127803 437.209889108 440.11179192 440.049900101 441.074922713 447.654681006 463.862835695 499.403448059 531.156116827 567.856148556 611.49521669 648.560106132 684.700929247 720.138730695 794.987777003 837.074630246 884.540652341 940.555676174 1005.93733145 1082.50140875 1173.6538388 1263.67352246 1346.13469421 1445.66514601 1465.26239291 1451.99293062 1414.39286066 1373.32548032 1339.71058144 1318.14570738 1317.01504819 1309.35565571 1308.80659723 1319.51570537 1344.10304294 1345.00343594 1344.87558543 1318.96862851 1306.38456733 1283.61672491 1231.64175485 1169.74604038 1082.00715006 968.998340169 840.113965309 694.618293783 602.764677494 556.418016353 535.628316249 545.205588342 562.188056485 567.136456131 555.629347955 480.985925993 446.626771429 399.558981979 363.093151872 325.501160628 308.669569461 298.793655167 293.047741834 287.159317817 223.607513843 206.238996737 188.748466976 174.914959779 163.951641375 153.439307712 151.818969497 142.361164618 140.17582489 138.800629265 132.411567644 140.250220959 140.041017797 139.635721094 139.061162547 138.985346286 142.233689605 147.764541784 161.851462792 172.986636309 194.103014896 206.163898677 218.235774714 236.59126293 248.112648984 258.475553796 285.387467035 294.015958951 342.225263273 361.366694118 388.093223062 422.724263874 464.338959553 511.726985066 605.270579654 715.596960078 788.347631095 901.312332564 1024.9759818 1134.11907532 1283.3665438 1429.09253112 1589.807561 1738.84073725 1832.74154184 1832.60198704 1771.8136583 1704.90230448 1664.12314197 1667.96204701 1710.13938968 1797.09322472 1883.92748296 1935.27045831 1910.19504536 1822.94048205 1725.84495579 1640.19723846 1584.71980305 1547.93773442 1539.99587238 1522.96198667 1468.54411302 1465.31738899 1470.63390462 1494.69554346 1499.4083353 1530.39885691 1553.04149715 1551.99543257 1520.3460343 1480.06344853 1415.25920584 1395.30811819 1365.49649419 1335.52346835 1236.63641194 1184.22633865 1118.2818699 1050.7848496 992.779939586 949.986784531 913.617902816 868.744173884 840.743081179 804.077610519 784.917620677 741.168620515 742.512908359 746.825294998 745.602954157 737.588612455 711.28576809 654.7103719 635.838595816 627.367230299 603.443661248 580.314072262 561.163438436 551.696107354 553.536086628 556.902807567 552.819636887 541.51796231 526.274234078 520.211656231 516.289554833 498.361388044 486.679766414 480.994924523 482.485247616
41.1211214708 39.2029930916 38.2372268453 37.8286359351 36.7975433055 34.0825881385 30.2664145229 28.1857790922 30.1473952421 33.2667920383 37.3808646991 40.370486456 42.4232746816 42.9386526406 44.7482286671 46.6330592048 48.3528309781 49.7475665898 55.6237883421 61.2672902524 71.7765426084 84.5473359932 85.5557591789 83.5828012833 77.5371842858 68.7708561174 60.1680722404 58.5827472082 72.5075880649 95.926369955 126.376015633 152.309610569 191.516568721 208.053005513 249.781580252 261.527355117 274.424485 288.991058454 304.170750301 317.404823055 343.679657039 352.379682767 381.896943669 388.767699196 397.708102092 409.223107798 422.061124279 445.463230304 439.957487655 441.815626825 439.870274084 438.971234737 451.107036319 477.462850339 505.422081934 544.382366043 588.069157775 628.777458998 668.161500173 705.555092381 741.020228414 812.563566982 853.241901418 900.731755434 959.977368185 1032.19038679 1123.21196005 1232.00447878 1354.02761778 1464.31048207 1566.2956271 1587.53379369 1561.55132227 1505.91303768 1447.48818705 1401.88316169 1373.98928343 1370.67807106 1360.97523147 1369.98353681 1372.54134885 1400.90323462 1406.30471665 1413.10300516 1398.88054373 1399.53573032 1393.19584069 1360.09376917 1317.23809854 1247.94350238 1151.50893516 1035.92599999 891.086279745 793.330235772 704.274176953 672.157214402 658.428616513 636.752152481 619.500443887 592.865073774 505.452718201 466.950735957 416.88151756 365.823496072 339.435915391 319.803897308 306.276468802 295.202863599 284.071878863 205.844002405 190.637299918 175.179126318 163.270302408 153.988449364 149.277405825 145.0397039 141.888018844 133.912939003 132.592217849 131.507432661 133.010957589 131.80068034 129.616202926 126.091161253 123.036856453 121.315660937 125.639489252 141.135531246 156.967421189 179.716665113 202.63405038 216.574122405 229.630996208 242.072901578 253.473030641 281.09515129 289.175078434 330.950773706 348.70794318 376.725384642 414.527507824 459.709294805 510.050069531 606.198620863 668.020445632 792.149673913 902.482109692 1007.15555115 1105.46476137 1249.93802073 1376.31611994 1514.98405209 1643.8179385 1728.70601481 1751.25120878 1711.54879096 1657.54690456 1625.36597128 1624.00151766 1659.58162733 1728.91150918 1795.39351114 1831.86599493 1810.38787626 1732.31330861 1652.35306937 1564.84976137 1511.47346327 1473.68068194 1445.98266357 1397.79063362 1383.89424039 1375.57152299 1372.28247311 1376.18854309 1369.51462031 1381.64070041 1393.25674201 1395.36979881 1344.35478218 1323.86952399 1302.96788813 1271.10817796 1255.57223296 1149.07591409 1105.18073464 1050.90744849 966.310163084 907.790049524 878.58934205 847.181798818 827.859890489 793.489262735 767.035689046 697.104455084 668.961282597 658.051292317 659.799963751 668.187669927 672.858060325 669.909331027 618.012103013 567.713245213 551.578222282 554.171577837 541.930405669 552.113440862 549.261012691 549.679436745 548.401031026 543.55323303 535.608403371 519.827714397 510.743613809 489.107258376 474.675305585 453.107426972 435.167146878 430.001251397 436.079706054
38.9084352577 36.1408694695 35.3441194293 36.5010736132 37.8120787654 37.4589022802 35.7175697768 34.7523911813 36.2027714289 38.9712597818 41.900010564 41.0897436309 44.9565611724 45.5445171363 48.2723934088 51.2708308023 53.6549771711 55.0132540356 55.7063950161 67.7939195657 78.6897614925 83.0752847066 86.6843506923 87.4175068529 83.9924247559 77.9413956143 71.6919055435 78.3717240429 94.6992387975 118.631194955 142.836880165 188.057248075 225.171238321 236.908866225 243.881014254 251.537054804 263.791300619 280.512897296 299.017333888 315.467655553 348.767369098 354.940064459 371.261215562 375.551893283 384.300640217 398.555372103 430.074137245 449.77389652 455.946729965 459.604241538 451.123471019 449.562512106 462.840243936 490.801621559 528.730020869 560.325715048 605.954216668 648.816624234 689.977035536 728.155261776 762.751504461 794.797052301 864.351829423 908.668051309 966.362347461 1043.5190968 1145.71588656 1272.84923832 1416.37761515 1558.46244831 1660.02692509 1681.46311258 1642.71574338 1571.13026468 1499.89618733 1452.32746606 1422.31121793 1411.08636931 1406.55760278 1420.12776342 1425.64050014 1457.78850873 1467.96631253 1460.82615271 1480.9424263 1501.17387617 1517.44612449 1523.78855501 1494.76256721 1449.06937094 1369.37334623 1263.1021368 1114.16456699 983.219775438 880.616693162 815.358259729 767.413946455 718.816664727 674.53176652 632.035291366 531.227622787 476.380855972 436.324516137 400.547874058 351.123558397 328.075606703 309.351641312 290.980241482 274.126705501 186.807922821 173.135917027 166.622133465 149.329706992 145.922509596 141.758966569 137.017779549 135.016375939 133.073804448 125.836134544 124.64516725 125.640742244 124.048250252 120.934083814 115.2239264 108.178384937 102.057175657 105.304150298 119.491212886 148.695762028 175.265512081 192.091510083 208.492611428 222.129548268 235.789363458 248.838107713 259.466745779 280.759149991 308.028741959 324.198688423 356.88131239 402.317380642 454.471729545 509.396223233 607.30660148 690.776442745 787.194366109 893.034156909 989.415441357 1073.4852999 1197.72322197 1297.96622157 1406.13620013 1506.69824123 1582.83041898 1603.12602124 1581.59830797 1588.366866 1570.05492553 1567.83632841 1586.35861848 1633.89074594 1668.82996534 1681.22218487 1653.25698806 1613.18670587 1550.03148988 1480.39430234 1437.98204096 1404.55704341 1333.99277188 1311.14809881 1309.43976918 1295.80497164 1283.72687273 1274.16436848 1254.40077421 1253.78193306 1259.415138 1223.29817244 1218.84824146 1210.52733811 1185.54089176 1167.59015237 1060.95417083 1040.75779844 992.554555185 912.155255641 850.065988841 793.604744823 754.731909657 735.489641288 728.202167715 718.494289328 665.516942771 636.078470519 601.932626797 587.731732436 592.443458021 606.206832566 587.273686655 575.401836862 528.374428065 514.80579546 505.056220418 479.403124824 471.912891558 474.672228904 500.779000316 510.568580086 510.145791257 500.979383128 504.058473889 494.100520276 464.514215991 449.649699067 425.449781944 395.66314248 376.67618315 378.42644233 393.412070718
39.2743665672 33.3389360281 31.6976068636 35.4758624424 37.9186661137 40.5491659325 43.7154878887 44.0624082144 45.1499487295 46.3433873063 46.5790426421 42.8458281822 41.6250405725 42.9762971448 47.0023331227 50.4811208056 53.2421462121 53.8956455229 59.0587704382 62.0906315554 72.201196413 79.5744802074 87.057993252 91.8734657917 92.6862161998 90.3384186545 103.519694524 112.222027185 124.288963177 143.953438834 184.844930752 211.550481383 231.137900677 233.058744109 231.152393223 233.758433538 246.406574967 268.062846505 292.325778475 331.003448672 394.720914725 394.528928044 397.971255944 393.428426057 371.211694163 390.450004181 454.943755267 445.041201813 459.705272603 487.630042933 482.088018972 490.256290317 509.129662271 543.743238055 552.289915168 627.361472595 627.179120154 671.194713842 713.867373106 752.883077119 786.258840431 814.051782013 871.037842893 908.470407428 960.681149278 1037.75702061 1144.86088172 1281.9104141 1439.19156063 1607.03940182 1699.89094776 1721.39668787 1676.87420539 1600.56195027 1527.34382768 1477.37651321 1453.69388503 1450.32361332 1453.07865425 1471.20292282 1479.73698014 1491.19927968 1505.07617757 1528.0269717 1562.42624136 1603.39265565 1649.79386662 1691.94996357 1700.22195743 1682.06417291 1619.17468455 1514.85406544 1331.66156073 1180.78712228 1054.68680718 952.649066148 870.245851336 791.234667787 730.401064735 674.314605017 543.343616576 495.255104381 451.976574431 413.858996157 358.806914837 331.864620246 308.221419619 286.13795621 261.86218554 167.845008445 154.607873489 156.166763483 140.768111514 132.255973193 130.438735166 127.956083555 127.516644165 126.343133012 131.173923209 128.759923596 115.541004082 116.780148098 114.224081966 109.430378011 99.2020420935 89.7842372155 92.2166377243 114.162998339 140.877924468 169.299685374 185.953851451 198.569546498 213.187589823 228.331893347 244.149651115 256.587182956 271.408655616 269.726946041 293.186260491 334.364455636 391.704092284 453.390946348 545.77703427 631.723895634 692.197182153 753.700116994 899.637941004 967.329156481 1037.3252395 1138.94871636 1212.84704388 1311.41396841 1384.37485301 1439.78172326 1469.21067815 1473.19988943 1458.26627011 1446.98260009 1496.44749615 1504.70532846 1520.11877789 1544.70282928 1538.92432349 1511.81593045 1491.15503556 1432.4281146 1399.64987693 1373.09505523 1305.33463762 1277.1720395 1253.1577466 1207.51306863 1188.65472938 1170.45484799 1190.41214151 1156.59176034 1122.73717011 1124.69752647 1125.91798588 1120.48673813 1107.16080854 989.418000079 961.127130376 969.994296723 949.396825003 900.192062231 819.176776322 754.985869962 696.038714043 659.574378869 651.544436673 664.984724221 649.835511438 618.660204566 592.34993961 554.446302868 538.86057708 547.320655469 542.724617427 519.969091626 511.010335528 489.276514662 474.055232001 456.926631731 433.540648463 420.141577404 416.388213172 425.334289516 439.045415209 463.018763468 462.591706502 434.896228228 440.916138731 429.450526976 411.250476489 383.005298431 350.15038805 332.606552667 340.884236858 362.432159709
37.3481771475 29.1855175349 26.6548783835 32.4226357914 41.2117731741 45.841019677 48.7570787998 50.0734556663 50.6121842597 49.94467791 47.1933646773 41.8141332587 37.1319641215 38.7436594898 44.8405436808 51.0631962124 58.0661440463 56.8249049616 53.0114906039 53.1742276663 62.4395812525 74.175902154 86.7333553962 96.4289547456 102.032709006 115.037663372 117.832268075 144.261618382 155.319426722 170.676766097 208.116260183 236.424834992 236.3171931 224.738349664 211.70687042 208.661393739 223.894446412 264.066311158 314.627274915 375.785915462 387.2185902 377.491918835 364.019296559 347.351378298 331.846340841 392.778890362 432.352194877 437.814411941 499.312325501 511.548040046 539.199526832 546.447946065 553.957074271 584.809156792 623.59440649 668.192775811 689.331148491 694.038603061 738.492551917 779.309205493 812.268718301 835.298683885 875.344193013 901.194376596 945.083210127 1030.93621284 1133.4567998 1255.284096 1408.85340609 1576.86463091 1668.31311817 1691.19105943 1653.0647117 1586.1048955 1524.14337819 1488.13775053 1479.24306125 1489.62560823 1514.53878874 1526.48195041 1536.75752825 1546.55329497 1561.49020855 1590.6816036 1639.94232538 1707.27088621 1790.60743808 1878.16330265 1934.09673427 1951.27963009 1901.85672205 1786.95465241 1590.82383364 1385.16505289 1219.20172284 1074.61497988 958.855610806 845.854322385 754.235990285 684.904089502 576.637166868 515.797771817 463.041557502 422.204755858 386.344571622 331.26131581 303.035836416 275.783206552 246.1106252 162.486960852 135.536975089 135.981860957 131.678145402 129.85808773 117.404990306 118.074384452 119.734168528 119.40440845 123.987403183 120.893985458 118.000799177 106.933425219 116.134753935 107.19880272 99.2923087699 90.9867260982 95.0307680637 115.591290981 141.516889547 167.823568427 180.751571334 189.358211557 200.044707848 217.210152982 244.66054148 259.897053659 264.484404991 256.660927315 271.34660477 322.385697495 392.439829548 479.879499396 579.308068317 640.070789564 696.538670929 753.737700527 843.233611244 948.348955219 1028.28157491 1076.37910564 1153.54348627 1208.78686629 1267.7571333 1321.66532821 1363.50052979 1375.81854287 1393.36170088 1375.63559388 1363.98117106 1364.13243839 1367.71175976 1385.54684617 1430.48391986 1408.86118187 1374.29810004 1363.32765077 1345.51658095 1325.96706917 1262.46841611 1231.69692862 1206.60280126 1162.94756096 1143.43930519 1123.02781948 1102.5882347 1080.0940738 1074.66865645 1071.19624066 1062.41528086 1046.69462412 964.397774625 913.76277308 885.454066331 851.260929833 815.56875944 767.227361213 738.817380443 687.450578477 625.730526364 588.734660224 591.15786583 597.208102456 618.872247453 585.187123506 551.811830881 534.069185625 520.634085007 523.878494953 524.272320308 490.563374311 480.272417739 455.91921481 439.605324224 420.504031421 392.865355575 370.551737874 357.608528723 364.203562121 382.923170678 396.986519115 400.252051629 389.57009158 384.217363387 376.308844997 381.121439542 358.905977536 333.464223283 320.254616889 328.421812418 345.799086966
40.3189274789 31.9956031703 29.4958023895 35.5556307726 44.7035949644 49.6746994276 53.3080530038 54.9940027885 55.1811216941 53.4674875638 49.1175013353 41.9330171396 36.2431442237 38.6736196169 47.5724041482 55.6909542068 61.8521528068 56.4096360865 46.1537383742 43.135188282 52.3866099056 69.4758616074 87.4542635888 101.842531419 124.090278269 131.138741437 164.71516117 173.014643012 183.605672304 195.632105208 230.178607907 250.92994106 240.827968933 218.262073494 195.708502883 186.076151062 208.32456694 252.57794519 347.617215669 388.238092356 384.997316432 362.20192055 337.323045051 291.723868418 299.316111971 346.465905474 408.755638498 469.992296009 511.488700844 536.94955243 584.064049341 597.930093954 616.193836935 625.963078958 669.208662912 704.750144132 716.034513096 755.330809856 794.620513764 807.586085723 841.757012993 874.937268453 884.65009859 898.851513849 932.634393361 994.573529435 1086.36070792 1196.21887045 1332.2955905 1491.25135532 1574.53395243 1603.95743343 1580.29303009 1537.70717166 1508.81972002 1499.29066617 1505.33955296 1535.14297164 1574.45961817 1590.79700836 1600.10384295 1602.70996722 1613.40401889 1644.79208826 1707.42816346 1803.58870434 1931.14888494 2069.53148515 2194.29638404 2255.1031402 2214.43706946 2045.34524232 1819.19994843 1572.86601947 1336.28064735 1153.12183549 1006.12663968 888.695588629 780.869902278 701.568466348 586.541454158 522.475074346 473.981601444 431.130305888 386.795883835 335.371168619 295.190456031 263.452831313 149.476157504 145.875675826 127.830903786 117.227318007 108.008586255 108.63829763 115.519159824 122.35298352 112.220860985 112.692085828 116.174324819 111.082070419 106.785921619 105.481605043 111.230618267 115.30492161 111.845859014 107.481845361 110.626198477 128.366275141 153.809563196 168.938048636 174.882085721 176.474034983 183.988123417 203.889890644 229.930894842 258.31193727 264.261995384 261.640046321 277.871074306 327.562113805 428.207031318 506.914084681 601.736637123 655.354865425 704.096333005 755.824281578 836.183570313 913.231664823 999.919242508 1045.9943688 1083.27325684 1124.69409614 1177.05194572 1231.12756486 1278.00753431 1315.31124522 1324.49664909 1327.51069172 1298.35647498 1294.61192723 1292.5380145 1291.59975804 1292.33896185 1298.97517105 1309.75311425 1317.24568017 1310.22015527 1273.49039127 1232.37833534 1196.02013164 1152.35461116 1134.17163989 1115.14465703 1093.83113759 1051.54236619 1058.90125301 1060.72385347 1036.52801186 994.143349231 940.375577545 900.449300599 837.356588087 820.26220832 789.143893218 752.268513771 718.465454877 676.509099647 631.118214519 585.927564891 559.021556914 563.291283392 583.251351517 577.406912995 549.608062315 534.690506797 527.831837829 522.28544337 509.600070179 489.626481749 464.461371404 442.907511724 425.574223463 411.051253325 392.752483343 363.818629998 336.300530834 318.231415359 324.712108942 345.179041691 341.923086222 343.535481561 353.300336378 349.812612271 345.022875033 339.599851863 333.196436283 327.278363795 324.106918057 326.430767937 330.235630311
48.5613111385 42.4679378993 41.0021135834 45.2789324109 51.5583508783 54.4965605739 57.645841814 59.2765961243 59.4183315955 57.7808852792 57.6116993999 50.6097295522 45.3496174029 46.3129784493 53.6904142115 60.2566111958 65.1320711407 57.2512043911 45.937945382 39.7675426853 50.2552960882 70.9791751222 92.5167053274 121.931823529 136.471246831 146.882451122 182.238968218 198.203731477 208.79029974 218.75089207 271.017810382 285.438588761 265.258617353 230.831132181 195.165539333 183.164620187 208.927359126 285.015368871 360.342683838 401.43812095 403.395417763 365.803868171 324.834330032 254.816415584 257.269446087 317.819781891 399.719803502 476.638855223 530.119347962 603.261210026 627.880730738 646.397834873 664.412239008 730.194304053 700.469136705 728.908925617 732.527522824 768.195366579 806.59897379 844.269314869 864.90110621 883.380946174 889.85567397 893.214002188 909.941415736 956.812832611 1031.99975803 1130.43923584 1230.49475811 1378.64008806 1454.60908073 1486.9420985 1479.93723325 1468.0864303 1467.9518341 1487.89135384 1534.2075041 1585.87043214 1630.56512451 1669.73658599 1671.66582157 1661.04186754 1659.35397465 1686.12314406 1757.48149145 1880.93632566 2047.15467417 2257.74069858 2458.52882048 2573.13144316 2521.16886651 2317.81636741 2030.50919503 1717.07758483 1432.42672046 1212.88989575 1041.79210364 908.756943333 790.077674993 654.125874635 586.785191619 530.677860747 471.857795535 427.847384247 369.367998814 334.427524108 300.244102204 258.405296944 155.257359489 131.582142463 108.634674186 97.5208638458 86.3375182986 90.391904676 106.236882319 125.684910016 122.142027575 123.609534125 116.931557073 105.623747767 102.064298632 96.8295116957 100.244282276 116.780480259 120.042418737 124.041164834 128.422298709 139.924259085 164.698925096 170.281102787 168.525760491 161.96604173 166.446490663 189.855571614 222.132751937 250.126689186 278.870076565 286.34391299 317.3685419 375.208284901 475.733792563 578.027145561 636.621214564 677.070232239 713.56511624 781.212441852 835.88066155 911.558306224 994.754364549 1008.81826649 1027.73407862 1060.40605538 1110.00260447 1163.02062163 1212.94915622 1257.46146996 1270.47325964 1264.83998316 1243.12064198 1236.85479135 1232.36108958 1232.52743556 1242.39914045 1270.45745263 1314.56529574 1348.80507478 1317.24253635 1224.25742338 1169.9631855 1132.96961404 1120.2809071 1101.0207827 1075.30755026 1048.52101372 1040.46392118 1052.64126744 1061.62379468 1022.50440779 956.193377618 883.009896937 805.627607664 772.847527379 750.33133028 728.227683197 705.117612776 680.534393259 650.58155601 604.085903207 579.269164113 568.452333207 561.717259977 563.903556372 545.920035002 533.513821565 528.040037027 513.317079323 488.691915306 473.706424018 459.991033826 431.150759962 409.825597673 391.125728595 387.908735826 373.997435403 349.005417164 325.49587642 310.932369717 315.316533591 316.319642576 316.110049872 312.589984105 299.212701552 294.615989633 291.12944406 292.186165378 296.390173105 303.278736347 308.365877735 310.187308858 310.695954308
68.3064872702 62.9850564114 53.9658925692 55.4912173428 58.0490935912 58.5868979475 61.0973802802 62.6979299454 66.9614503572 66.1662437339 64.2690212039 61.4123505837 59.4606216909 61.3122438096 63.6083271858 72.46086426 72.6795769874 65.7439410136 59.5594392458 55.1877460712 68.1122031917 90.551443099 126.91295698 149.481217191 166.343418217 194.057001204 207.893023016 238.384629011 249.452008107 263.120087226 311.512145889 304.987199793 291.121675551 260.699426411 230.076849365 220.94147657 244.774798995 324.839481581 394.518014476 430.09530921 428.395546759 387.471251244 347.231191573 276.626158073 279.422496644 367.052423121 462.157446025 558.233217281 624.853809426 713.027129939 743.755892198 692.143487398 708.405566911 735.013010281 725.903603538 716.456447295 742.277469857 772.825408508 808.699133652 847.774473822 872.833561549 895.575107371 891.406349743 880.668020714 889.441199033 921.014641842 977.881066062 1054.38147936 1127.5765178 1209.72340366 1276.29507718 1373.03205607 1384.54069625 1404.1676117 1438.08316512 1491.04216745 1570.39351278 1656.98593304 1733.79675849 1765.19044897 1745.82802771 1710.87477808 1684.91582502 1697.12646697 1767.29906416 1908.78491483 2120.11326028 2394.80488162 2672.21576707 2841.85379798 2796.84889735 2538.81828212 2174.35186638 1796.68052318 1472.01596255 1227.1330825 1042.39146879 840.348407031 734.251684154 644.073693881 576.684057387 521.032897752 472.906883011 419.986348551 360.991740595 325.975222484 291.24340217 267.163060119 155.327356793 125.084977221 102.833379865 74.7555800552 57.8981917458 63.8635916667 88.9884624732 115.255850928 132.222792718 133.805898527 119.799865545 98.3505154548 77.5728283809 71.8616623151 87.4003222398 110.018519464 129.00504949 140.859269005 150.008948366 159.625737289 167.247406636 172.303467058 166.761254341 156.813500756 160.266561252 185.345063084 219.534113378 251.172573896 307.082670715 330.701087069 366.624512104 426.172231217 534.116950849 631.045859008 679.902442979 702.657039342 731.721896301 788.539837175 865.869750135 928.722028013 971.428657211 988.405411287 989.951411743 1021.11262251 1068.16214911 1130.8824823 1173.38572987 1197.60059568 1208.07348796 1222.75405474 1199.11962168 1189.7875181 1182.17316407 1180.71500062 1192.86039245 1230.26647974 1291.28839304 1334.78984594 1298.74769482 1195.99261903 1121.20483207 1100.93188126 1127.52052476 1136.50873038 1091.7422262 1038.4407671 1015.80907338 1005.01001872 1004.46233176 943.163633124 877.626966112 780.382527392 732.398025028 708.470852978 695.264969336 681.192778569 664.113769464 645.545149712 607.727330374 593.628209756 581.235950491 552.517643385 561.392992076 544.226471418 533.331027344 520.39730816 507.997350681 457.608397268 455.648058294 437.04107548 410.203466138 396.006436643 378.293677725 368.761832806 364.735005785 343.850553878 325.348560285 315.989648629 310.491315369 307.268694507 286.414930328 272.501193947 262.376566112 256.12027443 243.946214716 240.468002943 240.099793453 261.309833468 271.471268306 281.590305835 288.281237243 292.11446717
84.6291407627 74.6531172178 70.7143064964 60.41414771 61.7454109133 63.773963505 67.4674549336 69.6756307174 68.0751280896 67.2666028876 67.6647266193 69.2773483571 71.3410536266 74.3795846568 78.407052599 83.5477103406 97.5919294163 92.6103772558 85.4653612958 86.6626519714 98.9885829121 127.477849433 149.623805247 168.609850356 183.922941769 212.155100341 244.341147669 259.874428155 271.825110115 304.385936975 338.497927978 335.396983233 328.689815431 309.853054302 291.753294074 288.47384768 313.700504589 388.566206487 446.683068276 474.60294626 473.4023527 480.440823192 444.745226079 387.189438517 393.533237035 467.547695529 569.039903042 674.63136821 721.066872516 765.809828056 794.440930212 812.750197817 836.626594538 810.23267898 816.24005614 758.205746446 780.623301725 798.303732978 799.495953369 832.645015237 866.172165026 879.153405801 879.398865588 865.735210914 863.117805089 882.317358856 925.116423808 975.240609381 1033.8696615 1102.82121728 1157.10383397 1261.33847066 1299.56123923 1345.70084797 1403.4245368 1494.4807458 1608.98212628 1732.24582147 1837.68221876 1871.51938054 1835.67954369 1770.03114109 1708.53862023 1694.89306046 1752.87997026 1896.10431346 2122.12333218 2427.97102754 2749.38961578 2953.71098841 2907.82552739 2607.83473034 2193.23761889 1778.30906273 1442.17184117 1187.68356764 942.924414154 808.036271776 706.639750319 614.55451856 556.589185854 503.813831866 458.027515866 418.1160675 350.571001366 317.139459764 283.879512515 182.455985013 156.364965733 124.361710179 97.8112034291 63.3315168999 42.1589455004 51.2145918103 82.0746959487 115.766024174 135.09195818 136.511287982 118.760388915 89.4099724785 59.0203884213 49.4455872316 73.7087203101 105.688996683 133.371922207 150.58209768 161.465554791 178.798014939 176.536866504 182.959308567 175.71286243 169.674585109 175.38600762 197.808362316 230.743538027 272.039693321 325.592197758 361.639272739 408.287111591 474.692000417 579.846376319 679.099431281 722.780377985 728.78754418 744.463967206 779.953128171 858.378497601 917.97882769 967.11169089 979.418006845 976.253476598 1009.34950045 1063.56264384 1121.81130652 1169.18044963 1176.1043007 1183.00675181 1193.01158304 1183.30797534 1152.71794434 1139.6281807 1131.01264633 1133.78173962 1158.9128153 1185.46501194 1222.01865678 1197.93635373 1123.50744864 1077.63940132 1084.46521064 1141.25770117 1155.98721637 1090.97983756 996.707878022 951.850015798 930.006787463 905.23573047 841.194293876 753.235681582 689.501040535 654.537075093 647.210919735 647.240997108 641.116533742 627.994584482 609.905231653 583.81157186 577.552290266 543.530072842 539.722306077 534.158499386 504.705070893 492.468849404 462.936315418 451.824598952 430.380021764 417.372787876 405.926900013 383.490147863 365.196795226 356.809746055 355.136642897 344.141774797 317.81599799 299.607339276 291.710712214 285.792586817 273.864128002 256.694482433 240.294626687 231.405195043 221.429064392 217.651186068 211.02725126 205.731936103 208.413712191 232.923243338 248.692417379 261.27478155 269.778820916
106.564286845 96.5350363321 84.5439691269 65.2805998889 58.3225226187 58.6181188292 66.4350583592 70.0891278613 66.1548490941 62.3764627548 64.1410232038 71.3787875451 79.0363725631 85.24562228 100.22478551 111.738954181 115.530533657 115.713334076 115.421864508 122.481556747 145.190281824 160.211452529 175.725818644 189.792480826 202.375410467 229.758847455 262.967860334 296.752569785 317.159061523 327.596671605 365.445227771 367.700906333 364.539220305 363.505601949 371.46796031 373.327460195 388.653149677 469.726537327 509.278136484 532.193568956 597.189656974 616.076820657 576.145364814 546.36910653 557.716289818 610.223044926 680.824398121 760.878000875 813.277769004 822.339917717 844.441454414 901.623079131 873.663422488 839.256587279 838.11163759 791.509777217 778.253503887 786.815557265 774.891667151 798.363712989 826.880209874 822.95044237 819.004044074 819.810550843 824.136783609 837.271320035 868.014473349 904.396540554 947.01830691 1006.88412384 1056.6150365 1103.29661137 1222.59296827 1288.11883997 1367.73454678 1478.318263 1621.80934386 1784.18028116 1920.82168706 1968.41657689 1915.1065058 1809.11597133 1711.30473768 1670.30153987 1707.21332108 1832.87276699 2035.93982978 2316.51214359 2603.88491472 2797.53402643 2746.02716806 2451.06790155 2041.69845645 1641.23777972 1324.23159361 1098.23760112 869.936975108 751.529618366 662.435390821 579.069233394 521.48248281 480.000358724 438.216690116 401.727191871 338.48133515 307.974519034 277.874003432 186.871450362 163.759962902 138.353952053 110.327167698 77.6906564938 57.0991416886 65.9399771037 97.5213347766 127.570740704 145.94788825 146.817125401 133.833053833 101.493782834 67.8294715926 57.3961145952 82.4341054908 121.5694162 142.616534679 160.265035284 181.882946408 187.697881239 189.043013008 192.316498144 190.113968029 190.410278871 198.821525348 218.131659159 241.991327599 294.883223931 341.276075169 382.893814648 433.869605616 509.210605742 605.794548332 695.28339578 739.999533122 739.800176817 743.117007569 774.462372619 850.826458044 910.42273916 963.123881048 978.494919106 982.842231177 1012.37117966 1075.12281262 1128.66643903 1170.59212716 1171.67231177 1172.35987582 1153.10186388 1160.72345173 1126.53316778 1106.42633455 1086.90651698 1073.64007454 1058.05316052 1077.47991202 1092.97760612 1080.42916137 1027.37766689 1011.94215101 1023.87615543 1070.829438 1067.75117886 999.682950942 932.754478477 854.026647013 851.874993929 796.316934964 747.573363716 657.236543082 603.791721221 590.587743964 599.577994438 610.568603569 609.796905315 563.360522357 556.808792571 544.900778923 540.365561058 533.662898836 493.306170902 459.59219648 444.552902663 429.434583662 413.274781048 399.117836074 375.458002252 363.603265382 352.327232475 351.536014613 349.869303725 354.317752306 350.046499183 328.904246695 305.397947523 286.274990871 273.693135517 261.659933975 243.205208751 221.443549999 203.73960461 195.086741488 198.229325661 196.799353047 186.441126873 175.206303748 176.192202082 189.766430514 205.955561228 236.184543559 243.313555013
113.888842108 102.221829736 86.2817124515 60.7175560162 47.8186254599 55.7746536027 73.7241300992 76.1275941225 66.9009013564 52.5751716462 55.4610715301 70.6003531682 85.2497827406 95.4310446637 119.70765183 129.204296124 134.414730053 138.796924888 143.727063259 170.642689109 180.47385272 190.072706423 200.036914743 209.6330941 219.722708431 257.203046222 287.233569438 326.912729035 341.67014513 348.856125746 389.527506435 396.618420114 400.53174714 423.559512976 426.953140303 435.727529847 511.864994181 541.121067626 580.458925075 666.646563624 677.208482546 722.759649549 709.904342331 704.187192951 715.799192832 749.551389727 791.819157282 845.826527142 879.344795831 906.277962834 934.185686509 941.169512142 868.266217368 864.347785726 856.364741404 810.60762935 798.402958059 769.97100988 741.049633604 751.789147972 763.60263226 737.898597821 737.398572789 754.480803492 766.617434835 779.858899952 805.379022357 823.454171347 865.544373835 913.064834114 960.837476524 1006.17647108 1139.05006642 1210.16948262 1313.34378292 1434.66137603 1593.48563924 1776.95313827 1933.99480116 1993.42925225 1926.69316084 1795.82303953 1677.50450274 1618.33806671 1632.03355212 1723.30946318 1843.31164325 2058.6757371 2278.21810472 2405.9158545 2341.9603866 2092.93635277 1743.81430292 1401.29911973 1144.3034665 953.952406379 768.356931931 676.740631651 606.075230756 535.094882626 485.922762016 450.85524376 414.352548951 382.43982823 333.709494184 298.20042106 284.8356431 194.057895029 175.724455816 156.718252174 141.870691558 115.689965706 100.617484311 107.036546437 130.394660279 156.060490014 165.396668474 171.69600959 157.272480841 132.039173774 107.560164378 101.177324411 121.981325937 150.336940663 172.262109478 176.400982966 185.870458724 198.211862377 197.550310007 192.286504694 187.513430822 190.064995327 204.434103271 227.75374966 255.983914835 311.04574835 360.327608291 401.812419305 461.876091832 535.97691317 601.863210113 679.731326488 722.61518774 726.182624904 740.502779969 771.19705787 845.098935264 908.01086708 958.239673015 985.298131915 1001.25559694 1032.61349678 1089.74227481 1123.89447518 1155.01625773 1184.2199086 1165.01301428 1147.15660073 1128.6525063 1113.78749561 1056.93118036 1035.56955842 1018.9718395 1008.90690363 1004.20729959 1006.04283411 962.729034054 935.253854068 883.125529225 893.069433926 904.43646787 905.140398067 856.785714704 811.541528981 778.575993217 735.820834059 697.96291918 638.679633425 587.41666636 574.292552363 564.956893737 569.65946243 566.955411693 534.931236178 531.210021778 548.460278418 548.094308237 543.998066847 510.669438354 484.790097266 442.203511041 423.128437309 407.521213302 392.678727014 376.672083844 351.56696505 340.258318339 331.419473302 327.758410869 336.229822987 339.332645513 330.084742454 309.115074262 285.776749149 262.643031438 245.307238274 230.455498737 211.967035688 193.319312622 172.455606217 172.558930676 182.183441905 183.812085688 171.936150857 157.868301456 158.782523253 173.131584088 189.004450382 201.029132864 224.148992415
118.912567279 107.866341784 94.6035651356 75.3215730173 57.9156596825 65.4776586123 82.2537525419 87.3023011521 70.8050310837 53.7555406113 56.6833717534 76.9578311742 95.6192912572 140.836947111 153.097779566 168.373530826 187.54923394 192.52460259 179.332040489 196.774154093 209.990032117 217.080322053 218.456156589 225.133264527 244.635553883 283.245672213 317.957346496 340.501031121 356.765934096 371.982961633 408.256559765 417.71602454 424.447203308 447.897182376 459.815455388 478.13261305 565.898546991 631.601610985 674.85937641 777.149156674 797.689850737 822.766265372 825.800503313 830.497849996 839.004416304 856.714573774 877.13610999 925.298191216 934.406310228 961.602903233 971.693672501 974.488309067 895.435709559 885.953376238 871.543903557 818.23779598 796.301652224 708.984766882 702.605433016 692.873225234 687.524245931 643.211572862 644.586448749 646.260077797 697.195138451 716.181427878 742.108857415 755.349759727 792.057278673 834.702659522 875.779649865 924.197104266 970.820451017 1041.0001822 1223.25461914 1352.66305035 1502.25150576 1672.12462158 1821.67485947 1881.05975331 1822.37982463 1703.52592869 1591.65217506 1535.1095758 1529.4556794 1586.40287781 1642.9006335 1771.98852231 1895.15602244 1942.32622578 1866.15813263 1659.30845235 1376.88648445 1110.36079957 914.592512336 786.637375157 658.081496875 592.32829379 543.676580308 486.618157038 446.125364028 417.13504224 387.414010888 362.468410033 337.278930211 287.153301812 208.718317547 200.7529453 200.650924842 189.966801368 174.259092875 162.717572479 152.711121329 157.17314586 172.020031939 185.625276705 196.20365932 199.845094846 190.218842316 174.04694788 159.442609923 155.273693528 166.103187074 176.552181909 183.872129594 190.64665136 203.096615791 215.247247058 200.000430646 185.698070281 167.702066139 166.184382052 192.541618275 229.721351866 286.311350225 326.044354339 360.737803525 420.171548484 460.188692683 522.705657686 570.498285241 634.553998663 671.823522796 697.914614458 712.022982645 776.434472275 849.5383954 901.048336033 946.571026085 995.055347532 1030.81633429 1068.87640405 1118.13292235 1174.94440383 1199.11534578 1178.22748611 1147.89331368 1117.87266983 1101.75703397 1070.98867481 1064.80713809 1030.22783833 1005.364567 1006.8351363 983.278679826 922.081865475 851.681033878 814.652526333 790.172644063 767.259721761 750.228902614 727.939329136 726.261901281 713.86135794 689.928605745 649.763502541 621.912937345 589.245557145 559.445472404 558.116500185 558.097419401 547.262204562 528.709284705 516.071528699 518.300241747 535.806671258 552.163031437 542.376082239 507.538283526 454.595125883 423.571338867 401.50457532 384.572607374 370.674792735 354.782673729 329.140696887 317.788164841 308.600345956 302.960368492 301.273232357 303.956590574 289.756123528 268.702921852 252.640312025 237.646570235 222.237422496 212.106850909 196.949423871 175.724035399 165.467721839 166.277409111 175.498424057 177.91389153 169.366391219 159.06411396 159.533169981 169.277244043 176.830474443 184.235810341 189.783167881
119.304792447 108.03179483 102.366639698 97.6613641214 85.2583058027 90.2607026158 100.288008177 103.545130396 95.245503581 83.950029028 90.3580716867 121.033492396 143.3369352 158.698266191 186.556846124 198.136416719 205.142508658 210.514915586 221.763591647 221.548404371 224.346400508 227.755327084 231.60805138 242.176863649 254.706449061 309.578877783 327.446087265 350.083146755 367.318246068 384.571040338 424.714207186 428.683801188 431.730770661 447.490947908 468.188044753 554.937127891 631.169133358 682.008546704 760.506070748 847.497987285 901.633871295 950.396187371 958.678392259 960.891003711 948.321089129 919.828982969 947.485299923 991.698754612 975.231700145 989.363285014 1000.16187717 1001.01581545 918.515797622 904.096812392 883.786484242 824.390797936 749.986202058 722.961621033 658.405482659 617.415113148 605.487990395 586.51844117 579.286643747 600.517521321 624.872265716 651.257617795 661.069498355 690.43325719 723.559413181 762.360829053 799.876167176 836.291405474 889.502910868 955.001798339 1035.56970716 1225.83077002 1338.08490507 1470.88772772 1599.41730359 1651.52404064 1624.14777328 1542.03941156 1461.81308295 1418.52657386 1365.06745187 1399.16440752 1455.05745003 1507.58730758 1557.14610763 1546.9318552 1457.32989181 1278.74843084 1044.07207652 830.669804489 646.736360755 575.051858572 540.028984421 522.296563686 481.586363262 448.738420463 408.918493793 382.186713712 359.432633778 339.132093835 319.452090004 293.017636194 210.678725389 203.624064808 205.185732258 202.080736288 198.094875783 199.548623082 200.244870569 237.975905326 252.568956355 267.634380647 274.935830813 298.352235731 257.317365322 217.971274574 207.785388429 200.57595021 198.199000795 199.916341881 177.804702378 194.397175275 218.450942651 219.153626742 204.792499963 183.111942588 150.785254218 144.42790771 184.190232575 245.598857727 310.57497737 346.885149604 380.877064704 411.226036188 463.214110608 501.749293376 530.864539303 564.56366203 617.628028033 664.32269051 695.995155658 732.674069954 811.051821761 897.513597755 946.020839035 1011.98964763 1052.71086686 1104.64850039 1170.54355658 1236.27391075 1274.80628104 1230.46884903 1167.72297559 1134.94612781 1101.33948502 1110.4604051 1096.78622836 1027.80552053 986.329299509 979.021395028 929.052564504 849.97538422 776.497879834 739.003868882 709.200706112 662.522783493 612.621010352 611.183718024 629.208743995 632.29478942 617.145041886 583.037639058 560.925908425 515.711051552 512.695902347 518.214826983 522.40973214 514.740215161 500.68247177 492.353375459 497.005071289 506.094288421 525.707594276 516.498550555 468.016605438 427.753494461 397.920061527 376.918683905 361.093852437 342.152803942 333.260507871 307.607912874 295.44546176 283.795380072 272.772331642 262.204841377 243.167573999 233.994843167 227.154594755 221.784085448 213.976941791 205.481700671 193.09827781 176.715003548 173.071204131 168.671135766 168.446019053 170.494859928 175.279357679 171.108066801 166.150417808 163.435179789 166.073386971 170.277185952 173.639058523 176.016417742
136.171835803 100.809425755 98.2043004466 117.196696366 122.555672422 132.240787438 141.362941759 139.114565657 137.772291181 137.295069816 143.507178697 157.254594884 168.099769531 192.246865011 202.57871588 213.1630121 219.430375777 234.377978455 233.29466859 234.694670548 231.995990517 229.100597991 234.007534244 249.621269649 271.677682263 316.909507678 333.915542317 354.385376603 371.9273089 391.708105 430.781779501 433.829197371 429.279067096 430.837607059 469.882114991 578.852383813 662.85546823 730.481041994 819.30968905 867.155474096 971.914033309 1024.58131449 1032.29405252 1024.88897924 997.223231225 958.445585164 964.643151387 958.888641585 1006.37158274 1033.82501243 1020.64013219 1020.52759673 937.09879185 918.343442646 893.00710566 863.840168009 750.392485334 701.549898878 647.446200219 586.676455151 508.363757395 497.251715577 504.217124537 491.502513274 516.087577786 591.159861476 602.262934916 629.775286624 659.480341364 682.856310087 728.080347159 760.462869288 809.303419691 867.442848446 932.782695167 1001.50977094 1165.78459241 1251.32801234 1328.02589988 1387.2252507 1387.09823133 1353.7415284 1271.88348647 1240.13702794 1238.17207706 1247.79415746 1270.97686056 1295.01373911 1287.37062527 1246.36384257 1150.88321534 980.284267665 775.64395373 588.437837458 443.787763087 415.161953074 426.082616858 444.724611212 434.155041806 400.299423035 366.466680435 341.629906788 326.080844926 315.658567107 303.098211844 223.267808493 210.126653934 200.777245295 211.136868231 213.62496561 210.50812683 221.908871385 232.997979645 288.317000072 298.755800279 312.340072489 351.305673654 346.281174714 301.941614656 293.754262824 281.724665683 264.045340519 236.975147509 194.394498789 156.471381507 155.456517504 202.473463245 241.941841169 234.35405265 211.644888066 171.310911005 167.163509292 215.228279676 286.838887066 330.500182801 361.250372451 386.72829651 412.911560203 454.61536618 478.226447291 488.508576169 510.49122585 587.423425816 639.475524099 688.316182967 742.757366181 809.540684426 857.885211578 915.433718319 978.632927954 1028.69185658 1094.94480602 1185.98702898 1291.16802617 1352.6284879 1312.13589753 1205.43518535 1132.81190875 1130.84884655 1183.22659502 1175.40701741 1064.08656206 965.109654141 909.93500566 846.626565338 767.802633308 693.432278496 668.992820679 646.898540175 599.705111935 553.999795871 557.463750573 574.46430053 570.211747472 530.972394666 490.920670312 472.985649276 453.879523185 448.722682553 456.073817186 464.471465732 467.235574101 462.529868346 458.799019601 443.896090329 451.460166954 464.178402775 453.796192373 412.62695983 385.220055568 364.22838362 348.764481858 334.457340038 323.235246547 298.949452832 288.781255903 275.97114582 259.68329011 242.610693852 215.002293948 195.305756708 180.303253311 181.755875456 186.298573344 185.857929277 176.863046307 161.234679129 157.82826642 157.762620371 160.758694937 161.370444673 167.380276414 166.453159079 164.042949343 157.468072956 154.832032456 160.062890434 158.942501434 159.54288195 161.124921648
133.068710816 87.7297247086 82.5496548109 128.705895919 156.259299882 159.71092783 169.742280662 174.538846025 169.438881605 183.342622808 185.057574713 188.410068541 194.422292023 204.612831761 215.522107092 225.002249136 239.440719385 242.543036609 241.333082608 244.807894543 234.672997343 229.097919931 235.752618263 264.129708083 293.744164381 332.212472059 349.994608992 357.170761247 368.443586298 415.995149261 438.059044143 449.782138648 422.101763906 415.157937238 469.296046738 602.534829876 707.824463163 820.55339403 879.146606888 1017.06648518 1034.81618795 1089.00718725 1095.3051764 1077.53523118 1062.91076528 958.630756003 879.595207647 902.48141935 1003.76251796 1045.44983658 1068.07833997 1064.8543981 1015.32641879 950.655881921 986.786236254 856.702563457 809.745384506 690.531356677 621.565274633 535.006681087 443.441699595 403.836443432 406.357273158 443.234395534 469.721033284 475.15033977 549.949718033 573.736887385 588.818166881 618.113801795 641.995809454 680.530764664 732.438526987 783.659070649 837.630260243 886.428604664 1010.46474378 1058.53995227 1103.75919193 1156.75827999 1148.53071273 1140.52622619 1123.57900106 1109.35584954 1113.50021494 1112.20833106 1118.28986926 1120.46127497 1095.1809604 1044.42812302 953.49172619 796.598567962 575.472588262 398.948701829 285.100031762 283.451834774 344.673524121 389.432299946 396.434965265 357.212485109 322.049524884 297.645511654 289.650523474 236.818519728 235.014706428 224.631519949 229.904817064 206.522307735 189.113194755 194.110149835 221.105639066 234.857612783 257.677429787 325.461134126 379.94230282 390.326118187 398.718381782 402.989888751 408.230552097 340.563774376 327.312817142 303.992764555 264.483228388 213.066356164 137.362574821 135.409530059 204.303513407 261.001369236 279.250645735 253.39670364 245.629079921 241.644961659 285.888224506 325.689972796 351.621105366 368.515385079 388.810903368 414.050699129 449.388093413 455.012704908 443.644906628 458.690715938 525.226921878 624.897069423 690.549124095 743.842157445 811.154537711 867.863269556 913.84357897 964.463515329 1013.84913268 1097.43991838 1191.66778064 1306.80866398 1380.31319272 1330.74841961 1204.56970457 1121.71537015 1121.73056785 1199.44148669 1193.79992747 1050.36705436 922.397833986 836.995486098 767.967593856 684.78442119 648.246629039 642.844804741 627.110708087 587.639043348 555.272370838 551.501489793 539.77316562 487.428218225 445.351795081 428.33943496 414.174749488 388.198954998 374.9079855 378.786230677 397.744994074 407.778558757 396.438407153 397.176584793 389.736935708 389.470106944 383.638404168 359.908115288 346.883138534 330.916358815 326.144334723 316.813692401 309.236910505 301.130542188 276.94358993 276.851688252 257.240981603 241.082969752 208.946395806 176.887080267 154.263285068 142.708724269 151.619884077 165.834796914 170.259878101 153.882114698 146.242871107 142.210718492 144.493444329 148.974086433 153.801451451 154.554784276 152.436473161 150.012272769 146.388914101 144.289951628 132.240245534 134.755051071 134.361216505 137.697448218
160.951851092 121.617387855 119.871746003 163.095918641 203.894252882 210.003398887 236.018996102 240.701696583 218.289906035 222.800555155 200.951583599 185.70740355 193.605826028 212.349645872 226.187745398 240.607210486 239.949879385 243.221627335 255.290128757 258.689473478 255.560781698 250.299960699 266.204563468 284.041869888 323.470789289 345.788470967 341.604574754 338.448487094 357.396519624 411.827594481 461.743942084 468.64241404 454.076288431 460.193957616 551.072221945 670.082232931 778.501571453 887.635625931 940.217564551 1068.45693728 1105.79287143 1182.44391089 1185.93288829 1161.92952274 1107.57488594 986.260521011 864.617839882 896.07769878 1023.11500203 1119.67592672 1068.34748446 1074.55400423 1059.92671292 1006.97420934 932.126548259 845.218496123 800.284285738 690.223047871 614.276435741 507.883446338 393.576957081 344.815899291 369.121172842 412.599048395 439.615980461 441.86663576 449.669934337 521.25567461 531.580730137 556.748863749 564.535249443 610.909644061 653.962566429 684.820962079 739.016673265 801.014903285 843.10588126 869.57779179 918.994006124 960.16847607 991.914903086 1002.311391 998.457010049 994.080720322 1000.08285516 997.226303731 996.949651865 991.685985847 970.187281409 917.603445189 822.606621271 657.681280898 509.082572517 336.591579278 218.416257548 229.21321249 309.584837254 363.18389351 368.811194595 335.511400251 283.128401974 225.454966108 225.594703811 231.649226778 234.861665412 227.438203795 232.236571565 203.166921223 178.413464371 185.027568236 240.534175234 303.838057551 326.829929192 360.614551339 422.084093154 472.523385856 491.713061667 465.944343655 465.673189432 448.0430414 428.127699747 420.010528336 336.051632616 286.24055748 217.540312737 213.362788484 268.116419761 303.509057322 322.996432714 334.064767358 310.820158959 337.212040241 333.661875195 363.380478283 361.002213645 365.141410064 387.194537126 431.617980484 449.879223556 438.338396324 411.685214901 428.115057885 506.314841227 624.283058716 699.435336825 754.906288191 800.137673747 868.941352469 912.198125087 958.457773647 1001.26456078 1059.2408088 1147.534971 1232.70843612 1280.98997609 1230.72850689 1126.93483835 1053.17623141 1054.32829371 1077.68267439 1057.23972099 944.795139553 818.550304866 756.517833104 703.865310552 646.44969299 638.290076893 635.703732528 611.308601145 578.199580675 551.571622371 518.466221576 467.065501436 405.197560666 384.344270208 380.62987081 362.741711676 332.60006211 307.647352774 323.751035462 350.926696139 344.825768789 348.085484771 347.974807793 342.606430215 312.76944667 297.281083751 281.087801705 276.354324959 277.308417298 280.396125128 288.011022316 285.500526373 279.854024376 272.407422245 262.158167288 249.405216506 232.580500258 196.418191031 164.222269699 138.846694573 125.600741008 139.962371738 155.573785507 153.640766814 146.487499573 132.916209299 126.882062969 131.664980409 139.524680137 143.963471337 148.319929141 145.309597603 139.495119558 134.619005653 126.29307826 117.6750494 111.89268415 112.410112658 117.681630458
214.770954075 194.719517516 197.683335477 219.655586206 249.957827277 268.077702184 269.477224266 265.364454214 254.599359561 244.077192649 218.547645074 196.08182323 211.017406924 241.55470272 245.184848913 237.136333728 225.757379129 235.785022587 254.177249484 270.230573784 275.177744529 280.707252002 300.667527548 307.482407349 322.397385948 346.933494557 326.273145195 318.320060186 347.363414201 391.486376319 472.701856542 500.279714111 514.262527968 540.328350227 669.230304693 792.407520797 892.713404363 983.859040068 1021.68271884 1118.34224146 1166.02248938 1192.7627322 1229.20639774 1222.24180911 1238.47551798 1122.707486 1024.38970066 1040.13754591 1131.14140339 1166.31134211 1085.51894886 1014.34067772 1019.01543247 1030.11426164 909.411317009 851.554464205 782.337293389 698.929483551 630.704729737 525.828467682 409.733916742 359.227396071 366.940901582 392.980841331 385.107848311 379.713164176 373.822542034 371.367501737 426.117660609 482.001565542 502.632951226 521.223401504 513.376437259 567.199430028 632.764574563 743.704214146 771.231123156 803.850175123 812.670889668 823.937201853 815.255928885 906.155932436 909.280125921 907.851243306 904.757523195 914.522058752 903.189022395 894.773048231 882.060574128 843.828598116 735.635842812 640.637763057 524.75837868 383.833405469 282.173846136 280.806577299 332.898339662 363.970350835 356.580155042 307.591947365 251.012751693 213.297010365 216.293253532 227.577530716 225.218437545 224.670904519 246.13151453 223.20974888 203.303793451 225.823183649 276.647828691 340.452163449 401.352715397 434.862811393 507.290574101 527.751250007 536.188321459 550.813523799 514.022862971 546.312740165 509.547993957 518.405776373 470.477802536 403.705301135 371.136678532 342.778278639 356.428093474 376.782990937 386.346010503 389.146236776 394.862947463 390.979252459 381.932561216 375.458280254 360.549872511 364.082424973 393.510191099 429.450841979 463.662653292 455.754312421 431.3429911 457.363703124 546.513492313 656.905738554 725.093845818 766.090247593 803.647382262 845.665758865 908.88235174 949.020634503 984.521027827 1023.9764868 1068.91693056 1113.09328998 1132.22397369 1097.26337108 1032.31633968 974.164604493 925.546466474 909.140205336 841.92138053 761.285373862 678.635523597 650.694257331 567.433809668 573.213886343 575.828691418 576.775842727 572.031707058 523.953788888 475.395270078 440.377426824 388.613427212 330.721736612 321.635032506 334.23664993 325.093085695 303.693898134 285.78077036 296.399200124 310.514314818 293.846780668 291.54838909 282.408548796 276.793474714 270.190516965 243.540899822 223.942423144 226.42502216 240.534241473 251.429615844 263.159660296 264.114629684 263.678929926 261.898670762 238.715514468 239.655710863 213.236594882 188.351546289 163.897644706 147.130060639 136.420253948 145.19633906 158.30157983 160.781898726 142.181929637 127.692991559 121.273601703 126.585078202 134.269596053 135.245457541 134.674122584 133.237800866 132.613788395 126.477650167 115.806160722 103.925624537 96.105343719 98.2490451018 106.290056987
298.478971827 279.820985045 268.44765654 259.795149489 259.374259204 280.675225219 298.233155716 281.618705551 280.314778081 270.215999283 259.394529798 258.671036692 272.169834212 300.471861373 296.173503682 251.7073845 205.890239873 219.809907392 265.81376387 299.12273088 313.481800122 323.631384832 332.402242628 330.256428097 350.757981848 360.695344303 335.840324997 326.259569581 358.12129227 419.132957116 492.072286831 533.729678252 570.468872165 641.793057423 768.114632778 901.760902161 997.137072643 1038.37924494 1084.95425644 1163.88903686 1225.54380399 1251.42766081 1254.22165095 1315.04949962 1368.73671123 1353.1813227 1284.60873348 1296.78009741 1290.4886211 1200.55016211 1000.69117777 912.411996274 976.218428495 1011.6160245 896.989826605 798.129417499 738.013601953 707.791258417 660.072877964 569.321569833 484.650267056 398.57519601 396.404400288 400.721911835 374.436150774 359.922158699 349.645182811 346.919552015 341.076354201 371.615486922 386.72530077 420.230636177 458.779217801 512.468158166 587.268809442 686.522242634 770.313159801 823.537625802 825.392353339 794.576697593 771.049303593 751.952850863 828.240631734 827.669143846 826.670993384 838.849519324 831.757315377 828.677422496 772.357267919 763.610330614 722.637291182 668.261777011 588.040454873 487.689377424 403.962789293 381.664623127 390.374217267 379.0073722 357.064175126 259.454646906 229.689176323 214.311718025 217.520744813 225.296650501 229.897270344 258.837751453 268.440547971 260.172566658 274.955316568 300.155403165 371.234746835 429.845030066 479.467677128 477.199475229 541.296544634 564.505693394 576.607037362 595.692706905 642.704349659 652.013395895 652.740866911 571.928530128 525.047639907 463.968056676 446.031881759 444.962345221 453.758001004 446.81913012 454.579770561 455.595837459 450.296416307 432.95503376 410.111343888 403.787497406 391.957408558 400.36724081 429.926804305 466.977879745 491.157962022 499.386884114 502.23150078 547.800740209 627.168274159 694.690232645 773.504534148 794.308362702 818.987600784 851.399873952 881.415770518 941.614315217 974.1651024 987.007243925 1006.75132342 1028.56612113 1024.28387466 974.641675051 916.729486477 864.762231257 797.904533136 742.829694608 671.219344669 605.463317366 576.006858802 564.117676277 507.744334137 480.335145364 479.998954369 489.382260624 502.132054419 455.259770972 429.803829124 396.882575831 338.130592548 308.7216976 305.02868135 309.075765284 318.126210882 293.220526412 288.150407918 286.043299697 278.79089076 259.997046597 253.891648929 254.989882797 252.419861165 238.84008153 215.630443647 193.25025611 198.194115053 215.777356522 224.862256568 234.936314472 240.095560756 241.481215268 240.060448594 232.783605834 227.452293829 216.00594597 194.717475302 183.465940237 170.741176239 163.196402691 162.312995025 167.800948524 163.012841218 152.734083125 130.958367564 126.544859548 128.177963603 130.142552445 127.203316714 130.052785526 125.270797374 121.505770316 116.103173695 107.335258512 97.1980120124 89.4962279965 92.7052473951 102.115925885
347.238683702 324.042260017 290.166467773 244.665416097 238.423842813 283.659241192 309.736423217 295.796723398 272.200488848 283.007878423 300.424315787 347.858925928 359.972380398 349.576455447 331.688913513 280.903335693 230.449288066 246.540717352 306.368106734 335.624209077 352.895875272 359.886433553 363.304057429 369.127377415 361.335584122 372.462387048 364.072060008 373.411313289 397.903359215 448.74444078 490.49221829 561.407286742 612.996365907 693.158993104 769.62396618 920.042485507 1029.1594549 1060.87968888 1078.47423157 1166.18445716 1235.77770574 1256.3447159 1217.36774763 1289.60097965 1437.73565507 1504.49458021 1518.84079587 1490.03765132 1431.48896365 1279.51964598 1001.82407736 872.595505595 982.484954129 1029.46130791 876.118329041 726.104016007 703.46035127 731.816784891 676.108695876 616.35298728 553.93901757 439.937114408 420.71539542 404.018342725 348.231515533 327.780284723 310.47909468 309.483563018 305.265717984 303.00724759 350.54819702 369.19748692 396.466677943 448.6685068 530.961650706 638.333279211 758.518028704 835.499022325 835.424389015 778.697796982 724.460150656 707.16661586 689.038932533 695.048262865 685.511160935 684.947647247 722.054645277 737.701976609 750.245974517 749.389056212 751.299324448 732.294194696 666.703122122 581.578599081 509.921369025 396.274489503 368.3784212 331.773648299 299.447049254 271.973735029 243.729583436 231.971164066 225.76063226 233.797509187 242.762889311 280.652420281 280.28292536 300.25126068 307.821518006 392.446757094 440.456858492 478.845116552 508.441161782 538.730856652 566.481350147 592.110454781 612.395381949 688.171865377 695.037469013 718.500955188 695.409600742 657.986886431 593.961748361 486.74436096 438.732683361 466.035456738 506.168371627 529.499069526 534.456776979 509.033423849 501.182413699 477.278595748 452.468684689 442.853694832 449.64101795 454.666956937 465.433824353 491.98445527 518.778572185 545.702169064 579.207204644 662.409968257 746.526740737 802.302732715 823.579149899 817.894493718 841.931498513 860.261406181 885.237035025 912.477188501 955.466716574 993.008764449 1003.29511156 986.251082862 946.199968769 898.12282956 836.160026133 782.632546104 708.440662555 647.686266761 575.93550241 515.700439716 514.792409249 504.563578607 470.181129707 440.278477806 440.458418929 442.981776789 407.466895917 383.08430234 385.618094981 346.30796121 303.95710448 301.972311785 304.511590704 304.064161761 300.691627118 281.892673145 282.591277615 272.430140863 253.235839581 226.499875923 221.629921277 229.742419821 235.882304615 228.230746656 210.628733145 195.696935187 198.985105694 206.698815372 214.702546288 217.910825156 224.825629173 226.862164492 235.927391585 250.379691029 236.397377044 239.811847869 197.770835688 201.427849741 197.896326449 183.509300699 190.854665444 190.887728384 168.580068629 159.768755707 146.74822252 136.621513704 126.816961751 123.767872578 123.060347134 123.484607171 122.18811124 121.437908532 114.70442829 107.938190278 99.3140665606 93.651542233 95.6807563435 103.883040892
412.922528312 384.924634368 341.19340684 271.009208546 261.885482641 311.324922628 328.856573725 287.555945352 237.512770347 292.89842663 396.545701377 435.501520381 433.969338604 408.596142042 413.663975695 376.691086026 329.542681101 340.851875154 356.236226419 398.423715256 384.211161189 386.796850546 390.486569441 400.5475084 382.751047473 387.968334563 408.816700783 427.537990597 442.886970045 480.737900699 512.779337471 555.526846651 631.460326032 712.025187094 780.218705648 918.855965795 1023.00588832 1055.25241946 1086.3414268 1155.91316691 1264.13840221 1305.64147251 1248.1229586 1350.59247265 1556.51898966 1662.25475374 1723.60406955 1708.44220688 1609.52917047 1472.59824257 1253.81641838 1129.12860887 1160.99771056 1110.07669318 931.56777723 779.892635483 741.645611101 742.197421952 692.038458876 644.894586293 576.128103542 479.595551824 417.233923144 373.923007433 324.962409633 299.660028855 289.698690927 291.7564091 295.397210055 292.915931456 288.697244196 283.388087459 295.795558269 374.454199045 464.26221506 571.411878418 691.611122341 764.898386913 768.826038968 719.837050019 676.641790885 664.170682968 654.390912115 659.532300743 663.80037064 621.266744195 640.618396592 653.907913284 671.707626785 717.840128417 776.614237062 785.054512451 706.892697561 590.597614368 501.407909766 442.773082679 398.258285344 359.363110073 312.117795089 284.916703985 258.520252578 249.810049574 233.840576082 243.086716749 250.399234992 294.370080474 316.672490746 343.989336983 352.001536441 447.278816846 475.145255603 506.026362729 510.821565945 540.710480181 587.827588888 676.719722386 728.232012129 757.963205178 767.128590204 783.029166972 756.982506534 702.847149666 660.724204563 557.354750847 486.10393423 503.269188826 550.479716347 571.322036888 568.75815481 541.800483945 531.11561685 507.15153087 479.228572377 480.535647286 486.550196608 490.311874086 495.172330935 491.062421147 529.22640263 577.255181392 632.46628345 726.066355196 857.990629952 919.678279817 878.655127269 848.92835853 840.308370772 855.243300455 879.50497437 886.645096343 950.172302456 1014.99695265 1046.74291177 997.222798858 893.121429753 812.595828258 756.4975016 700.013837784 640.210527181 591.614229265 543.698283777 508.527424727 502.980203388 483.898105196 456.879187534 436.663692028 428.360347451 386.361148867 337.825103702 315.613053292 299.432482378 287.402883774 273.839175839 280.645567145 283.814590956 283.326378678 288.816595395 288.544051273 279.66801722 261.553037502 220.232037779 189.39962638 186.326160733 207.913919007 224.942956878 225.853580917 218.04228209 210.705367264 204.464933224 207.847265956 205.527025596 207.62432164 215.975580279 226.228167146 247.993101267 248.994989498 255.156705736 238.002769777 213.480667889 191.911177323 197.356441548 207.533972617 212.690240761 204.712438731 180.82402561 172.082280507 163.770083557 143.91519221 130.029007627 115.702862395 116.644513241 120.761534421 121.339991115 116.705481973 113.398356546 109.729055446 105.618660881 102.732682059 103.69330687 107.905459911
451.442327464 422.659908095 395.853322815 379.328026312 397.534016609 421.406856999 421.472906077 352.034782162 303.896210166 380.745322448 471.18298232 505.756698555 528.879171161 518.583927079 505.691687427 489.057682752 456.311033161 451.643944726 451.953848473 447.88611096 427.530158847 411.163995262 411.905883484 398.404116131 402.766230937 416.182779782 448.699947695 470.693953882 477.807259073 483.184653179 528.742213708 566.379641076 604.788277267 712.458032614 767.834207166 828.879602276 975.572778194 1017.73413988 1127.61483654 1212.19115457 1309.13760016 1426.13382072 1467.97506968 1626.93003038 1779.73139212 1865.25416641 1893.22647701 1877.92673944 1839.80043127 1732.23366538 1623.41413404 1490.46287935 1384.25688869 1225.02171751 1051.66269017 927.331967745 837.330374519 733.963835335 698.388983736 655.195422454 551.025868626 493.819925236 403.043015585 371.865943114 320.268403198 293.106377065 278.758428425 282.093909993 290.619139976 286.65918155 273.110110406 252.592655615 249.255574765 289.462747276 365.128315865 456.380822855 539.772264481 609.86996822 623.039187372 597.660538866 583.565756202 580.582120672 598.528751502 606.228037072 616.221930331 637.465222545 652.98838892 653.319908407 679.066957819 749.608683826 855.93373064 895.554202582 786.871716945 629.835718273 525.31389199 453.552779346 411.093439935 356.037353475 323.229624281 300.428428646 263.516862534 238.042134583 237.70833521 246.727698829 264.479473907 313.961178939 331.654462247 364.027402685 396.046932917 496.639842687 516.139719699 524.946832673 494.24966427 486.638105995 570.255044318 707.543165926 776.42912321 793.037146102 798.088294233 793.862314159 761.382440945 721.61759326 715.022900751 681.728374601 640.696890102 628.995043036 612.635282012 603.458084979 580.312120577 556.854213701 545.282666212 522.954751665 498.623380267 483.045807173 494.161777063 508.437016762 492.902843389 510.417087986 543.929796691 573.719000677 631.920879544 739.745596899 892.762164475 969.397146869 902.472392392 829.055401812 848.832442358 879.159367541 888.548667111 889.264021784 926.013059579 1014.41710553 1067.2103376 995.535460905 856.065483369 749.745800682 673.42376365 619.101495827 551.063677452 514.346448761 501.971035922 487.961682951 468.009478432 448.755966752 405.648932533 387.948897274 361.916385157 302.410406773 278.913338864 269.106621207 262.488314385 238.307860586 228.963794567 244.430304685 259.739602316 273.354664353 271.933743353 271.355007036 264.459725568 249.709806531 216.078864426 174.316796715 171.344023358 202.087871253 230.422103332 229.789279081 217.588170354 211.667786423 212.619697211 200.22834035 187.365901867 189.522963561 205.905357612 231.567291947 251.9262617 248.844686518 257.836053965 244.675183733 205.52696074 180.779795731 197.591300507 231.863682556 230.996966604 229.723123367 222.768146244 188.785995011 172.351005925 146.162772873 115.587913687 103.284930245 108.505441908 117.102531326 118.725207937 112.984626001 109.233713384 108.150823963 108.681792112 109.348585043 110.811465286 113.829673938
448.38909973 382.596521511 415.400455885 472.483509776 510.488678192 519.82775185 520.898652693 495.694587997 505.690429319 552.018841417 584.959680263 594.075911353 582.260579151 598.289124639 574.936646465 568.478748872 547.838752707 543.6897454 522.136277717 489.187134954 457.586863687 419.56081546 425.605185598 410.804439635 411.111401234 432.246395067 478.29928396 497.501846157 501.754632215 513.783709625 536.651608197 572.832402185 606.712745111 675.364526345 753.916994311 822.18374137 903.466042786 967.590842429 1091.46023452 1240.44557299 1355.5551083 1547.73952001 1691.89565649 1923.19328868 2072.52581553 2080.72670169 2049.69703144 2039.76651787 1998.98963593 1956.61911955 1916.85955172 1754.12605723 1566.91195354 1326.52189162 1180.99809945 1026.24287655 886.069824251 775.639933598 689.376325349 649.420205127 550.195795769 464.428712832 409.846355413 370.085804766 320.030472589 293.313532716 284.25335595 283.900956873 288.448714344 283.988088956 266.589873764 241.450909512 233.023770491 272.286687788 337.658656786 404.604895511 458.099731825 510.083185258 525.242395797 534.26580975 543.945064648 578.304811063 606.8329287 606.785517891 611.445225887 637.837416405 656.668591286 663.407317485 671.052447825 730.765390653 833.807409524 873.332312673 761.749942605 609.833214402 507.40648225 444.925765772 401.716072662 363.276553628 324.361209971 299.095270147 264.857859616 231.191278019 230.49292728 245.978697906 266.291885771 320.016476473 341.343990306 374.124282487 409.900355598 473.402585786 530.938064618 539.490258364 500.502862845 488.837936418 583.744894282 737.687041975 786.582105469 767.449994857 771.383583022 803.87756369 768.508971352 707.151388259 732.572166887 768.568151259 771.198437763 735.961733368 720.3603498 642.15987866 570.587343186 548.313527475 567.519389311 547.358437011 506.784360621 485.113924649 503.624868372 524.259752417 508.951892062 518.886863251 522.54118665 561.129631856 607.215120226 689.436844947 797.86848498 870.912088267 837.79771696 805.174134431 846.390170273 933.243036437 940.928485691 889.762043454 882.851390645 930.421156069 956.66905664 889.057703569 772.459638854 677.421550115 613.107607719 574.955479066 511.060240729 452.496889795 441.593386435 429.283555219 412.919333773 389.137056628 363.325958291 334.41109004 273.952704599 233.66093937 222.559160968 236.8300479 227.17905339 203.40300422 188.818639639 206.323916027 246.065194271 265.679887901 267.958299709 270.545183059 288.108961492 264.356891199 240.424032656 210.361932264 198.08215826 223.261707516 230.040816705 226.208935014 209.40860465 214.405020147 211.124162616 192.940754824 172.821774497 173.442668688 205.900689795 234.385629445 248.952897243 243.608022238 254.448197142 258.544568706 232.694566677 210.992082871 221.887204895 254.285173128 247.732681099 245.118638649 237.060292101 206.596946671 189.747378841 158.366738755 121.586561537 98.3092266033 108.170157212 121.101830525 120.436866954 109.7151871 99.6701563081 101.780991932 108.314910388 113.865043465 120.799734206 124.49012497
458.358668838 347.35213942 409.453786991 558.662249492 622.873414583 652.94527542 657.10696543 652.492257411 655.790107564 662.294774171 660.514419904 652.101798719 653.914789051 635.11957923 617.821241198 605.063426987 602.298209574 599.192383945 567.420858661 508.303844119 457.710190783 429.929697756 406.895901033 417.170655791 424.75174704 443.963844334 485.469145713 516.991884869 504.641678142 516.091178545 543.937782502 581.153589618 606.434308556 667.057282973 746.508699252 799.513388633 836.285823737 923.417222414 1068.93446913 1243.81130782 1374.37103207 1570.00316741 1807.84341642 2123.04180544 2375.53863421 2245.71979552 2168.24232531 2234.53825699 2142.72635077 2051.84649593 2067.84085304 1848.07807782 1594.890713 1408.95968444 1231.59457218 1073.23407341 807.972844476 722.538883616 659.524208937 584.001185943 496.030715836 457.093586464 403.628735942 363.110609822 319.496192684 299.662132803 293.609093266 290.511192333 278.400461615 286.71647592 272.923838177 259.124900707 256.701508373 282.469360211 329.839015065 367.636495025 408.42208154 436.024428295 465.044108238 487.767018383 525.324747733 565.712545054 607.360356501 603.718071085 603.563193183 625.494348379 663.216323467 666.765400778 661.538295626 688.345422211 720.491088989 722.043379275 644.729727464 534.298216498 460.385901231 411.329535795 390.291620439 358.28389141 322.662108432 296.039894155 247.165398628 218.594435271 217.213972872 241.743898044 267.478133799 323.342703139 346.395727312 390.830363781 410.872692202 485.696611695 541.04389898 565.429625715 572.917104391 605.021776292 682.350415663 806.22001884 814.435682186 737.796546487 745.702142872 836.251540304 839.768891333 786.702578702 808.859176905 862.509898565 882.401911073 837.843660368 795.581858906 709.826911343 629.377284474 593.39926779 612.058605467 575.506876602 541.03288503 512.118096471 512.373243694 540.314107111 525.353788164 518.420247664 521.234853358 529.581067514 566.25552604 608.572639755 667.612969384 727.797325226 739.29464221 756.644243558 831.910268842 944.200646278 952.895032084 870.491633511 817.813389638 814.996857537 802.101409715 731.104994184 650.021106316 592.058584233 574.516692524 538.443829793 488.295805941 438.854936183 438.258298517 411.390177853 343.706200859 318.370187068 292.9682953 258.970483499 238.082005357 212.26671875 207.002523101 216.265982051 208.675006769 198.340454511 184.980675227 206.343814977 235.033283361 265.111677344 269.100412747 291.599877218 299.292918302 298.810432362 276.791640708 274.852945343 254.567052753 252.086767077 252.309940932 235.314070727 229.179652155 220.576642185 215.232017289 201.73620606 185.049009166 185.508862274 220.479918002 255.240879202 248.431891684 233.145670427 252.427213088 280.572870588 284.796423444 278.505602764 277.594345462 286.962565141 264.466476004 257.469360092 254.403196325 241.909198517 205.151332383 183.600336291 154.294761413 129.187150176 127.04210743 130.351681898 121.61191763 104.17460195 88.3594732437 93.3255604543 107.618197422 118.157677849 125.363419313 129.551399967
578.64560504 525.864352073 604.903943892 718.004854371 776.615567113 783.289574122 784.202452101 771.958105092 728.480811258 678.100525255 698.855473135 706.015483446 684.580746373 669.516131469 658.863580826 630.95508235 611.191472633 606.693879464 568.737597711 516.919792149 457.201989881 433.819044488 410.221583508 420.868787083 422.170120329 431.567397461 455.812210492 483.985844646 479.740949012 476.288244571 551.647438933 597.938200064 608.255172178 644.736234432 718.713073012 792.870323978 813.573941359 902.614654605 1014.33520224 1169.27897583 1362.67094234 1559.79554451 1760.40219007 2015.13927899 2313.93348198 2200.3210461 2198.20466764 2418.88746248 2240.04369464 2020.24646155 1951.52596672 1728.69866064 1567.65967142 1419.72302886 1248.10954034 985.846528545 758.613068851 618.34509973 619.508956598 569.570392853 481.010178838 441.981494952 388.663379809 330.837354179 305.968159037 298.484404303 297.586312712 297.979172928 291.591013592 275.167675847 282.865775656 278.843356309 281.258773004 297.028269243 315.265307882 347.035328403 372.887159694 395.004114902 411.14383746 447.665215617 482.154252537 517.599726937 552.221022692 565.447774045 573.969555099 605.437111994 641.73046665 645.527227943 642.634952797 645.519014052 648.179759289 615.366439445 547.990941135 445.577103674 386.270986765 379.682286696 377.585452461 351.379527514 327.462151997 290.266210606 253.676246291 211.991875959 209.352590113 249.936045084 282.91436124 327.767840287 345.81277328 390.9235303 444.260610715 459.459967812 509.051598847 583.684501019 644.375736514 733.817070058 811.260488212 911.51113175 904.112785872 849.614349355 862.539911738 931.145345971 954.879084299 951.609708157 946.031371434 988.018026762 1003.07818743 945.134607211 891.939985242 831.005478987 784.847857759 718.918664583 673.700102112 602.110631243 549.280687686 532.553239474 527.34339398 544.200284895 551.500526761 529.290840146 518.345230445 524.875807528 544.396563869 552.313321824 576.305669714 604.106990986 647.456288982 672.693862159 740.119933747 821.165786774 831.093312418 762.276397356 710.013770034 712.956040288 667.009083626 626.847757193 557.454315409 556.488332957 569.909997833 514.435081329 439.863571465 411.666756005 410.414396634 356.503592408 295.090228284 259.866511885 239.323369152 210.482385617 200.432051265 201.92185067 202.66661625 194.670015523 201.118141204 200.558126596 211.316575894 223.053251236 252.637319448 269.003154562 280.741989597 295.970979056 307.881458996 314.810779954 315.254452611 311.655137125 302.550371863 287.613873019 279.145228489 241.899966051 233.29873293 227.499892213 215.4787957 219.779446077 210.987530717 214.806345099 271.232916489 275.298618955 276.601755629 263.882831442 283.378234263 316.283428335 335.630860069 345.158506465 350.002633941 320.992687661 299.530933787 262.838948695 259.148987697 249.72427399 211.734711943 199.910005627 187.634456752 159.660605269 151.132682525 143.042770479 129.422855969 109.354472257 92.774158856 98.1060405619 114.444106334 126.037842136 138.207396617 143.999013511
764.36952064 782.151909435 842.25775318 872.525332941 880.081359231 888.792659566 880.313352571 871.297372921 841.511945192 774.991133342 766.955494711 749.596694331 696.505128436 680.27672622 679.450123534 652.909419051 614.731216301 593.226844039 540.242282144 486.801228752 449.437675772 439.098788799 411.112357078 419.55024131 423.425330222 413.457205539 406.848167645 430.309665472 437.127580311 453.503964754 531.713026863 614.013269199 614.777702192 613.897446333 669.527193338 754.568583543 799.881860578 918.708566036 1026.31441762 1143.63294871 1277.933914 1491.2284099 1648.45469753 1744.60173455 1873.69258007 1987.27298378 2053.34746683 2151.75251412 2084.26642748 1942.24125718 1775.74230606 1582.50160224 1511.47430529 1410.20359806 1221.81367083 1031.74871722 760.808625527 592.262935744 599.688961197 540.10359023 451.313961567 425.561261939 379.433227459 318.592456985 284.996636784 293.291282527 306.497386663 302.855382416 296.84948155 290.828865154 272.121117843 272.671939706 275.540909023 299.515396838 309.582527596 318.21951686 341.100641174 364.236581751 379.328894034 407.065725316 436.71235992 461.193514097 482.834842984 514.662509717 535.89634735 587.396669329 615.98897843 627.232202373 623.063449951 614.787256642 603.058230404 568.175273502 504.463856228 388.792515907 318.095753116 362.040358078 372.322314838 339.844430439 318.935404264 308.509209321 277.144751779 250.538660059 249.58176024 274.366463106 295.809612965 328.512059745 355.680688915 398.100874486 435.867021385 403.361549474 431.116065275 577.533933774 711.81203183 847.439925017 922.973744298 1011.26461568 1061.81143624 1074.92305185 1089.91225284 1077.98571778 1088.95386807 1078.32234904 1059.01891485 1086.09847692 1106.15603846 1029.19349112 959.657634257 951.338182326 952.112269495 832.286167526 690.946435168 620.111107528 551.340331028 532.423769753 523.693790197 542.964586873 574.505416495 531.262689133 504.321142888 517.394739662 545.926553414 530.822892475 520.000751173 528.570742281 535.328568306 561.676989971 620.087619208 647.322476219 660.002473854 635.227222815 613.276542277 593.519443227 546.568043926 519.235223893 503.359021456 528.456531534 545.973693332 485.032970761 411.746218634 371.916161073 329.607173549 273.759316463 222.441916482 211.274109701 196.13580376 176.259943959 163.958079992 169.295011429 174.373005298 186.666473874 194.079958984 203.544640598 230.616424549 241.725198612 250.943410745 264.589501742 292.629971391 306.535760142 317.974082231 324.462063914 323.86308417 321.166633906 315.027887916 297.873104925 268.643225469 245.780298119 237.478084415 230.728575341 223.841479461 229.715794937 232.103833587 238.670392525 308.710643522 323.235094177 355.930886688 357.150357547 376.247435353 406.279582377 445.036583309 424.565754491 407.557596321 362.943936874 276.133342661 241.559871741 271.680375703 261.715760557 219.335789926 191.198479461 201.97578567 185.169516835 179.835130341 171.802291559 147.217013156 130.981778829 117.691673177 119.319659644 127.160529201 133.747535083 144.375003463 151.931728377
904.502027405 922.119014014 954.775818791 957.320078546 966.753366282 978.878179033 973.695190822 976.861424559 956.836695473 899.096907674 857.872047014 798.037759754 731.895098252 710.791798077 731.155971573 688.960315923 622.921642579 566.641227036 511.443587069 462.450086772 447.128994326 439.481339899 413.589457999 417.9528701 432.984378971 410.049781659 373.326071833 364.245850251 379.946562147 401.503452351 449.70084539 525.472803354 529.720157502 516.184152916 593.53191122 659.66322321 795.806659142 949.699321828 1058.41252709 1095.12685814 1215.92234324 1347.77109791 1593.27573169 1668.20034654 1691.96855453 1790.92621248 1889.67055289 1964.48718479 1975.75027364 1852.51190447 1732.61802243 1530.61843679 1480.2116752 1373.22826504 1210.48424854 1112.46231591 870.92175421 705.050336821 611.096651704 491.499230272 391.82045873 397.477808422 375.353019776 305.143771944 275.501171291 296.754568513 309.456713307 307.16548471 301.075080511 295.143207486 289.98069009 277.919648718 284.853405689 291.508103789 292.639894199 293.523601308 297.487009106 323.124055999 341.167402525 372.663544576 415.815150383 427.822265217 453.933289642 485.345741354 515.343305284 557.871129709 598.34552755 634.523224593 619.878211258 601.438951941 587.84099675 568.371376987 524.594378499 435.228772233 373.813388944 386.824847833 372.443494516 322.854521081 310.571741505 314.098930874 307.515867671 297.424476867 301.265326682 305.61787494 311.397648108 307.504023611 326.579074408 392.587806664 440.340391508 383.804575293 405.534734757 615.999407699 800.241267044 941.236903359 1025.03100832 1103.74861874 1212.58325066 1323.05707667 1337.37770528 1249.41076535 1188.81027946 1177.66241039 1141.66167917 1140.33237066 1142.41893342 1069.48933702 978.783401786 1002.94405289 1020.47597692 844.625541044 688.472962464 614.827788279 544.491441095 511.585138855 501.058243251 492.305053735 508.632214202 475.417982977 450.190060723 470.542030966 488.447905118 472.791473111 468.68942069 471.325244153 477.471598329 491.180468112 506.421020059 525.630503173 520.826848081 515.498988753 508.288215678 496.204129941 474.848647793 458.4077092 431.670568047 421.835466329 429.23460436 401.940845072 360.028176422 311.647085016 272.763612072 216.640152696 168.9028446 177.967775837 178.220925276 155.37107918 136.920188792 147.706666633 159.782749348 176.088903314 180.725408991 203.347943629 233.339002786 244.229986321 243.443300565 287.349015381 295.644934935 272.335800798 296.582713834 336.660512404 349.016821426 324.710502983 314.248128409 294.752545899 266.094038288 244.747269408 237.012362478 233.983500611 228.588792914 235.266969505 242.29855766 290.419907589 339.026222162 384.276987425 455.219845901 434.669038274 452.630152602 488.121188094 522.67924962 480.975334038 457.629987231 400.902473757 290.825774486 231.84102648 285.129735141 278.317239436 217.812576356 187.545052523 213.025281007 199.443361014 195.073546587 187.078236847 166.552342218 154.705864279 138.92403833 136.459655054 137.403171358 146.104046496 150.972587024 156.285822726
989.917651643 986.027401373 980.736099279 984.090705523 1009.22147847 1011.80029923 1013.92907476 996.552679837 994.556115387 978.968797163 949.943621527 893.297338349 868.472911738 814.369494187 777.375802766 691.780229012 644.320412474 552.5281548 508.970060065 462.812475755 445.841531937 427.937573441 401.177066092 393.759794309 401.270797967 367.82232607 329.238815656 316.197476686 312.733800584 339.621715789 355.599246064 374.926440321 389.440178059 417.644136854 490.782180686 557.431175098 678.32774371 945.094877559 1085.76479404 1045.58422448 1244.66070179 1303.60494522 1407.59154384 1572.60924434 1647.85777532 1731.64164512 1790.19810376 1890.85937122 1958.46645851 1822.13981756 1835.89811095 1607.83396086 1467.43562776 1286.80056306 1198.03565352 1131.33238845 956.719824315 749.085070714 618.870494477 475.652989222 392.62755747 401.20474571 370.512235049 341.764740952 316.253464069 329.562134881 330.158394301 311.148493427 318.147521965 296.492312761 289.693021021 298.052202669 292.257805871 294.406883437 293.07169772 289.671474971 289.303029537 302.727251614 306.736893882 333.640766333 401.490001391 422.609824935 448.913657395 474.545856594 504.979590703 539.35746468 592.891244553 654.711209468 617.948900283 593.25582589 584.965148043 578.06560659 573.837393473 521.190025062 453.637675299 421.146859622 385.077231854 344.033404211 329.969163683 321.543137826 320.952807936 324.497936821 325.661853138 325.805336592 319.263773896 319.388980773 342.875115645 406.577487032 458.907519066 506.97310801 599.746487731 793.714230913 954.07892106 1056.6826891 1114.8729666 1199.18485167 1334.35451366 1538.76269089 1581.25105779 1381.54008347 1286.10730134 1264.4075278 1230.83728433 1234.64815833 1151.89561099 1036.28306682 936.627395505 881.140845027 847.669365977 730.872773944 645.839906945 571.954327482 532.32591152 485.48833286 439.951433112 436.419522559 423.683284632 407.141728707 394.642183512 390.305863531 399.454418372 393.935426036 404.902296755 422.306627695 431.200251999 441.999910237 461.220545262 467.341289834 465.37741529 461.975001293 447.388004859 434.91524289 412.042012749 394.765852421 341.393700918 313.615447976 317.280166132 310.238361208 307.557601919 275.000794149 243.761497605 203.637162905 179.646591057 178.255111714 171.568010853 156.78418993 143.547633381 141.90791726 147.150140218 161.865195832 173.552854633 185.764980929 208.0250792 245.983549535 273.180485315 317.555719466 327.598853074 245.244108775 315.756190785 397.060883826 400.84780403 369.561075009 298.520616768 260.244966475 250.593918587 250.361386049 234.293685022 236.961673567 234.05856682 234.053245838 269.344524633 309.199378435 360.985988947 482.202363934 541.072043838 521.284189114 540.113040642 577.439916189 579.695991654 582.759214288 523.414480452 487.298436843 428.478872762 377.461823934 358.98412692 325.361309279 264.781902073 237.417574138 235.776510516 223.424215458 207.571493686 198.260945362 178.080850845 166.114607645 150.554157944 140.533633771 142.637308496 150.858762255 157.609021784 191.927666249
1082.61738327 1070.52414535 1048.90086734 1046.5042104 1037.30969031 1021.46026871 1046.19328593 1026.49144079 1024.59478024 1028.68191361 1002.91410045 972.127184741 995.590252933 918.574899644 795.100809596 698.38132045 631.65773146 545.596376094 512.586462555 463.701506551 434.135778288 405.774218245 378.214281237 347.718446888 327.87589141 283.201099442 266.518602565 263.146489782 268.636325103 271.312135347 273.483673186 257.8327325 274.87410007 342.615390346 384.396848194 459.748807946 509.300235607 655.514702438 822.593928149 899.137603907 1081.29762292 1145.42607931 1198.8152195 1294.866964 1538.47606248 1794.71898654 1758.7333924 1794.63662355 1659.45804667 1691.46862155 1819.6281153 1540.20172074 1332.03223409 1168.20361602 1107.81934633 1042.66614442 872.244518228 765.558585394 595.400904498 494.390132833 446.694875618 414.640045218 388.922484101 381.334933681 360.996964793 338.251782849 336.597503685 343.029327703 342.431767422 319.44820101 292.176138216 295.856200155 294.277854736 297.630275723 301.931018665 289.08649867 268.594064108 291.741528535 287.445163741 307.176908584 366.591055671 402.79053898 455.609611707 472.877801627 489.619372657 507.55944718 546.339189278 592.668842394 589.943907176 589.363787056 581.952421982 575.805024331 599.619178573 543.087607859 490.213069083 459.367162308 420.557469594 383.230300732 336.606235933 332.599477067 343.187247712 336.991536792 336.419552871 334.021727503 330.709189287 340.320024017 386.740478063 447.2595779 522.185302287 637.64525849 794.851046809 1059.03203976 1166.53309721 1127.03042166 1197.84361446 1283.98803848 1341.94261454 1554.20872287 1607.58930857 1392.35852401 1412.50814862 1365.71352286 1314.7522291 1498.7420615 1208.26200124 954.072391098 847.226867523 752.542388569 695.57842836 639.60968709 619.220890509 550.629015348 518.036902879 479.380888993 419.378301086 414.01313174 382.808192734 359.158573059 339.360745209 342.615135606 355.470540598 382.185271186 388.700026605 375.943936379 388.40759288 396.890161671 422.615819741 453.72687309 450.843228862 403.207945743 375.667396686 361.12016574 343.381321008 330.738810692 282.193925316 228.096128728 229.916322563 266.037025149 277.172027935 264.983981652 224.457394624 201.018216453 189.04237251 202.811360067 174.128163613 160.326729806 142.596557973 135.045941713 140.836603244 154.393957689 163.320921256 179.021647411 194.12716026 228.32914892 311.043343123 376.277553713 441.873291465 420.484627859 461.43382673 516.659615496 504.890160938 418.261306418 305.53529922 208.324542771 245.326079347 234.765284751 220.817370196 231.438122387 231.603452065 237.794775063 283.232867434 321.459838623 405.04711481 507.755316691 561.766377025 587.019112854 580.326623117 641.740605529 649.745413244 662.649879905 658.285465259 577.098121415 549.209942141 500.905719113 429.678620062 373.147864372 309.651802507 269.5325277 239.001861186 237.831778375 219.367749966 208.411757545 190.254069778 177.746486519 158.215735578 134.327803097 135.834674696 152.829036498 180.991489077 186.846664191
1150.41121684 1144.23837843 1112.205914 1124.20773378 1128.43996109 1115.86474624 1095.51647705 1079.86704984 1060.07709155 1073.29652897 1034.32793579 973.391217235 1010.556506 901.54467752 762.657957904 679.704459503 598.780575146 540.579432063 501.39530116 467.400063331 419.991705393 378.798046273 346.139955371 308.980315151 275.662365257 224.792361378 200.18605495 227.309616901 234.259523458 223.098472148 234.826678163 240.131466563 250.329536319 297.88283034 321.626463069 379.095259774 360.131856873 399.66177927 574.927892386 692.895822906 811.245452386 797.207438386 887.87858378 993.80645765 1062.19445857 1152.98466542 1287.82940171 1298.76465215 1342.6127797 1363.24631205 1332.54046916 1302.73158745 1168.35743786 1087.0299853 985.836132032 910.560735279 802.415117411 690.971521535 594.364213049 499.80162113 431.52118422 413.417826195 397.248994641 395.903858522 378.271083196 319.446507894 316.909162631 347.772686515 343.317257413 332.917335821 284.883189696 268.706219024 304.749940993 313.286155641 311.238691306 300.725077512 287.677831472 303.202524843 320.356701559 336.842987021 359.774062901 393.001977165 436.019233284 464.129797042 486.076515665 503.840552861 519.203063915 548.456100696 562.871783149 573.904936959 572.009363705 562.796098398 550.294506134 525.108632676 497.382626104 475.217057056 441.933356192 392.516767013 302.034078213 315.205504219 341.638134046 345.222127405 337.066260353 339.188316362 315.317961792 323.223808457 409.685429966 482.931165615 554.059189923 695.08880529 875.417231253 1209.14744065 1341.88500323 1162.53959095 1262.41263908 1452.01611055 1349.21798375 1304.15214747 1273.61598892 1293.16189209 1591.02753333 1457.85547722 1199.77446595 1297.11780319 1004.35403352 796.850319936 720.709768774 644.793311585 614.113146246 602.123266975 577.600586734 526.741189781 548.326515055 480.986601107 411.007513647 389.253136929 338.010762533 317.184751502 301.43848676 289.767170347 299.814263907 338.99049833 359.197349197 365.534627637 379.57067946 380.361536718 385.828348688 414.702143652 400.237581054 345.403516405 309.867932276 312.550571792 307.623233978 299.072228506 277.340290545 215.433189805 222.564994681 263.339229628 257.137915379 265.073237386 218.208681668 164.284392792 185.425493425 210.841314462 207.037917908 178.744549188 146.6772423 116.789082983 132.113135462 147.297565625 150.119134093 169.697386091 133.268083871 224.340126056 351.441440433 474.468551311 601.55059156 662.675777277 683.805805711 666.419077058 623.057312402 498.347347657 397.221366523 281.345819925 268.300799655 224.842438478 213.690770114 225.3693736 233.733403815 268.615376257 316.856222517 358.553817914 464.349675549 538.038407077 618.985386379 567.158552334 529.221952095 721.24655512 769.306213516 741.792198425 721.329708365 649.272345547 588.415543457 543.808854293 456.364263578 396.819737421 334.411896096 283.268902065 227.620960158 234.211544376 218.283924804 209.88284853 194.262179501 182.665494413 170.639877483 151.610943167 151.607754614 174.686241215 172.239706533 189.892762119
1157.57015334 1158.75563679 1156.80095278 1169.20015237 1220.0382407 1216.12107105 1142.02642419 1112.37405206 1093.90203883 1067.98011629 1009.72892696 931.765426123 853.594969409 755.458821618 707.680742423 641.512414068 570.167357459 517.772804024 504.393246956 493.979214313 417.374293125 359.931743093 317.27314431 294.385700015 259.601640676 217.176685344 193.464182624 216.233915969 214.381332528 187.489499925 221.219312731 250.038321449 265.292605916 283.127448366 282.973448021 320.320934087 362.359058584 382.854701071 425.272139038 490.328548141 553.666620443 610.695947071 649.102210618 735.113092123 857.830458868 941.999519351 1022.42097053 1154.38586167 1192.27488269 1207.9567687 1247.94038635 1128.97318586 1071.18637777 1003.05698803 919.564269012 888.13534993 756.265207485 654.199201561 575.610113175 473.888063598 407.141047644 413.12019229 418.114723876 409.555785398 403.683058382 357.348196164 353.970743173 351.044758347 306.043624268 331.613846903 279.166261785 252.1439568 312.757271721 333.185017319 334.410951992 319.74848394 321.765102168 329.517678947 339.314127515 347.904875595 355.370874844 367.248551434 388.580247855 442.094277855 482.909776006 500.430602352 512.409326808 528.470030795 547.493181769 565.757199717 560.05151564 551.457633162 532.809798499 510.887354198 499.236106965 485.435913606 463.700901183 439.526916557 357.084238713 352.576782552 329.025827505 334.768348044 322.130204976 341.384453467 327.601051914 339.929943687 428.053134487 502.38183498 576.339899747 649.209014669 792.361405141 984.803975547 1121.10618619 1057.64519201 1168.85324343 1421.99725644 1229.93618082 1018.44047681 981.340372355 1012.12338429 1135.97936878 1039.73408474 896.75958079 786.446489841 602.918501583 609.508581669 579.002784253 551.021544759 507.589268332 498.176595549 497.013664931 464.347703449 468.846102667 426.49971737 361.982528093 324.655010421 290.382191215 278.389679643 266.886653602 264.954541422 255.180536319 282.833253359 315.010637401 343.806575013 367.567464391 373.784433574 379.280169438 379.883049833 357.788779435 304.218844514 281.776709587 305.797241162 296.574452019 288.959638019 295.869939606 275.137832802 277.388545875 279.530835597 221.873017744 239.475349703 260.313936519 215.895389672 223.719986986 223.735820472 243.43251591 202.413308453 170.989171198 140.751388849 143.992014528 133.401245321 119.90807457 188.0609226 191.134596267 300.898970172 406.354630093 553.931122435 668.44710915 778.837578005 788.499331309 747.782105017 690.868767054 614.405373797 554.310882793 395.220851039 305.631314493 247.494639634 223.124272399 209.321970596 231.190705245 253.781821496 308.535023992 316.399536926 466.526035818 532.495898743 621.865896113 739.037819477 730.343400847 843.254069714 889.272721045 828.227666384 790.563943727 739.80529602 590.208811068 518.289318733 452.215337402 404.322291434 355.700209474 316.509601878 268.671062852 238.788355404 201.592000664 200.843624565 191.425762575 182.250367657 186.333904175 180.947990179 175.166327007 188.288721075 142.386355879 151.323325203
1124.2298373 1154.28081209 1193.3277463 1180.28023062 1218.93305755 1215.49221522 1169.63697908 1126.39658498 1175.14868655 1095.64994218 968.35211918 857.024580819 767.965619199 708.08472645 682.35351558 593.6608339 577.932099214 521.126930522 485.539249186 467.425836484 376.329088198 327.242579802 295.729074205 278.003920614 248.83763005 238.077111311 234.955010267 232.118852713 231.35334653 217.012958148 231.204354867 267.068123078 272.986988847 281.955610371 290.650405556 309.409837811 346.256907775 344.607493571 330.46396749 403.661505666 399.719317105 500.670997257 602.170974358 636.06580041 674.317787604 806.773866142 876.631144628 906.704039486 1015.94321237 1011.10584988 1001.41685914 1071.99388014 1007.81956591 1061.16814475 889.02832297 784.580706452 647.415351619 621.115547198 548.815863527 519.928876787 443.787191099 432.616286146 425.915048105 392.555376023 427.051280165 447.890865637 437.366871127 389.641181445 307.875075099 374.598475549 364.770460834 353.187878049 349.300188122 353.59355131 346.991231626 329.750776506 327.664441623 344.521960608 345.691088323 352.483407591 369.901563872 387.348554097 405.636895894 441.582066137 474.580572152 495.829655838 506.851705745 515.990092448 525.552196817 561.010926177 552.589434389 545.243175382 538.711738859 525.423357082 487.295154203 483.812772783 472.558776379 473.231044739 456.057606554 429.683685312 380.986718344 373.436946884 369.461933341 394.220331444 421.330228422 438.035491961 482.508098943 502.976295696 589.132989207 630.389402345 679.238811501 728.755373466 814.429147927 835.837653227 893.523336518 896.46582719 827.910504864 720.257432377 688.518039676 693.114762479 607.921051334 554.838121088 573.176046745 544.545123655 540.723974867 532.494644407 482.392235639 473.431518031 448.041714539 444.27815885 427.450841218 406.076782049 375.196353761 356.765575616 329.377852968 294.562880631 276.328271271 271.191556426 257.792386566 258.844233341 260.507092264 283.441777598 302.808017035 331.596793102 363.092553171 377.89945224 378.543481703 382.713509229 368.420036401 336.396053045 315.806062374 312.577457451 296.559569038 286.837209293 310.27801037 324.721926363 327.431985992 324.517952736 260.440782837 278.579891619 370.309529368 339.407807134 287.105103784 188.386766793 240.279754933 182.725048049 198.113433551 197.248712072 200.786310926 170.355442384 172.619988179 233.466299142 297.648168413 414.896850867 463.888501465 570.457400965 639.514631851 781.357293918 819.222054917 770.212833685 749.41522636 685.249149624 655.373519269 441.702088993 323.28865413 241.195122797 201.076637302 199.546209495 217.534274766 259.250417421 319.075847309 345.136007103 514.523685054 439.597516407 622.409012315 897.166652412 953.370079844 937.257529367 904.617544395 880.896358847 769.687383132 711.534759939 578.717051208 493.924337643 449.18186238 397.25826937 360.326097805 327.361583283 279.07341204 246.562062158 218.77532795 211.513228303 197.481419783 188.980130926 206.665516685 216.345357859 240.797152266 256.234276216 190.052268224 215.730536856
1090.14131569 1157.66652154 1258.35545778 1165.45229567 1118.53343 1132.20966446 1231.94975188 1098.51537295 1094.42315129 987.314998035 878.540715391 810.47429449 747.901497411 691.525513257 614.552124395 568.209463697 563.234800566 484.67619564 436.129020759 385.965882174 307.820445196 295.271000286 277.122602568 267.883216019 246.621093125 240.508052582 253.655739707 255.460156608 258.733302207 243.14448079 252.37862569 278.451275548 306.35784768 306.950173419 270.721521682 303.905030327 323.3438037 316.696530305 329.856344713 347.380382015 350.262036771 367.541140154 421.73084336 480.552432366 495.520286931 547.946127991 539.383195485 645.664062138 671.164408639 712.170411375 770.687221454 771.910818302 823.575183635 802.533695649 741.894739545 681.956579494 609.694891185 587.913720369 546.526136801 538.570064197 466.436438807 456.573036177 445.13637495 428.495126935 475.74858382 528.63752437 548.330694086 530.356776274 506.992078186 492.514627543 469.235715699 418.615095119 324.071088141 363.275576449 313.965322568 362.852409307 359.989425182 327.165843996 352.613256038 354.164857423 391.455037243 415.787509798 433.681147918 448.483557424 467.985960948 478.584791026 506.884499974 516.548298576 522.810066492 538.616804393 548.761035919 547.279572398 551.711729471 546.431745394 542.596637197 535.606633468 527.162852561 527.907513667 515.178460373 499.042413118 496.796205412 477.998614622 470.730386529 470.623650493 475.620183548 487.341900251 493.427326086 533.825373672 592.824122505 613.286019996 647.181521259 668.585978351 683.833112356 678.169539694 651.080260936 578.372247622 516.224038611 465.248378239 502.443826609 438.699130678 428.883578516 463.458407958 463.878831165 445.382764913 432.32643567 440.65912358 466.131654914 445.940175658 434.181005048 423.701545547 402.790151931 384.181155582 354.446901068 329.173975399 305.313976059 274.612002384 252.149264197 257.392673176 248.21876586 252.203057288 268.294353107 293.267597155 300.614580225 323.124643604 362.010042237 376.724122368 381.036732827 386.426619402 388.830392763 371.96486386 347.131523547 330.242434508 320.804654484 319.579043414 336.890508976 366.38802547 402.799994507 423.811206823 421.166012324 439.156129461 481.572887462 449.844372153 378.750218159 256.500429467 303.720137793 201.578883307 227.109991423 254.43469979 247.974903594 224.677120383 228.502109141 270.096052888 315.714991265 420.007946541 477.523964458 586.072383397 586.18788332 868.704659395 927.459252292 791.772235031 779.122072801 696.123964814 558.311204772 387.676876828 297.401609488 238.793270865 174.582727174 193.8082777 202.860724555 228.991135788 315.425717915 509.859767244 683.970581713 763.321034488 951.546890796 1105.80451192 1137.08301916 1067.52012669 1006.89302354 917.120832109 776.002661996 655.747900455 586.45690008 534.02983255 452.376493797 376.827982807 342.034565412 291.045333938 250.443746286 247.178134918 235.993354531 228.646220681 219.388882513 226.210032788 229.833315253 232.420806402 287.179415554 303.620186728 330.444527565 351.781113472
1000.37105749 1041.01181199 1076.33358498 1043.9839124 1008.71171474 1005.88262251 1023.47577441 977.666708651 934.911784411 854.340618045 828.901533727 771.98729656 758.884844332 609.344484322 523.113758664 479.763999334 451.895216547 421.487724324 399.779196523 365.884623121 323.716950792 307.811921172 285.666750717 274.652795481 279.024248748 276.262951178 254.303674828 268.100837747 267.445619163 259.42592712 269.50884297 290.819788503 325.627607724 308.118130664 307.750175093 331.833020318 304.416472446 312.499453028 361.392721561 353.868111317 305.098114775 288.805481902 311.670331085 319.992393494 369.227778668 427.216525701 490.373827937 564.550289441 573.472546999 635.113999458 667.673078601 690.443614933 680.808162023 678.425477132 634.536236479 573.588584083 531.606581021 497.949346154 454.138796111 440.653388482 435.044282756 451.957447632 489.433901142 529.991881642 561.688587986 598.482279973 632.451291316 647.971381673 658.479147734 598.706349368 548.719503922 513.227781575 458.552550993 444.751326196 430.868626784 436.97814346 432.323022637 410.779103268 403.494034432 395.238454875 401.370838058 403.343992657 448.592811707 449.775248313 475.327553138 498.669223598 513.091311895 533.778411496 526.942920305 532.300068285 547.338051828 572.863365644 566.334668659 570.39538438 584.435162397 570.893832168 567.828309117 547.738001926 554.542122799 554.258357311 523.110285605 530.977571408 522.726154354 498.536349448 498.164188739 504.27711059 512.631880439 544.825663787 576.807233338 565.157470829 572.481181182 599.542367109 601.926588707 601.034895762 555.046767551 508.140357462 478.22303459 406.503488029 385.006187133 366.466358561 352.089094893 314.827691281 328.163632785 333.56247362 312.632043088 342.235800342 351.376551076 398.829752079 420.770434217 406.644076307 397.897864441 386.551321786 358.574358614 308.641090989 302.488448895 286.120972365 273.074201214 240.546853044 242.98580102 253.982830779 266.047100666 281.078626569 311.409187758 316.641809898 353.78643996 381.579283821 378.822930796 387.473006575 393.168704745 382.319520783 353.836369417 337.95351183 331.641871928 332.831123801 359.679885582 399.554669301 453.709999648 502.442940789 451.022690207 458.141491764 532.876885911 539.517280432 474.713000296 524.668503591 474.005009102 376.399888671 304.694134898 303.904902182 280.833003363 259.938786229 229.397736898 267.252668303 299.282918889 295.021712214 528.822729696 752.259679164 1035.8405233 1082.89799129 1121.12867834 1190.38687989 964.569482101 716.808225009 449.864488281 299.174581358 276.285573328 257.046397512 213.134873555 180.153646205 186.264226817 205.170265325 292.452198872 564.680725128 871.022814206 1116.29065462 1259.61801292 1330.31747246 1360.99915063 1257.79604391 1173.46024971 974.809232448 758.617989248 640.919386969 589.956178672 497.100193932 403.055408914 344.479082779 314.161676994 270.273584894 254.629532544 243.082410738 236.783758641 233.087433457 247.976416089 244.362785067 234.072512638 290.29287177 314.705408133 263.695623537 358.583593565 441.483063338
912.21854936 950.345190057 986.952491373 951.259761232 930.815984084 924.992225692 912.056897219 825.458425226 790.071157518 787.714870942 731.809627089 673.354799554 602.190818022 510.668639422 454.531540834 429.111953174 410.814751081 391.696478749 382.276977966 365.366099874 356.298004131 345.198351708 333.127065378 329.614114419 334.475640697 317.715765321 264.030365225 295.498469454 256.042672491 345.802088973 359.895214723 295.636651449 357.420180866 308.322869258 414.918097686 457.993579648 420.112684947 409.726462083 411.544053042 376.314554114 314.130853652 257.374386695 238.212779234 251.619971467 241.06071573 282.238355722 323.686347863 321.048144513 404.471437675 447.827381328 475.407378635 541.957481088 603.351230672 582.030782846 574.631940167 520.038116456 493.671300423 407.678187796 380.841500542 358.449137633 398.484671194 438.243092206 484.901205412 546.753342393 615.460382192 689.333544346 708.706754453 686.636033784 675.207938507 655.904845426 627.355535799 586.351128167 562.838869981 524.136698841 518.213151351 501.80853189 490.295422641 488.4851776 464.564154034 463.047190797 452.836006516 474.087283145 485.822670346 512.336496907 508.833622786 520.658019214 518.011233545 520.045405023 507.665897872 518.66328719 531.441393504 563.690420515 570.956330762 600.232499271 569.363656312 568.454176747 579.811207292 572.877188776 585.264399027 592.331544981 597.755265568 581.759408526 573.641245871 553.448090225 534.531367927 528.632999783 524.341429042 523.608965219 537.531052416 531.322066026 531.641141719 547.705079582 589.200001296 524.384302677 574.271267975 449.512177103 361.468818668 321.402826315 307.453528219 274.786293524 233.482455968 233.732934041 250.369825493 249.762091397 259.90101927 294.718995476 267.565573759 391.171295899 439.237301301 427.98665571 388.150328384 401.676583277 372.304516174 353.023131329 339.665698461 318.281012897 308.41846182 282.178182055 280.728800002 262.785945494 272.732349424 292.037819483 325.831364264 339.629548498 377.905703855 406.023381546 420.049542795 402.614100943 386.783569713 372.042314967 353.518630261 341.784920738 337.00345007 328.205644925 366.854599613 424.236038473 484.400443647 546.511755719 552.852346988 593.119610933 577.710305923 625.119426607 646.386005847 717.894520734 612.912834762 515.695472386 353.40806962 286.53361681 287.239309029 263.80637999 318.085856442 308.13307639 354.821439425 433.730317032 558.173817135 764.861836145 1161.90294893 1190.50439042 1249.1507059 1446.69975633 968.748446341 751.436156551 604.278861582 428.525080947 318.755910959 265.769187142 238.362641013 214.482956661 233.872128927 317.097425317 424.424408149 632.723557423 967.388636833 1185.1175503 1319.85399981 1626.45060252 1536.37878326 1363.32240182 1243.65339734 898.075473719 726.043871268 662.325519186 500.464415012 372.187502259 345.257751132 298.85011873 267.704394935 255.828054995 242.72372043 234.870680145 236.955914315 244.182116873 264.103333005 296.035319306 275.72753601 344.751975383 359.247487701 280.622953879 475.475637026 612.398574754
858.168309383 870.435775684 911.740259597 866.194729462 953.580031987 806.32815966 768.232839848 775.735951027 760.737717309 683.557046342 585.170019965 518.64139572 461.47390479 441.702361443 418.294518832 402.91955767 388.019584678 370.430377191 371.14295048 371.512488673 368.309760601 355.250574475 354.274436976 350.007857332 353.853212548 353.614650055 368.248481364 391.395938512 411.278107451 421.557801537 439.405225669 456.486080299 480.410368168 506.184907481 549.001777002 557.090746843 548.59289026 431.80933639 438.062539295 424.290174426 370.597663881 382.948376543 311.718842461 295.896434269 257.833114987 229.123891881 232.196510381 267.816863392 305.817029281 356.448942125 402.810051294 434.498835118 455.021509296 466.431221361 461.080260037 411.626220519 366.660432864 349.287386131 345.704331544 354.544844231 412.353402356 438.645982571 463.633904671 550.367194844 659.518102204 722.287865028 729.51138302 690.891324023 647.686667017 664.741280552 630.511430185 606.441387205 563.336825196 546.430972847 535.582720791 521.600334794 517.437949145 499.983592422 491.520498579 483.323964809 480.334709538 493.268896405 494.798544153 517.842844762 523.505511901 536.119095556 526.060290793 517.493045671 509.880759225 510.516882653 518.382960815 526.500877199 541.05323008 542.323847319 541.30576609 545.702449511 558.752963448 581.360299832 620.178679794 641.146844074 661.510318995 648.192080041 621.007321768 603.085971417 553.984938303 533.624881369 528.901303877 528.118814827 526.251421114 519.085734995 517.474395443 548.670576827 479.447959481 440.300901772 404.076299681 338.295591899 316.529665588 258.348627958 185.928322848 207.882389878 196.032029996 198.670426515 210.179747454 188.046930778 302.402946248 366.012696147 400.313624454 446.934195292 467.166933593 461.07972207 434.114356656 433.128195334 390.600722409 396.379502268 344.773012838 384.495155731 315.849287018 324.557906959 300.929888897 282.748257261 323.324307849 327.393277155 338.814510135 372.173410014 400.900306644 419.00438844 456.232376814 405.645821302 385.097983758 369.10828675 343.194653407 337.338608518 343.730689314 345.74101012 383.736618917 424.921478803 491.099201107 551.168596058 646.052693034 762.842867116 888.839433523 901.635053255 859.711872509 808.662712517 758.124378582 629.564211994 521.870417449 443.992247164 390.283277928 382.667400735 393.145903468 415.696539542 437.147128752 505.193456569 587.152653774 686.335936785 750.3502257 876.402886896 917.006542913 850.304768255 850.4444709 756.930413972 654.993041806 461.984237774 341.800995066 239.05059958 239.4583215 212.042935037 273.023634326 352.095687645 434.023526529 743.395746165 973.385027564 1085.33560662 1392.01464262 1638.16982532 1617.34708648 1482.64468595 997.164370996 806.10504572 748.966360401 507.700717789 347.648239279 273.485370544 227.160994249 218.456273571 199.864307589 216.656050756 225.172653495 232.169885121 245.647644241 247.876391287 285.86796158 279.49060198 402.293301346 517.034858715 603.983363888 599.336623493 557.635956158 589.38415406
870.957643201 810.08936822 715.081099745 708.810262548 670.829474313 647.328108233 631.10682063 630.890766444 569.179635666 491.116548907 479.54717477 444.450786586 420.900589042 415.481141948 387.932155041 378.802534328 377.910600043 381.80347813 393.646540438 397.890196099 399.029763009 376.881922848 384.205174274 385.36383522 374.769807176 400.611117337 424.482975649 436.725384524 445.62228423 463.678220835 477.573235878 514.80580984 541.857835489 558.547873193 587.213119504 606.90827216 608.103461705 614.224103481 567.218446821 539.905048298 485.711650337 447.350333996 395.550228138 334.526139258 271.868092348 285.77637787 264.551230636 287.70752613 311.71517533 339.364572523 373.506115749 399.374963337 418.738203846 427.180117859 392.865187471 347.663705698 310.914882003 307.526720473 303.784698083 341.723394551 389.49822973 451.789065818 505.974156099 567.707062358 612.777173087 645.613562792 654.309260275 660.505548855 618.751741997 612.662707205 571.327459313 561.926144977 542.878122958 568.30396273 550.217334757 572.886463612 545.736094697 532.425284365 512.556088852 494.094179418 506.073283777 512.588116167 537.217845703 534.488263851 538.322269606 527.85889341 522.655638251 518.321220695 489.229264293 488.257227656 509.618420175 503.149492861 511.828618356 507.600555369 516.096436646 532.517584103 530.331119433 589.662917624 582.859438307 667.038270535 687.924431123 708.253392681 632.584572291 591.681501136 528.432440326 482.068686516 481.588854906 478.516667289 449.795602869 457.917190248 453.463252022 432.14102658 393.936326187 382.402646352 341.907970461 316.181102494 263.803941014 239.880115857 283.784390578 247.021857973 286.183413207 294.627598779 309.714673612 345.914921507 381.827579197 451.431405054 474.858110103 479.970955189 463.18430314 495.465319172 526.114540297 544.656923709 566.239969688 564.675239533 541.912770776 530.637751577 490.245105062 444.115873892 399.232055136 376.571760795 359.847654151 360.911556574 361.010198465 371.589753583 385.44255036 391.432088055 388.042517009 395.252457503 393.777921899 346.724548428 324.202905737 320.680073415 317.310886588 333.119247697 363.661163388 402.39565551 466.880892675 553.856458309 797.545092639 827.04593388 898.884868732 886.811908628 915.595428291 795.1380047 746.805443098 642.459859709 558.532536652 510.786281173 497.443151484 461.598411465 430.53233321 447.723023094 461.994361663 459.453730709 474.682962206 505.347162738 651.382109932 645.730176854 602.718547948 615.542536868 615.289084737 592.195861684 511.840811585 415.790517329 369.071114057 348.054981984 287.771904651 311.12353671 285.488773687 307.413082969 557.14301253 859.761239964 1052.37463088 1382.6652015 1437.33805054 1323.25576385 1016.76454891 805.158962623 594.034721086 449.000076302 345.72664226 302.124313709 266.108266601 232.148835986 202.563496643 191.156644208 195.424393933 190.217504626 209.122496418 252.984237329 270.932272133 284.295685398 364.997958102 409.035272468 550.587068455 746.076374884 812.559133462 898.158993267 596.948582162 633.419826314
640.082760008 567.868582268 563.09698691 553.261144531 551.086864513 553.236625209 527.359760712 477.561323635 459.268610838 437.960400953 416.067402206 413.223330548 400.138843043 386.360783172 368.818162123 366.302416356 366.670345656 394.516675026 405.779201285 424.531207752 422.275197782 433.089280546 405.919818656 413.634051686 447.128912178 447.517636371 473.700237457 469.777484047 491.742643439 493.579165649 510.729102195 540.338438105 531.298044496 567.175228103 599.333057902 688.535432744 677.70961786 683.259241099 682.159750037 663.166996284 693.90957428 636.04733033 610.806700762 519.33394333 440.779600939 276.842877765 302.820653417 338.612427274 342.749640515 351.747846585 364.22366759 382.453042249 393.097411516 385.314745214 365.531989567 339.18035614 315.248120258 278.035539706 289.50826371 336.35915722 388.869140934 454.887109429 530.470116163 587.833869147 607.454376662 636.278561686 619.373206239 596.055217515 607.761867443 526.488042611 536.348532474 513.735363039 510.383010359 518.172700211 545.484332299 525.327294153 541.239648288 510.264243128 487.22015878 476.588062376 496.212779525 516.055602985 509.746706403 524.717064759 523.216239092 525.386482722 497.637571841 473.902892903 467.691264941 465.199818432 481.64852521 488.719957609 511.623269105 491.315912474 477.98702385 448.231122131 471.195509289 459.877147296 525.864384982 580.35754801 619.648481678 637.741602899 634.256692698 537.953137831 496.067486845 442.904279437 404.660508876 384.496024844 382.034133044 379.297510776 386.388730508 379.145493509 369.642815888 356.617073533 358.706527797 385.045670435 382.046957048 380.389470513 353.347713242 377.164070072 391.517847589 395.485650864 390.982187367 419.287604267 476.182168539 512.056185225 540.729750292 560.887652659 577.643975252 559.298597274 588.974963487 606.36731345 613.128717382 680.265382841 668.639897411 669.953142626 602.074940684 530.022975405 447.15816227 417.59380542 378.198436829 366.472922431 361.245280653 355.880667343 352.697802573 359.030811412 358.459885198 343.787251369 340.576034009 311.98977647 297.556062793 307.755774247 316.685428382 333.467963275 357.723162889 415.457928388 451.244348339 523.926489323 585.655417399 664.205682364 713.787919001 708.978334282 775.923586894 762.859918962 715.467053386 658.247840836 624.35174945 592.210792357 561.887729286 578.052870218 571.677301984 551.40856969 485.749624804 420.41393902 380.635884141 318.701067997 292.483773456 314.595679483 305.541932873 323.825494987 337.691438612 396.888751593 449.14080572 459.984041361 434.065635618 420.93116728 362.594008689 344.873760062 391.75963393 487.345993156 669.581911156 1028.10920467 1129.9336047 1298.79863919 1051.24244575 865.45934169 654.743439669 509.887066775 346.473701432 285.753116329 251.822885717 204.76214794 195.92241132 191.273990237 183.550214457 192.925898971 213.789834004 239.558921293 331.367473986 287.565764613 303.747413595 343.523083525 397.617611476 566.026139764 690.149953476 980.433474194 1083.62972957 1216.19782301 1192.01403467 1136.99480434
522.212762896 509.047674681 488.486225394 474.189592536 462.153184533 418.065374826 409.639840608 415.840118312 413.98515607 417.062844609 437.845103109 438.680241358 406.081773915 390.964247438 371.593612215 377.198794148 387.429036045 402.618375417 420.999249167 427.309706561 423.171794225 408.700151788 408.420472028 404.727999959 393.858936387 426.873100978 446.479664767 462.015704091 456.822132039 447.88766184 441.127565652 439.571322729 454.084568568 509.464121632 569.253594842 572.928243102 592.536000497 548.490328566 539.179546392 617.92451018 699.085848669 778.340616196 751.230448206 672.151936878 520.65077377 486.804548403 452.23910498 415.169819145 417.332770383 408.37280532 395.721894925 385.912675802 383.239399695 379.31258267 375.123026123 358.977086542 329.151548179 330.200723781 343.234546576 391.031036945 483.491537217 581.410037741 616.329296629 633.470439034 574.434999359 567.279283728 500.427125457 442.668584149 399.420386724 402.908764856 416.689196715 416.05363634 456.562691344 460.85895157 466.672080469 481.945981652 471.080037492 448.046197462 436.800045098 436.643833514 438.114567472 445.899452008 456.451549209 462.734532072 455.117192646 465.661043611 471.363187847 459.183809034 407.677005999 403.494473792 431.504598424 455.580074934 471.697706804 450.561696923 461.137410299 457.201094663 455.921239677 481.174569624 503.624957706 536.337983276 572.252987328 608.790377242 614.002427865 573.237059222 473.513116669 422.613505407 367.146971347 363.955859995 370.164685672 376.844180362 376.59973331 357.883205854 363.237414732 374.650915652 398.39990337 413.880047135 451.640617517 453.56838607 533.942794581 599.907545251 614.162380898 618.676654742 594.526797357 520.155147578 531.393682268 538.805999299 669.547221712 598.954962753 577.13086607 530.866036686 485.591218192 527.755640313 563.112270888 619.020914578 680.471365137 669.884454864 646.069123972 609.012234862 519.125371756 438.566542065 391.363725016 365.781497338 348.77896972 332.26119257 319.692196188 304.668989174 302.169215744 298.546130356 318.850273455 319.098226829 328.477583486 356.043042728 362.503112305 359.167778723 358.433369706 363.373038089 393.193407477 423.206329957 386.734949855 395.147187052 437.575012718 478.177885897 408.31526469 404.521761781 460.891908131 501.009416859 588.043248125 585.379034013 624.102627134 626.902534895 621.633207552 553.37356345 450.468575658 362.891379536 307.456308767 249.979231177 207.150416449 193.759472267 202.773320305 219.523070157 252.105277888 290.525432032 392.493254576 466.013702458 504.078088707 485.017415513 436.236374165 419.405005886 416.480365859 490.114107682 683.452124234 773.358916166 841.917702072 736.159678303 763.314427211 520.547552681 431.031749787 350.976204791 318.879406209 289.397394714 298.940047501 288.484898682 271.513063211 267.075710198 232.483306631 236.512294216 314.548194333 363.551357283 374.825994937 441.093692099 426.407262124 398.813694129 411.972763358 489.784443266 769.181633089 1056.69739162 1212.9505606 1324.09345886 1360.08325303 1531.14283591
449.810439798 444.929325917 423.87680158 399.011636534 370.638724618 372.816394055 362.318727131 370.901020235 388.030862649 409.833508003 431.39569074 481.342887908 466.053917211 435.788228983 390.504570941 375.793845184 389.265034185 407.975349907 429.215839688 435.319467744 418.087570084 391.045002421 379.037648518 355.782438794 366.319792065 371.996156786 396.193039362 400.04147063 381.877205272 378.85830476 365.886811102 369.365995778 378.993837023 403.201539036 423.0600593 444.138786276 456.520911606 432.146023018 448.579155929 464.525544902 583.369302327 693.152034709 708.682772083 636.281494197 563.001988145 474.546371749 489.329593438 529.187520105 472.420487961 432.706506588 416.725408144 415.505488202 390.729052346 394.315672612 408.401790732 397.679190297 383.192111234 379.889959312 401.036632364 458.499533131 509.343893896 572.683506858 556.991234496 474.369188482 478.674759104 482.246540671 432.015072971 396.980097702 396.351155054 426.065579612 441.597397816 434.785074074 424.11446658 453.017470076 449.946248014 472.147755929 514.325644449 469.471351585 379.497784079 429.031753541 440.224740495 446.589516027 462.951108279 472.093669327 455.41306215 442.276528153 460.815557755 435.789826738 407.464558493 411.940968836 411.754450022 465.854420219 466.495672941 466.843052101 460.51738629 477.095590355 488.39552937 491.500159291 471.463639903 481.867461913 537.906989635 544.19803332 544.043408908 509.887528769 491.534058926 420.277088773 371.490231085 362.259934364 385.442948805 403.614214644 387.951313361 385.91070536 384.315595828 390.711947728 422.686173727 463.481220969 490.072897612 536.381891501 580.734028587 591.347084152 617.067864755 636.67355227 530.3829248 473.995851703 441.725983081 517.714485121 506.455617052 503.281700633 443.221348841 424.704849304 412.746163888 424.294187751 466.662823475 595.072080289 559.207231146 575.263407451 573.470302601 469.673877212 448.162879431 382.716479692 381.615845865 374.29406076 357.646475269 342.81363459 340.11083772 328.009653573 345.452755245 389.135668912 393.518663469 373.26923931 384.334115726 392.04211229 403.063147826 380.146797343 364.403977295 342.742711518 348.107654316 361.135223867 344.501595866 334.737870439 316.137632455 291.712548871 300.836081752 304.963826596 321.388531553 372.92658882 407.470649181 466.06412234 520.389532593 582.411630619 609.908406718 563.985179571 477.45720089 375.305774516 326.068469372 353.43139427 213.861827446 207.918678715 251.162501622 225.214324056 302.611228735 325.646284906 364.851732555 481.300123109 520.588292592 503.849940503 454.508540689 401.67136799 349.321327017 370.094043381 387.09451003 407.930370629 423.59643038 385.611090618 347.55556212 289.046936449 281.449309128 303.813456633 370.103908224 370.017820752 349.93813634 406.430686722 404.791417143 426.338318032 419.473693089 423.13691789 475.69343561 520.529022269 552.64095227 525.646134416 498.951343687 359.116262085 343.425806588 550.814316792 668.203044916 1077.26534467 1552.74874307 1635.68736327 1719.60565446 1929.23897501
432.747913393 391.931385388 368.442105849 338.633307564 304.523203396 284.214099969 303.873477722 348.432872126 379.921547115 392.733928195 423.054711975 413.543699086 408.048556942 439.497036072 432.56096935 412.37890599 405.375892262 398.892764166 425.474388004 441.908657318 428.972649635 422.759437153 419.419134106 354.3600083 315.763232769 336.465703354 320.899903739 333.142947406 338.619210576 337.003799004 347.346348133 372.507373198 379.18672693 403.132565957 429.425358213 410.067604407 407.733937207 397.420633037 364.411917038 350.670183426 377.78755926 420.353158374 441.187234007 400.725784657 364.025154576 394.525739746 432.097191017 448.74259065 443.440889272 414.437407595 430.740785865 447.902604891 442.874876698 420.144130871 450.005936247 458.497711162 462.750098865 438.389536281 436.61577087 428.288169101 416.331728604 453.90749313 426.186646473 380.682422821 378.46773465 421.306376502 419.008371144 419.837709331 439.571726194 473.916860325 510.638074729 484.002645512 465.154351244 489.913287339 436.783776369 493.953126041 558.020290094 489.649702821 497.649467057 517.679668979 520.966560057 496.907254917 476.496407495 495.686913425 467.993045332 447.606230977 462.014058363 546.861053266 554.465354181 511.378427735 496.939846145 490.308523641 515.465280668 459.840402941 450.187430806 463.265780469 468.719948286 423.657723846 364.390395598 379.205153391 419.302220971 421.382995596 374.505289083 369.302306048 382.855060828 392.377925461 388.167069495 382.866006955 424.745215817 451.340829868 430.515950546 415.425075799 405.911982121 396.745701743 418.587843587 435.848971347 453.6020345 442.092591819 474.919075957 496.560061592 448.980633523 464.744795386 386.583364259 317.769054426 370.563680226 393.764470539 432.393703561 395.560432298 416.776376915 402.977547778 402.115633502 416.383001758 406.065384648 405.668815054 367.125365552 345.425518239 310.370104309 333.630890875 391.88172897 354.17775864 393.487677785 496.777714497 474.403716504 475.883715482 466.153636942 542.983426606 520.12349221 562.509879372 568.464916722 519.031754541 458.426138497 444.221937254 425.625709284 378.196326211 328.407982769 316.921792958 322.919861551 330.351918679 333.226677706 354.681565517 363.544263074 366.344460037 366.101163773 352.977269904 340.480814089 364.218666404 404.749433326 364.994982975 343.808294044 421.178998533 444.377849591 553.391550135 513.350056798 517.503038763 536.772395607 599.617119348 634.973239441 626.332874069 596.651373373 638.158070037 603.523586486 477.208724413 451.485966815 469.430238175 437.811394833 426.330452131 380.223400298 336.599062091 312.758063691 255.778860745 232.359303075 244.897640569 277.665995788 308.627666576 300.979168843 309.131033909 321.865032353 425.25573134 514.659657881 494.989210498 449.318398316 528.725451387 633.642451473 504.659120238 501.663286143 489.984948773 475.172892249 540.707477672 526.702985689 494.410740151 448.632819006 406.10489183 278.253792976 414.247379416 1061.96736716 1421.62793366 1993.54112026 1928.13704553 2144.75821576 1880.13079944
411.909412523 384.515790548 363.917354208 329.766928946 304.604628971 278.933248742 292.786603542 324.313815189 384.457953143 393.41236398 405.866191793 381.650719272 428.885011479 413.139726422 365.400249686 344.234783671 336.697208698 353.347124992 372.726322047 377.523016795 361.019696518 378.680090129 399.25111872 385.190349588 325.411910313 319.54082563 284.531761564 297.142825968 301.463684857 311.160370506 318.484554421 336.352189498 307.585759975 344.573104068 370.933368044 383.449368921 429.199289649 428.872883731 390.177843666 400.826258714 509.932196356 608.33477405 551.180593162 501.661424349 533.396392686 685.362088192 578.566051742 509.942878249 414.984429879 351.347862198 380.655667433 381.455513425 356.354152631 340.317350048 381.721863241 403.408328024 418.92723588 405.085608667 366.971787118 399.274159133 470.35226407 561.167328083 572.740796564 511.325409201 639.238151079 843.825354658 573.953877433 451.477513371 326.715151306 404.880944581 460.759825104 468.19510273 476.55561443 481.471423324 431.927271604 327.153468943 446.890658675 437.548854573 425.546314462 442.411433641 392.366087501 319.480937022 363.53994141 375.608537253 317.315976722 295.887788955 336.942287625 337.20288954 408.739020428 397.148169142 326.455581305 212.156685969 280.654873981 400.981385049 576.29074594 551.63556405 422.078994853 355.530820454 289.914042738 387.161843606 509.698110689 655.89291717 566.654325537 526.708392046 576.264004047 689.606157594 506.30413334 403.000792273 312.522136516 388.870165739 399.111896727 421.179072729 393.683650153 411.584519558 443.365746705 441.137017365 454.108325712 478.641626665 560.129745493 527.188075835 522.267237856 500.467054876 447.933491786 469.188815094 503.998783414 429.263860267 434.746073571 529.183963614 537.85065415 467.046248025 443.052799193 412.231089554 484.255706344 594.618714928 663.673074844 534.135964892 565.817877455 816.741461538 617.868169538 439.472200177 273.187117256 256.908933309 344.474824219 348.837154745 343.214829743 321.751671948 324.672391706 364.081553046 366.918689201 352.206899104 262.507940682 288.960153109 386.508261566 446.143034227 466.23354283 367.165700423 332.823874538 318.148081326 370.060587273 436.705851748 573.660396512 557.420301208 540.103670966 584.859044907 588.737503981 643.407499619 811.658232746 662.351319044 649.107526458 1150.48728803 2117.76316909 1249.07033156 521.375598605 225.486644421 261.993545036 349.145298991 292.328590621 194.50832303 270.237742154 297.289459508 348.500487805 365.91865229 394.910818048 319.491428639 362.102197267 613.309917942 1002.53381231 1149.30346908 661.398745723 543.689691137 655.034056915 807.618774804 738.260384507 637.30118329 568.788691877 599.018619883 617.268773126 602.690615613 421.773328516 336.991527408 307.620773106 381.410911932 469.792683 469.972411254 504.458740135 395.761581249 200.264679083 305.545256865 367.616265007 316.693089538 355.523518144 522.561665428 742.993176353 530.075253503 710.972221311 1436.97523317 1641.51294186 1859.65884216 2092.17665527 1866.19581467
