DSAA
220 101
-636.434375589 1066.43437559
237.542524411 1018.9769
10.5463635628 439.0464
65.5576390736 65.5576539438 65.5576958815 65.5577580464 65.5578306284 65.5579023728 65.5579622435 65.5580007044 65.558010368 65.5578657926 65.557800889 65.5577015257 65.5575667638 65.5573964317 65.5571912539 65.5569532764 65.5566866298 65.5563986242 65.5561010559 65.5558113773 65.5555530499 65.5553541169 65.5552445063 65.5552442261 65.5553760961 65.5556326879 65.5559869708 65.556259002 65.556642729 65.5570078875 65.5573259903 65.5578040462 65.5579679739 65.5580981135 65.5580602816 65.5579376029 65.5577729857 65.5575633702 65.5573823243 65.5572912989 65.5573466049 65.557579213 65.5579676562 65.5584463113 65.558928025 65.5593320902 65.5596029937 65.5598234345 65.5597602097 65.5595800379 65.5593570638 65.5591918913 65.5591915441 65.5594320603 65.5598763002 65.5604283113 65.5608486512 65.5610546994 65.5610332074 65.5608558501 65.5606592071 65.5606222742 65.5608151291 65.561365381 65.561690493 65.5618566905 65.561875965 65.5617805094 65.5618024938 65.5621197379 65.5625530716 65.5628033097 65.5627349793 65.5627643905 65.5631776718 65.563510839 65.563487343 65.5636788849 65.564103261 65.564102637 65.5644821564 65.5645908411 65.5649424413 65.5651028277 65.5653189986 65.5656444779 65.5659665533 65.5661873456 65.5664094268 65.5667313684 65.5671000567 65.5673911384 65.567614173 65.567902641 65.5682861429 65.568640058 65.5688905259 65.5691389945 65.5694911106 65.5698773303 65.5701697701 65.5703932215 65.5706826648 65.5710503704 65.5713707178 65.5715896208 65.5718103726 65.5721126101 65.5724214649 65.5726395689 65.5728055996 65.5730199294 65.5732710432 65.573467493 65.5735928008 65.5737228815 65.5738876164 65.5740297767 65.57411177 65.5741733321 65.5742507414 65.5743154084 65.5743376054 65.5743393461 65.5743458167 65.5743340268 65.5742833887 65.5742207703 65.5741712886 65.5741034739 65.5739858627 65.5738523675 65.5737490073 65.5736504429 65.5734877185 65.5732923064 65.5731440841 65.5730357913 65.5727929498 65.5726794771 65.572397986 65.5723635929 65.5719824855 65.5718294456 65.5718038807 65.5714423348 65.5710512974 65.571022614 65.5710402309 65.570713175 65.5702180648 65.5698798633 65.5698561934 65.5699286906 65.5698448105 65.569769336 65.5694490477 65.5685587979 65.5682747111 65.5683422008 65.5687874727 65.5692456958 65.5694472448 65.569216999 65.5685406571 65.5676680008 65.5667613953 65.5662430254 65.5662491438 65.566672732 65.5672975185 65.5678938454 65.5682759112 65.5683010364 65.5679593064 65.5672522915 65.5662864489 65.5652446422 65.5643469943 65.5637822491 65.5636427355 65.5638962314 65.5644289083 65.5650945633 65.5660399462 65.5666935484 65.5671418364 65.567349875 65.5672451655 65.5662212713 65.5656016711 65.5647881296 65.5638567935 65.5633602549 65.5623166586 65.5615370188 65.5611268312 65.5611282752 65.5615040427 65.5621859985 65.5630739121 65.5640657479 65.5650722415 65.5660237788 65.5668704789 65.5675788598 65.5681276701 65.5685043384 65.5687026581 65.5687218602 65.5685670081 65.5688197584 65.5682950845 65.5676485335 65.5669316343 65.5662086488 65.5655508498 65.5650269503 65.564691878 65.5645775769
65.5576556622 65.5576712901 65.5577126889 65.5577759857 65.5578498279 65.5579227895 65.5579837938 65.5580233884 65.5580343427 65.5580116482 65.5578231674 65.5577264489 65.5575948919 65.5574282717 65.5572271944 65.5569935215 65.5567311412 65.556447092 65.5561529255 65.5558659587 65.5556097033 65.5554124487 65.5553031071 65.5553115914 65.5554453584 65.5557030123 65.5560569556 65.5564665458 65.5566929356 65.5570537248 65.5573680379 65.5578551202 65.5580181713 65.5580840749 65.5581133813 65.5579934862 65.5578316039 65.5576278742 65.5574531925 65.5573730224 65.5574346841 65.5576713405 65.5580601358 65.5585352997 65.5590110791 65.5594089169 65.5596751244 65.5598984613 65.5598367231 65.5596616373 65.5594473626 65.5592934939 65.5593141875 65.5595575231 65.5599933305 65.5604862291 65.5609349156 65.5611322885 65.5611134546 65.5609505257 65.5607783394 65.5607548004 65.5609873933 65.5614731361 65.5618846161 65.5620015209 65.5619922244 65.5618706476 65.5619227763 65.5622095489 65.5625861038 65.5628417841 65.5628420978 65.562920882 65.5632556593 65.563541969 65.5636369749 65.563828888 65.5641388423 65.5642664564 65.5645475884 65.5647397847 65.5649679078 65.5652002236 65.565424407 65.5656678602 65.5659450677 65.5661938362 65.5664776848 65.5667758515 65.567050071 65.5673547154 65.5676578722 65.5679690172 65.5682560442 65.5685763248 65.5688896111 65.5692029189 65.5695235206 65.5698115483 65.5701236249 65.5704270354 65.5707309583 65.571004001 65.5712991037 65.571578932 65.5718504717 65.5721188667 65.5723508739 65.5725922081 65.5728175306 65.5730335944 65.5732181241 65.573406281 65.5735740162 65.5737266766 65.5738660847 65.5739753318 65.5740771391 65.5741606853 65.5742285983 65.5742740684 65.5743057623 65.5743192295 65.5743166771 65.5742966109 65.5742622381 65.5742088401 65.574141676 65.5740589337 65.5739695814 65.5738567645 65.5737347786 65.5736162165 65.5734711155 65.5733300908 65.5731893121 65.5730330796 65.5728705984 65.5727155218 65.5724979229 65.5723746076 65.5720977213 65.5719329927 65.5718143779 65.5715097329 65.5711874007 65.5711058376 65.5710632941 65.5707421676 65.5703110081 65.5700010225 65.5699409358 65.5701580138 65.5701877704 65.570235438 65.5696415663 65.5688968129 65.5685090786 65.5686040613 65.5690015289 65.5694407738 65.5696402628 65.569423423 65.5688755813 65.5679378397 65.5670447441 65.5665221221 65.5664998873 65.5669090943 65.5675253591 65.5681190001 65.5685024216 65.5685324987 65.5681965669 65.5674956951 65.5665338646 65.5654910662 65.5645862496 65.5640101328 65.5638590661 65.5640994583 65.564628204 65.5652923908 65.5662722181 65.5669289171 65.5673972406 65.5675889628 65.5674837544 65.5664277339 65.565808803 65.5649947687 65.5647835967 65.5636114631 65.562555954 65.5617638056 65.5613438033 65.5613328491 65.5617125773 65.5624009232 65.5632964124 65.5642944234 65.5653041152 65.5662554122 65.5670988007 65.5678016084 65.5683435084 65.5687127493 65.5689037081 65.5689158904 65.5693923313 65.5690205213 65.5684888718 65.5678336052 65.567105671 65.5663694818 65.5656974715 65.5651604169 65.5648507736 65.5647146358
65.5577067424 65.5577214806 65.5577643301 65.557820513 65.5578919558 65.557962398 65.5580211662 65.5580592341 65.5580697524 65.5580480132 65.5579910932 65.5577628678 65.5576375211 65.5574789283 65.5572877547 65.557065873 65.5568170971 65.5565482504 65.5562704594 65.5560003249 65.5557602794 65.5555771487 65.5554780999 65.5555076868 65.5556400325 65.5558884254 65.5562265528 65.5566163145 65.5570165119 65.557141283 65.5574417744 65.5579372387 65.55809803 65.5582414549 65.5582114811 65.5581094502 65.5579535979 65.5577974286 65.5577231994 65.5576471243 65.5576837918 65.5579168498 65.5582852582 65.5587292518 65.5591722876 65.5595444732 65.5597979236 65.5599123424 65.5599952636 65.5598567288 65.5596884365 65.5595786701 65.5597406182 65.5598837373 65.5602714423 65.5607014441 65.5613709778 65.5612889117 65.5612949393 65.5611892091 65.5610851236 65.5611061959 65.5612999673 65.5617223678 65.5620484953 65.562218266 65.5621618919 65.5621623582 65.5621617039 65.5623925984 65.5626729475 65.5629399611 65.5630358311 65.5631690252 65.5634039298 65.563628482 65.5638418667 65.5640226404 65.5642376681 65.5644195825 65.5646686767 65.564858112 65.5650474791 65.565293306 65.5654933951 65.5657037997 65.5659798113 65.5662049155 65.5664989228 65.5668017424 65.5670410795 65.567353621 65.5676700936 65.5679900272 65.5682405111 65.5685646862 65.5688897331 65.5692148769 65.5695392899 65.5697903493 65.5701104277 65.5704264157 65.5707373695 65.5709751855 65.5712741808 65.5715645721 65.5718453761 65.5721155967 65.5723178366 65.5725661229 65.5728006468 65.5730206231 65.5731811872 65.5733729956 65.5735478328 65.5737052023 65.5738446337 65.5739401848 65.5740464372 65.5741337407 65.5742020286 65.574241628 65.5742759557 65.5742914224 65.5742883352 65.5742670177 65.574237606 65.5741849947 65.5741156499 65.5740301737 65.5739524614 65.5738404528 65.5737158989 65.5736090983 65.5734659743 65.5733461225 65.5732234797 65.5730615502 65.5729262521 65.5727819211 65.5725850943 65.5724278105 65.5722376165 65.5720737445 65.5718627754 65.5716319764 65.5713982451 65.5712570114 65.5711316795 65.5708184687 65.5704962566 65.5702390359 65.5703897427 65.5704084386 65.5707289796 65.5705428082 65.5700809175 65.5694543816 65.5692564774 65.569257768 65.5695398339 65.5698724936 65.5700174612 65.5703906443 65.569379007 65.5685694741 65.5677862444 65.5674952499 65.5672134664 65.5675408345 65.5680635375 65.5685769368 65.5688863391 65.5689167763 65.5685954736 65.5679407513 65.5670462836 65.5660741237 65.5652220714 65.5646650846 65.5646948791 65.5649608643 65.5651453988 65.5660195811 65.5667340336 65.5673429666 65.5682332258 65.5679492601 65.5678383204 65.5667448519 65.566150127 65.5663978126 65.5653092391 65.5641861236 65.5631710678 65.5624037142 65.5619891438 65.5619480313 65.5623033146 65.5629570617 65.563812174 65.5647676684 65.5657354385 65.5666473587 65.5674552741 65.5681274494 65.5686441999 65.5689941999 65.5691720665 65.5698691354 65.5696812286 65.5693165843 65.5687969519 65.5681566808 65.5674444064 65.5667221565 65.5660604316 65.5656681551 65.5652747136 65.5651357933
65.5577915687 65.5578043218 65.5578434501 65.5579016802 65.5579562337 65.5580206347 65.558074016 65.5581080649 65.5581164883 65.5580949721 65.5580408623 65.5579527826 65.5576932582 65.5575462004 65.557369697 65.5571657963 65.5569383712 65.5566940591 65.5564433729 65.5562016571 65.5559892618 65.5558300903 65.5557478856 65.5558085383 65.5559362494 65.5561668622 65.5564769705 65.5568331876 65.5571994838 65.5575432882 65.5578388618 65.558049125 65.5582967294 65.5583662566 65.5583563259 65.5582791661 65.5581611693 65.5582149608 65.5580833815 65.5580446175 65.5581385312 65.5582754261 65.558609933 65.559005948 65.5594006681 65.5597365179 65.5599736725 65.5600954097 65.5602293067 65.5601454046 65.5600418094 65.559989254 65.5603029081 65.5605427509 65.5609111416 65.5610070679 65.5616847394 65.5618476913 65.5618590073 65.5615252853 65.5614916935 65.5615453032 65.5620395726 65.5623320102 65.5625881405 65.5624413078 65.5625035343 65.562446885 65.562561943 65.5625713094 65.5627861153 65.5630657548 65.5632064117 65.5633589471 65.5635457313 65.563734762 65.5639947685 65.5641641508 65.5643430658 65.5645178185 65.5647747425 65.5649438932 65.5651143551 65.5653708524 65.5655481841 65.5657335335 65.5660151969 65.5662131085 65.566513606 65.5668238163 65.5670341573 65.56735413 65.5676782263 65.5680057864 65.5682257593 65.5685573185 65.5688898477 65.5692224021 65.5695539739 65.5697743157 65.5701015676 65.5704245608 65.5707421314 65.5709508205 65.5712565465 65.5715533592 65.5718400887 65.5721155834 65.5722929488 65.5725469222 65.5727865354 65.5730108348 65.5731517792 65.5733484177 65.5735273786 65.5736880395 65.5738298683 65.5739136975 65.5740230024 65.5741124877 65.5741820383 65.5742169972 65.5742532223 65.5742697022 65.5742667279 65.5742446731 65.5742189755 65.5741661813 65.5740957999 65.5740085077 65.5739405659 65.5738272065 65.5737006642 65.573607485 65.5734626997 65.573358126 65.573251074 65.5730845546 65.5729642247 65.5728378768 65.5726366057 65.5724891317 65.5723323886 65.5721780778 65.5719322375 65.5717425417 65.5715532226 65.5713912232 65.5712298368 65.5709174077 65.5706703493 65.57093602 65.5708082264 65.5711804389 65.5711645242 65.5716673186 65.5713047797 65.5708483216 65.5701839725 65.5701483845 65.5703089139 65.5711508207 65.5712783169 65.571098966 65.5701064469 65.5700112388 65.5692834692 65.5688093762 65.5682608077 65.5684786798 65.5688632555 65.5692501156 65.5694690878 65.5694616994 65.569158398 65.5685737221 65.5677863831 65.5669315556 65.5661736906 65.5661062583 65.5659006179 65.5660913487 65.5665921101 65.5667992611 65.5674082064 65.5683858852 65.5688075948 65.5689875249 65.5683104712 65.568565764 65.5679257755 65.5670682864 65.566072054 65.5650450736 65.5641141672 65.5634039252 65.5630094166 65.5629256661 65.5632349477 65.563819554 65.5645929548 65.5654633957 65.5663495159 65.5671874637 65.5679314502 65.5685508602 65.5690264263 65.5693469016 65.5702349401 65.5702307224 65.5700505133 65.569705306 65.5692152627 65.5686121195 65.567940778 65.5672586573 65.5669289769 65.5663503662 65.5659720273 65.5658335866
65.5579057566 65.5579155072 65.5579489175 65.5579992859 65.5580576457 65.5580952892 65.5581407841 65.5581688257 65.5581737894 65.5581518095 65.5581005318 65.5580188106 65.5579196729 65.5576267488 65.5574681268 65.5572863721 65.5570854676 65.5568718225 65.5566551314 65.5564490424 65.5562711148 65.5561414164 65.5560793455 65.5561760703 65.5562967918 65.5565045957 65.5567799715 65.5570953906 65.5574210096 65.5577294768 65.5579987418 65.5582130469 65.5584421383 65.5585224735 65.5585362585 65.5584948357 65.5586403273 65.5585930684 65.5585178377 65.5585192768 65.5586267646 65.5588466302 65.5589930702 65.5593373434 65.5596809455 65.5599792731 65.5602010331 65.5603331177 65.5608509858 65.5608015056 65.5607420063 65.560848296 65.5609364 65.5611465295 65.5614432164 65.561756041 65.5620120635 65.5622453578 65.5622972301 65.5622913938 65.5622952315 65.5625024501 65.5626552469 65.5628131912 65.5630007874 65.5631226225 65.5628095855 65.5630805216 65.5628398176 65.5629891781 65.5633616477 65.563195199 65.5633460116 65.5634999369 65.5636651423 65.5638335514 65.5641151685 65.564271976 65.5644315774 65.5645909614 65.5648609049 65.5650124689 65.5651660421 65.5654358372 65.5655928299 65.5657559906 65.5660457847 65.5662183303 65.5665259825 65.5668436288 65.5670265387 65.5673537066 65.5676851278 65.5680201002 65.5682112727 65.5685501016 65.5688899005 65.5692296664 65.5695683277 65.5697597346 65.570094055 65.57042389 65.5707480033 65.5709292781 65.5712417215 65.5715448466 65.571837412 65.5721181955 65.5722721755 65.5725317799 65.5727763854 65.5730049794 65.5731274499 65.5733288878 65.5735118774 65.5736757566 65.5738199609 65.5738927423 65.5740050044 65.5740965709 65.5741673184 65.5741978369 65.5742358537 65.5742532354 65.5742502889 65.5742274103 65.5742051407 65.5741520499 65.5740805555 65.5739913749 65.5739325363 65.5738175771 65.5736883973 65.5736076179 65.5734593064 65.5733678517 65.5732742733 65.5731007853 65.5729935683 65.572882022 65.57267273 65.5725398193 65.57240135 65.5722598991 65.571998477 65.5718317763 65.5716640466 65.5715019148 65.5713360609 65.5719150323 65.5715243632 65.571364494 65.572048384 65.5717794712 65.5726117193 65.5724973724 65.5722516352 65.5723584267 65.572147674 65.5719297885 65.5720296469 65.5721691519 65.5722038273 65.572219328 65.5718210597 65.5712644625 65.5707094293 65.5703257788 65.570214828 65.5702034536 65.5704900778 65.5707886231 65.5702193401 65.5701656108 65.5698785289 65.5693691959 65.5687001107 65.5679773329 65.5681045139 65.5675875922 65.5673781527 65.5674875624 65.5678538442 65.5682886502 65.5687139054 65.5691943928 65.5695245523 65.5696491854 65.5695898801 65.5692386971 65.568660886 65.5678986607 65.5670202344 65.5661176513 65.5652978889 65.5646658232 65.5643023785 65.5641718895 65.564422877 65.5649165402 65.5655806717 65.5663365655 65.5671126536 65.5678513466 65.5685102646 65.5690602918 65.5694825806 65.5711642669 65.5706695706 65.5706614515 65.5704943361 65.5701783364 65.5697318533 65.5691835372 65.568573587 65.5684374753 65.5677853722 65.5672553227 65.5669048408 65.5667712172
65.5580419581 65.5580478945 65.558074163 65.5581148392 65.5581621503 65.5582076736 65.5582188396 65.5582396056 65.5582401892 65.5582171937 65.5581685747 65.5580934286 65.5580058818 65.5578824082 65.55757715 65.5574193854 65.5572472195 65.5570667348 65.5568866229 65.5567185647 65.5565770125 65.5564779251 65.5564362381 65.5564624549 65.5566823209 65.5568662296 65.5571059059 65.5573797961 65.5576642795 65.5579372591 65.5581804436 65.558380388 65.5586118165 65.5587045812 65.5587440071 65.5587398251 65.5589789322 65.5590037491 65.5589827797 65.5590216803 65.5591409878 65.5593440424 65.5596143441 65.559699586 65.5599985002 65.5602648618 65.5604751312 65.5606193268 65.5612637095 65.5612795827 65.5612891393 65.5614818583 65.5615884245 65.5617750807 65.5620173532 65.5622696724 65.5624853447 65.5627266744 65.5628087616 65.5628525636 65.5628992231 65.5631508782 65.5632689485 65.5634120223 65.563492226 65.5635976271 65.5636702811 65.5637331076 65.5636023148 65.5638838019 65.5639838314 65.5637564735 65.5638731995 65.5636112116 65.5637631513 65.5639170336 65.5642146555 65.564358211 65.5645029015 65.5646476537 65.564931837 65.5650679163 65.5652060381 65.5654900561 65.5656287822 65.5657722236 65.5660714199 65.5662211902 65.5665362596 65.5668609632 65.5670189673 65.567352757 65.5676909371 65.5680327567 65.5681978223 65.5685433746 65.5688899168 65.5692363804 65.5695816233 65.5697468364 65.5700877414 65.5704239587 65.5707541734 65.5709106401 65.5712293576 65.5715383876 65.5718364103 65.5721221272 65.5722549695 65.5725198448 65.5727691205 65.5730017205 65.5731074628 65.5733133855 65.5735001341 65.5736670028 65.5738133919 65.5738761778 65.5739911812 65.5740846585 65.5741564764 65.5741829246 65.5742225794 65.5742407564 65.5742377772 65.5742140612 65.5741948625 65.574141443 65.5740688485 65.5739778388 65.5739271752 65.5738105656 65.5736783799 65.5736085406 65.5734556425 65.573375597 65.5732937807 65.5731122593 65.5730166751 65.5729178013 65.5726991424 65.5725794458 65.572455105 65.5723271375 65.5720537341 65.5719027878 65.5717493826 65.5725506463 65.5724507953 65.5732708679 65.5732036713 65.5729196636 65.57362649 65.5736219255 65.5735984633 65.5735106108 65.573862941 65.5736973695 65.5735703775 65.573305516 65.5733280008 65.5733667084 65.5733323323 65.5733890048 65.5730744317 65.5726559056 65.572236867 65.5719282236 65.5717997347 65.5716426673 65.5717791407 65.5719253714 65.5711196596 65.5710184283 65.5707422843 65.5702997427 65.5697383018 65.5702369158 65.5696372285 65.5691986533 65.5689901032 65.5690244578 65.5692598508 65.5695209015 65.5697836612 65.5701340662 65.570364403 65.5704273145 65.5703515427 65.5700230481 65.5695096458 65.5688475161 65.5680937259 65.5673236491 65.5666235249 65.5660773244 65.5656269241 65.5655755709 65.5657651222 65.5661598564 65.566702891 65.5673301593 65.5679815568 65.5686071378 65.5691688801 65.5696397125 65.5714482395 65.571720273 65.5711645306 65.5711533235 65.5710028943 65.5707224484 65.5703285436 65.569846517 65.5699838348 65.5693648834 65.5687927234 65.5683254184 65.5680130087 65.5678889754
65.5581910894 65.5581927311 65.5582111747 65.5582413825 65.5582768672 65.5583106215 65.5583359953 65.558317794 65.5583135764 65.5582891945 65.5582429061 65.558174043 65.5580979047 65.557989759 65.557862249 65.5575564078 65.5574124367 65.5572642886 65.5571195455 65.5569878635 65.5568806558 65.556810039 65.5567869581 65.5568188134 65.5570595556 65.5572217776 65.5574293068 65.557665956 65.5579136862 65.5581551767 65.5583756352 65.5585638336 65.5587996434 65.5589056236 65.5589704053 65.5590018936 65.5594231276 65.5594198691 65.5594467828 65.5595183105 65.5596483949 65.559838764 65.5600775732 65.5603423208 65.5603410646 65.5605843464 65.5607885249 65.5609460607 65.5617152158 65.5617861742 65.5618523905 65.5621157172 65.5622384769 65.5624116341 65.5626193837 65.5628333728 65.563024605 65.5631751231 65.5633839352 65.5634612765 65.5635360304 65.563822442 65.5639189294 65.5640268936 65.5647101476 65.5641477819 65.5642168055 65.5642753617 65.5643337114 65.5650131077 65.5644100956 65.5644747616 65.5641368258 65.5642365712 65.5638437101 65.5639855917 65.5642982437 65.5644289737 65.5645605128 65.564692066 65.5649909162 65.5651130494 65.5652370766 65.5655352169 65.5656576295 65.5657836479 65.5660925694 65.5662223724 65.5665446838 65.5668758153 65.5670119245 65.5673515869 65.5676957742 65.5680436832 65.5681858244 65.5685373577 65.5688899134 65.5692423551 65.569593467 65.5697357 65.5700824931 65.5704244234 65.5707600956 65.5708948015 65.5712191392 65.5715334651 65.5718363789 65.5721265053 65.5722408244 65.57251043 65.5727638939 65.5730000752 65.5730911356 65.5733010805 65.5734911961 65.5736607312 65.5738090506 65.5738630745 65.5739805253 65.5740756953 65.57414844 65.5741712839 65.5742123916 65.5742312558 65.5742282113 65.5742037004 65.5741871804 65.5741334406 65.5740598256 65.5739671364 65.5739236032 65.5738054131 65.5736701302 65.5736097684 65.5734518601 65.5733817466 65.573310191 65.5731203669 65.5730351297 65.572947369 65.572718596 65.5726105397 65.5724984893 65.5723832462 65.5720979851 65.5719597852 65.5730564509 65.5729893257 65.5740825535 65.5740834894 65.575445051 65.5747587762 65.574772145 65.5747806771 65.574765588 65.5760134191 65.5752441359 65.5751568051 65.5750852987 65.5747840389 65.5747566752 65.5747280152 65.5748991621 65.5747401586 65.5744806501 65.5741550706 65.5738283315 65.573570124 65.5734257185 65.5731505502 65.5731642978 65.5731827366 65.5721503327 65.5720039387 65.5717315342 65.5713399202 65.5722370348 65.5717088238 65.5712205952 65.5708477604 65.5706403403 65.5706099404 65.5707292184 65.5715248878 65.5709461653 65.5711711869 65.5713031722 65.5713034556 65.5712072935 65.5708970686 65.5704422639 65.5698730776 65.5692358164 65.5685901295 65.5680029392 65.5675387055 65.5670961593 65.5670346341 65.5671659831 65.5674646946 65.5678880788 65.5683863269 65.5689110583 65.5694205706 65.5698818568 65.5717604642 65.5721063822 65.5723296431 65.5717089958 65.5716952452 65.5715631081 65.5713208766 65.5709832535 65.5714154652 65.5708992123 65.5703750088 65.5698903692 65.5694932167 65.5692251841 65.5691149393
65.5583436417 65.5583409248 65.558351644 65.5583716539 65.5583957036 65.5584181151 65.558433435 65.558436925 65.5583913557 65.5583654052 65.5583210054 65.5582577007 65.558191995 65.55809782 65.5579885977 65.5578675761 65.5577391587 65.5574518624 65.5573384928 65.5572387359 65.5571613303 65.557115158 65.5571079472 65.5571447238 65.5574042927 65.557549176 65.5577308842 65.5579376225 65.5581559471 65.5583725444 65.5585756403 65.558755975 65.5589074456 65.5591179138 65.5592065536 65.559270363 65.5597844501 65.559829897 65.560563504 65.5599901812 65.5601310409 65.5603143965 65.5605322305 65.5607693766 65.5611623274 65.5614148161 65.5616376469 65.5618248168 65.5621926398 65.5623091259 65.562421549 65.5627421823 65.5628816075 65.5630516639 65.5632426504 65.56343741 65.5636182442 65.5637737281 65.5646901287 65.5641178805 65.5642132561 65.5652572489 65.5653685512 65.5654853301 65.5654992582 65.5655984618 65.5656794844 65.5657473888 65.5660307152 65.5657247476 65.5657686931 65.5658026278 65.5652847175 65.5653451627 65.5645927458 65.5650166466 65.5650873936 65.564487859 65.564607478 65.5647270968 65.5650404627 65.5651500194 65.565261267 65.565572832 65.565680809 65.5657915546 65.5661098952 65.5662224688 65.5665515435 65.5668883594 65.5670056361 65.5673503798 65.5676997735 65.5680529623 65.568175402 65.568532121 65.5688899004 65.5692475378 65.569603747 65.5697262429 65.5700781601 65.5704250659 65.5707654876 65.5708815046 65.57121074 65.5715296844 65.5718368608 65.5721308205 65.5722292443 65.572502978 65.5727600938 65.572999389 65.573077834 65.573291289 65.5734843394 65.5736561897 65.5738061713 65.5738526759 65.5739722569 65.5740688905 65.5741424213 65.5741621475 65.5742045161 65.5742239656 65.5742208418 65.5741956083 65.5741813823 65.5741273506 65.5740528257 65.573958647 65.5739212116 65.5738015791 65.5736633061 65.5736110568 65.5734481439 65.5733866503 65.5733240019 65.5731260894 65.5730500529 65.5729720775 65.5727329786 65.5726352584 65.5725341536 65.5739620673 65.5739409014 65.5735806442 65.5752736764 65.5752678665 65.5767723273 65.5768207977 65.5768438026 65.5780612519 65.5778198752 65.5778068648 65.5777640472 65.5776802426 65.578344886 65.5782460553 65.5781536833 65.5763829681 65.5763201249 65.5775693387 65.5764149862 65.5762486444 65.5760183402 65.5757463265 65.5754725594 65.5752395934 65.575075473 65.5747043698 65.5746191308 65.5745334997 65.57437097 65.5741499983 65.5738331986 65.5734268389 65.5736484462 65.573213522 65.5728077372 65.5724826045 65.5722727058 65.5744778327 65.5728404834 65.57297424 65.5721625829 65.572274131 65.5723149434 65.5723132709 65.572134324 65.571835432 65.5714280395 65.5709368262 65.5703984258 65.5698587171 65.5693680064 65.5689740461 65.5685401598 65.5684695494 65.5685491084 65.5687613134 65.5690753653 65.5694540194 65.5698597547 65.5717281605 65.5721605716 65.5725244648 65.5728007953 65.5729766575 65.5722897486 65.57227368 65.5721595702 65.571954815 65.5726605422 65.5722735073 65.5718471992 65.5714160247 65.5710181258 65.5706916303 65.5704697649 65.5703759742
65.5584906866 65.5584839872 65.5584878038 65.558498796 65.5585127898 65.5585252452 65.558531725 65.55852828 65.5585117175 65.5584431457 65.5584001171 65.5583413091 65.5582844239 65.5582019584 65.5581080525 65.5580059899 65.5578999902 65.5577952158 65.5575316118 65.5574577276 65.5574043108 65.5573777664 65.5573834519 65.5574247256 65.5575021517 65.5578335154 65.5579969812 65.5581825113 65.5583801686 65.5585797589 65.5587719194 65.5589490015 65.5591057434 65.5593336526 65.5594442815 65.5604566424 65.5601297966 65.560213651 65.5610883498 65.5612095209 65.5613656986 65.5607621029 65.5609690303 65.5611908553 65.5614152878 65.5618215404 65.5620530486 65.562261992 65.5626848282 65.5628398366 65.5629912553 65.5639461926 65.563517255 65.5636935123 65.5638821378 65.5640729701 65.5642552834 65.5644216811 65.565472798 65.5656245696 65.5657709489 65.5661297519 65.5662483827 65.5663674557 65.5664801815 65.5664746706 65.5665616041 65.5666343848 65.5669302548 65.5669381837 65.5676326411 65.566588071 65.5665921903 65.566583992 65.5673142455 65.5662090732 65.5664776133 65.5654669896 65.5656349183 65.5647549089 65.5650822158 65.5651804862 65.5652802343 65.5656042001 65.565699515 65.5657969692 65.5661240662 65.5662219221 65.56655712 65.5668988651 65.56700016 65.5673492336 65.5677030694 65.5680607646 65.5681664955 65.5685276401 65.5688898835 65.5692519628 65.5696125271 65.5697182914 65.5700745937 65.570425759 65.5707702443 65.5708704182 65.5712038495 65.5715267521 65.5718375791 65.5721348151 65.5722197731 65.5724970472 65.5727572922 65.572999249 65.573066995 65.5732834614 65.5734790264 65.573652854 65.573804245 65.5738443806 65.5739657859 65.5740636663 65.5741378559 65.5741549243 65.5741983722 65.5742183156 65.5742151097 65.5741892373 65.5741769531 65.574122665 65.5740473484 65.5739518772 65.5739195941 65.5737986852 65.5736576455 65.5736122886 65.5734446312 65.5733905897 65.5733356331 65.5731301287 65.5730622485 65.572992877 65.5727436497 65.5746251018 65.5745337154 65.5766251576 65.5764916456 65.578735449 65.5781138672 65.5782493989 65.5783569269 65.5804537971 65.5798428809 65.5799618452 65.5797119725 65.5796928782 65.5796409483 65.580407949 65.5803324476 65.580240221 65.5801451966 65.5797475495 65.5795880603 65.5794149692 65.5780725128 65.5778905416 65.5776672974 65.5774172901 65.5771647637 65.5769350325 65.577886522 65.5762936356 65.5761263504 65.5759548984 65.5757080729 65.575435376 65.5750999781 65.5754541837 65.5750962277 65.5747231439 65.5743716654 65.5767521676 65.5765128587 65.576378691 65.5743844344 65.5744102116 65.5762886969 65.5734144219 65.5733733754 65.5733149179 65.5731068476 65.5728107911 65.5724366803 65.5720044451 65.5715425509 65.5710855204 65.5706702046 65.5700979454 65.5699046145 65.5698248687 65.5698599625 65.5699981593 65.5702178983 65.5704921836 65.5723220705 65.5726845978 65.5730177232 65.5732992227 65.5735120595 65.5736442856 65.5728920323 65.5728735511 65.5727756303 65.5737120553 65.5734491852 65.5731333534 65.5727881243 65.5724411292 65.5721222554 65.5718609167 65.5716826708 65.5716058976
65.5588207113 65.558614515 65.5586128508 65.5586167279 65.5586228132 65.5586274441 65.5586269615 65.5586180183 65.558597834 65.5585643879 65.5584775002 65.5584218877 65.5583717384 65.5582980581 65.5582156341 65.5581277532 65.5580384703 65.5579525105 65.557875127 65.557811883 65.5575997088 65.5575877963 65.5576034854 65.5576490731 65.5577249026 65.5580649472 65.5582180153 65.5583913514 65.558577465 65.5587683773 65.5589564733 65.5591352896 65.5593001716 65.5604530724 65.5606891603 65.5607996851 65.5609006438 65.5605662296 65.5615651781 65.5617100383 65.56187926 65.5620732343 65.562287623 65.5615980326 65.5618194744 65.5622284096 65.5624742563 65.5627068835 65.5629261694 65.563370781 65.5635569815 65.5646103514 65.5648145257 65.5650329324 65.56526221 65.5654959525 65.5657271153 65.565950493 65.566290064 65.5664717252 65.5666481152 65.5670369831 65.5671730927 65.5673068638 65.5674342193 65.5675515003 65.5686565602 65.5676216112 65.5691232913 65.569180151 65.5692289663 65.5688227488 65.5688568757 65.5691293739 65.5690602899 65.5682938715 65.5682490941 65.5672329238 65.5688876873 65.5677062693 65.5676983757 65.5665033776 65.5652952182 65.5656304185 65.5657147022 65.5658006513 65.5661356788 65.5662210335 65.5665616621 65.5669076306 65.5669954602 65.5673481927 65.5677057857 65.5680672937 65.5681589534 65.5685238422 65.5688898657 65.5692557075 65.5696199596 65.569711638 65.5700716576 65.5704264347 65.5707743638 65.5708611995 65.571198191 65.5715244527 65.5718383757 65.5721383858 65.5722120134 65.5724922941 65.5727551939 65.5729994044 65.5730581397 65.5732771647 65.5734748636 65.5736503644 65.5738029411 65.5738377186 65.5739606721 65.5740596058 65.5741343446 65.5741491657 65.5741935299 65.574213888 65.5742106032 65.5741841756 65.5741735251 65.5741190164 65.5740430207 65.5739464421 65.5739184857 65.5737964681 65.5736529373 65.5736134131 65.5734414012 65.5733937819 65.5733454412 65.5731329836 65.575556522 65.5780311871 65.578121602 65.5806758483 65.5779372492 65.5803462258 65.5805231112 65.5826081928 65.5828532796 65.582674891 65.582717687 65.5842570237 65.5843043825 65.5843340152 65.5818380756 65.5838922875 65.5826353887 65.582565803 65.582473436 65.582364858 65.5822480493 65.5818083501 65.5815978814 65.5813722379 65.5814817919 65.5811957684 65.5808872914 65.5805663513 65.580248367 65.579948808 65.5796773522 65.5779099475 65.5776710288 65.5773874987 65.5770977126 65.5767737594 65.5764113942 65.5768852332 65.5765537209 65.5793051249 65.5789408438 65.5786214886 65.5783655896 65.5781782652 65.5758691159 65.5778160735 65.5777913391 65.5777451405 65.5774921314 65.5743381419 65.5740978995 65.5737952784 65.5734390973 65.5730454968 65.5726364685 65.5722376876 65.5718756722 65.5713300312 65.5711538794 65.5710641814 65.5710619731 65.5711394234 65.572829714 65.5730683107 65.5733340179 65.5736025984 65.5738519509 65.5740631968 65.5742212854 65.5743153276 65.5735005877 65.5734793035 65.574598706 65.5744387239 65.5742223643 65.5739655028 65.573687627 65.5734107916 65.5731581134 65.5729518172 65.572811017 65.5736725884
65.5589528091 65.5589387402 65.5587210193 65.5587202343 65.5587211419 65.5587206514 65.5587156047 65.5587030363 65.5586804198 65.5586458825 65.5585983713 65.5584968253 65.5584510029 65.5583827247 65.5583073537 65.5582281807 65.5581491687 65.558074793 65.5580098418 65.5579591714 65.5579274101 65.557738576 65.557761483 65.5578113041 65.5578883063 65.5582365728 65.5583869078 65.5585569065 65.5587405349 65.5589311485 65.5591221969 65.5593079344 65.559484048 65.5607185361 65.5609786467 65.5611159409 65.5612450817 65.5613728501 65.5619873606 65.5621529947 65.5623364693 65.5625387095 65.5627573755 65.562987398 65.563222083 65.562438056 65.5628896433 65.5631486291 65.5633997381 65.5638943773 65.5650220264 65.5652451667 65.565476915 65.5657184386 65.5659683638 65.5662233445 65.5664792715 65.5667326323 65.5669814729 65.5673414178 65.5687464288 65.5689544071 65.5691662888 65.5693805526 65.5695948373 65.5698067826 65.5698485207 65.5700209309 65.5703746896 65.570458592 65.5705331641 65.57158956 65.571719604 65.5720211576 65.5720258427 65.5711653951 65.5711692883 65.573175744 65.5719523469 65.5719258016 65.5704804658 65.5725813605 65.570977142 65.5692927103 65.5697299239 65.5697315263 65.5680845407 65.5684835818 65.5665653775 65.568960538 65.5693835064 65.5673472707 65.5677080296 65.5703139151 65.5707536359 65.5685206369 65.5688898485 65.5692588644 65.5721475175 65.5725861761 65.5700692341 65.5704270603 65.5735103422 65.5739261572 65.5711935296 65.5715226289 65.5718391659 65.5751482561 65.5755003065 65.5724884544 65.5727535966 65.5761856575 65.5764667957 65.5732720625 65.5734715641 65.5736484751 65.5771762683 65.5773414672 65.5739565892 65.5740564096 65.577595258 65.5776653733 65.5741896721 65.5742103781 65.5742070208 65.5776897545 65.5776371472 65.5741161398 65.5740395659 65.5774330633 65.5772984199 65.5737947442 65.5771158413 65.5769470942 65.5801254978 65.580180583 65.5799678321 65.5832147392 65.586417385 65.5830477968 65.5861101688 65.5862209216 65.5890446756 65.5858040443 65.5858816997 65.5882190747 65.5883297572 65.5880943708 65.5879619717 65.5869618884 65.5869722358 65.586962622 65.5866238945 65.5864280106 65.5872317572 65.5869960447 65.5867527223 65.5865055362 65.5862586083 65.5860146763 65.5836929372 65.5837836609 65.583464152 65.5831314208 65.582787978 65.5824400685 65.582096042 65.5817635825 65.5814468924 65.58114498 65.5792373809 65.5788705426 65.5785135648 65.5781362858 65.5786327545 65.5817702285 65.5814087857 65.5810428135 65.5806913213 65.5803709302 65.5800921162 65.5798567675 65.5794658117 65.5793485044 65.5792324499 65.5790968563 65.5787625439 65.5753572915 65.5750810561 65.5747619137 65.5744080353 65.5740328326 65.5736535649 65.5732894738 65.5729596146 65.5724320565 65.5722639492 65.5721633003 65.5721306074 65.5737881063 65.5739089502 65.5740733811 65.5742629111 65.5744585105 65.5746420425 65.5747973681 65.5749111735 65.5749735826 65.5741007629 65.5753599594 65.5752774898 65.5751399444 65.5749577354 65.5747446833 65.5745171626 65.5742930113 65.5740902464 65.5739256579 65.5748109428 65.5747657462
65.559053413 65.5590383883 65.5590312214 65.5590295051 65.5588038188 65.5588013825 65.5587946144 65.5587806814 65.5587571281 65.5587221033 65.5586745449 65.5586143082 65.5585200136 65.5584534537 65.5583803005 65.5583038736 65.5582281552 65.5581576086 65.5580969574 65.5580509259 65.5580239477 65.5580198522 65.5578523852 65.5579063145 65.5579871676 65.5583428474 65.5584979046 65.5586732508 65.5588633653 65.5590620736 65.5592631923 65.5594612002 65.559651835 65.5609590667 65.5612389535 65.5613983166 65.561549746 65.5616988872 65.5623485299 65.5625319214 65.5627301516 65.562944791 65.5631748518 65.563417044 65.563666469 65.5639176205 65.5637050194 65.56357728 65.5638614721 65.5654410495 65.5658927725 65.5658432077 65.5661041415 65.5663729471 65.5666497588 65.5669331905 65.5672208247 65.5675099664 65.5677983722 65.5682182938 65.5697033703 65.5699514902 65.5702037574 65.5704593126 65.5707167417 65.5709743045 65.5712302451 65.5728635838 65.5730668933 65.5732734133 65.5734810082 65.5736875287 65.5752254188 65.5753712725 65.5755203711 65.5756699612 65.5770166434 65.5771125214 65.5772114627 65.5759656511 65.5784235105 65.5768535524 65.5794665663 65.5776620236 65.5803971418 65.5784320649 65.5791732529 65.5821126394 65.579974245 65.5807517563 65.5815402314 65.5823384305 65.5823770925 65.5831857525 65.5840004046 65.5848186385 65.5883532256 65.5856782807 65.5864968929 65.5873094083 65.588111989 65.5881504797 65.588940608 65.5897121799 65.5904607594 65.5944935159 65.5912172635 65.591907321 65.5925608618 65.5931737254 65.5932023195 65.5937710791 65.594291526 65.5947605085 65.5990379745 65.595195508 65.5955540357 65.5958544303 65.5960955677 65.5961058686 65.5962871845 65.5964086005 65.5964705856 65.6006749461 65.596474457 65.5964210706 65.596312419 65.5961506029 65.5961416786 65.5959295878 65.5956693957 65.5953638196 65.5992510194 65.5949994647 65.5946314945 65.5983663095 65.5942222807 65.5977957829 65.593761484 65.597075041 65.5932284963 65.5961302323 65.596055714 65.5959850214 65.5947813661 65.594648589 65.5945154567 65.5943844953 65.5928301768 65.5926185016 65.5924031974 65.5921865444 65.5919709283 65.5901159502 65.5898177742 65.5895141301 65.5892071458 65.5888990599 65.5885917898 65.5882865706 65.5858415358 65.5858501711 65.5854668294 65.5850786383 65.5846887417 65.5843010632 65.5839192617 65.583545586 65.5831800749 65.584974251 65.5843911125 65.5803549195 65.5799301898 65.581841529 65.5837839901 65.5834184187 65.5830436223 65.5826714222 65.5823136368 65.5819795793 65.5816740104 65.5813959826 65.5809612615 65.5807763146 65.5805863907 65.5803767905 65.5799742861 65.5763489034 65.5760319704 65.5756858884 65.5753186968 65.5749421916 65.5745706297 65.5742190995 65.5739017967 65.5733848223 65.5732164918 65.5731042544 65.5747368531 65.5747617608 65.5748374512 65.5749513316 65.5750886264 65.5752336057 65.5753707622 65.5754858793 65.5755669547 65.575604956 65.5760296965 65.5760030542 65.5759240019 65.5757985937 65.5756364564 65.5754500508 65.5752537034 65.5750624942 65.5759507663 65.5758016203 65.5757037228 65.5756663454
65.559117323 65.5591031532 65.5590973278 65.5590973262 65.5590172656 65.5590251286 65.5590293045 65.5590265303 65.5590139143 65.5589891877 65.5589509131 65.5588986376 65.558832979 65.5585087707 65.5584327164 65.5583526932 65.5582728278 65.558197834 65.5581328045 65.5580829469 65.5580532598 65.5580481563 65.5580710601 65.5582331907 65.5583343386 65.5584664613 65.5585458591 65.5587353556 65.5589411063 65.5591565189 65.5593750523 65.559590888 65.5609604546 65.5611721557 65.5619320501 65.5621226262 65.5623053171 65.562486629 65.5626734022 65.5628389515 65.5630515541 65.5632816576 65.5635291277 65.5637914134 65.5640640924 65.5643417531 65.5646190252 65.5651442212 65.5656818651 65.565955771 65.5671883652 65.567454623 65.5666861723 65.5669845284 65.5672923486 65.5676096428 65.5679348344 65.5682652437 65.5685978711 65.5701765647 65.570621227 65.5709134954 65.5712109005 65.571513336 65.5718200957 65.5721297169 65.574021553 65.5741792033 65.574438748 65.5747032888 65.5765757704 65.5771559856 65.5774100665 65.5788859051 65.5792096647 65.5797402739 65.5799332814 65.5812811363 65.5815642331 65.5841534701 65.5830733876 65.5857717576 65.5859994619 65.5871975081 65.590057241 65.590304164 65.5914918063 65.5944663112 65.5956721795 65.5939091523 65.5950614083 65.5982765934 65.5995076045 65.5975436892 65.5987262048 65.602177816 65.6034249264 65.6046708208 65.6024281772 65.603602532 65.6073163836 65.6085227194 65.6060412144 65.6071529865 65.6110267867 65.6121367078 65.6132046849 65.6103918687 65.6113335698 65.6153229035 65.6162148449 65.6131382017 65.6138861769 65.6178989363 65.6185636424 65.6191498511 65.6157461325 65.6161791264 65.6201245813 65.6204436817 65.6168231888 65.6169965533 65.6208366497 65.6208839302 65.6208490531 65.6170127091 65.6168564931 65.6204988126 65.6202158308 65.6162822445 65.6159048379 65.6193685472 65.6188532967 65.6148760985 65.6142125892 65.6140391587 65.6099763931 65.6091702292 65.6089176108 65.6049031694 65.6075505535 65.6036527324 65.603294201 65.6020539292 65.6018936565 65.6012766491 65.6008693011 65.5993666148 65.5991244049 65.5984268205 65.5953685558 65.5950680439 65.5947705371 65.595431677 65.5924010287 65.5920212435 65.5916425171 65.5912660389 65.5908918756 65.5905196888 65.5904930817 65.5879044116 65.5874505706 65.5869990143 65.5865541521 65.5861187141 65.5856928884 65.5852743177 65.5885215847 65.5881639856 65.5864092427 65.5860294872 65.5852707303 65.585765259 65.5853672284 65.5849608215 65.5845548634 65.5841585799 65.5837797964 65.5834233216 65.5830898939 65.5837362111 65.5834545847 65.5831803148 65.5829000007 65.5826000758 65.5812959207 65.5809304491 65.5769296986 65.5765457192 65.5761494143 65.5757521195 65.5753668266 65.5750066876 65.5752524781 65.5749848521 65.5747738531 65.575591199 65.5755404505 65.5755454647 65.5755976556 65.5756855349 65.57579564 65.5759135507 65.5760249342 65.5761165557 65.5761771975 65.5773649941 65.5773542465 65.5772907524 65.577177116 65.5770200169 65.5768296503 65.5766188693 65.5764021013 65.576194154 65.5766173634 65.5764766159 65.5763839504 65.5763475365
65.5591402589 65.5591288461 65.5591276545 65.5591336847 65.5591431975 65.559069308 65.5590793424 65.5590814681 65.5590724024 65.5590495782 65.559011331 65.5589570286 65.558887147 65.5588033001 65.5584640879 65.5583738037 65.5582818798 65.5581935375 65.5581146887 65.5580516848 65.5580109285 65.5579983323 65.5580186626 65.5580748794 65.55828231 65.558429762 65.559419376 65.5596724374 65.559944649 65.5592113976 65.5594551226 65.560862835 65.5611128987 65.5613439307 65.5621140008 65.5623151165 65.5625056943 65.562693612 65.5628873919 65.5630950501 65.5632897869 65.5635377472 65.5638083433 65.5640987161 65.564403536 65.5647160845 65.5650294965 65.5662986767 65.5666025273 65.567128187 65.5676961564 65.5679883928 65.5682872409 65.5685975497 65.5678811319 65.5682365738 65.5686047043 65.5689818616 65.5693634005 65.5709639333 65.571349579 65.5728535373 65.5732540284 65.5736692099 65.5740996026 65.5745442746 65.5751467696 65.5755211342 65.5771293754 65.5775391625 65.5779644645 65.5801643557 65.5805897209 65.5804948829 65.582700667 65.5832432717 65.5836173275 65.5861280484 65.587610037 65.5879982882 65.5905099805 65.5909122363 65.592269329 65.5947614608 65.5972631303 65.5975830958 65.5989001228 65.5992108459 65.6005224004 65.6018380373 65.6021501809 65.6034775733 65.6048150958 65.6061605 65.606480523 65.6078319012 65.6091835646 65.6105316047 65.6118716307 65.6121891172 65.6135121445 65.6148150542 65.6160922136 65.616392785 65.6176297959 65.6188270026 65.6199783428 65.6210778032 65.621332414 65.6223589757 65.6233203592 65.6242114554 65.6244135132 65.6252107806 65.6259276315 65.626560727 65.6271073439 65.6272242793 65.6276605634 65.6280065554 65.628261787 65.6283082642 65.6284511904 65.628504606 65.6284700872 65.6283496878 65.6283072094 65.6280840436 65.6277813032 65.6274022511 65.6272998355 65.6268267602 65.6262711204 65.6261277679 65.6254605216 65.6252872104 65.6220781099 65.6187609905 65.6177818434 65.6174148416 65.6138759552 65.6134375182 65.6121493696 65.6084433357 65.6080248952 65.607416202 65.6039829952 65.6051334791 65.6046380975 65.6012626156 65.6007203922 65.6001978331 65.598360557 65.5979253726 65.5971900508 65.5965968426 65.5960234313 65.595469251 65.5949312842 65.5930202516 65.592511936 65.5899081199 65.5893766961 65.5888542972 65.5883480954 65.5878608233 65.5910514586 65.5906460381 65.5902445711 65.5898390349 65.5902592289 65.5899174203 65.5895113253 65.5872841923 65.5868238757 65.5863614477 65.585907187 65.5854705344 65.5850583146 65.5846733153 65.5852460068 65.5849201701 65.5846111972 65.5843057564 65.5839893356 65.5836480281 65.5823029265 65.5818829711 65.5814210168 65.5773243084 65.5768824116 65.5796515822 65.579090632 65.5785645814 65.575847397 65.5755599198 65.5762971669 65.5761752032 65.5761189525 65.576122047 65.576174253 65.576262542 65.576372241 65.5764881554 65.5765956087 65.5766813732 65.5778983012 65.5779316858 65.5779123003 65.5778387493 65.5777138948 65.577544641 65.5773414192 65.5771173883 65.5768873989 65.5772805581 65.5770881566 65.5769348324 65.5768325507 65.5767899389
65.5591188245 65.5591120633 65.5591190308 65.5591358391 65.5591575707 65.5591787977 65.5591121022 65.5591230255 65.5591203903 65.559101155 65.5590633113 65.5590059601 65.5589293552 65.5588349326 65.5587253428 65.5583678171 65.5582554577 65.5581441371 65.5580410258 65.5579543287 65.5578928179 65.5578650175 65.5578780895 65.5579366354 65.5586444777 65.5588338175 65.5593180166 65.559612296 65.5599278265 65.5602512622 65.5605704139 65.5609545744 65.561230625 65.5614802214 65.5622475913 65.5624507091 65.5626385926 65.562822002 65.5630128975 65.5632227847 65.5634608666 65.5636995265 65.5639996723 65.5643274413 65.5646748569 65.5650321332 65.5653894661 65.5666598924 65.5669975939 65.5675519656 65.5690112173 65.5684335982 65.5687547077 65.5690922766 65.5694512866 65.5698325569 65.57008439 65.5705622952 65.5712410148 65.5716748205 65.5721091562 65.5736332793 65.5740779637 65.5745409254 65.5750230388 65.5769123417 65.5774066702 65.5779179489 65.5782557317 65.580137553 65.5808334993 65.5813020087 65.5833833405 65.5839618802 65.585703727 65.5861840989 65.5884734614 65.5889410111 65.5911941274 65.5926447943 65.5930730019 65.5951545592 65.5955394896 65.5968560223 65.5972124427 65.5975747931 65.5988615827 65.5992172148 65.6005085332 65.6018090341 65.6021683586 65.6034826138 65.6048068274 65.6061388656 65.6065073159 65.6078455286 65.6091840091 65.6105190067 65.6118463058 65.6122118948 65.6135221145 65.6148126193 65.6160779808 65.616424093 65.6176489333 65.6188346779 65.6199754782 65.6210655267 65.6213587917 65.6223751306 65.6233275174 65.6242110198 65.6244436617 65.6252322426 65.62594189 65.6265693921 65.6271121183 65.6272468232 65.627677917 65.6280204464 65.6282739712 65.6283273895 65.6284673157 65.6285194795 65.6284854247 65.6283671427 65.628318234 65.6280960439 65.6277958783 65.6274208997 65.6273028717 65.6268339612 65.6262875692 65.6261233683 65.6254724197 65.6252760233 65.6250764075 65.6242715643 65.6240220649 65.6213648694 65.6210019306 65.619863332 65.616784811 65.6163211432 65.613065807 65.6125276281 65.6108035035 65.6101113579 65.6069788107 65.6064423345 65.6055728577 65.6026428518 65.6029629759 65.602324646 65.6017134442 65.5987720592 65.5981348733 65.5975215015 65.5969261664 65.5949826225 65.5943966617 65.593809463 65.5928662641 65.592181064 65.5936180467 65.5931328379 65.5926733766 65.5922312988 65.5917941134 65.594484514 65.5917705092 65.5913398844 65.5908706993 65.5886599845 65.5881244907 65.587588697 65.5870668787 65.5865720435 65.586113518 65.5865798286 65.5862049348 65.5858673341 65.585551918 65.5852400437 65.5849121985 65.5845504802 65.583191975 65.5827219942 65.5821985508 65.5815094991 65.5808617014 65.5802045961 65.5795624988 65.5789612222 65.5781718838 65.5777663573 65.576631925 65.5765015362 65.5764522704 65.5764744866 65.5765535331 65.5766717717 65.5768105134 65.5769515787 65.5770784252 65.5783182512 65.5784088785 65.5784443248 65.5784193353 65.5783329204 65.5781883849 65.5779931748 65.5777585075 65.5774987554 65.5778461281 65.5775851726 65.5773515423 65.5771635039 65.5770362378 65.5769805198
65.559050799 65.5590504685 65.5590693071 65.5591020708 65.5591420135 65.5591817726 65.5592142052 65.5591518578 65.5591589283 65.5591453121 65.5591085603 65.5590474319 65.5589618736 65.5588530372 65.558723361 65.5585767286 65.5581955465 65.5580509126 65.5579119716 65.5577895237 65.5576958339 65.5576434409 65.557643314 65.5577027371 65.5578236108 65.5586100296 65.558889356 65.5594728439 65.5598465967 65.5602254563 65.560593352 65.561011704 65.5613163381 65.5615827712 65.5623336503 65.5625277769 65.5626992991 65.5628636517 65.5630384952 65.5632411695 65.5634855517 65.5637792133 65.564089566 65.5644668237 65.5648702301 65.5652845189 65.5665608903 65.566956564 65.5673265115 65.5694882293 65.5697777276 65.5696600702 65.5691130094 65.5694753208 65.5698709762 65.5702999278 65.5705711227 65.5711058455 65.5718147137 65.5723000974 65.572778859 65.5742880532 65.5747726655 65.5752820608 65.5758169648 65.5776269218 65.5781789003 65.5787427444 65.5804179574 65.5809935653 65.5829752109 65.5835568286 65.584157709 65.5862534261 65.5868398941 65.5884111125 65.590400125 65.59091883 65.5928188129 65.593300697 65.5946229085 65.5950488556 65.5954782679 65.5967464789 65.5971501958 65.5975615747 65.598814713 65.5992232708 65.6004916166 65.6017743769 65.6021897704 65.603488434 65.6047968636 65.6061130548 65.606539079 65.6078616865 65.6091845538 65.6105041095 65.611816338 65.6122391407 65.6135342141 65.6148100528 65.6160614616 65.6164617451 65.6176722116 65.6188444213 65.6199727693 65.6210516825 65.6213909553 65.6223952332 65.6233369965 65.6242115149 65.6244805272 65.6252588647 65.6259600065 65.6265808855 65.6271189772 65.6272748347 65.6276997981 65.6280382185 65.6282896873 65.6283513226 65.6284877058 65.6285383729 65.6285048302 65.6283889981 65.6283324365 65.6281113889 65.6278142398 65.627444037 65.6273074009 65.6268433203 65.6263072996 65.626118456 65.625485461 65.6252622739 65.6250350114 65.6242590719 65.6239798261 65.623693409 65.6227416266 65.6223760057 65.6199651857 65.6194913846 65.6168297877 65.6153308994 65.6147156191 65.6117535653 65.6110589967 65.6103882662 65.6074912437 65.6067653168 65.6048615468 65.604159674 65.6034757385 65.6007194937 65.6000229237 65.599358774 65.5987169174 65.5967867304 65.5961267335 65.5954514503 65.5944537417 65.593687648 65.5951181222 65.594575371 65.5940735556 65.593601406 65.5962459131 65.5978914155 65.5975074354 65.5925760355 65.5920474182 65.5914780862 65.589247808 65.5886169493 65.5880028433 65.5874266655 65.5877293996 65.5872661785 65.5868754957 65.5865445351 65.5862503301 65.5859641684 65.5856564976 65.5853010266 65.5839594122 65.5834462711 65.582857483 65.5820896796 65.581340828 65.5805710563 65.579812492 65.5788252092 65.5782441055 65.5769307849 65.5766816913 65.5765464262 65.5765199927 65.5765869134 65.5767244554 65.5769065604 65.577107284 65.5773031265 65.5785678435 65.5787438766 65.578859726 65.5789061575 65.578878373 65.5787759461 65.5786028017 65.5783671917 65.5780815974 65.5783812071 65.5780400948 65.5777050891 65.5774021018 65.5771560749 65.5769881855 65.5769132221
65.5589358786 65.558943519 65.5589780346 65.5590322904 65.5590969373 65.5591618732 65.5592175531 65.5591697692 65.5591901244 65.5591844504 65.559149801 65.5590845451 65.5589882419 65.5588616259 65.5587067391 65.5585272368 65.5583288699 65.5579179137 65.5577306402 65.5575588799 65.5574196655 65.5573313082 65.557310488 65.5573686589 65.5575090371 65.5582822099 65.5586225045 65.5592561532 65.5597049538 65.5601538371 65.5605815049 65.5610405175 65.5613756931 65.5616559563 65.5623756818 65.5625467865 65.5626843534 65.5628106006 65.5629518629 65.5631346514 65.5633802455 65.563699585 65.5653875067 65.5659139383 65.5649850083 65.5654719035 65.5667495663 65.5671923723 65.5675903417 65.5696859069 65.5699616856 65.5702452069 65.5708654826 65.5712783534 65.571752757 65.5706513734 65.5711743636 65.5733091061 65.5738371235 65.5736453975 65.5741922815 65.5748035585 65.5753212754 65.5768185821 65.5775846078 65.5781855607 65.5798428883 65.5804952004 65.5811581023 65.5828474325 65.5834557653 65.5852598481 65.5859711891 65.5877732761 65.5884072975 65.5902058031 65.5915814142 65.592117625 65.5926525231 65.5931827817 65.5944453982 65.5949208726 65.5953999251 65.5966154011 65.597073255 65.597541091 65.5987575804 65.5992282452 65.6004709488 65.6017331049 65.6022147748 65.6034950421 65.6047848662 65.6060823838 65.6065765013 65.6078807261 65.6091852231 65.6104866187 65.6117811176 65.612271629 65.6135489156 65.61480754 65.6160425654 65.6165069659 65.6177005807 65.6188569292 65.6199706761 65.6210365098 65.6214302786 65.6224204359 65.6233497511 65.624213718 65.6245257654 65.6252921142 65.6259832878 65.6265963788 65.6271289815 65.627309895 65.6277276677 65.6280612405 65.62831024 65.6283815414 65.6285137646 65.6285626457 65.6285296479 65.6284166126 65.6283509827 65.6281312543 65.6278376017 65.6274729442 65.6273142277 65.6268556695 65.6263310271 65.6261131414 65.6254994156 65.6252452268 65.6249859201 65.6242411763 65.6239283665 65.6236062438 65.6226958283 65.622292015 65.6218722625 65.6214394575 65.6202774696 65.6179864751 65.6173610377 65.6149405292 65.6141583057 65.6116257071 65.6109402836 65.6090688228 65.6082525983 65.6074389918 65.604962092 65.6042262086 65.6032420769 65.6009545245 65.6002826478 65.5998641187 65.5990873186 65.6012497386 65.600535791 65.5970416777 65.5963707419 65.6001921612 65.5995359241 65.5989547736 65.5991122206 65.5987488482 65.5983952775 65.5936184515 65.5930400571 65.5923896534 65.5901832046 65.5894290475 65.5925754523 65.5916507954 65.5881294642 65.5876128336 65.5872135265 65.5869139921 65.5866783404 65.5864607666 65.5862147962 65.5859003082 65.5846096019 65.5840638109 65.583407526 65.5825467426 65.5816711221 65.5807535549 65.5798375685 65.5787289996 65.5780188645 65.5767180948 65.5764235826 65.5762886823 65.5763052755 65.5764483054 65.5766819554 65.5769669123 65.5772662367 65.5785627016 65.5788667117 65.579103857 65.5792597987 65.5793257158 65.579297573 65.5791757315 65.5789648841 65.5786742455 65.5783178899 65.5785291569 65.5780854461 65.5776450645 65.5772431966 65.5769150092 65.5766909228 65.57659182
65.5587769691 65.5587937461 65.5588476596 65.55892908 65.5590251527 65.5591221161 65.5592073008 65.559270315 65.5592171904 65.5592219236 65.559190661 65.5591213762 65.5590131788 65.558866238 65.558681958 65.5584634482 65.5582163166 65.557949748 65.5575049503 65.5572694245 65.5570697977 65.5569322518 65.5568816464 65.5569356567 65.5570996059 65.5578542828 65.5582717783 65.5589705144 65.5595123293 65.5600463253 65.5605446796 65.5610504752 65.5614171207 65.5617067594 65.5623802816 65.562511325 65.5625932182 65.562657277 65.5627423063 65.5628886768 65.5631291355 65.5634796469 65.5651318936 65.5657709058 65.5664434952 65.5678237595 65.5684198807 65.5689164904 65.5694951685 65.5697612125 65.5699925712 65.570240057 65.5708048693 65.5712486655 65.5717933667 65.5724090408 65.5739065869 65.5745142161 65.5741522824 65.5746750467 65.5745377404 65.5764748128 65.5764685532 65.5771177547 65.5787446938 65.5794504846 65.5801396451 65.5808121334 65.582492012 65.5839931507 65.5846773484 65.5853748021 65.5870350702 65.5886496558 65.5893025784 65.589956159 65.5912686717 65.5918594564 65.5924486428 65.5930324778 65.5942342672 65.5947649304 65.5952989865 65.5964583263 65.5969776592 65.5975100855 65.5986879905 65.5992309384 65.6004457517 65.6016843513 65.6022435141 65.6035023275 65.6047704824 65.6060462602 65.6066200546 65.6079028882 65.6091860447 65.6104663579 65.6117402649 65.6123100704 65.6135667478 65.6148054424 65.6160214916 65.6165609982 65.6177351286 65.6188731526 65.6199700219 65.621020704 65.6214783683 65.6224522301 65.6233671681 65.6242189153 65.6245813568 65.6253338702 65.6260135238 65.6266175794 65.6271437592 65.6273540463 65.6277634927 65.6280914131 65.6283374707 65.6284200054 65.6285473969 65.6285941586 65.6285617041 65.6284517908 65.6283755144 65.6281572703 65.6278675937 65.6275092652 65.6273246002 65.6268722073 65.6263596271 65.6261077267 65.6255138421 65.6252239211 65.6249276633 65.6242155787 65.6238650382 65.6235023928 65.6226333768 65.6221867325 65.6217214142 65.6212405906 65.6201285159 65.6195491439 65.6189556241 65.6169117417 65.6147446871 65.6139862452 65.6132403429 65.611638566 65.6092628973 65.6084284394 65.6075664897 65.6066985208 65.6043513964 65.6035500123 65.6053014487 65.6010907657 65.603017082 65.6022991739 65.6047189763 65.6039559404 65.6016179703 65.6007642253 65.5999968596 65.5993637444 65.5995006175 65.5992043483 65.5989434997 65.5986277912 65.5981102252 65.5973617274 65.5964080729 65.5939348507 65.59274571 65.5915938813 65.5881616368 65.5875728926 65.5871730176 65.5869378251 65.5868105263 65.586717817 65.5865869671 65.5863575129 65.5851554835 65.5845920376 65.5838687883 65.5829013579 65.5818721648 65.580768631 65.5796493639 65.5783755497 65.5774944146 65.576198382 65.5758458714 65.5757184939 65.5758031673 65.57605991 65.5764331218 65.576864266 65.5781973777 65.5786823037 65.5790955459 65.5794140953 65.5796236724 65.5797165205 65.5796898696 65.5795451531 65.5792879226 65.5789283557 65.5791090889 65.5785754549 65.5779994679 65.5774222631 65.5768916426 65.5764570232 65.5761618187 65.5760353228
65.5585820328 65.5586086136 65.5586852533 65.5587991785 65.5589330376 65.559068434 65.5591888684 65.5592813183 65.5593365081 65.5592619559 65.5592355128 65.5591627866 65.55904241 65.5588738499 65.558657606 65.5583958444 65.5580935401 65.5577601386 65.5574115454 65.5569369196 65.5566618907 65.5564611474 65.5563706617 65.5564169353 65.5566084756 65.5569324098 65.5578541553 65.5585476559 65.5592858248 65.5601765048 65.5607570429 65.5617443773 65.5614514708 65.5617447189 65.5623578912 65.5624300591 65.5624316973 65.5624053945 65.562406874 65.5624965592 65.56272442 65.5631138524 65.5647205737 65.5655094341 65.566334204 65.5677711901 65.5684532946 65.5689778563 65.5693453095 65.569714293 65.5698573517 65.570030988 65.570513365 65.5709949217 65.5716411221 65.5723927479 65.5739001628 65.5745989001 65.575169869 65.5756270806 65.5759786973 65.5764864497 65.5765279079 65.5784768514 65.5787946173 65.5795813838 65.5803035867 65.5817688802 65.5824278879 65.5839321113 65.5853835458 65.5861156551 65.5875463838 65.5882287191 65.5889361309 65.5896494958 65.590897525 65.5915462724 65.5921961669 65.5928396239 65.5939815986 65.5945736492 65.5951682713 65.5962700367 65.5968585531 65.5974643073 65.5986037081 65.5992296586 65.6004152595 65.6016275761 65.6022756862 65.6035099677 65.6047533886 65.6060043656 65.6066697097 65.6079281597 65.6091870474 65.6104434087 65.6116939091 65.6123549336 65.6135882601 65.6148044014 65.615998968 65.6166249123 65.6177770293 65.6188943775 65.6199721953 65.6210057324 65.6215370176 65.6224925161 65.6233912409 65.6242291661 65.6246495858 65.6253864981 65.6260531429 65.6266469495 65.6271657706 65.6274098858 65.6278098936 65.6281313516 65.628373958 65.6284692857 65.6285911624 65.6286354331 65.6286034567 65.6284969046 65.6284083237 65.628191675 65.6279063797 65.6275550751 65.6273404204 65.6268946559 65.6263942113 65.6261028842 65.6255280806 65.6251971392 65.6248585135 65.6241790527 65.6237861803 65.6233775139 65.6225480243 65.6220529689 65.6215361089 65.6210033499 65.619940576 65.6193049817 65.6186594096 65.6180176392 65.6162488733 65.6154982054 65.6139990817 65.6120211633 65.611276862 65.6091982649 65.6082801859 65.6073116338 65.6085201336 65.6043383552 65.6058724822 65.6055374853 65.6063581169 65.6058546371 65.6051803519 65.6042943992 65.6019895562 65.6009159925 65.599972191 65.5992634645 65.5993731914 65.5992149479 65.5991398312 65.5989782024 65.5985260854 65.5977616627 65.5966645212 65.5940969798 65.5926001389 65.5911317342 65.5878006687 65.5871121219 65.5867203233 65.5865913689 65.5866355179 65.5867372777 65.5867857937 65.5866932187 65.5856193849 65.5850576309 65.5883168473 65.5849913412 65.5837663532 65.5806523424 65.580118844 65.5777956184 65.576097635 65.5753883814 65.5749640371 65.5748530878 65.57503482 65.5754472129 65.5760065218 65.5773648511 65.5780823178 65.578734292 65.5792807411 65.5796974211 65.5799712459 65.5800964946 65.5800723186 65.5799015377 65.5795905749 65.5797980336 65.5792234173 65.5785491672 65.5778143832 65.5770715267 65.5763843022 65.5758206402 65.5754410612 65.5752857607
65.5583662461 65.5584027201 65.5585045527 65.5586551932 65.558831831 65.5590105474 65.5591704546 65.5592957022 65.559375553 65.5594033638 65.5592892736 65.5592141701 65.5590823944 65.5588926229 65.5586442233 65.5583380264 65.5579778153 65.5575726352 65.5571398008 65.556707895 65.5562268734 65.555950777 65.5558110951 65.5558459824 65.5560683658 65.556460381 65.5574892835 65.5582129698 65.5592888649 65.5600436528 65.5607107974 65.5617572533 65.56216995 65.5624231986 65.5625648386 65.5629329036 65.5622175913 65.5620726705 65.5619620425 65.5619733285 65.5621809241 65.5626187283 65.5641806142 65.5651592518 65.5667280584 65.5676954237 65.5684702175 65.5690107805 65.5693197385 65.569555663 65.5695547134 65.5696052985 65.5701966395 65.5705052973 65.5726406289 65.5737433918 65.5747670707 65.5746243894 65.575201652 65.5755821156 65.5758157148 65.5774086624 65.5786126768 65.5795360921 65.5797413133 65.5809248844 65.5809343572 65.5820957049 65.5827267825 65.5841211547 65.5850370558 65.586332031 65.5870085056 65.5877033647 65.5884865742 65.5892795153 65.5904521033 65.5911582383 65.5918811657 65.5925901903 65.5936761579 65.5943373213 65.5949984164 65.5960445575 65.5967103537 65.597398791 65.5985030058 65.5992223421 65.6003788924 65.6015628868 65.6023102422 65.6035173077 65.6047333523 65.6059569047 65.6067245507 65.6079560793 65.6091882549 65.610418292 65.6116430613 65.6124061969 65.6136139634 65.614805463 65.6159765567 65.6166993311 65.6178274531 65.6189223075 65.6199793971 65.6209942352 65.6216081117 65.6225436625 65.623424767 65.6242476242 65.6247329735 65.6254529087 65.6261053755 65.6266879563 65.6271986275 65.6274806498 65.6278702956 65.6281845835 65.6284232419 65.6285326982 65.628648436 65.6286898199 65.6286581505 65.6285550178 65.6284525482 65.6282374804 65.6279567762 65.6276129346 65.6273644955 65.6269254602 65.6264362958 65.626099991 65.62554142 65.6251634592 65.6247764178 65.624127064 65.6236866196 65.6232249913 65.6224309616 65.6218812964 65.621302226 65.6207173726 65.6197095415 65.6189977667 65.6182832167 65.6176252628 65.6169513841 65.6156530704 65.6147191187 65.6130059689 65.6123115168 65.6106906935 65.6119850489 65.6105374374 65.6117304633 65.6105585655 65.6088201262 65.6056706002 65.606445508 65.6060979565 65.6054588903 65.6071118544 65.605595192 65.6038209812 65.5994272412 65.5996636111 65.5986834151 65.5987608848 65.5989966656 65.599086406 65.5988157636 65.5980738343 65.5968243316 65.5951284111 65.592201221 65.5903136329 65.5870658903 65.5862418469 65.585866492 65.5858917724 65.5861786455 65.5865509563 65.5886970997 65.589600768 65.5897887363 65.5894584004 65.5886834489 65.5852201562 65.5837812452 65.5820969637 65.5796106716 65.5779109107 65.5752459715 65.5743543329 65.5738447303 65.5737596144 65.5740673658 65.5746756604 65.57600357 65.5769766318 65.577920898 65.5787631622 65.5794586178 65.5799833831 65.5803270529 65.5804870574 65.5804651563 65.5802658379 65.5805682643 65.5800249814 65.5793234954 65.578493543 65.5775810252 65.5766508843 65.5757853676 65.5750748126 65.5746008557 65.5744170516
65.5581537704 65.5581996468 65.5583276406 65.5585169316 65.5587385451 65.5589624874 65.5591632607 65.5593222582 65.5594275083 65.5594720551 65.5593571652 65.5592811429 65.5591399302 65.5589314184 65.5586537412 65.5583061423 65.5578907613 65.557415576 65.5568985137 65.5563720204 65.5560597783 65.5556669494 65.5554334963 65.5554622778 65.5557781569 65.5563533152 65.557136098 65.5580044533 65.5590787723 65.559943789 65.5606946054 65.5618003624 65.5622327166 65.5624676482 65.5635099852 65.5632368875 65.562666227 65.5622270792 65.5618611927 65.561728141 65.5619616359 65.5626112171 65.5636798181 65.5648952432 65.5665017808 65.5676402252 65.5685055199 65.5690460308 65.569266131 65.5702211532 65.5698230776 65.5695800839 65.5693613445 65.5708042607 65.572102309 65.573337355 65.5751402242 65.5760337891 65.5764147228 65.576420657 65.5766887119 65.5768940311 65.5776487089 65.5788893311 65.5806648423 65.5820348145 65.582344101 65.5823037585 65.5828040285 65.5833846065 65.5845414539 65.5857953184 65.5863584791 65.587007362 65.5879395352 65.5888616258 65.5899004097 65.5906571892 65.5914945003 65.5922604088 65.5933008534 65.594042855 65.59477705 65.5957754004 65.5965275407 65.5973090857 65.5983858308 65.5992070301 65.600336465 65.6014913357 65.6023451327 65.6035232757 65.6047102624 65.605904802 65.6067824089 65.6079855932 65.6091896753 65.6103920901 65.6115899558 65.6124631385 65.6136442927 65.6148101562 65.6159569012 65.6167841652 65.6178875063 65.6189591226 65.619994819 65.6209903941 65.6216935541 65.6226085608 65.6234714887 65.624278804 65.6248342105 65.6255366161 65.6261743778 65.6267452656 65.6272473842 65.6275702876 65.6279490471 65.6282556961 65.6284900133 65.6286144191 65.6287235361 65.6287616223 65.6287299418 65.6286299937 65.62851233 65.6282985901 65.6280223415 65.627685935 65.6274007625 65.626967975 65.6264881196 65.6261017617 65.6255537468 65.6251215773 65.6246789645 65.6240530077 65.623558965 65.6230336948 65.6222673248 65.6216656062 65.6209903761 65.6203622724 65.6194498798 65.6186109628 65.6177704041 65.617155143 65.6165583881 65.6152667717 65.6140912197 65.6144097675 65.6139037947 65.614971558 65.6149418175 65.613285121 65.6108804007 65.6091809533 65.608711394 65.6087090845 65.6086341553 65.6091376912 65.6090259107 65.6079287198 65.6050393909 65.6035792338 65.6011375704 65.598076479 65.5988920583 65.5996049626 65.6007651467 65.5990680149 65.5990643738 65.5983912304 65.5969953727 65.5949520857 65.5923196287 65.5898242588 65.5875919559 65.5861744271 65.5856805619 65.5860372625 65.5869621846 65.5880948152 65.5912528468 65.5923811301 65.590141657 65.5899090701 65.5891129755 65.5854983337 65.5838447809 65.5818651776 65.579516166 65.5773890838 65.5754560252 65.5740038097 65.5732027168 65.5731257326 65.5737065538 65.5752509918 65.5753616835 65.5766048798 65.5777888713 65.5788280483 65.5796746958 65.5803071225 65.580719011 65.5809118679 65.5808905703 65.5806614442 65.5809242213 65.5802849856 65.5794551197 65.5784662643 65.5773703593 65.5762447394 65.57519133 65.5743253332 65.5737524779 65.5735416608
65.5579778905 65.5580321586 65.5581850462 65.5584113033 65.5586756725 65.5589421866 65.5591810568 65.5593713312 65.5595001832 65.559560633 65.5595491087 65.5593691799 65.5592216401 65.5589990432 65.5586983961 65.5583173881 65.557856391 65.5573219241 65.5567317833 65.5561212029 65.5556794298 65.5551657278 65.55488433 65.5548954221 65.5552469914 65.5559041456 65.5567936171 65.5577809742 65.5592686621 65.5599108575 65.5607320172 65.5618935157 65.5625875857 65.5627708331 65.5634948854 65.5630994611 65.5625064934 65.5617562167 65.561217855 65.560964572 65.5611742318 65.561912836 65.5631429804 65.5645794512 65.5660186249 65.5676580904 65.568597222 65.5691210353 65.5692348006 65.5697985192 65.5690968975 65.5685941118 65.5687680057 65.5696986602 65.5713313618 65.5733744469 65.5749988011 65.5759647892 65.5761975696 65.5761462246 65.5756206068 65.5759930137 65.5773951302 65.5795077759 65.5814061988 65.5822460838 65.5816207577 65.5815107547 65.5815668945 65.5828632065 65.5848890449 65.5853381441 65.5855781874 65.586048588 65.5873160814 65.5884757907 65.5891671497 65.5899665929 65.5910799616 65.5917781018 65.592845001 65.593660571 65.5944941066 65.5954550163 65.5963042993 65.5971951157 65.5982589622 65.5991829539 65.6002851252 65.6014135127 65.6023801795 65.6035286726 65.6046820185 65.6058465713 65.6068410026 65.6080184994 65.6091913416 65.6103629875 65.6115367761 65.6125273871 65.6136817387 65.6148182393 65.6159408665 65.6168799687 65.6179613406 65.6190072288 65.6200196553 65.6209992299 65.6217978883 65.6226920058 65.6235342127 65.6243268272 65.6249574304 65.6256436055 65.626264731 65.62682313 65.6273186174 65.6276848271 65.6280516416 65.6283494348 65.6285799353 65.6287201996 65.6288218324 65.6288555818 65.6288240452 65.6287271533 65.6285925776 65.6283789783 65.6281076439 65.6277788772 65.6274542292 65.6270251422 65.626552787 65.6261148576 65.625568024 65.6250699669 65.6245623267 65.6239505466 65.6233864543 65.6227933674 65.6220113976 65.6214390299 65.6205351581 65.6198888804 65.6192294434 65.6181491797 65.6170374436 65.6165970244 65.6162517465 65.616532622 65.6143803833 65.6128908871 65.6132558901 65.6137600199 65.615892058 65.6152339568 65.6125830379 65.60964252 65.6071551294 65.6065328523 65.6078827523 65.6086580676 65.6089585318 65.6078215827 65.6052488074 65.6021219635 65.5988822848 65.5969595296 65.5966774219 65.5979537743 65.5998308492 65.5990721153 65.5993889098 65.5988245846 65.5973111814 65.5947437973 65.59183547 65.5887802073 65.5860907965 65.5844066727 65.5839314896 65.584564887 65.5859200315 65.5889639969 65.5909833307 65.5925152532 65.5920140821 65.5920741384 65.5896761628 65.5858986156 65.584054685 65.5844399936 65.5791508801 65.5766677685 65.5744067406 65.5727059167 65.5717928062 65.5717627813 65.5727349354 65.5742417096 65.5748742717 65.5763737586 65.5777806053 65.5789991135 65.5799806161 65.5807069101 65.581176474 65.5813952059 65.5813711969 65.5818344089 65.5813449205 65.580617936 65.5796708346 65.5785360659 65.5772700685 65.5759608673 65.5747287625 65.5737134595 65.5730453596 65.5728094942
65.5578793165 65.5579392213 65.5581128444 65.5583696309 65.5586688498 65.5589695926 65.5592387684 65.5594538302 65.5596015581 65.5596751875 65.5596715183 65.5595887173 65.5593333656 65.5591032747 65.5587891662 65.5583875764 65.5578974657 65.557324026 65.5566845464 65.5560158272 65.5554915315 65.554913891 65.5545789724 65.5545810926 65.5549607608 65.5558639186 65.556961782 65.5581765916 65.559292744 65.560362115 65.5616030129 65.5623283997 65.5627597448 65.5629231597 65.5628217206 65.5631052474 65.562391795 65.5615781146 65.5608679005 65.5605085147 65.5607083411 65.5615233771 65.5628853129 65.5644874615 65.5660740067 65.567804611 65.5687849017 65.5692811379 65.5692995925 65.5696017921 65.5686595316 65.5679523262 65.5679666603 65.5690173411 65.5709218309 65.5730835483 65.5750626536 65.5760567286 65.5770733986 65.5762109112 65.5749982871 65.5747947595 65.5762919679 65.578930087 65.5811960171 65.5820333171 65.5814654697 65.5804864344 65.5806392026 65.5826686031 65.5848931058 65.5853726827 65.5849050233 65.5850789854 65.5868078674 65.5882729655 65.58833869 65.5891402427 65.5908385129 65.5910157873 65.5924516426 65.5930472385 65.5942879427 65.5950493933 65.5959423033 65.5970899568 65.5982518716 65.5991595045 65.6001102208 65.6012813401 65.6025159388 65.6036149049 65.6045735105 65.6056730758 65.6069397826 65.6081768791 65.6091952508 65.6102094312 65.6114403911 65.6127061851 65.6138033706 65.6147509155 65.6158293441 65.6170337281 65.6181601231 65.6190599566 65.6199500223 65.6209972061 65.6220136798 65.6228458018 65.6235488973 65.624331492 65.6251467699 65.625842075 65.6263623055 65.6268669861 65.6274155498 65.6278732292 65.6281895988 65.6284372978 65.6286880091 65.628875166 65.628949786 65.6289573969 65.6289481345 65.6288697863 65.628686421 65.6284529124 65.6282255304 65.6279342971 65.6275237718 65.6270494186 65.6266230902 65.6262045443 65.6256157114 65.6249555517 65.6243919367 65.6239011285 65.6230825034 65.6225815522 65.6215733364 65.6213394567 65.6199527919 65.6193506502 65.6191500629 65.6177536212 65.6162750049 65.61611926 65.6168950874 65.617266488 65.6146091114 65.6118306643 65.611625847 65.6137519138 65.6155197643 65.6149807022 65.6122424026 65.6076054319 65.6047610801 65.6052400227 65.6080408189 65.6105818299 65.6092662226 65.6081492946 65.6055152719 65.6013935658 65.5974750766 65.5951994951 65.5951908468 65.596940876 65.5994217096 65.5993293139 65.5999416075 65.5994984793 65.5979200309 65.5951241363 65.5918331413 65.5883264646 65.5852461255 65.5833236532 65.5828437656 65.5839357676 65.5861134255 65.5887148742 65.591139531 65.5917519429 65.5927165467 65.5928775792 65.59219736 65.590794303 65.5876668785 65.584766502 65.5817600265 65.5781865793 65.5749025215 65.5719909234 65.570980813 65.5710030716 65.5720176232 65.573756152 65.574723448 65.5764209341 65.5779970421 65.579348984 65.5804282886 65.5812202427 65.5817276019 65.5819600415 65.5826688171 65.5823984375 65.5818602187 65.5810632089 65.5800238553 65.5787744683 65.5773739417 65.5759176509 65.5745399478 65.5734006672 65.5726516621 65.5724037479
65.5578961198 65.5579706562 65.5581822295 65.5584955996 65.5588617377 65.5590632653 65.5593501068 65.5595796736 65.5597388084 65.5598210861 65.5598236784 65.5597450298 65.5596084497 65.559249825 65.5589340258 65.5585282501 65.5580308527 65.5574463677 65.5567916815 65.556104015 65.5555677137 65.5549696249 65.5546224326 65.554623738 65.5551052048 65.5559674084 65.5571024859 65.558353362 65.5595812196 65.5608975578 65.5618470577 65.5625842572 65.5630160299 65.5631700413 65.5630481715 65.5633223282 65.5625669428 65.5617064783 65.5609564464 65.5605821517 65.5608382554 65.561802586 65.5633299232 65.5651161814 65.5675233293 65.5694594381 65.5704787295 65.5708403398 65.5705645496 65.5698311746 65.5688176001 65.5680959843 65.5680991131 65.5692126296 65.5712032376 65.5745746412 65.5770500025 65.5777022982 65.577710442 65.5764556627 65.5751897278 65.5750086903 65.5765690366 65.5792623847 65.581514486 65.5823071989 65.5816830691 65.5807049393 65.5808507064 65.5829044792 65.5850812636 65.5857166192 65.5851131876 65.5852321232 65.58688235 65.5882953851 65.5884811342 65.5892888372 65.5908633126 65.5911791757 65.5925082345 65.5931980617 65.5943002928 65.5951442049 65.596046973 65.5971051375 65.5982194044 65.5991624473 65.6001786283 65.6013224138 65.6024598631 65.6035743485 65.6046170661 65.6057394273 65.6069080417 65.6081100502 65.6091938625 65.6102750792 65.6114725941 65.6126392173 65.6137564801 65.6147867245 65.615879889 65.6169884058 65.6180877229 65.6190505588 65.6199930842 65.6210042091 65.6219429309 65.6227989858 65.6235632638 65.624346937 65.6250948253 65.625781461 65.626345415 65.6268725807 65.6273943863 65.6278201523 65.628157147 65.6284264188 65.6286665973 65.6288357225 65.628920927 65.6289396475 65.6289197728 65.6288334399 65.6286685011 65.6284442244 65.6281969773 65.6278899257 65.6275095175 65.6270572782 65.6266103594 65.6261684297 65.6255982344 65.6249948422 65.624436806 65.6238929795 65.6231602835 65.6226117815 65.621669498 65.6213443513 65.6200598526 65.619443443 65.619154981 65.6178126966 65.6163963868 65.6164833132 65.6178864754 65.6176706864 65.6150400501 65.6121809399 65.6121206692 65.6142522161 65.6161886298 65.6157433079 65.6130255224 65.6082107462 65.605204934 65.6056741124 65.608649497 65.6119631043 65.6130359943 65.6132546526 65.6089723735 65.6021415294 65.5979659296 65.5955122434 65.5955275649 65.5973748103 65.6000907125 65.6025506577 65.6039215717 65.6038309996 65.6021600046 65.5988541447 65.5948508931 65.5904037348 65.5864069893 65.5837874919 65.5830876166 65.5842228587 65.5865636807 65.5893603385 65.5919661156 65.5927041664 65.5937701692 65.5939828477 65.5933072603 65.5918371234 65.5893987614 65.5860555814 65.5824780324 65.5787402423 65.5752902214 65.5726392964 65.5711471027 65.5711430042 65.5722178901 65.5740577301 65.5750741902 65.5768687377 65.5785263553 65.5799402452 65.5810620381 65.5818789944 65.582396324 65.5849825501 65.5833614911 65.5830673408 65.5824952714 65.5816540929 65.5805595601 65.5792433135 65.5777645615 65.5772470138 65.575387304 65.573847209 65.5728329942 65.5724813513
65.5580735506 65.5581504536 65.5583650964 65.5586811769 65.5590490035 65.5594197639 65.5597549158 65.5600288085 65.5602267188 65.5600022631 65.5600086814 65.5599351152 65.5598065036 65.5595759563 65.5596770342 65.5592517891 65.5582634816 65.5576989791 65.5570675751 65.5564058228 65.5559379379 65.5553705592 65.555047592 65.5551660392 65.5556248157 65.5564697165 65.5575753908 65.5587922145 65.5599881006 65.5612792152 65.5622094631 65.5629078447 65.5633703423 65.5635302481 65.5634219817 65.5637894208 65.5630863079 65.5622908479 65.5616119773 65.5613756228 65.5616574831 65.5626144466 65.5640930848 65.5658075822 65.5674595036 65.5696823106 65.5710690909 65.5714389259 65.5712147179 65.5705352412 65.5698990255 65.5692243067 65.5696836233 65.5710079839 65.5732303883 65.5760465307 65.5779363182 65.5787711498 65.5787062865 65.5777303606 65.576798898 65.5772996103 65.5783573548 65.5806064275 65.583395027 65.584064792 65.5828594917 65.5823373752 65.5826919426 65.5849619624 65.586664874 65.5865081415 65.5867107712 65.5866989919 65.5874487727 65.5885468288 65.5893409448 65.5901322872 65.5911621369 65.5919003855 65.5929455564 65.5937522813 65.5945576991 65.5955272973 65.5963554321 65.5972206479 65.5982850372 65.5991886622 65.6002976435 65.6014307291 65.602372055 65.6035269434 65.6046890441 65.6058602155 65.6068284414 65.6080103024 65.6091909556 65.6103703428 65.6115481786 65.6125123882 65.6136725836 65.6148168561 65.6159446364 65.6168585327 65.6179436409 65.6189961124 65.6200143676 65.6209962418 65.6217734619 65.6226723064 65.6235200371 65.6243155752 65.6249291542 65.6256183756 65.6262438479 65.6268052497 65.6273014148 65.6276580078 65.6280277419 65.628327831 65.6285588592 65.6286954789 65.6287989282 65.6288338676 65.6288020939 65.6287044368 65.6285738116 65.628360477 65.6280877558 65.6277571207 65.6274413139 65.6270121121 65.6265380055 65.6261102931 65.6255643595 65.6250820047 65.6245889455 65.6239739248 65.6234287502 65.6228471404 65.6220781897 65.6214821564 65.6206472979 65.62000131 65.6192666061 65.618249551 65.6183620114 65.6191183999 65.6193980966 65.6209574891 65.6188341246 65.6157298863 65.6153592494 65.6167978281 65.6201778887 65.6198777306 65.6158533129 65.6118818933 65.6100340618 65.6092844101 65.6116676235 65.6144436459 65.6162542747 65.6155008923 65.6122452048 65.6067631078 65.602066269 65.599181708 65.5982585041 65.6000291028 65.6021923564 65.6044322836 65.6056960471 65.6055743445 65.6037134606 65.6007887228 65.5969340876 65.5926336401 65.5887427891 65.5861454229 65.5853963827 65.5862532793 65.5884493077 65.5911165297 65.5936198997 65.5942177691 65.5952570053 65.5954525891 65.5948832553 65.5932767105 65.5908609451 65.5875537978 65.5840264679 65.5803438521 65.5769389924 65.5743069758 65.5728684215 65.5724986075 65.5735171002 65.5752945394 65.5760265389 65.5777922377 65.5794235107 65.5808127435 65.5852036924 65.586195079 65.585613326 65.5858852082 65.5841681537 65.5838553464 65.5832669557 65.5850702237 65.5836505288 65.5819589796 65.5800705519 65.5781072846 65.5762440836 65.5746939115 65.5736643393 65.5732957633
65.5584206812 65.5584962775 65.5587014982 65.5590014651 65.559349316 65.5596994666 65.560016076 65.5602752568 65.5604631816 65.5605727808 65.5606006908 65.5605450489 65.5600431541 65.5598293085 65.5599701738 65.5595796441 65.5590947984 65.5585222884 65.5575015469 65.5569061524 65.5565786154 65.5560867073 65.5560514686 65.5561012314 65.556541839 65.5573260041 65.5583446677 65.5594676533 65.5605785337 65.561806508 65.5626890646 65.5633636127 65.5638303508 65.5652284234 65.5650873826 65.5646794944 65.5639348626 65.5632978891 65.5627784746 65.5627614475 65.5630905558 65.5639918112 65.5653327945 65.5668742875 65.5683645269 65.5705405422 65.5719079497 65.5723199662 65.5722313375 65.5726331669 65.5721776566 65.5719050229 65.5721739556 65.5733765501 65.5756423896 65.5777147109 65.5793174272 65.580116844 65.5813425398 65.5797935093 65.5793351243 65.5806682573 65.5819406567 65.5837824795 65.5852427424 65.5859048821 65.5858112328 65.5856410608 65.5865082707 65.5872742277 65.5883850771 65.588924872 65.588525736 65.5890631344 65.5888943169 65.5902532196 65.5908534681 65.5907749601 65.59158121 65.5923384795 65.5933865722 65.5941104365 65.5948285874 65.5958359218 65.5965690677 65.5973300794 65.5984117149 65.5992109833 65.6003458857 65.60150686 65.6023379018 65.6035221964 65.604715377 65.6059160756 65.6067701499 65.607979321 65.6091893594 65.6103976244 65.6116011518 65.6124507519 65.6136375088 65.6148087826 65.6159606417 65.6167654983 65.617874023 65.6189505231 65.6199907106 65.6209903027 65.6216743021 65.6225936125 65.6234603599 65.6242709261 65.6248113081 65.6255173848 65.6261582451 65.6267315973 65.6272355119 65.6275496548 65.6279307224 65.6282390027 65.6284742535 65.6285954824 65.6287060233 65.6287448394 65.628713194 65.6286126127 65.6284982324 65.6282842529 65.6280070981 65.627669159 65.6273918909 65.6269578702 65.6264762719 65.6261007922 65.6255511857 65.6251311033 65.6247008538 65.6240708314 65.6235886195 65.6230778649 65.6223068849 65.6217141882 65.6210649007 65.6224590525 65.6220584427 65.620943052 65.6225890037 65.6222068142 65.6244953328 65.6243159007 65.6230687836 65.6232112897 65.6224001116 65.6233339057 65.6243045721 65.623872358 65.6227963036 65.6195934411 65.617333614 65.6151225139 65.6166150927 65.6206974662 65.6197750281 65.6189878104 65.6162615296 65.6122337681 65.6076514317 65.6051147612 65.604694025 65.6074003201 65.6097411105 65.6073637698 65.608286464 65.6080218561 65.60619809 65.6036041229 65.600135899 65.5962825773 65.5927778037 65.5903737103 65.58955355 65.5899351609 65.5917284104 65.5939807709 65.5975011487 65.5994001643 65.6005061197 65.5973246318 65.5966991987 65.5951291627 65.5928185029 65.5896718402 65.5863662104 65.5829353977 65.5797673035 65.5773001413 65.5759063853 65.5757554136 65.5758855701 65.5774479674 65.5775860433 65.5791995486 65.5835955459 65.5852217681 65.5864897309 65.5873794206 65.5867065632 65.5869297596 65.5884046968 65.5879736674 65.5872117306 65.5861343256 65.5847652604 65.5831457843 65.5813468325 65.5794816052 65.5777112092 65.5762321747 65.5752379032 65.5748621234
65.5589221534 65.5589921842 65.5591762165 65.5594431657 65.559752016 65.5600630446 65.5603448526 65.5605761771 65.5607443385 65.5608425421 65.5608673806 65.5608170281 65.560690158 65.5609769076 65.5607046661 65.5603428302 65.559555015 65.559062404 65.5585173555 65.5581180481 65.5575738987 65.5571566547 65.5572385572 65.5573228562 65.5577324091 65.5584287858 65.5593255856 65.5603187393 65.5613126808 65.5622325744 65.5632739488 65.5639188516 65.5657040977 65.565915527 65.5658788491 65.5656227037 65.5652122843 65.5657480379 65.5651738476 65.5653285299 65.5657459245 65.5666852654 65.5680149161 65.5695121798 65.5709431736 65.573927888 65.5747126567 65.5749198846 65.5748675643 65.574520159 65.5754676317 65.5756150409 65.5760045287 65.5771104847 65.5781716057 65.5798187159 65.5811482696 65.5819299313 65.5837438024 65.5835794618 65.5834953443 65.5843934886 65.5853845617 65.5866933251 65.5878155339 65.5883806163 65.5886046718 65.5887673578 65.5897894304 65.5904739513 65.590683136 65.5911640665 65.5914780179 65.5909775669 65.5915488679 65.5925816292 65.5934348593 65.5925060176 65.5919532642 65.5926482244 65.593745478 65.5943913139 65.5950379242 65.5960953551 65.5967442042 65.5974144469 65.5985255772 65.599224486 65.6003870398 65.6015771038 65.6023028671 65.6035158369 65.6047378146 65.6059673073 65.6067126802 65.6079500348 65.6091879833 65.6104237053 65.6116540309 65.6123949159 65.6136081909 65.6148049964 65.6159811436 65.61668281 65.6178160923 65.6189157798 65.6199773227 65.6209961814 65.6215920423 65.6225318762 65.6234167646 65.6242428611 65.6247140577 65.6254376421 65.6260931585 65.6266781588 65.6271905943 65.6274643535 65.627856237 65.6281720807 65.628411607 65.6285180038 65.6286350777 65.6286771018 65.628645389 65.6285415458 65.6284421161 65.6282267269 65.6279450553 65.6275996287 65.6273585733 65.6269181404 65.6264267311 65.6261003307 65.6255387155 65.6251711824 65.6247948621 65.6241395608 65.6237095882 65.6232598051 65.6224587708 65.6219210082 65.6244154387 65.6273872797 65.6270066322 65.6263853084 65.6260572669 65.6289597764 65.6291086576 65.6289652854 65.6306900187 65.6300649871 65.629222636 65.6295751167 65.6298827173 65.6308637292 65.6293442919 65.6272583778 65.6256933734 65.6247537627 65.6255266388 65.6265947137 65.6245174593 65.6236641499 65.6214590176 65.6183488 65.6190039682 65.6166484788 65.6160990538 65.6165623623 65.6156667155 65.6175045228 65.6186279839 65.6216276523 65.62103949 65.6141820829 65.6105437943 65.606448406 65.6026627422 65.5999673978 65.5988829719 65.5989326368 65.6018326546 65.5991075784 65.6009515989 65.6023740259 65.6031367109 65.6031190508 65.5988955461 65.5973746455 65.5949561236 65.5923123891 65.5893401841 65.5862891472 65.583482893 65.5812781527 65.5799757451 65.579715976 65.5796036328 65.5809625189 65.582696832 65.5839575449 65.5855775616 65.5869543736 65.591171961 65.5920842965 65.5925936131 65.5897075896 65.5895805226 65.5891413231 65.5884035416 65.5873845496 65.586109863 65.5846202456 65.5829813201 65.5812934522 65.5796961554 65.5783580322 65.5774454805 65.5770758918
65.5595240198 65.55960286 65.5597566385 65.5599783446 65.560234766 65.5604936581 65.5607291278 65.5609230967 65.5610642436 65.561146065 65.5611650519 65.561119359 65.5610080083 65.5613402687 65.5611134304 65.5608135044 65.5604447706 65.560017473 65.5595515473 65.5589917738 65.5585785587 65.5582763423 65.5585580566 65.5586753249 65.5590484324 65.5596492664 65.5604152237 65.5612693896 65.5621383054 65.5629610626 65.5639433849 65.5645611927 65.5664316184 65.5667135796 65.5667982235 65.5682136589 65.5679005431 65.5675732606 65.5673735206 65.5676081265 65.5680595724 65.5688905158 65.570008525 65.5729205318 65.5742987695 65.5754605665 65.5762999597 65.5772479872 65.5773655533 65.5790974049 65.5788224874 65.578888599 65.5793809263 65.5803341988 65.5816009399 65.5836657898 65.583350295 65.5841371523 65.5865159502 65.5867464461 65.5870181161 65.5881678452 65.5889848503 65.5899696564 65.5908566815 65.5914763669 65.5917950342 65.5921332232 65.5953618487 65.5937092871 65.5957620924 65.5962109085 65.594169004 65.5944200383 65.5966033777 65.5968616402 65.5954504208 65.5957986457 65.5943296626 65.5953921408 65.5959567099 65.5946172266 65.595198643 65.5963124885 65.5968858082 65.5974753964 65.5986227429 65.5992303566 65.6004221415 65.6016401825 65.6022686772 65.6035083588 65.6047572198 65.6060136502 65.606658795 65.6079226043 65.6091868203 65.6104484379 65.6117040757 65.6123449624 65.6135834066 65.6148044878 65.6160037603 65.6166106182 65.6177675532 65.6188894237 65.619971409 65.6210087003 65.621523721 65.6224832338 65.6233855038 65.624226455 65.624634074 65.6253743985 65.6260438901 65.6266399437 65.6271603848 65.6273970289 65.6277991066 65.6281219871 65.6283653615 65.6284578779 65.6285809688 65.6286257954 65.6285937284 65.6284864572 65.6284005995 65.6281836111 65.6278973687 65.6275445397 65.6273365197 65.6268893385 65.6263863786 65.6261038009 65.625525141 65.6252032916 65.6248740481 65.6241878375 65.6238042726 65.6274828093 65.6273018884 65.6266647356 65.6310980348 65.6311184756 65.635812659 65.6360166191 65.634383042 65.6346782644 65.6397646158 65.6396020463 65.6378001479 65.6420314759 65.6368036557 65.6368413564 65.6384731314 65.6380384373 65.6369714228 65.6355903156 65.634476115 65.6332173098 65.6332785495 65.6334887376 65.6303315067 65.6293902467 65.6306889088 65.6304339568 65.6279188658 65.62608497 65.6254076104 65.6258854936 65.6296684785 65.6273154882 65.6281128143 65.6276482776 65.6262560261 65.6237483538 65.6203978342 65.6131640532 65.6100970376 65.6078257788 65.6067213839 65.6074443663 65.6085975454 65.6102701264 65.6119741247 65.6058457188 65.6061993956 65.6059247739 65.6014395972 65.5999600706 65.5976959252 65.5953288418 65.5927293843 65.590103051 65.587702566 65.5857966072 65.5846077979 65.5842412655 65.5835348844 65.584513814 65.5858156271 65.589248458 65.5907736662 65.5920863322 65.5931083999 65.5938008913 65.5941498718 65.5910493356 65.5908754743 65.5904294509 65.5897256759 65.5887836049 65.5876306253 65.586306884 65.5848718101 65.5834107111 65.5820373557 65.5808861445 65.5800888867 65.5797545359
65.5602184283 65.5602551716 65.5604014373 65.5605716086 65.5607689526 65.5609692438 65.5611524681 65.5613039858 65.5614139985 65.5614763854 65.5614875698 65.5614456784 65.5613500385 65.5612009964 65.5615492945 65.5613136492 65.5610277588 65.560702402 65.5603555693 65.5602142173 65.5599095447 65.5601306971 65.5600795995 65.5600211191 65.5603591433 65.5608720369 65.5615185398 65.5622460683 65.5630015441 65.5637376457 65.564670416 65.5669657542 65.5674616396 65.5693902984 65.5695535487 65.5695715464 65.5695016811 65.5694271601 65.5694483814 65.5696616739 65.5703368739 65.5710803152 65.5737159676 65.5749131885 65.5760934975 65.5771414736 65.5779782559 65.5790785712 65.5794155896 65.5817103791 65.5834560112 65.5837465032 65.582643153 65.5835052109 65.5845625917 65.5856611838 65.587604088 65.5885130836 65.589535584 65.5900577075 65.5905904577 65.5919380977 65.5926901055 65.5935259601 65.5943114477 65.5949558703 65.5978376626 65.5984061897 65.5997047002 65.6001780389 65.6006236885 65.6002037239 65.6005288344 65.6016148214 65.6016222613 65.603386652 65.6002826098 65.6014259944 65.6023218563 65.602274332 65.6000122751 65.597639524 65.5988586974 65.5991896824 65.5969995277 65.5975176719 65.5987037646 65.5992306383 65.600451463 65.6016952537 65.6022371695 65.6035007519 65.6047737207 65.6060543272 65.6066103823 65.6078979662 65.6091858579 65.6104708476 65.6117493232 65.6123014677 65.6135627126 65.6148058223 65.6160260761 65.6165488523 65.6177272967 65.6188693763 65.6199699816 65.6210240208 65.6214674463 65.6224449129 65.6233630323 65.6242174866 65.624568704 65.6253242783 65.6260064821 65.6266125411 65.6271401501 65.6273438922 65.6277551838 65.6280843606 65.6283310781 65.6284111194 65.6285395837 65.6285868206 65.6285542546 65.6284436612 65.6283697592 65.6281511912 65.6278606414 65.6275009199 65.6273220434 65.6268683077 65.6263531608 65.6261088475 65.6255108006 65.6252288091 65.6305037329 65.6304611671 65.6298642926 65.6358479501 65.6419519334 65.6426211146 65.6423710569 65.6421268394 65.6490505933 65.6480207064 65.6487683383 65.6482512976 65.6483290502 65.6519536895 65.6518718795 65.6516962233 65.6506175458 65.6501919382 65.6468505841 65.6463482324 65.6454953254 65.6444654972 65.6435555492 65.6420256639 65.641557959 65.6411314259 65.6410165858 65.6397635553 65.640741046 65.638869965 65.6369750259 65.6354884222 65.6431535636 65.643147339 65.6380326489 65.6342940116 65.6344072867 65.633500706 65.6320550966 65.629851495 65.6270933918 65.6241223164 65.6176764541 65.6157557247 65.6153434032 65.6151030205 65.615551349 65.6163791896 65.6172437494 65.6178476582 65.6179748984 65.6132981002 65.6121935594 65.6028049719 65.6006693397 65.5985567028 65.5963065549 65.5940798718 65.5920619024 65.5904399202 65.5893641919 65.5897183123 65.5898796115 65.5908315026 65.5918955199 65.5924456861 65.5935309513 65.5944683229 65.5951860609 65.5956425392 65.5924808295 65.5924916031 65.5922648712 65.5918099308 65.5911418731 65.5902819733 65.5892591438 65.5881124977 65.5868948198 65.5856759092 65.5845432625 65.5835961552 65.5829391569 65.5826593935
65.5609418172 65.5609627908 65.5610305694 65.5611870214 65.561324979 65.5614663222 65.5615967261 65.5617049668 65.5617828557 65.5618247718 65.5618271575 65.5617881305 65.561707254 65.5615854688 65.5619957932 65.5618210452 65.5616126946 65.5613813554 65.5613594648 65.5611265767 65.5609372797 65.560822852 65.5613275378 65.5615792243 65.5618926737 65.5623442896 65.5629084331 65.5631868342 65.5638532459 65.564524231 65.5667513086 65.567818765 65.5699809162 65.570418924 65.5707268563 65.5709293064 65.571069265 65.5712058895 65.5714071338 65.5717361508 65.5727139031 65.5748658409 65.575808427 65.5768478536 65.5779003343 65.5788874358 65.5797509207 65.5831009744 65.5843574128 65.5847067875 65.5865513158 65.5870557104 65.5877295319 65.5885853957 65.5874997094 65.5884925086 65.5904537138 65.5914458981 65.5923213212 65.5934477623 65.5970952979 65.5978929083 65.5987929951 65.5997526273 65.6007017676 65.6015884958 65.6022003985 65.6029231235 65.6043474239 65.6048558907 65.6053296732 65.6082700567 65.6088535968 65.610078284 65.6102384169 65.6084928307 65.6086224156 65.6137587343 65.6109523469 65.6109160147 65.607546254 65.6083355398 65.6090659979 65.6052292266 65.6066128904 65.6067715971 65.6032260837 65.6045772172 65.6004756421 65.6063882364 65.6022092091 65.6034935908 65.6047875742 65.6060892658 65.6125915158 65.6078764705 65.6091850707 65.6104905218 65.6174106499 65.612264328 65.6135455841 65.6148080492 65.6160467306 65.6235069234 65.6176941432 65.6188540281 65.6199710312 65.6277631717 65.6214213428 65.6224146472 65.6233467376 65.6242130591 65.632349277 65.6252844893 65.6259778855 65.6265927155 65.6348672659 65.6273018474 65.6277212242 65.6280558811 65.6283054371 65.6366373985 65.6285077313 65.628557014 65.6285239003 65.6367985524 65.6283466512 65.628126631 65.6278322028 65.627466314 65.6355672029 65.626852773 65.6349061849 65.6343877506 65.6423500462 65.642492846 65.6419977805 65.650498099 65.6506117188 65.6505533896 65.6590049858 65.6595523961 65.6674574579 65.6591672089 65.6595222094 65.6659161643 65.6663480706 65.6656117376 65.6651587757 65.6625710715 65.6624650485 65.66226091 65.6610166541 65.6603038121 65.6618734814 65.6608846569 65.659722893 65.6584867709 65.6573288639 65.6563565447 65.650234276 65.6499536544 65.6488006048 65.6473543735 65.6490258292 65.6474866062 65.6562031611 65.654718967 65.6536953387 65.653138579 65.6528034226 65.6528353116 65.6512971248 65.6397271767 65.6381731632 65.6361438398 65.6337884471 65.6313379093 65.6290619395 65.6251189109 65.6230255873 65.6224433777 65.6223075757 65.6224202421 65.6225532929 65.6224980307 65.6220940241 65.6212398587 65.6157005151 65.6131511415 65.6037507622 65.601834382 65.5998669878 65.6009615552 65.5991468501 65.5976761247 65.5966556286 65.5942815674 65.5945168659 65.5949086345 65.5955395349 65.5962848047 65.5963179355 65.5969006869 65.5973254941 65.5975506313 65.5940939618 65.594002448 65.5937178941 65.5932485339 65.5926098837 65.591824518 65.5909222531 65.5899407135 65.5889261472 65.587933967 65.5870277864 65.5862728378 65.5857819074 65.5855454481
65.5616513448 65.5616574146 65.5616907468 65.5617925694 65.5618758489 65.5619627816 65.5620441502 65.5621118931 65.5621594096 65.5621816642 65.5621752065 65.5621381659 65.5620702524 65.5619727808 65.562437542 65.5623158766 65.562174044 65.562021919 65.5620886482 65.561950652 65.5618516672 65.5618114298 65.5618479469 65.5626748411 65.5629641184 65.5633608399 65.5638528989 65.5644205897 65.5650390864 65.5670305019 65.5677565067 65.5702720992 65.5709042477 65.571437477 65.5718748998 65.5722337452 65.5725442043 65.5728464757 65.5731854348 65.5740754473 65.5746043225 65.576826949 65.5776895317 65.5786426533 65.5796357858 65.5806157735 65.5815377783 65.5852304439 65.5866790831 65.587246495 65.587793167 65.5900783047 65.5908412656 65.5917112696 65.5926699007 65.5936728346 65.5922829141 65.5944304205 65.5954852637 65.5968553626 65.6008838749 65.6018285689 65.6028274809 65.6038673117 65.6049189252 65.6059550597 65.6067716846 65.611653194 65.6125008972 65.613364329 65.6142293402 65.6150795393 65.6147005717 65.6202438494 65.620865156 65.6191566629 65.6197207898 65.620762075 65.620720939 65.623196946 65.624057685 65.625778359 65.6267807854 65.6281603918 65.6230693823 65.623871118 65.6251665478 65.6272098417 65.629309842 65.6234663221 65.6253985537 65.6337850406 65.6359406988 65.6381058428 65.6315412484 65.6405146139 65.6427119809 65.6449075189 65.6377667712 65.6473207294 65.6495140605 65.6516826907 65.6538169345 65.6458351819 65.6561298255 65.6581815324 65.6601644655 65.6514993962 65.66225461 65.6640818265 65.6658050518 65.6674139091 65.6578272585 65.6690536862 65.6704213739 65.6716492202 65.6614015747 65.6728278858 65.6737748016 65.6745685327 65.6752072805 65.6642138228 65.6757397099 65.6760836325 65.6762741878 65.6648370915 65.6763019177 65.6762105172 65.6759745845 65.6642180118 65.663786382 65.6750338989 65.6744057673 65.6737344126 65.6733081673 65.6731153738 65.6839904375 65.6838649385 65.6832824031 65.6827964568 65.6825735965 65.6809712038 65.6816648621 65.6812368825 65.6807417448 65.6874841576 65.6870757439 65.67823794 65.6823247715 65.6815523805 65.680732078 65.679887193 65.6790408631 65.6711002228 65.6724477158 65.6712033087 65.6698894919 65.6685522217 65.6672491256 65.6660135964 65.6591807472 65.6584447955 65.65689876 65.6587825744 65.6693653008 65.6677657721 65.6661763083 65.664735753 65.6635242654 65.6622516866 65.661675826 65.6610490942 65.6589142755 65.6460623802 65.6443369123 65.642347526 65.6402063678 65.6380660839 65.6360881934 65.6321627598 65.6310136163 65.6292109699 65.62861805 65.628161342 65.6276950725 65.6270800949 65.6262041919 65.6249946087 65.6234244732 65.6173003068 65.6151174631 65.6083797879 65.6065238703 65.6047716334 65.6032208857 65.6019537627 65.6010252456 65.598669244 65.5985262113 65.5986332908 65.5989181659 65.5992996847 65.5990085812 65.599285818 65.5994521033 65.5994677551 65.5957403293 65.5955473874 65.5952010945 65.5947088539 65.5940863461 65.5933568546 65.5925504637 65.59170307 65.5908551433 65.5900501144 65.589332131 65.5887793228 65.5884014469 65.5882050234
65.5625754297 65.5625826029 65.5626069893 65.5626460322 65.5623987917 65.5624393938 65.5624787745 65.5625115963 65.5625327052 65.56253767 65.562523204 65.5624874534 65.5624301736 65.5633712408 65.5632849973 65.5631785286 65.5630599741 65.5629394855 65.5633724528 65.5633032527 65.563273238 65.563297676 65.5636732532 65.5638499419 65.5638119907 65.5641761777 65.5646280378 65.5651578326 65.5674959043 65.5682309893 65.5699483686 65.5720349935 65.5727560393 65.57336418 65.5738887852 65.5743437797 65.5747528728 65.5751463735 65.5755575108 65.5760185135 65.5774930373 65.5782183289 65.5793013421 65.5802303293 65.5812265557 65.5822514033 65.5832661311 65.587465591 65.5905831202 65.5914010748 65.5921948557 65.5927750069 65.5936196581 65.5945336771 65.5955232219 65.5965749082 65.5976608019 65.5999575473 65.6020553879 65.603092993 65.6068400826 65.6055781161 65.6067091674 65.607880795 65.6090877214 65.6103141505 65.6115417545 65.6165946934 65.6176518774 65.618728207 65.6198190693 65.6209147545 65.6259386261 65.6268185115 65.6277146752 65.628611442 65.6331850923 65.6338619239 65.6345388935 65.6418882361 65.6390080105 65.6467412615 65.6428313294 65.6508556609 65.6461651906 65.6544809951 65.6575039565 65.6663037614 65.6607953239 65.663750823 65.6667289498 65.6697314059 65.6700900067 65.6731051107 65.6761427283 65.6792010843 65.6894747814 65.6826358745 65.6857069074 65.6887798345 65.6918456957 65.6922111713 65.6952386803 65.6982324791 65.7011792122 65.7127543329 65.7043969645 65.7071757904 65.7098595418 65.712433608 65.7127361436 65.7151505885 65.7174248885 65.7195475325 65.7318308851 65.7217247933 65.7234721775 65.7250399684 65.7264230651 65.7265803779 65.7277308018 65.7286898512 65.7294571316 65.7417354708 65.7300834341 65.7304248752 65.730578832 65.7305480891 65.7305375609 65.7302813822 65.7298471364 65.729238003 65.7409179547 65.7283456373 65.7272222439 65.7146428477 65.7254661509 65.7130263594 65.7229195585 65.7107688937 65.7191938479 65.7076428188 65.707089857 65.7065205578 65.7027647738 65.7019511261 65.7011245124 65.7002989303 65.6953574398 65.6942071939 65.6930433272 65.6918722292 65.690694819 65.6847276883 65.6831886818 65.6816316854 65.6800824978 65.6785549635 65.6770433122 65.6878034341 65.6825211258 65.6811627107 65.678174981 65.6802175248 65.6786059158 65.6769737387 65.6753868223 65.6738901227 65.6724895795 65.6752043172 65.6739755085 65.6726681236 65.6670035841 65.6522571298 65.650288572 65.6482077282 65.6461073559 65.6440920183 65.6431350317 65.6415012339 65.6437618608 65.6428627585 65.6421593308 65.6415505331 65.6409147769 65.6401267433 65.6390752294 65.6376800073 65.6384078586 65.6329615551 65.621845707 65.6195457884 65.6096525113 65.6080404188 65.6066384887 65.605491759 65.6057477485 65.6051677495 65.6040741836 65.6039393073 65.603960573 65.6040752789 65.6029494551 65.6031114646 65.6031918159 65.6031484324 65.6029506184 65.5970933777 65.5966823882 65.5961565853 65.5955315953 65.5948308707 65.5940842673 65.5933260479 65.5925922898 65.5919178216 65.5925324258 65.5920188897 65.5916503942 65.5914358113
65.5631454272 65.5631441026 65.5631480443 65.563248786 65.5632714003 65.5632999047 65.5633306384 65.5628927989 65.5628931817 65.5628844964 65.5628636405 65.5628287678 65.5637878915 65.563744385 65.5636810834 65.5636033384 65.56351846 65.5634352825 65.5633635421 65.5638548741 65.5638540091 65.5641560458 65.5642578721 65.5644345281 65.5646964634 65.5650504013 65.5661039745 65.5666781016 65.5680856474 65.5698422624 65.5706348656 65.5727750944 65.5735400721 65.574260343 65.5748755174 65.5754221716 65.5759168013 65.576381791 65.5768439092 65.5773331702 65.5794526629 65.5794991289 65.5827444057 65.5838362908 65.5826116153 65.5837325361 65.5881767743 65.5892818665 65.5925383774 65.5934964682 65.594408291 65.5953081363 65.5960080659 65.5969768673 65.598035025 65.5991889618 65.6004207163 65.6016936668 65.6063140455 65.6077738077 65.6102521136 65.6114592285 65.6127035098 65.6116528863 65.6130523266 65.6145073337 65.6199910861 65.6212648698 65.6258870265 65.627453245 65.6290960191 65.6315442537 65.632872964 65.6374390834 65.6390016392 65.6413209553 65.6476272427 65.6468430978 65.6542641037 65.6556053198 65.657449976 65.6613061339 65.668967135 65.6701592454 65.6739829029 65.6817738215 65.6853915299 65.686544153 65.6901233548 65.6982791814 65.7019619937 65.6982085932 65.7018141828 65.7105117794 65.7142532981 65.710045113 65.7137039379 65.7173776273 65.7267039193 65.7304767654 65.7256802879 65.729323411 65.7391001265 65.7427791754 65.7374357137 65.7409158655 65.7443209125 65.7544575582 65.7577819835 65.7516371018 65.7546574041 65.7649436381 65.7677922703 65.7609296122 65.763406159 65.7656996857 65.7759219357 65.7779515037 65.7701367345 65.7717475924 65.7818091927 65.7831135542 65.7745929557 65.7754778364 65.7761482776 65.7858298877 65.7861675369 65.7768437625 65.7767913518 65.7860989889 65.7857022408 65.775889616 65.7750863212 65.7746700641 65.7735173475 65.7629758206 65.7610169624 65.7600360463 65.7488983158 65.7462375075 65.7444251952 65.7430623771 65.7317528007 65.7368912358 65.7269463627 65.7243723808 65.7225006548 65.7178864772 65.716565006 65.7137418217 65.7116856759 65.7097184945 65.7020423164 65.7026076357 65.6937352011 65.6918152654 65.6899888923 65.7006133567 65.6991110123 65.6975675636 65.6992928409 65.6988232546 65.6908117941 65.6889319516 65.6870645424 65.6852702983 65.6835786839 65.6819774126 65.6843260773 65.6828312118 65.681281524 65.6795951288 65.6735446398 65.671321294 65.6558076135 65.6535040565 65.6619632782 65.6592707644 65.6482149088 65.6525033916 65.6489949291 65.6479935513 65.6471239282 65.6462905346 65.6453881104 65.6443116996 65.6429691149 65.6438016612 65.6417983671 65.6361467365 65.6335922042 65.6221812387 65.6205856591 65.618540045 65.6103020155 65.6091747449 65.6083252815 65.6077369752 65.6073763226 65.6064733755 65.6063795991 65.6050842519 65.605123324 65.6051338456 65.6050715715 65.6048989686 65.6045881684 65.6041229325 65.5981349559 65.5975636081 65.596913996 65.5962092751 65.5954787135 65.5966174473 65.5958339137 65.5951233199 65.5945170979 65.5936820591 65.5933532826 65.5931560676
65.5638933457 65.5638933207 65.5636627136 65.5636623312 65.5636669917 65.5636770586 65.5636905528 65.563703603 65.5637114076 65.5641508863 65.5641839665 65.564198265 65.564123835 65.5640908605 65.5640406121 65.5639774062 65.5639072574 65.5638375138 65.5637763972 65.5642349541 65.5642268918 65.5644808263 65.5645690789 65.5647373625 65.5650004577 65.5659183307 65.5664399335 65.5670607726 65.5694717841 65.57033837 65.5712137397 65.5734133802 65.5742595905 65.5750290469 65.5757402797 65.5763429494 65.5768769815 65.5773620882 65.5778264164 65.5783070891 65.5788476551 65.5811024577 65.5836323869 65.5848391477 65.5861742718 65.5882864272 65.5896125431 65.5908886643 65.5942062389 65.5952582367 65.5962295372 65.5971637732 65.5981235924 65.5989529949 65.6001073633 65.6014143268 65.6028511398 65.6075156433 65.608996532 65.6142529977 65.6143627789 65.6145284786 65.6158921176 65.6173670276 65.6194067821 65.6213328397 65.623846176 65.6255427057 65.6301035328 65.6318818055 65.6337635482 65.6399701402 65.6418940432 65.6427963763 65.6488636705 65.6512297237 65.6530559282 65.6600730345 65.664502754 65.6663365225 65.6730474109 65.6748748483 65.6787758357 65.685096803 65.6913613509 65.6902767641 65.6964922466 65.6979852601 65.7016610602 65.705372802 65.706878193 65.7106194829 65.7143777388 65.7181535203 65.7196861366 65.7234854803 65.727295427 65.7311120917 65.7349300416 65.7364809531 65.7402867848 65.7440705193 65.747821501 65.7493397721 65.7530236924 65.7566405934 65.7601765659 65.7636172773 65.7649926975 65.7682715004 65.7714173101 65.7744167825 65.7755969594 65.77836712 65.7809597058 65.7833650853 65.7855748093 65.7864161346 65.7883358974 65.7900435662 65.7915353559 65.792077593 65.7932602119 65.7942213307 65.7949607042 65.7954785853 65.7956234577 65.7958310958 65.7958196337 65.7955904474 65.7954347036 65.7948971094 65.7941295277 65.7937597529 65.786743622 65.7921481265 65.7846422982 65.7766549774 65.774350123 65.7729129982 65.7637329339 65.7618829765 65.7583485789 65.7481660009 65.7462595727 65.7438085146 65.7343693602 65.7363069016 65.7341079937 65.7247014126 65.7223810918 65.720172114 65.7146625964 65.7124753177 65.7092641838 65.7065650706 65.7114713874 65.7097556704 65.7081036705 65.7160957004 65.7224737889 65.7069370536 65.7048968182 65.6966699716 65.6944259591 65.692345666 65.6904620401 65.6923450321 65.6907281033 65.6891357981 65.6874424086 65.6855403022 65.6793126834 65.676679277 65.6738076004 65.6693780307 65.6661059836 65.6630618323 65.6581067741 65.6539974344 65.6527529943 65.6517640248 65.650916828 65.6500811282 65.6491284098 65.6479440406 65.6488711034 65.6470422764 65.6447878686 65.638898118 65.6360079541 65.6329623915 65.6224802746 65.620177024 65.6181768426 65.6107306674 65.6098619959 65.609292775 65.6089743736 65.6082296651 65.6081647338 65.6069515453 65.6069541899 65.6069099073 65.6067793966 65.6065305395 65.6061403491 65.6055963941 65.6049788598 65.6040962628 65.6030934303 65.5994735875 65.598622055 65.5977677756 65.5969506204 65.596209348 65.5955775016 65.5950796014 65.595719931 65.5955034037
65.5641760416 65.564178126 65.5641894263 65.5639797644 65.5639830891 65.5639910566 65.5640018947 65.5640121387 65.5640175158 65.5648905129 65.5649284141 65.5649412003 65.5649605327 65.5649277837 65.5648684608 65.5647858943 65.5646852383 65.5645734867 65.5644596589 65.5647477049 65.5650573874 65.565010115 65.5650511133 65.5647618633 65.5650339939 65.5659480228 65.5665432696 65.5672536521 65.5697109505 65.5706990788 65.5716870081 65.5739521359 65.5748836046 65.5757195563 65.5764519791 65.5770993411 65.5776234543 65.5780721249 65.5784828117 65.5789105622 65.5794218209 65.5815469598 65.5840445741 65.5854404763 65.5869968388 65.5892710931 65.5908160204 65.5922744317 65.5955761025 65.5966630539 65.5976170368 65.598508794 65.5994432234 65.6005331996 65.6016445307 65.6031680966 65.6048852631 65.6095548705 65.6112844702 65.6165323933 65.617840539 65.6204171784 65.6219622537 65.6200919884 65.6219653605 65.6285884239 65.6297863405 65.631857693 65.6335636926 65.6355200156 65.6413374135 65.6434560829 65.6456313723 65.6504674754 65.6565214657 65.6586785127 65.6609198668 65.6670033009 65.6691483055 65.6734769381 65.6789355233 65.6841486516 65.6858859831 65.689394705 65.6910646512 65.6927695176 65.6962821093 65.6980040808 65.7015918345 65.705228517 65.7069750073 65.7106466138 65.7143348679 65.718040504 65.719819083 65.7235495303 65.7272906754 65.73103898 65.7347894489 65.7365901227 65.7403294414 65.7440479501 65.7477356126 65.7494989113 65.7531191954 65.756674829 65.7601526451 65.7635390726 65.7651371469 65.7683592571 65.7714527873 65.7744051211 65.7757756653 65.7784946558 65.7810417616 65.783407944 65.7855852568 65.7865626597 65.7884450822 65.7901225893 65.7915916974 65.7922205695 65.7933755486 65.7943167845 65.795044156 65.7955579782 65.7957263923 65.7959255028 65.7959135465 65.7956918726 65.7955105173 65.7949788534 65.7942342136 65.7938067271 65.7927471568 65.7921664361 65.7915444216 65.790012741 65.7891825268 65.7830935358 65.7763533749 65.7731273162 65.7712558392 65.7631298178 65.760852072 65.7586772126 65.7500686589 65.7451757013 65.7426963854 65.7403351582 65.7317071224 65.7293722134 65.7289549973 65.7261097712 65.7328084093 65.721596388 65.7194012801 65.7317872177 65.7296834407 65.7306851032 65.7291073796 65.7138184051 65.7113460554 65.7032170765 65.7004372041 65.6979017967 65.6989216626 65.6969968176 65.6953865329 65.6938994795 65.6923079485 65.6904123319 65.6842422528 65.6812250962 65.6778161372 65.6728674495 65.668927691 65.6652587065 65.66007648 65.6560888215 65.6548338371 65.6540059622 65.6534148521 65.6528420275 65.6520887249 65.6532574119 65.6518399723 65.6498928674 65.6473956357 65.6412341982 65.6378809711 65.6342846265 65.6235750126 65.6208007169 65.6183844895 65.6112465289 65.6103190889 65.6148097708 65.6147144023 65.6150285642 65.6104642366 65.6121407609 65.6125711135 65.6128834274 65.613022363 65.6129487562 65.6126376229 65.6120771554 65.6082960294 65.6073570949 65.6062546066 65.600564723 65.5996220934 65.5986650454 65.5977345462 65.5968747332 65.5961297726 65.5964494993 65.5959800523 65.5957454184
65.5643098597 65.5643301833 65.5643574119 65.5643997774 65.5644356022 65.5642423169 65.564265096 65.564667878 65.5650882572 65.5651580794 65.5652036383 65.5652214901 65.5652443392 65.5652107046 65.5651450937 65.5650485334 65.5649234632 65.5647742966 65.564608614 65.5644391296 65.5649388692 65.5647931837 65.5647604033 65.5648924616 65.5652223027 65.5657325518 65.5664404089 65.5686829535 65.5698037467 65.5709475556 65.572070826 65.5744062627 65.5754223481 65.5763116846 65.5770627368 65.5776705823 65.5781548808 65.5785043654 65.5787972947 65.5791203002 65.5795771948 65.5802580509 65.5826974181 65.5856510872 65.5875107415 65.5900076157 65.5918056069 65.5934477716 65.596656149 65.5976979876 65.5985302749 65.5992737397 65.6001082731 65.6012189813 65.6053764547 65.607520792 65.6123806109 65.6146203334 65.6167510865 65.6181989397 65.6194335778 65.6217219713 65.6233349839 65.6253599817 65.6305290677 65.6307381141 65.6329393405 65.6342629744 65.6384233708 65.6406826126 65.6436042408 65.6486557086 65.6511347334 65.653596219 65.6583105122 65.6634606271 65.6660039113 65.6709937818 65.6733202738 65.6780594467 65.6815924395 65.6835355141 65.6854704713 65.6888025254 65.6906950781 65.6926339356 65.6960300642 65.6980128705 65.701509773 65.7050633787 65.7070833854 65.7106757524 65.7142845233 65.7179105556 65.7199684431 65.7236207835 65.7272841446 65.7309552866 65.7346296031 65.7367144093 65.7403789624 65.744024306 65.7476409744 65.749683353 65.7532324526 65.7567196911 65.7601325968 65.7634583216 65.7653103005 65.7684692218 65.7715044605 65.7744040993 65.7759914755 65.778653338 65.781149618 65.7834718485 65.7856125806 65.7867450137 65.788585547 65.7902290701 65.7916723975 65.7923995398 65.793523426 65.7944421638 65.7951557505 65.7956645746 65.795859765 65.7960492454 65.7960365881 65.7958231247 65.7956124317 65.7950870319 65.7943650949 65.7938709884 65.7928512873 65.792188685 65.7914745492 65.7900177902 65.7890853909 65.7880743613 65.7860189747 65.7807754443 65.7790321207 65.77297031 65.7706582242 65.7639674683 65.7595906147 65.7568995969 65.754058271 65.7469132211 65.7436698959 65.7411291978 65.736148728 65.7418093044 65.7389339724 65.7470364865 65.7391003518 65.7363190681 65.7340375113 65.7349273289 65.7336425491 65.7320717782 65.7301375734 65.7265176257 65.7173118439 65.712798274 65.7016068051 65.6994359317 65.6979654611 65.6968827094 65.6957541544 65.6941879898 65.6883560598 65.6850243666 65.6810079748 65.6753458049 65.6704412144 65.6638346747 65.658441741 65.6562938522 65.655056128 65.6545806688 65.6545390441 65.6545483472 65.6562231515 65.6556428633 65.6543992328 65.6524234024 65.6497037038 65.6432417883 65.6393182511 65.6350022216 65.6305071694 65.6204967541 65.6174533122 65.6153196947 65.6138156591 65.6132626059 65.6135283566 65.6143528038 65.6119870552 65.6128291123 65.6135550853 65.6140791335 65.6143504197 65.6143414811 65.614040302 65.6134459944 65.6095062143 65.6084761583 65.6072569926 65.6058773571 65.604559304 65.599343861 65.5982272915 65.5996369609 65.5970929225 65.5962132252 65.5956164895 65.5962676814
65.5643404359 65.5643578004 65.5644194038 65.5644993719 65.5645765879 65.5646751558 65.5648129809 65.5648939271 65.5649549606 65.5654069966 65.5654631065 65.5654868836 65.5655122703 65.5654746598 65.5653973361 65.5652785391 65.5651172826 65.5649145197 65.5646755939 65.5644143603 65.5644351456 65.5643915847 65.5642582746 65.5643515548 65.5647184629 65.5653538413 65.5661906014 65.5684824299 65.5698045654 65.5711247133 65.5723940846 65.5748004924 65.575894167 65.5768207784 65.5775641351 65.5781129976 65.5784693272 65.5786734471 65.5787816223 65.5789462631 65.5793270599 65.5800495762 65.5828854156 65.5855417429 65.5886459649 65.5908893811 65.5936058488 65.5944310967 65.5974720409 65.5983680938 65.5989478407 65.5994099435 65.6000564163 65.6011845835 65.6052632667 65.6079650747 65.6130307896 65.6156575457 65.617716355 65.6192402819 65.6201938633 65.6212036514 65.6236451239 65.6260836944 65.6312832635 65.6340751909 65.6363009356 65.6383874307 65.639981073 65.6444550744 65.6469123431 65.6498194205 65.6523190519 65.6568002368 65.6594798741 65.6637419905 65.6681828768 65.6724264331 65.6748743555 65.6772272612 65.6805970166 65.6827742625 65.6849267981 65.6880951919 65.6902365955 65.6924390512 65.6957338727 65.6980067173 65.7014148659 65.7048798523 65.707199887 65.7107050306 65.7142264665 65.7177651219 65.7201298323 65.7236966198 65.7272750737 65.7308621833 65.7344536557 65.7368514304 65.7404350972 65.7440015134 65.7475416941 65.7498920428 65.7533647162 65.756778714 65.7601221581 65.7633828279 65.7655154509 65.7686068586 65.7715797947 65.7744229678 65.7762496747 65.7788503151 65.7812920504 65.7835669311 65.7856679716 65.7869714715 65.7887667476 65.7903733569 65.7917884004 65.7926233784 65.7937134776 65.7946075822 65.795305805 65.7958086219 65.7960332213 65.7962121287 65.7961984724 65.795993582 65.7957503033 65.7952310865 65.7945298323 65.7939601355 65.7929726612 65.7922156718 65.7913952971 65.7900041288 65.7889558429 65.7878049662 65.785838738 65.7843532508 65.7827246558 65.7781945224 65.7731089362 65.7693795937 65.7670255685 65.7613080928 65.7583397336 65.7550250843 65.7587414183 65.7529531912 65.7523227131 65.7549548331 65.7528564777 65.7496975358 65.7418563725 65.7381598395 65.7374565887 65.7363161421 65.7358993709 65.735574402 65.7331963745 65.7290234157 65.7192598612 65.7131041815 65.7019262425 65.6993361982 65.6981695713 65.6979095855 65.6977431581 65.6969417479 65.6917703231 65.7021591177 65.6902329282 65.6844289681 65.6708603921 65.6678778954 65.6573052741 65.6546043052 65.653404681 65.6535065824 65.6543542188 65.656763889 65.6575612235 65.6575881743 65.6566721819 65.6547561791 65.651847192 65.6450706181 65.6405107507 65.6353564954 65.6298522346 65.6195090362 65.6158449123 65.6128212287 65.6110572819 65.6106580642 65.6114268694 65.6137793373 65.6118098117 65.6131620505 65.6142955191 65.6151136214 65.6155749213 65.6156690839 65.6154015317 65.6147854911 65.6106819407 65.6095560474 65.6082076584 65.6068655811 65.6052127216 65.6034081827 65.6012456671 65.5993943793 65.5966970485 65.5955511381 65.5954606629 65.5950803135
65.5642816186 65.5643134909 65.564500195 65.5646786451 65.5648823223 65.5650851789 65.5652688923 65.5657218137 65.5659011576 65.5660404877 65.5657129051 65.565743201 65.5657710556 65.5657284839 65.5656375734 65.5654935647 65.5652916072 65.5650284512 65.5647062042 65.5643390168 65.5641768966 65.5637904797 65.5636639695 65.5637145298 65.5641287177 65.5648883298 65.566784675 65.5682623273 65.5697914389 65.5712864633 65.5726951162 65.5751656293 65.5763227392 65.5772690381 65.5779822752 65.5784427568 65.578646312 65.5786305844 65.5791055497 65.5789700639 65.5793701323 65.5804814623 65.5825350044 65.5859865384 65.5887092923 65.5913136718 65.5942790365 65.5961430179 65.5998113058 65.6004180066 65.600180263 65.599948833 65.6003824595 65.6019922167 65.6050519021 65.6097677038 65.6134432984 65.6164575575 65.6185147551 65.6216977274 65.6216563564 65.6215107844 65.6256624474 65.6289299611 65.6330332715 65.6379864328 65.639589463 65.6405902508 65.6429220205 65.6461345257 65.6501071568 65.6546563968 65.6559224589 65.6578009514 65.6624246033 65.6669372153 65.6688816319 65.6706666546 65.6736250425 65.6760919806 65.6793646904 65.6818166612 65.6842140048 65.6872538642 65.6896751971 65.6921762093 65.6953994572 65.6979824115 65.70130829 65.7046834676 65.7073187414 65.7107318952 65.7141605 65.7176072887 65.7202950481 65.7237730756 65.7272624219 65.7307615999 65.734268006 65.736996719 65.7404972971 65.7439820516 65.7474442115 65.7501211692 65.7535170084 65.7568562841 65.7601290337 65.7633247768 65.7657556511 65.7687789147 65.7716882854 65.7744745472 65.7765552544 65.7790942791 65.781480071 65.7837063553 65.7857672085 65.7872519127 65.7890004954 65.7905685131 65.7919541586 65.7929026594 65.7939577083 65.7948256754 65.795507431 65.7960035309 65.7962589006 65.7964263971 65.7964113314 65.7962150301 65.795937005 65.7954230935 65.7947386704 65.7940858865 65.7931168766 65.7922491296 65.7913048208 65.7899579917 65.788777777 65.7874531028 65.7855486554 65.7839487501 65.7819704757 65.7841889754 65.7831382151 65.7796467854 65.7748226975 65.7733053765 65.7768879348 65.7722159074 65.7677476357 65.763441126 65.7608450425 65.7647969019 65.7652624575 65.7588384997 65.7521146728 65.7478839029 65.7366556877 65.7399317417 65.7427411431 65.7370543899 65.7355352075 65.7309116958 65.7234203631 65.71420268 65.705749321 65.7007607654 65.6998651933 65.702003194 65.7050460823 65.7153706927 65.7074590546 65.7049860001 65.6924590237 65.6854447638 65.677010923 65.6668098478 65.659016843 65.6541248575 65.652501512 65.6538445197 65.6541010938 65.6566298381 65.6585262282 65.6593247934 65.6588435617 65.657055212 65.6539987582 65.6469192785 65.6417240377 65.635706383 65.62913311 65.6224519883 65.613619937 65.6098647281 65.6077807188 65.607560077 65.6093583747 65.6119595784 65.611416196 65.6133610465 65.6149590886 65.616108037 65.6167821509 65.6169931857 65.6167672922 65.6161338618 65.6118554848 65.6106348977 65.6137024478 65.611604018 65.6092113951 65.6049973118 65.6025566206 65.6000614073 65.5976958762 65.5957100424 65.5941173217 65.5936726597
65.5642048262 65.5642669838 65.564431576 65.5646715001 65.5649400211 65.5652014329 65.565432942 65.5659100547 65.5661174639 65.5662765293 65.5663855882 65.5664427561 65.5660281554 65.5659819002 65.5658795151 65.5657135024 65.5654753383 65.5651575246 65.5647584443 65.5642915405 65.5639684446 65.5634501435 65.5631299978 65.5631742132 65.5636407076 65.5646508122 65.5664923146 65.5681515417 65.569856477 65.5714957721 65.573015949 65.5755342225 65.576734718 65.5776849689 65.5783558843 65.5787185832 65.5787619295 65.5785294132 65.5783358213 65.578090017 65.5784260057 65.5796909655 65.581997945 65.5855907468 65.5888530506 65.5917560408 65.5956415946 65.5974068812 65.6001705164 65.6000327656 65.5994306359 65.598605536 65.5987353703 65.600540071 65.6041520295 65.6084334629 65.6138602276 65.6171625648 65.6190852922 65.621067744 65.6200140877 65.6202942498 65.6231276331 65.6283791644 65.6346107157 65.6381397923 65.639970304 65.6389571882 65.6405101476 65.6466722105 65.653282105 65.6556518092 65.6548345038 65.6558632649 65.661103777 65.6657103863 65.6659501564 65.668196945 65.6724915759 65.6742783408 65.6779512233 65.6804757318 65.6833664423 65.6862411007 65.688964194 65.6918659465 65.6950976101 65.697943643 65.7011436454 65.7044611095 65.7074761764 65.7107871649 65.7140551493 65.717394812 65.72047081 65.723896661 65.7272462384 65.7306043525 65.7340606176 65.7371904243 65.7405984729 65.7439351524 65.7473110349 65.7503854455 65.7537401783 65.7569553387 65.7601137397 65.7632849434 65.7660770453 65.7690187691 65.771810024 65.7745408884 65.7769336063 65.7794310464 65.7817204233 65.7838729359 65.7859252582 65.7876256976 65.7893111297 65.7908103854 65.7921737753 65.7932630785 65.7942829744 65.7951040725 65.795766446 65.7962700395 65.7965578462 65.7967017046 65.7966853918 65.7965086778 65.7961917312 65.7956673109 65.7949989539 65.7942794952 65.7933071306 65.7922803783 65.7911850568 65.7898903743 65.7884863872 65.7870189762 65.7849842463 65.783652712 65.7807653351 65.780924769 65.7841171065 65.7811242688 65.7746642734 65.7752450488 65.7804387041 65.7810025001 65.7739012553 65.7612994162 65.7579520505 65.7633267588 65.76511122 65.7621955651 65.7536135258 65.7407300751 65.732713444 65.732994242 65.7392248851 65.7380675721 65.7378959482 65.7330650825 65.7235074136 65.7118557825 65.7007600642 65.6944233137 65.6941973152 65.6984718844 65.7093707443 65.716077617 65.7159998074 65.7150463917 65.6950338033 65.6869363707 65.6851217868 65.6647999503 65.6552734953 65.6492504104 65.6476233348 65.6507884937 65.6526619608 65.6565742924 65.6596044527 65.6611883625 65.6611520017 65.6595116567 65.6563479396 65.6490098984 65.6432665716 65.6364932745 65.6289675553 65.6213677822 65.6132024657 65.6073878407 65.6049590317 65.6049964045 65.6071084485 65.6105486308 65.6112114932 65.6137252058 65.6157585851 65.6172101013 65.6180735368 65.6183840966 65.6181886716 65.6175324905 65.6182042738 65.6166904698 65.6147848499 65.6125109935 65.6098943618 65.6054755676 65.6027066981 65.5998269539 65.5970498829 65.594687039 65.5931211773 65.5925411819
65.5641417446 65.564219382 65.5644322938 65.5647184302 65.5650417716 65.5653513006 65.565621168 65.5658399261 65.5663467898 65.566520962 65.5666404296 65.5667041347 65.5667093526 65.5662440059 65.5661360179 65.5659572415 65.5656965363 65.5653432612 65.5648928326 65.5643577089 65.5639416552 65.5633343159 65.5629508137 65.5629512571 65.5635177549 65.5645610645 65.566572341 65.5684021859 65.5702400848 65.5720568023 65.5736431775 65.5753945083 65.5771577085 65.578102376 65.5787349876 65.5790200767 65.5789429 65.5785542995 65.5781395962 65.5777016593 65.5780347933 65.5798042779 65.5825176381 65.5857534036 65.5903475063 65.5935384229 65.5963152071 65.5980493857 65.6006618854 65.6002200033 65.5990764764 65.5979808427 65.5979724887 65.6002637736 65.6040359968 65.6088158977 65.6145504009 65.6179286337 65.621881177 65.6209246293 65.6191722816 65.618814463 65.6220411426 65.6281716671 65.6350369141 65.6412098879 65.6408621974 65.6377120766 65.6382568564 65.645177174 65.6529920991 65.6550898281 65.6527911365 65.6532348651 65.6614465857 65.6650968231 65.6638197247 65.6665623504 65.6721453233 65.6723563126 65.6772088097 65.6787913716 65.6831721878 65.6851601187 65.6878409363 65.6917295081 65.6954386373 65.697933177 65.7004598571 65.7040563816 65.7080781514 65.7112096085 65.7136127168 65.7167102363 65.7207973371 65.7245661621 65.7272452721 65.729900714 65.7336719018 65.737853096 65.7410632663 65.7435235018 65.7467107942 65.7508256638 65.7544890378 65.7570283777 65.7595776333 65.7631155308 65.7668308337 65.7695293769 65.7715901192 65.7742565943 65.7774868768 65.7801377116 65.7818874049 65.7836821692 65.786043134 65.7882735647 65.7897274233 65.7908334157 65.7922475603 65.7937389047 65.7947335538 65.7952976558 65.7959131245 65.7965755852 65.7969145365 65.7969188979 65.7969089569 65.7968663562 65.7964769627 65.7957931984 65.7951842736 65.7946316859 65.7935986836 65.7921547208 65.7909366395 65.7900434711 65.7880217403 65.7867903751 65.7842931059 65.7836886756 65.7811125152 65.7784939174 65.782897958 65.783594627 65.7703128117 65.7700980596 65.7789931326 65.7811441611 65.7711354612 65.7552674583 65.7541127401 65.765818491 65.7743770844 65.7644438368 65.7539803654 65.7378213442 65.7278215634 65.7294875962 65.7383780849 65.7475890721 65.7412777862 65.7365478906 65.7259012341 65.7122016262 65.7018203313 65.6914212624 65.6915272562 65.699584537 65.709980249 65.7186082987 65.7198573466 65.7194041484 65.7139389597 65.7035389545 65.6877737598 65.6721846514 65.6577310646 65.6472263084 65.6454848788 65.6490776139 65.6525885706 65.6575422717 65.6614207843 65.663583257 65.6638656584 65.6623234279 65.6680512355 65.655152224 65.6489407568 65.6412467988 65.6325056876 65.6232950452 65.6128293337 65.6070353859 65.6038337961 65.6038353682 65.6063520472 65.610372277 65.6116658387 65.6145854657 65.616920014 65.6185716452 65.6195507237 65.6199108518 65.619714819 65.6207633359 65.6196078376 65.618009767 65.615999136 65.6135983308 65.6089843423 65.6062661739 65.603274084 65.6001280328 65.5970560249 65.5944724691 65.5926285652 65.5919784902
65.564237203 65.5643250305 65.5645637337 65.5648934839 65.5652305777 65.5655655943 65.565855048 65.5660882346 65.5665992814 65.5667810821 65.5669067994 65.5669758556 65.566985719 65.5669314389 65.5668053734 65.5662389475 65.5659763122 65.565617288 65.5651564275 65.5646060264 65.5642019574 65.5635818383 65.5631954082 65.5632700808 65.5638505759 65.5649210043 65.5670060668 65.5688442097 65.5706869624 65.5725116479 65.5741047404 65.5758820358 65.5770711103 65.5787297425 65.5791733201 65.5794305809 65.5793178842 65.5788965338 65.5785561802 65.5781469949 65.5788228704 65.58058427 65.5833507018 65.5866116259 65.5912274715 65.5943821136 65.5971403773 65.5988117472 65.599651738 65.6010186898 65.5998737832 65.5988334446 65.5992143745 65.6015874696 65.6058262552 65.6107609693 65.6188705879 65.6220514871 65.6230403661 65.6221583106 65.6209636107 65.6207865632 65.6254874765 65.6325352865 65.6404335957 65.6440322129 65.6428346463 65.64045013 65.6423187369 65.647931929 65.6562687438 65.6579881357 65.6554962344 65.6566040042 65.6638922307 65.6674547499 65.666930815 65.6697596432 65.6733231596 65.6752487726 65.6786710206 65.6805320326 65.683391117 65.6862782426 65.6889929938 65.6918756186 65.6951027537 65.6979448909 65.701153584 65.7044702649 65.7074672163 65.7107823903 65.7140615573 65.717406048 65.7204636703 65.7238880599 65.7272467299 65.7306142262 65.7340692019 65.737179932 65.7405920302 65.7439396167 65.747319294 65.7503747903 65.7537280268 65.756951884 65.7601181684 65.7632869384 65.7660620353 65.76900789 65.7718080827 65.7745408887 65.7769185703 65.7794158353 65.7817121059 65.7838694112 65.785919367 65.7876098539 65.7892988731 65.7908030898 65.7921666219 65.7932489473 65.794270009 65.7950944428 65.7957576878 65.7962597502 65.7965463228 65.7966919828 65.796675657 65.7964973032 65.7961819516 65.7956591634 65.7949899708 65.7942708794 65.7932992431 65.7922803926 65.7911905096 65.7898909224 65.7885001394 65.7895815797 65.7875130407 65.7869574356 65.7873009918 65.784402388 65.7908747735 65.7894368365 65.7787952786 65.7778276149 65.789581023 65.7925470215 65.7791879999 65.7671650104 65.7631622358 65.7734773888 65.783357871 65.7843559384 65.7683952933 65.7491552093 65.7348732105 65.7362583294 65.7443175666 65.7535838375 65.7571098847 65.752787342 65.7418416254 65.7251887409 65.7083021518 65.6978103223 65.6971385638 65.7048762719 65.7154905086 65.7212952511 65.7258193909 65.7255256077 65.719902126 65.7093986373 65.6933510759 65.6774321092 65.662572384 65.652427097 65.6488538961 65.652413699 65.6552082559 65.6604483423 65.6645744232 65.6668948728 65.6786137833 65.675009511 65.6719212391 65.6584218629 65.652071494 65.6441979688 65.6353212355 65.6259594592 65.6150276003 65.6090182909 65.6056812382 65.6054331071 65.6079914476 65.6121153003 65.6131855411 65.6162209596 65.6186305391 65.6203170358 65.6212966047 65.6232674145 65.6230826632 65.6223502376 65.6211275147 65.6194595149 65.6173799971 65.6149140729 65.6102546557 65.6074729936 65.6044117837 65.601183998 65.5981557115 65.5953489519 65.5934072274 65.5927076928
65.5645529242 65.5646423673 65.564881626 65.5652098302 65.5655611615 65.5658626257 65.5661471923 65.5663766135 65.5665495559 65.567060888 65.567187897 65.5672607782 65.5672771147 65.5672322974 65.5671193456 65.5669290096 65.5663236252 65.5659923595 65.5655675045 65.5650624021 65.5647831016 65.5642362003 65.5639133944 65.5641504742 65.5647233192 65.5657402665 65.5678628371 65.5695937382 65.5713451864 65.5736391932 65.5752306213 65.5766351865 65.5776134886 65.5793149534 65.579915836 65.580169275 65.5799671117 65.5796553279 65.5796934788 65.5801598425 65.5807572877 65.5824729567 65.5850648508 65.5880999427 65.5925666059 65.5955226809 65.5979291288 65.6026137863 65.6031964761 65.6029034337 65.6018523015 65.6019736432 65.6024679253 65.6047927441 65.6086132432 65.6129890628 65.6196236394 65.6240074377 65.6267451892 65.626090014 65.6270996647 65.6276346807 65.6313068968 65.6384470295 65.643774955 65.6465070904 65.6491170628 65.6467976781 65.6508688062 65.655685035 65.6604517505 65.6627892923 65.6630098269 65.6657754014 65.6693118836 65.6716486661 65.6728929226 65.6742237201 65.6767833317 65.6802412666 65.6823598629 65.6832684676 65.6842402608 65.6872835672 65.6896952099 65.6921857992 65.6954107227 65.697983488 65.7013119747 65.7046900056 65.7073148624 65.710731051 65.7141628098 65.717612631 65.7202897041 65.7237705688 65.7272629017 65.7307650263 65.7342741348 65.7369918687 65.7404951463 65.7439826425 65.7474473254 65.7501134269 65.7535116698 65.7568534188 65.7601285002 65.7633262496 65.7657472017 65.7687726645 65.7716841559 65.7744722333 65.7765444897 65.7790854564 65.7814731113 65.7837009994 65.7857630955 65.7872417887 65.7889919094 65.7905612289 65.7919478202 65.792892559 65.7939487504 65.794817608 65.7954999124 65.7959962186 65.7962505817 65.7964184762 65.7964034634 65.7962068719 65.7959299997 65.7954159566 65.7947310565 65.7940810374 65.793111707 65.7922479142 65.7913079869 65.7899601747 65.7940793214 65.7989938299 65.7985557886 65.797640002 65.7967217106 65.8019050704 65.8035633324 65.8080592989 65.8038210663 65.8021334562 65.8064548161 65.8114967582 65.8039899732 65.7937100279 65.7853533229 65.7972865884 65.7989940955 65.7979296281 65.7871831252 65.769678698 65.7592904266 65.7592724967 65.7710653644 65.7817490213 65.7672634753 65.7624756369 65.7537106698 65.7391512102 65.7243484221 65.7147528787 65.7137122639 65.7181755019 65.7313701277 65.740171651 65.7450083666 65.7337744298 65.7281341018 65.7181659268 65.7028839009 65.6881285562 65.67437088 65.6647738759 65.6616459219 65.6615542364 65.6611782662 65.6657949475 65.6793561121 65.6827292019 65.6836781939 65.6798034063 65.6805576 65.6752680717 65.6680626937 65.6484441998 65.63995298 65.6310928664 65.6199801929 65.6142545162 65.6109762483 65.6101637748 65.6123492103 65.6160251153 65.6159666387 65.6187699096 65.6209861155 65.6225128597 65.6248867363 65.6251920308 65.6248993464 65.6240745093 65.6227750194 65.621048844 65.6189349881 65.6142669634 65.6118373696 65.6091176673 65.6061554843 65.6032985873 65.6002204323 65.5975264084 65.5956429198 65.5949302631
65.5650971311 65.5651778177 65.5653899384 65.5656801136 65.5659913109 65.5662426332 65.5664979718 65.5667056641 65.5668638905 65.5669737262 65.5674839213 65.5675590667 65.5675834031 65.5675529517 65.5674621258 65.5673039629 65.5675803323 65.5672472687 65.5668211187 65.5663213023 65.5658317538 65.5653755016 65.5651353125 65.5654539835 65.565988971 65.5668914058 65.5690138274 65.5705590927 65.5727550482 65.5743705806 65.5758810108 65.5772426249 65.5796559778 65.5805853985 65.5812106522 65.5815144898 65.5819921153 65.5817426742 65.5816276685 65.5827642563 65.5834882502 65.5850767058 65.587360026 65.5900281473 65.5927757392 65.5969340693 65.6025386562 65.6041374987 65.6049858782 65.6070402746 65.6065915103 65.6071969286 65.6081126672 65.6104737409 65.6139682172 65.6217967306 65.6256752817 65.6298979126 65.6311257826 65.6339065866 65.6352921854 65.6365162545 65.6397295517 65.6444078181 65.6485354082 65.6511955732 65.6560383542 65.6568265113 65.6602977745 65.6636502427 65.6669801964 65.6695298414 65.6708298565 65.677429484 65.676254583 65.6812091327 65.6826271848 65.6826970257 65.6858066795 65.6870365274 65.686530302 65.6888546957 65.6916204647 65.6908472953 65.6902530739 65.6964383767 65.6957441826 65.6980071951 65.7014181436 65.7048860638 65.7071960254 65.7107041038 65.714228476 65.7177700663 65.7201244665 65.7236941223 65.7272754189 65.7308653379 65.7344595759 65.7368468159 65.7404331746 65.7440022139 65.7475449331 65.7498849031 65.7533601066 65.7567765269 65.760122267 65.7633850868 65.7655082431 65.7686018801 65.7715768745 65.7744219143 65.7762405542 65.77884322 65.7812867622 65.7835632146 65.7856655764 65.7869633125 65.7887600946 65.7903679363 65.7917839283 65.7926152842 65.7937065123 65.7946014438 65.7953001872 65.795803215 65.7960268273 65.7962060911 65.7961924732 65.795987303 65.795745126 65.795225715 65.7945238398 65.7939567369 65.8021341001 65.7922147052 65.8006749621 65.8099457265 65.8096598036 65.809862772 65.8207212857 65.8222675844 65.8217510628 65.8328649076 65.8340344365 65.8308319985 65.8409136742 65.8289294935 65.8303987591 65.8356392949 65.8314595148 65.8258886404 65.8222612053 65.8244868274 65.8198969841 65.8178662503 65.8100371444 65.8131980319 65.8046252009 65.8037439641 65.8066718698 65.8158144196 65.8199162436 65.8163624586 65.8056453204 65.7787634907 65.7639750703 65.7537926608 65.7514702486 65.7587797132 65.7677598881 65.7545190001 65.757216828 65.7558282091 65.7386047263 65.727214606 65.7156079786 65.7029220603 65.6911934493 65.6827746396 65.6793596859 65.6769725205 65.6810375328 65.6860732075 65.6986805943 65.7021892894 65.703248913 65.7017762756 65.6859715415 65.6806804752 65.6737674551 65.6655039945 65.645992368 65.638101249 65.6270900217 65.6220373412 65.619018553 65.6179612685 65.6195730141 65.622549853 65.6257881252 65.6289079776 65.6314163819 65.6331599628 65.6272540173 65.6273436686 65.6268855482 65.625935136 65.6245457533 65.6227666762 65.6181004515 65.6160205228 65.6136853828 65.6111289544 65.6084037686 65.6059244916 65.6031892603 65.6008111308 65.5991346093 65.5984541403
65.5658185736 65.5658813022 65.5660445781 65.5662690667 65.5665126065 65.5667436064 65.5668957403 65.5670679633 65.5672017826 65.5672966478 65.5677921441 65.5678682679 65.5679015791 65.567888857 65.5678262737 65.5677097405 65.568072662 65.5678314868 65.567527442 65.5671809572 65.5668715904 65.5665868511 65.5664740833 65.5669280134 65.5674079262 65.5681715117 65.5702651237 65.5721974453 65.5736726356 65.5751515425 65.576577254 65.5779004985 65.579076854 65.5813793301 65.5821139726 65.5825878472 65.582828117 65.5841004195 65.5854074821 65.58570959 65.5864454797 65.5878827625 65.5898410967 65.5921331812 65.5945525548 65.5985402798 65.6031121224 65.6059465545 65.609526828 65.6100474258 65.6103709631 65.6109244166 65.613173972 65.6153249454 65.622172293 65.6257819658 65.6291207077 65.6334605256 65.6352077168 65.6406578962 65.643415805 65.644311389 65.647127557 65.6505950378 65.6574250548 65.6603233303 65.6636747763 65.6655053528 65.6695847628 65.6722885473 65.674989212 65.6819857027 65.683990762 65.6878863442 65.689673352 65.690619803 65.6919906596 65.7004903622 65.6993771544 65.7002264077 65.697849807 65.7059909499 65.7028587831 65.6994632637 65.7078738967 65.7045614926 65.7017951799 65.7055487654 65.707384215 65.7112711019 65.7151869756 65.7106747887 65.7142862832 65.7249393249 65.7289176162 65.7328999518 65.7272843923 65.7388014655 65.742823945 65.7468327642 65.7403772432 65.7440250754 65.7566967912 65.7606308651 65.764500921 65.7567180296 65.7700943207 65.7737953061 65.7773800625 65.7684652394 65.7715024533 65.7857044038 65.7888272268 65.7917713742 65.7811456172 65.7957609802 65.7982753729 65.8005763426 65.7885803913 65.7902250735 65.8053164291 65.8068908814 65.8082265741 65.7944375148 65.8097197875 65.8105270343 65.8110869407 65.7960446619 65.7960320315 65.8114134113 65.8111854201 65.8107308394 65.8103332878 65.8097161756 65.8250711467 65.8410693546 65.8249634675 65.8419767731 65.8595361687 65.8438578077 65.8616344874 65.8635283385 65.8796246017 65.863806558 65.8648343262 65.8765485276 65.8766984166 65.8746920741 65.8739053787 65.866596403 65.8639833862 65.8606787926 65.8565383731 65.8557027171 65.8573135768 65.8536634668 65.8562080592 65.8487282519 65.8427499586 65.8640021797 65.8525660972 65.8437849247 65.8444233816 65.8397754754 65.8309520144 65.8189620513 65.7954365333 65.7873666524 65.7870387159 65.788647958 65.7927198557 65.7964966159 65.7717704355 65.7818471767 65.7509374396 65.7401904691 65.7302102964 65.7197324044 65.7101879295 65.7030932976 65.7012291324 65.701136396 65.7061675258 65.7069648805 65.7099988071 65.7115873261 65.7112667751 65.6958403426 65.6920009584 65.6866614143 65.6800557713 65.6724914972 65.6643673043 65.6459781483 65.6352636969 65.6310497136 65.6283982199 65.6268563166 65.6276644623 65.6295398285 65.6316176571 65.6337301757 65.6354293109 65.6365549905 65.629883401 65.6296904089 65.6290207117 65.6279151687 65.6264200289 65.6245843131 65.619930295 65.6179070703 65.6157016012 65.6133609148 65.6113612487 65.6089450572 65.6066654639 65.6047186148 65.6033409559 65.6027316393
65.5666262142 65.566665923 65.5667704715 65.5669172104 65.567081056 65.5672417206 65.5673855516 65.5675623463 65.5675544872 65.5676308816 65.5676779934 65.5681838703 65.5682264659 65.5682328384 65.5682008732 65.5681292427 65.5680181547 65.5684320081 65.5682496199 65.5685315095 65.5683002355 65.5681477016 65.5677801013 65.5681099473 65.5686675807 65.5693815372 65.5714267371 65.5732315745 65.5745474509 65.5759148946 65.5772780078 65.5785844723 65.5797871224 65.5822456652 65.5831139311 65.5837783256 65.5856254281 65.5859202095 65.5862371219 65.5887567994 65.5896537934 65.5909832617 65.5927166405 65.594175382 65.5963508765 65.6028375277 65.6087894678 65.6106018733 65.6120056504 65.6130852716 65.614029639 65.6151005513 65.618322393 65.6237886531 65.6266057752 65.6297106658 65.6327735454 65.6355253924 65.6429426024 65.644584803 65.6503033038 65.6524418859 65.6551242333 65.6570900942 65.6641882922 65.667351263 65.6715754031 65.6802187257 65.6829079314 65.6858936738 65.6889402211 65.6923499216 65.69485427 65.6991939326 65.701051325 65.7084239507 65.7104420505 65.7139734515 65.7148066864 65.7210720214 65.7238885783 65.7200115121 65.7201782113 65.7260878662 65.7293023455 65.7319011158 65.7277197498 65.7412249266 65.7340506565 65.7393330762 65.7445900795 65.7498209612 65.7510152462 65.7563552118 65.7616724356 65.7669642101 65.7838051339 65.7735193409 65.7788975606 65.784234052 65.7895174526 65.790735421 65.7961054141 65.8013922581 65.8065769288 65.8264884051 65.8128763724 65.8179483905 65.8228560597 65.8275787227 65.8286061121 65.8332720932 65.8377138246 65.8419121965 65.8643327322 65.8467484919 65.8505605494 65.8540807785 65.8572934388 65.8578661487 65.8609150282 65.8636300056 65.8659947871 65.8902063714 65.8683806598 65.870174628 65.8715768131 65.8725717607 65.8725980841 65.8733557429 65.8736808209 65.8735580808 65.8981070589 65.8730433046 65.8975098565 65.8977614293 65.8988644475 65.8978289958 65.9005327451 65.9237141007 65.9244739254 65.9213859675 65.9238698868 65.9234354329 65.9222789624 65.9175246651 65.917620182 65.9148371221 65.912553869 65.9181045629 65.9144244069 65.9105101256 65.9071907292 65.8896537683 65.8890341587 65.884167654 65.8901672159 65.9147851874 65.9093170269 65.905941759 65.9062803831 65.9064335491 65.8707562034 65.8654775482 65.8576589476 65.8482929329 65.8390706033 65.8266601602 65.8192918787 65.8179776992 65.8180060813 65.8177782327 65.8159233235 65.8115969961 65.7910914019 65.7540360931 65.7453025707 65.7488037979 65.7404794773 65.7341232552 65.7303668014 65.7224790643 65.7231699033 65.7245454032 65.7219575899 65.7216266038 65.7198653014 65.7027646505 65.6984261255 65.6929197235 65.6864907143 65.6794684373 65.6722539397 65.6536579207 65.6433350768 65.6475808399 65.6397835586 65.6357231503 65.6398244357 65.6409605516 65.6425706663 65.6387612567 65.6396450403 65.6327930265 65.63268932 65.632178365 65.6312684552 65.6299853309 65.6283672174 65.6236311454 65.6218190855 65.6198454562 65.6217283105 65.6161207533 65.6140085823 65.611986551 65.6101562078 65.608640714 65.6075716828 65.6070514709
65.5674200676 65.5674371854 65.567485963 65.567559207 65.5676474948 65.5677409741 65.5678306091 65.5679677947 65.5680478879 65.5681076054 65.5680067052 65.5685002431 65.5685517899 65.5685766141 65.5685739309 65.5685445025 65.5684911938 65.5696183959 65.5694768129 65.5693432321 65.5692441255 65.5692104592 65.5692748324 65.5698190349 65.5701907419 65.5703006726 65.5729954321 65.5740762274 65.5752950827 65.5766017578 65.5779425527 65.5792651116 65.5805224461 65.5837358961 65.5846968399 65.5854960217 65.5870644782 65.5876145033 65.5881537453 65.5912901754 65.5919007668 65.5931125112 65.5946553038 65.5965053773 65.6012285217 65.6057834195 65.6110283655 65.6130634711 65.6148106566 65.6163140845 65.6176864621 65.6190855608 65.6220861423 65.6277451484 65.630339518 65.633259093 65.6363150483 65.6426846845 65.6474434211 65.6496746649 65.656303506 65.6587653037 65.6615221438 65.6645725076 65.6677871413 65.6744004143 65.6804594099 65.6890444891 65.6922049383 65.6955339241 65.6989802384 65.702441072 65.7145276843 65.7174702608 65.7204791971 65.7234987981 65.735186513 65.7375438583 65.7399193852 65.7504912344 65.7522139997 65.7539546077 65.7630181088 65.764387149 65.7726923731 65.7655949399 65.7818752703 65.7897305033 65.7975895222 65.7885014837 65.8066569519 65.8145014079 65.8223502987 65.8302102855 65.8189134142 65.8392798552 65.8471473009 65.8550309597 65.84207699 65.8641406277 65.8720202972 65.8798944479 65.8877525731 65.872576522 65.8967570478 65.9044887754 65.912144855 65.8951458153 65.9208516313 65.9282408401 65.9354860798 65.9425692957 65.9229940619 65.9504846831 65.9571101272 65.963508246 65.9418439593 65.9705687229 65.9763665054 65.9818656836 65.9870428988 65.9625572754 65.992543049 65.9968869102 66.0008152084 65.974188217 66.0047719583 66.0076489645 66.0100033344 66.0118014991 65.9825807964 66.0130993269 66.0135393148 66.013321093 65.9829175529 66.0121682145 66.0101906798 66.0098781364 66.0064082532 66.005772221 66.0051435444 65.9988583624 65.9974254139 65.9959182803 65.986008519 65.9833257704 65.9804983385 65.9775944654 65.9634389348 65.9591351834 65.9546340053 65.9500912234 65.9456043474 65.9598740524 65.9224091584 65.9650864661 65.9597837821 65.9542048004 65.9489731805 65.9444019805 65.942734993 65.9396484548 65.9312355995 65.8914448023 65.8836814479 65.8755115653 65.8678297123 65.855898611 65.8738839711 65.8714083221 65.8697034546 65.8676771342 65.8642510254 65.8586461191 65.8514395653 65.8084317793 65.7731294154 65.7651178059 65.7581635502 65.752743129 65.751795547 65.7395957637 65.7386139043 65.7380021377 65.7379864082 65.7365011415 65.7338979982 65.7099369356 65.704992837 65.6991507619 65.692655338 65.6858415084 65.6791044921 65.6728595844 65.659805502 65.6605965273 65.657920705 65.6477189719 65.6474245287 65.6477586442 65.6484780945 65.6493355322 65.650107793 65.6360833025 65.6355735068 65.6347431302 65.6335841029 65.6321100171 65.6303521048 65.6255607759 65.6285988054 65.6263158836 65.6239416257 65.6183224446 65.6164330467 65.6147039098 65.613211491 65.6120252832 65.6111988005 65.6107597079
65.568115213 65.5681150688 65.5681213492 65.5681383599 65.5681683452 65.5682093346 65.5682559584 65.56836059 65.5684189221 65.5684657957 65.5684968746 65.5685094393 65.568871398 65.5689123786 65.5689346481 65.5696665219 65.5696043645 65.5701230241 65.5700483742 65.5699873173 65.5699588065 65.5699819977 65.5700764589 65.5706191932 65.5709570018 65.5714496423 65.5740739166 65.5751581698 65.5758631209 65.5771719389 65.5785387596 65.5819553775 65.583313142 65.5845566105 65.5856681912 65.5866453491 65.5874983752 65.5901798318 65.5920772628 65.5928060566 65.5937018082 65.5948596257 65.5965827992 65.6002785431 65.6031201442 65.608945209 65.6113944848 65.6148283734 65.6168923774 65.6187260431 65.6203800859 65.6219519039 65.6271583429 65.629285668 65.6347278671 65.6361765281 65.6394797368 65.6467018598 65.6545981709 65.6574778849 65.6602164675 65.6639855045 65.6668946607 65.6701688815 65.6737902142 65.6845492226 65.6896578784 65.6979555908 65.7016223165 65.7043912935 65.7084767534 65.7127227285 65.7251462631 65.7294568728 65.7333227703 65.747266367 65.7511310679 65.7620727873 65.7666000633 65.7718826921 65.7823119146 65.7874092995 65.7966995885 65.8012064291 65.8173370371 65.8266952808 65.8303480216 65.8401694954 65.8498733786 65.8681434865 65.8621884868 65.8718242514 65.8814786785 65.8911620408 65.9112918512 65.9033893451 65.9130204902 65.9226907155 65.9443893801 65.9349707927 65.9445861021 65.9542254787 65.9638840828 65.9873635348 65.9760180292 65.9855051903 65.9949575874 66.0198342168 66.0068343275 66.0159721009 66.0250090015 66.033930599 66.0602319561 66.04493631 66.053332693 66.0615423936 66.0889026904 66.0716543335 66.0791554695 66.086379896 66.0933000473 66.1214483781 66.1014961069 66.1073697277 66.1128088805 66.1411980538 66.1190382364 66.1230945313 66.1265629325 66.1293990682 66.1569944036 66.131892275 66.1328736178 66.1327361688 66.1322556653 66.1300689369 66.102185985 66.0984523919 66.0946094995 66.0899916716 66.0822654622 66.0783237294 66.0724383838 66.0617832534 66.0583170404 66.03130703 66.0268635897 66.0304326675 66.0061079332 66.0000708476 65.99438729 66.024456026 66.0195713638 66.026312765 66.0253004759 66.0014529656 65.9952554228 65.9893794125 65.9838194094 65.9920041775 65.9866373119 65.9806381125 65.9618286312 65.915817236 65.9071824675 65.9283249105 65.8952013564 65.8888784449 65.8984917586 65.8949012619 65.8915012062 65.8875073913 65.8821477096 65.8849542118 65.8757258995 65.8531375094 65.8109200928 65.8059957273 65.7740695873 65.7689091606 65.7652168727 65.7627051296 65.7577205247 65.7504124736 65.7484093395 65.7457370063 65.7420739389 65.7372178907 65.7311200629 65.7051030947 65.6982355423 65.6911933148 65.6897975833 65.683188164 65.6700907325 65.6663022395 65.6637271363 65.6534709217 65.6529784508 65.6529606176 65.6532458311 65.6536519699 65.6539968526 65.6463261005 65.645962961 65.6373221032 65.6359234144 65.6342544196 65.6349142518 65.6329072261 65.6306961134 65.6283509928 65.6259532619 65.6202520512 65.6184520681 65.616851602 65.6155153206 65.6144880986 65.6137864218 65.6133998063
65.568954136 65.5689601257 65.5689786136 65.5686144507 65.5686122872 65.5686234169 65.5686446377 65.568728627 65.5687738622 65.5688133117 65.56884248 65.5688585746 65.5693640451 65.5700356227 65.5700407193 65.5700232923 65.5699895196 65.5705351599 65.5704830373 65.5704372747 65.5704129601 65.5704272996 65.5705021011 65.5709848923 65.5713093794 65.571804938 65.5737461436 65.5754373468 65.5767368781 65.5781428564 65.5808017609 65.5825079037 65.5839701104 65.5853357524 65.586586529 65.5877126337 65.5887080786 65.5913271985 65.5930014692 65.5936553036 65.5944627575 65.5958043786 65.5972669191 65.5991339367 65.6039555551 65.6099326108 65.6126667006 65.6152778869 65.6187241135 65.6207903708 65.6225759931 65.6241506524 65.6256913378 65.6302564368 65.6365273157 65.6400148969 65.6459128448 65.6497792488 65.6579914836 65.6612117609 65.6641068028 65.6669225151 65.6709426857 65.6746010905 65.6789072578 65.6899476027 65.6986565338 65.7027698192 65.7083950478 65.7128162815 65.7219052932 65.7294401827 65.7345347803 65.7456887287 65.7510847866 65.7650566152 65.770811698 65.7753789596 65.7898331221 65.7953140087 65.8104219244 65.8128458327 65.8273826854 65.83247967 65.8432090297 65.8579091251 65.8684224384 65.873609097 65.8841729091 65.8998694707 65.9105749096 65.9099967242 65.9205013087 65.9372367573 65.9478904943 65.9585511336 65.9566953685 65.9744825649 65.9851116158 65.9957481809 65.992853644 66.003306508 66.0222497759 66.0328108836 66.0433463577 66.0391571096 66.059004819 66.0693451283 66.0796056665 66.0741869887 66.0840695611 66.1047055114 66.1144792675 66.1240925939 66.1169517034 66.1381155765 66.1471509108 66.1559398417 66.1471946166 66.1552780735 66.1765714001 66.1841638436 66.1913522057 66.1802760804 66.2012717893 66.2071597037 66.2124770737 66.1992567172 66.2033056758 66.2228920303 66.2257132186 66.2101392182 66.2113195508 66.2113600099 66.2110042985 66.1919823873 66.1886621487 66.1855233602 66.162926664 66.1743299653 66.1493021619 66.143745576 66.1185097836 66.124325158 66.1174826248 66.0922035326 66.0850433805 66.070656013 66.0632949419 66.0523878298 66.0662283021 66.0609174916 66.0811791291 66.0998573628 66.057090139 66.0329893525 66.0251221008 66.0182583336 66.0244217715 66.0187288666 66.0126736651 66.0054922244 65.9853487872 65.9744369584 65.9583115787 65.9457254151 65.9291982766 65.9196567916 65.9151732996 65.9117202345 65.9082879643 65.9038663462 65.9073421093 65.8991818028 65.8883673678 65.8641257112 65.82530981 65.8139752937 65.804268463 65.776434157 65.7728640269 65.7706611409 65.7665615898 65.7596474873 65.7572657685 65.7540366784 65.7497047942 65.744122998 65.7372746656 65.7288180776 65.7090146546 65.7009732102 65.693026928 65.6840887725 65.6725628139 65.6683568113 65.6656211387 65.6564362904 65.6561174657 65.6562582155 65.6566318547 65.6570375818 65.6573020248 65.6494304227 65.6488439427 65.6479050355 65.6465767954 65.6424361814 65.6372393836 65.6350709298 65.6327152037 65.6302388681 65.6277184763 65.6218490631 65.6199836495 65.6183197121 65.6169248624 65.6171542478 65.6163089404 65.6158835574
65.5692192629 65.5692294344 65.5692591402 65.5693094329 65.5693789589 65.5694731995 65.5695767595 65.5696808857 65.5697773318 65.5691464068 65.5691770971 65.5691977915 65.5703158907 65.5703342108 65.5703490907 65.5703438843 65.5714893045 65.5713785219 65.5707863229 65.5707025378 65.5706199227 65.5705628982 65.5705708966 65.5709424877 65.5712770952 65.5718304517 65.5737161231 65.5754765493 65.5769046435 65.5801624839 65.5818542914 65.5839907538 65.5855544066 65.5869955057 65.5882974489 65.5894471693 65.5904300203 65.592306066 65.5929730352 65.593449921 65.5940716911 65.5958139972 65.5973772446 65.6017068562 65.6044094851 65.6105951341 65.6136837527 65.6166247976 65.619316436 65.6225011017 65.624281711 65.6256824782 65.6269658712 65.6310159489 65.6370960919 65.6412283577 65.6476530139 65.6523145099 65.6606930131 65.6640912436 65.6668443947 65.6693928178 65.6757016968 65.6802316598 65.6875225283 65.6942638118 65.7033757728 65.7075155271 65.7156249075 65.7207004421 65.7283748542 65.7383869767 65.7466027801 65.7526874594 65.7588955063 65.7721555904 65.7788408686 65.7924600278 65.7982131509 65.8107707635 65.8179082582 65.8308345237 65.8411575598 65.847448597 65.8596503724 65.8698248586 65.882245511 65.8889568178 65.8994263359 65.9100248266 65.9167749821 65.9273900564 65.937989348 65.9485767703 65.9552888387 65.9658625169 65.9764273564 65.9869872112 65.9975446253 66.0042500929 66.0147965349 66.0253274548 66.0358381949 66.0425132188 66.0529718331 66.0633778589 66.0737207288 66.0839887572 66.0904814507 66.1005888345 66.1105763392 66.1204295522 66.1266311466 66.1362272182 66.1456364075 66.1548395539 66.1638152238 66.1694195553 66.1779653842 66.1862062088 66.1941104426 66.1989896876 66.206266749 66.2131010949 66.2194507091 66.2252710417 66.2287333405 66.2335822122 66.2377717067 66.2412543013 66.2431373537 66.2453392066 66.2466644508 66.2471376274 66.2373342183 66.2361664428 66.2241063027 66.2216135174 66.2168618562 66.2000694267 66.1944781035 66.1756284503 66.1785760897 66.1568167011 66.1488718657 66.1271406815 66.119885224 66.1177646848 66.1325677082 66.1435666873 66.1336268409 66.1260742952 66.1294388853 66.1243144343 66.0823639795 66.0969798611 66.0810435381 66.0680730132 66.0416462554 66.0363887315 66.031345516 66.024639139 66.0044529549 65.990976355 65.9717429795 65.9552462915 65.9364544244 65.9264744945 65.9224735939 65.9208492153 65.9194884694 65.9250122941 65.9200010432 65.9112676704 65.8986735877 65.8720340847 65.8542753241 65.81632622 65.8036025246 65.79404076 65.7894373374 65.7888830847 65.7737657236 65.7809075996 65.7812753166 65.7800449653 65.776848435 65.7715279679 65.7640850661 65.7399825756 65.7298494678 65.7038231626 65.6945317371 65.6842300411 65.6721159166 65.6668958304 65.6637132325 65.6566040713 65.6568451107 65.6576710516 65.6586608571 65.6595117569 65.6618620434 65.6620926623 65.6515869064 65.6505046835 65.6493915349 65.6475016996 65.6395507837 65.6371978193 65.6346574216 65.6345062538 65.6315688695 65.6286129263 65.6257247577 65.6230078084 65.6187570879 65.6172036943 65.6161515794 65.6156831516
65.5692901566 65.5693151135 65.5693830077 65.5694808501 65.5695918862 65.5697193889 65.5698455736 65.5699634777 65.5700676867 65.5701539601 65.5702190929 65.5706488739 65.5706093161 65.5713080982 65.5712994126 65.5718037754 65.5717166697 65.5715753445 65.5713804783 65.5711383755 65.5710746408 65.5707857098 65.570624341 65.5707074096 65.5711084991 65.572322637 65.5741703836 65.5762092677 65.5779326921 65.5802917884 65.5821092337 65.5843731047 65.5860317777 65.5875584198 65.5889343092 65.5901365552 65.5911325295 65.5916858021 65.5931136968 65.5933483248 65.5938001212 65.594745215 65.5987181385 65.6014673028 65.6045799306 65.6110021413 65.6144592537 65.6177167031 65.6206595927 65.6231330187 65.6255033907 65.6265669576 65.6274284407 65.6287935024 65.6335575332 65.6417395671 65.647338057 65.6543433707 65.6627768089 65.6661429308 65.6683690786 65.6702210396 65.6756511456 65.6811676916 65.692955455 65.7003125484 65.7068636979 65.7106230477 65.7169588766 65.7226143338 65.7354043074 65.7434233634 65.7523296154 65.7577996664 65.7697242092 65.7792421259 65.7874268487 65.7951767473 65.8066611212 65.8181422991 65.8255702496 65.8366724562 65.8472759987 65.8566864983 65.8639002288 65.8713399405 65.8812883479 65.8889475414 65.899174699 65.909510775 65.9172076244 65.9275498049 65.9378746282 65.9481876865 65.9558387483 65.9661385056 65.9764305592 65.986719829 65.9970099057 66.00465737 66.0149404185 66.025210757 66.0354648985 66.0430814947 66.0532857707 66.0634403207 66.0735356772 66.0835614253 66.0909722186 66.1008355398 66.1105846334 66.1202074506 66.1272856898 66.1366497033 66.145836828 66.1548305787 66.1636122243 66.1700157371 66.1783672216 66.1864318457 66.1941813229 66.1997608219 66.2068802092 66.21358062 66.219823354 66.2255669216 66.2295401148 66.2343017924 66.2384365764 66.2419001612 66.2440657839 66.246236054 66.2475889506 66.2481286643 66.2480053266 66.2474203447 66.2463460405 66.2440081998 66.2352007974 66.2245092754 66.2198907333 66.2059995726 66.1971067385 66.190080877 66.2000732889 66.1898363755 66.1738046123 66.1723318222 66.1796292332 66.1706388243 66.1480905659 66.1382215222 66.1403187362 66.1382460894 66.1347192498 66.1214754298 66.0904886782 66.070943165 66.046357776 66.0428519392 66.0416530829 66.0381283112 66.019664673 66.0265123049 66.0050276256 65.9694719758 65.9327432326 65.922316588 65.9194799654 65.9219366348 65.9314946121 65.9335214429 65.9305951558 65.9219557146 65.9075822834 65.8779833365 65.8552036433 65.8310514148 65.7963642799 65.7842355712 65.7796452554 65.7818553227 65.7845016098 65.7834179621 65.7860134473 65.7860896942 65.7834058287 65.7779848266 65.7699653096 65.7443086103 65.7329528472 65.7239199554 65.7102506976 65.6949932183 65.6729498159 65.6632725034 65.6592386982 65.6585648837 65.6606622605 65.6642586268 65.6607470519 65.6626404153 65.6638790914 65.6643823526 65.6641411953 65.6555089664 65.6539580314 65.6497536021 65.6473167204 65.6419948101 65.6391222709 65.6360600385 65.6328604895 65.6295766901 65.6262715183 65.6230381352 65.6184789044 65.6164393633 65.6150351629 65.6144773084
65.5692306341 65.5692785513 65.569405664 65.5695759609 65.5697505852 65.5699279982 65.5700885748 65.5702282778 65.5703455712 65.5704396569 65.5715223768 65.5715414536 65.572036435 65.5720614408 65.5720836613 65.5720288811 65.5719234781 65.5717449922 65.5714854061 65.5711432047 65.5709020744 65.5704404597 65.5701367359 65.5701691147 65.5707863337 65.5720086088 65.5738484021 65.5760110112 65.5785406783 65.5805261477 65.5824423655 65.5847104421 65.5864418678 65.5880265078 65.5894424979 65.5906576552 65.5916235613 65.5922829094 65.5926596343 65.5929742893 65.5932695107 65.5942405272 65.5979725169 65.6011353687 65.604632943 65.6112578132 65.6150148064 65.6185160867 65.6216408017 65.6241889619 65.6255402157 65.6272515551 65.6276477614 65.6291316946 65.6332416368 65.641444065 65.6480206377 65.6536448627 65.6623762994 65.668747261 65.6695920472 65.6703431038 65.6741400941 65.6811110754 65.6936792315 65.7025631999 65.7087611693 65.7131555833 65.7170643969 65.724731185 65.7392785793 65.7486826117 65.7531911234 65.7585919134 65.7707346623 65.7847317859 65.7914547271 65.7999146689 65.8109125316 65.8194988875 65.8286500132 65.8364140373 65.8446437971 65.853733879 65.8619020422 65.8704274854 65.880310571 65.8889017514 65.8988684536 65.9089799367 65.9176966453 65.9277512066 65.9377322357 65.9477531242 65.9564133655 65.9664676599 65.9764337886 65.9863983315 65.9964492258 66.0051125385 66.0151198808 66.0250641883 66.0350496126 66.0436838225 66.0536667405 66.0635213152 66.0733220331 66.0831397106 66.0915432867 66.1011509062 66.1106014487 66.1199871754 66.1280151664 66.1371761553 66.1460967541 66.15484327 66.1634669204 66.1707369933 66.1788851357 66.186729092 66.1943298676 66.20067696 66.2076649916 66.2142035588 66.220326655 66.2260340909 66.2305680285 66.23523842 66.2393049687 66.2427730371 66.2452611016 66.247406542 66.2487747112 66.2493897308 66.2493101861 66.2485972763 66.2472810715 66.2449717818 66.2497469254 66.2475538133 66.2520667115 66.2507519384 66.244075251 66.2452990924 66.24653405 66.2183863875 66.2095067823 66.2040483888 66.2109044619 66.2056520996 66.17344837 66.1563260671 66.147016212 66.1431245809 66.1440932704 66.1300842944 66.1017542948 66.0684585986 66.0466934292 66.0470984348 66.0595031882 66.0940162723 66.0719562378 66.0371216862 66.0094187923 65.9700226719 65.9356371931 65.9151963851 65.9137494279 65.932330848 65.9325526819 65.9403127611 65.9404817769 65.9324831738 65.9165847686 65.8839603164 65.8558259501 65.8247759803 65.7869914356 65.7710019464 65.7662920747 65.7741411748 65.7766109002 65.7847822109 65.7901766393 65.7919021818 65.7899284308 65.784520272 65.7759929797 65.768375509 65.7542669627 65.7378422616 65.7134552326 65.6923721843 65.6763241659 65.6596506351 65.6532139916 65.6529453613 65.656575295 65.6621253092 65.6611008226 65.6639558765 65.6658058891 65.6666371608 65.6665207038 65.6658706523 65.6632762965 65.6611004669 65.6519830116 65.6526011437 65.6409024695 65.6376144272 65.6341479421 65.6305307559 65.6267966153 65.6230178691 65.61805049 65.6154337508 65.6135896852 65.6129053955
65.5691524375 65.5692262903 65.5694190554 65.5698715597 65.5702272996 65.5705482811 65.5708199446 65.5710409333 65.5712141156 65.5716770741 65.5718048328 65.5718854985 65.572306309 65.5723344239 65.5723042897 65.5722646926 65.5725829032 65.5719294069 65.5716214211 65.5712029156 65.5708550777 65.5702404241 65.5698437439 65.5698464396 65.5704656036 65.5718060743 65.5740797277 65.5760558757 65.5786722175 65.5807430621 65.5827242869 65.5846032319 65.5867924514 65.5884024055 65.5898243209 65.591018852 65.5919283659 65.5924874366 65.5927049405 65.5926593017 65.5929561538 65.5941653401 65.5974161412 65.6010344963 65.6047554387 65.6092226169 65.6153693853 65.6189788675 65.6221720451 65.6247259743 65.6260764057 65.6268489938 65.6270731733 65.6283170135 65.6315161982 65.6372468277 65.648467907 65.6542475012 65.6633374437 65.6670214051 65.6689034862 65.6687608957 65.6723218307 65.680440471 65.6941871487 65.7039749162 65.7118654404 65.7121168285 65.7131689007 65.7222934277 65.7392617156 65.7520690815 65.7526024579 65.7543622943 65.7708955675 65.7860823602 65.7849228315 65.7928803376 65.8106824034 65.8108698287 65.82519003 65.8305016032 65.8436592424 65.8499996627 65.858397636 65.869781195 65.8808541943 65.8888942431 65.8971765415 65.9079306371 65.9194047251 65.9288881852 65.9367113508 65.9460908765 65.9574590046 65.9681813737 65.9764615303 65.9846969852 65.9953695942 66.0067762642 66.016217968 66.024024115 66.0334183108 66.0447882275 66.0554356676 66.0636099963 66.0717677899 66.0822831808 66.0933413852 66.102342454 66.1097687466 66.1186959572 66.1293020777 66.139001301 66.146346817 66.1537009019 66.1630501523 66.1725991465 66.1801430967 66.1863281191 66.1937317535 66.2021969866 66.2095029595 66.214805574 66.2201258519 66.2265790492 66.2325001934 66.2366133793 66.2398603411 66.2436089438 66.2470700549 66.2490417186 66.2499374896 66.2508260672 66.2511463079 66.2499242383 66.250320929 66.2515376727 66.2435788141 66.249436859 66.2358407103 66.2515473538 66.2366036999 66.2181460974 66.2510865843 66.2435994311 66.1942714963 66.1905080386 66.2249096658 66.2101223301 66.1767628465 66.1305047458 66.1263226039 66.1545966182 66.1536677655 66.1408653422 66.1041852755 66.0571828406 66.027883812 66.0327179672 66.0696053919 66.1008200744 66.1077823006 66.0501404067 66.0484423906 65.9963886369 65.9381980524 65.8993584788 65.9003926284 65.9242417822 65.9353668966 65.9485636041 65.9516388796 65.9443616355 65.9337460776 65.8924406666 65.8601547687 65.8318808107 65.7870080604 65.7634659449 65.7571140397 65.7669671763 65.775866046 65.7875036229 65.7953224946 65.7984169875 65.7969835473 65.7915197936 65.7862805433 65.7740297572 65.7588928491 65.7411376145 65.7153367882 65.6957315815 65.6740638847 65.6563084719 65.649563296 65.6495485727 65.6542732095 65.6592955191 65.6620434162 65.6656826905 65.6680104683 65.6752840787 65.6693335299 65.6674530087 65.6658594944 65.6635259858 65.6580186784 65.6547121877 65.6509541599 65.6416891915 65.6378315538 65.633713669 65.6293413746 65.6247641323 65.6201657694 65.6149452851 65.6126889081 65.6118658973
65.5692169532 65.5693407161 65.5696462667 65.5700435472 65.5704377271 65.5707846377 65.5710721762 65.5713023317 65.5714807382 65.5719586401 65.5720921467 65.5721785016 65.5722168282 65.5726121178 65.5725852338 65.5724923531 65.5728610477 65.5725838726 65.5721840033 65.5716922334 65.5710495948 65.5705259459 65.5699993263 65.5700112444 65.5707826539 65.5720822621 65.5743920179 65.5763705216 65.5783344041 65.5810451472 65.583032054 65.5849181014 65.5866843089 65.5887028233 65.5901042816 65.5912592954 65.5921119855 65.5926068747 65.5927825354 65.5927281081 65.5931727722 65.5944380629 65.5977945628 65.6011003889 65.6057102787 65.6094679179 65.6121164809 65.6155995004 65.6222265805 65.6247178946 65.6259674325 65.6267673095 65.6272474473 65.6285999148 65.6318119465 65.6397249212 65.6464243244 65.6541501544 65.6603199863 65.6669844921 65.6684549017 65.6693048698 65.6724630958 65.6798519932 65.6982907204 65.7074405475 65.7121471964 65.7135324449 65.7157754065 65.7265005509 65.744167107 65.7549801438 65.7545600864 65.7581671535 65.773486639 65.7873416526 65.7879951571 65.7969345633 65.8125111225 65.8147862081 65.8270536527 65.8338843601 65.8445058985 65.85230441 65.8606253559 65.8709546692 65.880129108 65.88888026 65.8983733921 65.9085682889 65.9182567199 65.928083519 65.9374488893 65.9472239416 65.9568402511 65.9669756701 65.9764410147 65.9858952692 65.9960184592 66.0056492476 66.0154346307 66.0247744498 66.0345344467 66.0441355508 66.0542075686 66.063572152 66.0728936315 66.0828128199 66.0921564477 66.1015391463 66.1104210905 66.1196235107 66.1285603902 66.1377860599 66.1462521146 66.1545939251 66.1633424109 66.1714246823 66.1793657228 66.1867526236 66.1942619989 66.2013542946 66.2083783574 66.2145768014 66.2204767307 66.2263548194 66.2313956296 66.2359064537 66.239762467 66.2433032172 66.2461274777 66.2482246466 66.2494860195 66.2501907742 66.2549917145 66.2542573606 66.2586034551 66.2577758234 66.253553207 66.2648033987 66.2513516256 66.2733837437 66.2600323711 66.2395579895 66.2687709266 66.2742188359 66.2201319367 66.2092128133 66.24841788 66.2657327255 66.2128200897 66.1524697842 66.1415303695 66.1723792267 66.197177726 66.1880271843 66.1503923822 66.0864117031 66.0432781823 66.0485251972 66.086022239 66.1164907821 66.1309255362 66.118496489 66.0785882648 66.0149664329 65.9526764529 65.9122158636 65.9090681989 65.9350890881 65.9468100501 65.9621547869 65.9996536129 65.9926734028 65.9486414825 65.9218710925 65.8843044552 65.8425076985 65.7946994181 65.769187772 65.7616185879 65.7722154301 65.7813604895 65.7943889002 65.803111181 65.8065963453 65.80513756 65.8029825198 65.7934539392 65.7806231809 65.764897895 65.7389491038 65.7203769955 65.7002594164 65.6778808559 65.6617699793 65.6514474878 65.6513473503 65.6574491864 65.6615392949 65.6679720187 65.6730667287 65.6765210567 65.6784002168 65.671210694 65.6703402306 65.6685892348 65.6634273623 65.660439463 65.6569361033 65.6529927666 65.6433755816 65.6394032526 65.6351853957 65.6307161697 65.6260239582 65.6212658482 65.616877494 65.6134198988 65.6123743054
65.5695844609 65.5697066516 65.5700166401 65.5703800709 65.570758842 65.5710914292 65.5713675526 65.571589466 65.5717624498 65.5722507016 65.5723866443 65.5724774055 65.5725216787 65.5728979054 65.5728791211 65.5727961214 65.5731812123 65.5729287186 65.5725656882 65.572088775 65.5718825243 65.5712149678 65.5707862712 65.5708426095 65.5716748721 65.5728720481 65.5751135967 65.5769437761 65.578796438 65.5814272299 65.583367647 65.5852248994 65.5869678776 65.5885620848 65.5899685255 65.5914457396 65.5922681474 65.5927662835 65.593046304 65.5931234984 65.5941531568 65.5953952972 65.5988360767 65.6018534956 65.6047701345 65.608137314 65.612013765 65.6152626793 65.6185291178 65.6214895977 65.6253439016 65.6274617597 65.6280752866 65.629628316 65.6326569789 65.6371230132 65.6462877251 65.6562638882 65.6615797057 65.6655658738 65.6673836551 65.6716102122 65.6751148848 65.681624422 65.6963265288 65.7057229912 65.7111613024 65.7205416653 65.7239518076 65.7356905211 65.7471762756 65.7595113897 65.7626521532 65.770141067 65.7803581452 65.7922640984 65.7972015392 65.8084694096 65.819013585 65.8249678853 65.8332885776 65.8438494906 65.850760767 65.8573488943 65.8680086076 65.8749374005 65.8824568138 65.8928914159 65.9008562706 65.9114447081 65.922050291 65.9326194716 65.9378093217 65.9510791795 65.9616243082 65.9721474884 65.9764320984 65.9905397038 66.0010643772 66.0115797694 66.0150244737 66.0251436583 66.040441885 66.0509109321 66.0613331653 66.0634818744 66.0794724464 66.0897666659 66.099980927 66.1009895423 66.1106009057 66.1275389699 66.1373724688 66.1470572833 66.1459705163 66.1635276537 66.1727696792 66.1817951059 66.1786265116 66.1865909315 66.2051132688 66.2130940833 66.2206813779 66.2139008562 66.232726711 66.2390908836 66.2448802109 66.2347784296 66.2532787148 66.2573241356 66.2605901713 66.263029862 66.2641125287 66.2652139869 66.2819880247 66.298635429 66.282151222 66.3004733374 66.320074843 66.3044276974 66.3227425865 66.3289399273 66.3423476554 66.3159930331 66.3270128676 66.3369953997 66.31025767 66.3018066865 66.3231247745 66.3163132479 66.2834643545 66.2341069601 66.2249128065 66.2640621348 66.2918140474 66.2282452026 66.2005618334 66.1485417827 66.1117967444 66.1364449946 66.1504909358 66.1830854643 66.1964409654 66.1534879858 66.1114400053 66.0587824201 66.0036622866 65.966692124 65.9629586875 65.9720551229 65.998379933 66.0170612802 66.0229420708 66.0149570599 66.0133337952 65.9833654743 65.9056930104 65.8671150662 65.8196577256 65.7958843543 65.7858810286 65.7939522117 65.7958414356 65.8071951696 65.8146189444 65.8202794783 65.8181597488 65.811698095 65.8015287963 65.788231568 65.7723170788 65.7465603134 65.7286699798 65.7097682589 65.6884601603 65.6735720343 65.6611184535 65.6605928254 65.6657013267 65.6735847412 65.6729523756 65.6775096606 65.6805540953 65.6821157903 65.674566364 65.673472198 65.6714983071 65.6661804957 65.6629775626 65.6592813667 65.6551800904 65.645233577 65.6412437 65.6370838247 65.6327611926 65.6283067383 65.6238523289 65.618788215 65.6161611653 65.6151283957
65.570253041 65.5703496504 65.5705945044 65.5708706118 65.5711821711 65.5714631096 65.5717030399 65.5719010089 65.5720589181 65.5725531896 65.5726887217 65.5727829101 65.5728336941 65.5728387565 65.5731865732 65.5731214585 65.5735374235 65.5733332125 65.5730448459 65.5731801915 65.5726786825 65.5722553598 65.5719999122 65.5721119026 65.572979564 65.5745065095 65.5758537593 65.5776541948 65.5793368572 65.581057818 65.5837144668 65.5855259936 65.5872363903 65.5888012984 65.5901778166 65.5913854887 65.5922436037 65.5928386475 65.5936587604 65.5939081721 65.5954921388 65.5966458001 65.6001290054 65.6023476146 65.6051482846 65.6081823115 65.6113417962 65.613045355 65.6160913869 65.6188782703 65.6235276772 65.6273391044 65.6288549484 65.6306091518 65.6334037133 65.6373019875 65.6458744445 65.6553822961 65.6579560347 65.6619594555 65.6650187067 65.6708740037 65.6742960803 65.6841775967 65.6913729792 65.7028764294 65.7140379803 65.7235527751 65.7284273232 65.7355551602 65.7530896076 65.7648639316 65.7704287859 65.7803790063 65.7879778084 65.8021770285 65.8084001301 65.8189629399 65.8253496633 65.8341788695 65.8472103482 65.8540169624 65.8588382502 65.872093038 65.8767189577 65.8853715126 65.8978246946 65.9013051287 65.9165656106 65.929529953 65.9424503215 65.9440143425 65.9561283595 65.9741221771 65.9869787965 65.9997450279 65.9986054448 66.0183853035 66.0311849623 66.0438903962 66.0408594803 66.0528080317 66.0751179879 66.0877797491 66.100334743 66.0947371079 66.1187066214 66.1313229419 66.1438322715 66.1361141159 66.1477634148 66.1744113875 66.1868896923 66.1992451685 66.1880777007 66.2168645116 66.2292202158 66.2413604625 66.2267593606 66.2374432883 66.2697712929 66.2811721998 66.2920323872 66.2717497547 66.3062352787 66.3159742962 66.3248121034 66.2993837223 66.3057489571 66.3420426221 66.3476686978 66.3518954536 66.3199634858 66.355721956 66.3583340483 66.3603370002 66.3977989026 66.3990947058 66.4063909305 66.4433941829 66.4138580618 66.4445225395 66.4482696151 66.4455578882 66.446389691 66.4337008539 66.4230648295 66.4137467425 66.4164508281 66.4205609769 66.421981173 66.3950661796 66.3861561866 66.4284830324 66.4153100934 66.4087256572 66.3738506498 66.295889798 66.2624048733 66.2679494435 66.287236 66.309356154 66.2481378208 66.2003494216 66.1624718343 66.1201680923 66.0776168083 66.0478460445 66.0462855695 66.0697830815 66.0819166011 66.0969165163 66.1007081303 66.0588627422 66.0399986497 66.0117667767 65.9763789212 65.901067716 65.856582534 65.8371380938 65.8264783802 65.83034256 65.8393429117 65.8495654283 65.8564332681 65.8330284279 65.8291836087 65.8214884223 65.8104601063 65.7966790643 65.7712898571 65.7555835616 65.7390671227 65.7232388522 65.7076265959 65.6912274435 65.676462597 65.6753742348 65.6785498886 65.6839907773 65.6897227875 65.683268699 65.6854471277 65.6863999178 65.6782911388 65.676863564 65.6719507222 65.6690706134 65.6656299833 65.6617350603 65.6574878609 65.6472180641 65.643274764 65.6392787502 65.6352693396 65.6313026028 65.6274981081 65.6227331433 65.6206060216 65.6197155485
65.5713255069 65.5711357911 65.5712860624 65.5714860543 65.5716604971 65.5718710593 65.5720621496 65.5722278615 65.5723653181 65.5728632522 65.5729969966 65.5730943218 65.5731522846 65.5731683614 65.5740799997 65.5734615393 65.5733654226 65.5737632166 65.5745913428 65.5738583924 65.5735457351 65.573816923 65.5732421202 65.5737766091 65.5748501052 65.5756941777 65.5767899019 65.5780667971 65.5802301968 65.5814695974 65.5840461149 65.5858172733 65.5875032941 65.589053234 65.5904231407 65.5916474643 65.5925387722 65.5946707412 65.5950021833 65.5946659999 65.594840231 65.597714426 65.6008285686 65.6029055285 65.6053659968 65.60810548 65.6109953129 65.6122989674 65.6149999958 65.6203136598 65.6221654553 65.6236606103 65.6276862262 65.6295126883 65.6320665393 65.6370160381 65.6426311684 65.6514705496 65.6557321961 65.6595089096 65.6627651837 65.6693417282 65.6786156208 65.6839163592 65.6902064257 65.6931518969 65.7035824867 65.717434993 65.7227696153 65.7382542809 65.7574453389 65.764974004 65.7844448998 65.7911301112 65.7985052177 65.8060313658 65.8178888434 65.8336850599 65.8402641412 65.8502624047 65.8603034916 65.873643423 65.8831268225 65.89501534 65.9041452245 65.9159420635 65.9329062784 65.9342571727 65.9505577271 65.972020728 65.9894419949 65.9877428393 66.0040839985 66.0285806073 66.0458926072 66.0409267999 66.0571378475 66.0731592003 66.1016487184 66.1186324782 66.1095362858 66.1254476132 66.1567497687 66.1736393801 66.1614499776 66.1773976488 66.1932108562 66.2286923324 66.2457883559 66.2295845209 66.245788562 66.2848229997 66.3025773812 66.2828243098 66.2996770905 66.3164792515 66.3615520561 66.3801561881 66.3547360907 66.3717903226 66.4216415511 66.4400695377 66.408761312 66.424913558 66.4400831779 66.4955763875 66.5109265974 66.4706431585 66.4824736301 66.5399948417 66.5505409173 66.5026737222 66.5092466871 66.5662739886 66.5712814524 66.5760835785 66.5768684819 66.5832254242 66.5837879419 66.5861107712 66.5883389552 66.6238177163 66.6220927196 66.5789217192 66.5979890305 66.5903501855 66.5799944606 66.5714084995 66.539166667 66.5267017036 66.5437779468 66.6000456981 66.5884689944 66.5982317356 66.5895519056 66.5039470618 66.4770708953 66.444792541 66.4109395657 66.3906273354 66.3907632099 66.3918335719 66.3843838327 66.3268831256 66.2204367389 66.229957538 66.1958858793 66.1711729773 66.1438888206 66.1460010503 66.1526720352 66.1446191402 66.1393701855 66.0900029997 66.0693659058 66.0422347072 66.0110871086 65.9792903774 65.8959162786 65.9071547715 65.8697197325 65.885866841 65.8911950598 65.8747078521 65.8763520013 65.8475695783 65.8414753117 65.8321801352 65.8200439018 65.805609593 65.7801380221 65.7832465964 65.7506871613 65.7363880908 65.7237197734 65.7137473867 65.7032445781 65.6913369761 65.6967180749 65.6953274475 65.6986541727 65.6973633741 65.6908895669 65.6833419609 65.6823326819 65.6860707923 65.6752763555 65.6720867501 65.6683804015 65.6642683595 65.6598644402 65.6492499973 65.645361867 65.6415445071 65.6378716418 65.6344306125 65.6291580151 65.627038293 65.6255277887 65.6256935813
65.5721251611 65.5721616689 65.5722027118 65.5723606904 65.5725570704 65.5722764625 65.5724222355 65.5725571883 65.5726745163 65.5731765846 65.5733090498 65.5734100604 65.5734758801 65.5735037456 65.5744874616 65.5744128777 65.5742794832 65.5754104894 65.5751215419 65.5748247241 65.5748996846 65.5747077367 65.5746642779 65.5752960726 65.5758031524 65.5765125978 65.5774728899 65.578639293 65.5807640745 65.5823224828 65.5839147836 65.5860911197 65.5877725622 65.5893305451 65.5929960444 65.5940261909 65.5947249158 65.5952600147 65.5957028059 65.5961463283 65.5962575206 65.5969282226 65.6012168877 65.6030692057 65.605322565 65.6078808562 65.610614106 65.6122842522 65.6147608934 65.616973853 65.621207423 65.6227021656 65.626811794 65.6287389127 65.6311754368 65.6318389592 65.6339121638 65.6431293395 65.6474266832 65.6514281623 65.6549837685 65.6682684419 65.6770442987 65.6822489807 65.6884018874 65.6906024292 65.7029996203 65.7087223573 65.7218906513 65.7283860218 65.7357993825 65.762446497 65.7784712497 65.7969046097 65.8049552386 65.8133641241 65.8368481008 65.8444443848 65.8522912196 65.876043528 65.8827363978 65.8894895705 65.9115678833 65.9173670016 65.9387882491 65.9611486302 65.9655695716 65.9871290394 66.0088746753 66.0351883429 66.0579692539 66.0581636289 66.0800263438 66.1018117577 66.1325580274 66.1289537288 66.1504992612 66.1719090991 66.205998401 66.1985400392 66.2197319196 66.2408316483 66.2618857699 66.3002267709 66.2882728557 66.3094469265 66.3307519782 66.3730670355 66.3577378566 66.3796969908 66.4020318276 66.424822519 66.4735842163 66.4541540329 66.478201018 66.5027701361 66.5577413328 66.5342867875 66.5599042791 66.5857209994 66.6115627832 66.6742593716 66.6437948307 66.6689054113 66.6931747439 66.7602661627 66.7220633774 66.7434035716 66.7628479679 66.831488204 66.8481928989 66.7983342469 66.8096808353 66.8179458457 66.8813796897 66.8234845861 66.8230469184 66.8217727066 66.8144778815 66.8106286427 66.8063062196 66.788263794 66.7806254493 66.7725291779 66.7424187457 66.7297866824 66.7170846663 66.7895127683 66.757752936 66.7706349531 66.7551620927 66.7394568489 66.766519992 66.7541672434 66.7128800352 66.6011963519 66.575848818 66.5508874582 66.5446683201 66.5750903165 66.567140683 66.5583024734 66.542527224 66.5526970758 66.3969831862 66.2952822415 66.2687657433 66.259300227 66.2377579159 66.2312545989 66.2157449248 66.2104411609 66.1999136791 66.1225979667 66.0991436663 66.0712847058 66.0415326054 66.0131230993 65.9823219376 65.9657586625 65.9243851408 65.9217191164 65.9220896943 65.9235913161 65.9242766065 65.894052548 65.8545429895 65.8434638475 65.8299942913 65.8271985814 65.810596248 65.7932264811 65.7600991227 65.7468500413 65.7357151377 65.7273837485 65.7220154961 65.7084568992 65.7087329029 65.710439378 65.7024583624 65.7041522977 65.7054715927 65.6934289571 65.692337097 65.6903958209 65.6787394063 65.6752071592 65.6712051554 65.6668470372 65.6622542119 65.6512466932 65.6473680766 65.6436544181 65.6401983656 65.6386049629 65.6357749742 65.6335804537 65.6305483166 65.6300046462
65.5726485224 65.5726714605 65.5727409947 65.572795259 65.5729519279 65.5731339456 65.5733242849 65.572877583 65.5729799223 65.5734891536 65.5736224459 65.5737284084 65.5738027528 65.5738423456 65.5749010818 65.5748436667 65.5756409207 65.5754145525 65.5755386446 65.5752486885 65.5753052276 65.5750885826 65.5750148202 65.5755721535 65.5760753952 65.5768129298 65.5778034364 65.5789910712 65.5811583489 65.582737819 65.5843471792 65.5859356885 65.5906656866 65.5921187725 65.5933492305 65.5944355773 65.5951801658 65.5957510766 65.5961968057 65.5965931063 65.5966314092 65.5971830316 65.6019909552 65.6038704261 65.6061173966 65.6060370239 65.6091027583 65.6117197466 65.6142993745 65.6166830537 65.6209023596 65.6244822304 65.6257972025 65.6226996667 65.6242042823 65.6241439551 65.6315300549 65.635825727 65.6453111359 65.649580462 65.653193595 65.6562129982 65.6673193521 65.6717115128 65.6818546556 65.6884729067 65.701145206 65.7070201043 65.7197891888 65.7266690946 65.7351399869 65.7525679035 65.7662016269 65.7880437825 65.8087709497 65.8284415999 65.8385130757 65.85833824 65.8693752148 65.8838301001 65.9049918192 65.9188075779 65.9400013511 65.9528266163 65.9759572783 65.9982997122 66.0114010028 66.0365134785 66.0619453067 66.090249714 66.0987694555 66.1243844655 66.1500326631 66.1756886586 66.2072278625 66.2121435977 66.23734258 66.2624766879 66.2965817328 66.2982567828 66.3229172012 66.3475925617 66.3723590598 66.4095524735 66.4076768732 66.4324825863 66.4576533707 66.4985303035 66.4943759281 66.5203866906 66.5471200694 66.5746938834 66.6216118446 66.6154656749 66.6447551538 66.6750082181 66.7281744645 66.7201341802 66.7518133446 66.7840822549 66.8167655456 66.8763536429 66.863734091 66.8954271679 66.9264893675 66.9888197227 66.9695478683 66.9965865422 67.0217102639 67.0445880088 67.1039067817 67.0723144813 67.0871678204 67.0979355938 67.1017716392 67.1035452472 67.0568212688 67.048237228 67.0392463309 67.0254280293 67.0047458456 66.9901015232 66.9713765649 66.9420479245 66.9250093494 66.8651909237 66.9364466748 66.980647083 66.9519747079 66.8924206075 66.8728015969 66.8561500672 66.878603838 66.8600525899 66.8106304539 66.7797028399 66.7333169498 66.6988581068 66.6709626168 66.65733908 66.6455215718 66.6304514453 66.643726152 66.6114378428 66.5387302719 66.4269039052 66.391056803 66.3068134652 66.295322653 66.2800825915 66.2620002531 66.2518428086 66.236348463 66.2138655564 66.1826199519 66.1213465141 66.0873610148 66.0545385813 66.0025986162 65.9853801037 65.9467199626 65.9440780059 65.9437125611 65.943853444 65.9428384153 65.9101334079 65.9022070046 65.8909496752 65.854227114 65.8378947187 65.8200840734 65.8016248819 65.7669731075 65.7531040054 65.7414031204 65.732642779 65.7270823005 65.7149710085 65.7153346794 65.7169566563 65.7089291267 65.710100923 65.7082721476 65.7081114152 65.6972296018 65.6948655931 65.6823040323 65.6784066823 65.6740808931 65.6694427689 65.6646169589 65.6531514947 65.6492061853 65.6474380988 65.6437349094 65.6404360683 65.63766043 65.6338007014 65.6327462835 65.6322688963
65.5728382638 65.5728764805 65.5729818599 65.5730720054 65.5732479385 65.5734370557 65.5736252931 65.5740744371 65.5743013169 65.5745048439 65.5739356234 65.574048206 65.5741317941 65.5758937077 65.5758552006 65.5757450849 65.5760294228 65.5757918874 65.5758432263 65.5754743948 65.5753650302 65.5749744089 65.5750362029 65.5756028221 65.5762464824 65.5773228542 65.5789773317 65.5805915568 65.5822820046 65.5839944703 65.5847502796 65.5883678383 65.5899681926 65.5924351834 65.5939273863 65.5949181765 65.5955664381 65.5961074577 65.596466758 65.5964501154 65.5967215062 65.5971580503 65.5996638536 65.6033071298 65.6047559155 65.6070767022 65.6088661107 65.6116187559 65.6144869433 65.6173223786 65.6177569008 65.6197283907 65.6203378922 65.6221414044 65.6208192864 65.62209321 65.6291804133 65.6340532622 65.6399438285 65.6495836178 65.6537710494 65.65617745 65.6600864104 65.6689434434 65.6791234202 65.6872835131 65.7004631103 65.7064532622 65.7114575751 65.7167714921 65.729801356 65.7486460811 65.7584736682 65.7780761748 65.7894734911 65.8203509909 65.8325070228 65.8611569907 65.8829152736 65.8967669976 65.9134437117 65.9352374919 65.9574559946 65.9734539056 65.9963714772 66.0130443881 66.0383157128 66.0642430155 66.0906015957 66.1173069407 66.1351104052 66.1618697024 66.1886382465 66.2153771596 66.2330932963 66.2595336192 66.2858455882 66.3120394996 66.3381358027 66.3552504302 66.3810075447 66.4067297477 66.4324848321 66.449520817 66.4752532722 66.5012041847 66.5274847488 66.5542109307 66.5720084199 66.5994503739 66.6276059287 66.6565814465 66.6763080888 66.7065548425 66.7377405537 66.7698764346 66.8029331984 66.8254351597 66.8594881319 66.8940958537 66.9290709138 66.9528371325 66.9874875068 67.0217215785 67.0552300368 67.0876779116 67.1087606774 67.1381211156 67.1654143805 67.1903044123 67.2057790784 67.2253657847 67.2414738936 67.2273694933 67.2353565285 67.2378785526 67.2116926806 67.2316858966 67.1951033869 67.1548946304 67.1613851396 67.1424727546 67.0941025498 67.145749397 67.1234303129 67.1472705717 67.1273665813 67.1392958695 67.1234039761 67.0762923336 67.032860096 66.9676327389 66.9519460915 66.93560294 66.8868496508 66.8458742099 66.7867794421 66.7310321528 66.7078300962 66.6973226168 66.6936613192 66.715537267 66.6964272072 66.6579744482 66.5736110426 66.5073417676 66.3990622424 66.3649606127 66.3538281839 66.3594406312 66.3459245529 66.347263011 66.3377333074 66.3154759036 66.2338807491 66.1917239232 66.1010173242 66.0538465409 66.0034823476 65.9808226724 65.9728659907 65.9509877791 65.9546491952 65.9577707103 65.9624377077 65.9590915932 65.916164999 65.9031319791 65.8870006021 65.8484117962 65.8368136275 65.8157321253 65.7944193445 65.7737655391 65.7454231593 65.7331090637 65.7257607662 65.7214818969 65.7162713121 65.7195455854 65.7134928217 65.7150135765 65.7132946379 65.7129302011 65.7042555771 65.7018047977 65.6985036918 65.6816643253 65.6769909125 65.6720407052 65.6694328033 65.6640923851 65.6588296238 65.6488878172 65.6450088109 65.6414417908 65.6382828972 65.6343058519 65.6329467246 65.6323868502
65.5727606449 65.5728402621 65.5730409936 65.5732910663 65.5734713159 65.5736981202 65.5739032508 65.574083813 65.574588863 65.5747938094 65.5749680757 65.5768349939 65.5762252913 65.5762768535 65.5762525077 65.5761496572 65.5773354446 65.5761407069 65.5768615792 65.5755916636 65.5752362683 65.5749933887 65.5744839078 65.5745245765 65.5754105044 65.5768578998 65.5788165146 65.580682659 65.5825348258 65.5843443809 65.5860918484 65.592665511 65.5943204968 65.5932016869 65.5941798147 65.5951677153 65.5959006675 65.5963707423 65.5963591474 65.5965024268 65.5966280312 65.5992544775 65.5996751733 65.6032823555 65.6057044979 65.6063451981 65.6081212501 65.6110534627 65.6143526729 65.617941778 65.6188045718 65.6227372106 65.6230204066 65.6211799821 65.6198568994 65.6200084237 65.626610443 65.6322611984 65.6400233265 65.6487837593 65.6573407111 65.6590962432 65.656658371 65.6608231596 65.6675041258 65.672659415 65.7016883084 65.7084452473 65.7112361107 65.7148942207 65.7316809778 65.7481997666 65.7628242054 65.775725635 65.785309752 65.8137331757 65.8284309862 65.846567013 65.8670334682 65.891290767 65.918024173 65.9399008317 65.9583292317 65.9800832679 66.0033059918 66.0233589501 66.0483839718 66.0738938357 66.0998097581 66.126217816 66.1488420902 66.1753749399 66.2017865128 66.2282213599 66.2496066428 66.2769209776 66.3028890714 66.3286979389 66.354497585 66.3762389567 66.4017114378 66.4270131546 66.4523749766 66.471344332 66.4994364984 66.5250059102 66.5508321849 66.5697354924 66.5997608522 66.6269691754 66.6547228182 66.6833069105 66.7042339161 66.7385052846 66.7695003917 66.8013636946 66.8244899871 66.8629169141 66.8970937356 66.9316392791 66.9666222193 66.9967407306 67.0317884585 67.0661780078 67.0998193128 67.1210845538 67.1595427251 67.1891911844 67.2166762804 67.2418864655 67.2614668916 67.2812797992 67.2864449992 67.2995014851 67.2981956377 67.3029779067 67.3044490399 67.2900736086 67.2835755725 67.2679332701 67.2900637839 67.3094077023 67.2927015989 67.2701574933 67.2502111446 67.2651543778 67.169580549 67.1758022222 67.1805873169 67.1505154266 67.0620580741 66.9854799788 66.9735974185 66.9759862795 67.0376331891 66.9593953506 66.8804241938 66.7662904674 66.6907679102 66.6898227384 66.7302219371 66.7497892852 66.7404599952 66.6977609064 66.5979992276 66.5029609677 66.375824098 66.3239693037 66.3186649865 66.3640915664 66.359047486 66.3725744914 66.3679970025 66.3453623222 66.2568693345 66.2285070363 66.1682647996 66.0950459862 66.0136201342 65.9592612622 65.9488126669 65.9601535876 65.9593519729 65.9696247733 65.9741057765 65.9721123113 65.9362981097 65.9535664001 65.9357130641 65.8668390048 65.8449526821 65.8216915124 65.7975308526 65.773006888 65.7412407081 65.7245162843 65.7143910951 65.7138083437 65.7160453405 65.7196534376 65.7167022325 65.7240094329 65.7179907405 65.7195136649 65.7088813163 65.7060792817 65.7023792645 65.6978710609 65.6952377344 65.6770914909 65.6715292852 65.6659527937 65.6544784668 65.6501662933 65.646014607 65.642018867 65.6364935875 65.6338292954 65.631837432 65.6310565454
65.5726108929 65.5727396702 65.5730602202 65.5734264324 65.5736809221 65.57395114 65.574176647 65.5752953486 65.5755730408 65.5758043433 65.5769343327 65.5771565411 65.5773003599 65.577356769 65.5788695609 65.5786736554 65.5778230252 65.5773796338 65.5772012259 65.5768520298 65.5759414159 65.5745564507 65.5736883175 65.5736906394 65.5748213944 65.5766046581 65.579841269 65.5821769525 65.5843447312 65.5886909363 65.5908351172 65.5927069126 65.5948421074 65.5961515572 65.5968183436 65.5953526115 65.5960410835 65.5978323361 65.5964381978 65.5965806 65.5968665275 65.5982044956 65.6012098208 65.6036228371 65.6021129403 65.6040723046 65.6071479024 65.6101356562 65.6137397708 65.6180221746 65.6206967298 65.6253746281 65.6256764955 65.6223213145 65.6186557365 65.6174098878 65.6232798764 65.6293970747 65.6389192051 65.6508918113 65.6598032193 65.6629927122 65.6515271018 65.6439102376 65.6637937697 65.6665369825 65.6913709361 65.7117961228 65.7118269512 65.7107172305 65.7291050078 65.7514675508 65.7686700696 65.7708104814 65.7784888832 65.8128852175 65.8295174693 65.8352130421 65.869065014 65.8835968075 65.9074798252 65.927486002 65.9543618839 65.9728748388 65.9941906156 66.0229139118 66.0506013394 66.0731124391 66.0942254393 66.1225548123 66.1525637963 66.1781138516 66.1983164766 66.2239459112 66.2537124544 66.2815576285 66.3032152056 66.3248234905 66.3520941164 66.3808837843 66.4054842918 66.4246840859 66.4487340035 66.4770261668 66.5042298066 66.5246408266 66.5468216845 66.5739391035 66.6039457653 66.6307562768 66.6517486452 66.6781985614 66.710814803 66.7439077594 66.7680715497 66.7965871734 66.8305903697 66.8692745257 66.9040704986 66.9306937288 66.9636391143 67.0035753124 67.0428485912 67.0672236246 67.1010688144 67.1357313598 67.1726000754 67.203256304 67.2247116919 67.2487381785 67.2748108088 67.2975429047 67.3118463764 67.3231050101 67.3378943105 67.3525432791 67.3532325804 67.3645729613 67.3505480231 67.3765408138 67.3284677926 67.3921679957 67.3365786178 67.2731989746 67.316937331 67.304550377 67.1812133693 67.1673681843 67.2023667845 67.1862041195 67.0882816259 66.9697870551 66.959533678 67.0664964847 67.1350680832 67.0040369032 66.9654505656 66.7888783954 66.6501977037 66.6718739469 66.7305302816 66.7813239172 66.785581183 66.741105275 66.6276141777 66.504804591 66.3721481559 66.2782028773 66.2812036027 66.3452474815 66.3716338145 66.398753922 66.3996600188 66.3769868682 66.352849992 66.2909349788 66.1981440328 66.1115007843 66.0132648898 65.941051608 65.9265377267 65.946049601 65.9723239576 65.9778138642 65.9861572024 66.0143159494 65.9808848821 65.9673459776 65.938264644 65.9152237171 65.8886083311 65.8368852342 65.8092657942 65.7800277871 65.7391140192 65.7182078328 65.7051420935 65.7050849637 65.7126663768 65.7243685595 65.7324330545 65.7284746158 65.724567573 65.7248849545 65.725690222 65.7231312792 65.7087798086 65.7037534513 65.6980159466 65.6917393695 65.6766486591 65.6707422038 65.6648470132 65.6514673171 65.6470975498 65.6427482389 65.6368228044 65.6334582083 65.6307517653 65.6296912898
65.57267468 65.572878847 65.5733571435 65.5736588489 65.5743516022 65.5747402963 65.5750542245 65.5755682919 65.5758465194 65.5760793383 65.577255725 65.5774947328 65.5776570308 65.5793812435 65.5793493388 65.5791655898 65.5788205579 65.5798629187 65.5779610575 65.5772571425 65.5768035973 65.5752134357 65.5739949594 65.5740008035 65.5754990207 65.5778077939 65.5802711163 65.5826172291 65.584791881 65.5892597318 65.5914394213 65.5933338014 65.5954103082 65.5966965196 65.5973101111 65.5977608685 65.5978135465 65.5980393064 65.5971474285 65.5966928785 65.5969884938 65.5983343755 65.6012409996 65.6034749374 65.6015490119 65.6032619402 65.6053219464 65.6086010467 65.6120823993 65.6164462752 65.6191718095 65.6243522998 65.62479796 65.6206579381 65.6144299355 65.613871526 65.6152525095 65.6087125862 65.6338707053 65.6468902421 65.6565887344 65.6592422888 65.6465776779 65.6336067168 65.6390387568 65.6572120249 65.6843291782 65.7053761134 65.705944423 65.6955370927 65.7173529589 65.7410473333 65.7653380225 65.7663191566 65.7724549168 65.8020474152 65.8243739749 65.8297934885 65.8567996163 65.8806675604 65.8970358126 65.9248960763 65.9465045326 65.9680456506 65.9930312986 66.0182637958 66.0446460858 66.0693388051 66.094478313 66.1196590475 66.1480706731 66.1742592326 66.1991317751 66.2256377242 66.2523505883 66.2784926449 66.3033057659 66.327928992 66.3536346178 66.379357645 66.4047967659 66.4284695653 66.45321172 66.4801514745 66.5041843569 66.5287391913 66.5528495221 66.5799104926 66.6052500695 66.6329426933 66.6589966771 66.6864898711 66.7193008746 66.7470543361 66.7778417005 66.8079378994 66.8440359514 66.874797249 66.9113559212 66.9449161101 66.9790487452 67.0225772823 67.0526302571 67.0883896923 67.1205390411 67.1615864123 67.1860802382 67.2197115117 67.24698349 67.2706586384 67.3063737498 67.3168525121 67.3356163912 67.3608334839 67.3682215906 67.3771579454 67.4018228724 67.4065282557 67.3911250861 67.4535561247 67.3725223166 67.4555108215 67.4139749386 67.3291293287 67.4459914456 67.4261028156 67.2409382142 67.2085352721 67.3022963016 67.3115323914 67.2073610032 67.0251134199 67.0024996023 67.1220846888 67.2122408262 67.1967219259 67.0490969276 66.8394600259 66.6878781787 66.7004646062 66.770232707 66.8347935222 66.9305135433 66.8316121552 66.7358872136 66.5869558795 66.4030317506 66.3007416681 66.297946372 66.3717249972 66.4036351029 66.4358122667 66.4377035757 66.4319117335 66.3858102447 66.3203572262 66.2248192684 66.1343171083 66.0307640066 65.9503551573 65.9336359408 65.961301498 65.9851086504 66.0120098059 66.0276609515 66.0315529505 65.9970411415 65.9822220329 65.9518183441 65.927107515 65.8989241296 65.8448052734 65.8163641563 65.7864456543 65.7556720005 65.723850591 65.7080953873 65.7079559844 65.717612821 65.7310275989 65.737280317 65.7348376391 65.740148562 65.732123546 65.7307210216 65.72780423 65.7235386917 65.7070391149 65.7008948705 65.694250579 65.6784825854 65.6723941279 65.6663737216 65.6553128138 65.6505810719 65.6457739438 65.6380277519 65.6346714658 65.631427881 65.6300890737
65.5733512793 65.5735670559 65.5740739 65.5745550531 65.5747150527 65.5750709088 65.5753627072 65.5758618738 65.5761340278 65.5763655453 65.5775925258 65.5778505418 65.5780346388 65.5798792291 65.5798739198 65.579713189 65.5793892642 65.5805656858 65.5796611414 65.5792946799 65.5778792018 65.5766938114 65.5757855818 65.5758346868 65.5770808215 65.5790124809 65.5811735735 65.5833261131 65.585394609 65.5899477235 65.5921329618 65.5940364181 65.5955978305 65.597305615 65.5981250829 65.5982521062 65.5982610579 65.597744086 65.5978080198 65.597515125 65.5980782693 65.5990474665 65.6017222266 65.6035373195 65.6052813571 65.602286602 65.6038924719 65.6059233241 65.6020938605 65.6066676753 65.6131649849 65.6170746264 65.6180924285 65.6146847005 65.6087536896 65.5992255576 65.5986225494 65.5890590482 65.5989475633 65.6218742955 65.635273887 65.6366173775 65.6273877642 65.6175462728 65.6228340816 65.6316146393 65.6515804466 65.6562498192 65.6640010717 65.6539713947 65.6529729199 65.6836188626 65.7201515047 65.7269350018 65.7526753106 65.7744496915 65.7922887716 65.8085308987 65.8270625583 65.8493305706 65.8719410336 65.8959941795 65.9194764076 65.9418677666 65.97091982 65.9946584887 66.0172359253 66.0470487691 66.0777273854 66.1073295633 66.1377785948 66.1590807854 66.1907874551 66.2181726625 66.2487632099 66.2725809019 66.3038991451 66.3349545693 66.3578236653 66.3873931257 66.4140432469 66.4442033728 66.4640187198 66.4931172904 66.5219921067 66.5523633759 66.5830622514 66.6004193008 66.6313596459 66.6659746956 66.7000443721 66.7169869995 66.752236728 66.7942530059 66.8342456525 66.8758781341 66.8917151817 66.9342037544 66.9897846149 67.0371142698 67.0488450924 67.0948308739 67.1598185477 67.2087828618 67.2564148581 67.2554850044 67.297601482 67.3695636305 67.4097922132 67.393038996 67.4244758044 67.4933793352 67.5191485875 67.539195695 67.5512229036 67.5615250081 67.6195828125 67.635718922 67.644829717 67.6623515666 67.6568289086 67.6659194839 67.6535579871 67.618093504 67.6527585155 67.6168401726 67.6006870384 67.580253052 67.6834305364 67.7202197916 67.5283359658 67.3683657259 67.3619005803 67.3577493538 67.4263631535 67.3329083074 67.2055096224 67.0377515121 66.9134902472 66.8979169534 66.9754053414 67.1340927079 67.1564332211 67.0491440744 66.9454420516 66.6923613703 66.522545812 66.4348598361 66.4222810892 66.4775271952 66.5337737457 66.5675349031 66.5027407394 66.4743561078 66.4249203882 66.340150201 66.2669347973 66.1849442168 66.092099191 66.0298332446 65.9914509563 66.0110829192 66.0457282664 66.0392149644 66.0511248736 66.0247516449 66.0152508368 65.9885814058 65.9664175164 65.9400278618 65.9105900389 65.8545450334 65.8267612715 65.7988038772 65.7714002051 65.7413178333 65.7277456226 65.7268951552 65.7363979593 65.7416348705 65.7522459116 65.7438097877 65.7469805677 65.7379910473 65.7361478606 65.7327769226 65.7280425255 65.7104504449 65.7038713549 65.6968432723 65.6803539196 65.6741154776 65.6680390145 65.6568752835 65.6523556107 65.6478990516 65.6440426349 65.6384569712 65.6353003951 65.6339587222
65.574387361 65.5745176363 65.574841652 65.5751300807 65.575526308 65.5758982298 65.5756987744 65.576172605 65.5764340877 65.5766622357 65.5779445244 65.5782243224 65.5784341497 65.5804175801 65.5804460277 65.580317091 65.5820219664 65.5813710766 65.582471119 65.5803482165 65.5792451543 65.5795730467 65.5788104614 65.5782448133 65.5790885987 65.5804745694 65.5822385807 65.58414637 65.5860810694 65.5907212916 65.5929100208 65.5948247507 65.5963840439 65.5980041824 65.5987711792 65.5988264911 65.5987815096 65.5981595836 65.6009800464 65.598318008 65.6020526088 65.6032275064 65.6048477492 65.6065262573 65.6049312952 65.6011727969 65.6021979165 65.6034123382 65.6049302919 65.6002311948 65.6066698158 65.6061034938 65.6014094856 65.6055752681 65.5943070365 65.5907569332 65.5892864229 65.5755569441 65.5801011719 65.5904482732 65.5969144159 65.5963768436 65.5910784011 65.5943195871 65.5774968675 65.5784123096 65.5891531731 65.5987825122 65.6084408994 65.606544839 65.6102610284 65.6044602634 65.6321635894 65.6397161507 65.6838037594 65.7189566407 65.7440039862 65.7554016528 65.768776157 65.8001056912 65.8128014792 65.8471242308 65.8594569148 65.8940952902 65.9060097197 65.9410618828 65.9763178354 66.0119804213 66.0270857854 66.0650717115 66.1040335777 66.1436805714 66.1585042909 66.1983942987 66.2383714885 66.2782221093 66.3050011138 66.3322900871 66.3712786817 66.4097749494 66.4477910848 66.4618368838 66.4995703779 66.5371256014 66.5747554471 66.5893846393 66.6272646556 66.6667673186 66.7076018943 66.7502112467 66.7661727459 66.8123182423 66.8611588256 66.9129600784 66.9222464549 66.9882057811 67.0481071505 67.1109474531 67.1763510598 67.199160504 67.2684667973 67.338953288 67.4097369116 67.3983226063 67.5040778406 67.5736825794 67.6401885977 67.702461445 67.7221772423 67.7797759185 67.8307891416 67.8742674379 67.8096593476 67.9207351301 67.9493306363 68.0497135757 67.9786041742 68.0728402145 68.0058621682 68.0860184827 68.0168618799 68.0690252973 68.0554364233 68.037756374 67.9925723843 68.0382237291 68.1407633108 68.1163019013 68.1751189077 68.0085843805 67.9315719517 67.8370722615 67.7738102713 67.7932258266 67.8056836367 67.6756801107 67.4160957376 67.4167247337 67.3250234852 67.2767838404 67.3104104517 67.3079198571 67.2915462505 67.1659761135 67.0710485896 66.9522458128 66.6866108151 66.6949878873 66.6020658471 66.6808343328 66.6377005942 66.5767195294 66.5598197983 66.5229072502 66.4688315984 66.3844805126 66.3776411944 66.2580918148 66.1943616489 66.1475332912 66.076445313 66.1013609082 66.0995242554 66.0753845536 66.0800056292 66.0482711382 66.035622156 66.0064587082 65.9820253252 65.953779805 65.9230850917 65.8651251243 65.838493393 65.8134126927 65.7909685105 65.7647390834 65.7553609347 65.7565776183 65.7625790281 65.755992928 65.7631823515 65.7616677098 65.7547232472 65.7551596056 65.7419831457 65.7380617399 65.7327946726 65.7139822518 65.7069347609 65.6995007225 65.6822352628 65.675862914 65.6697641802 65.6585489284 65.6553274773 65.65124343 65.6474803621 65.6427746201 65.640695505 65.639811563
65.5754449138 65.5753364251 65.5755252428 65.5758031515 65.5759780854 65.576291186 65.5767506344 65.5770936744 65.5767427969 65.5769673663 65.5783106558 65.5786158192 65.5788559002 65.5809982974 65.5810665436 65.5836708729 65.583179688 65.5845785414 65.5834581537 65.5825149233 65.5816812124 65.5809813033 65.580398324 65.5804700421 65.5810397459 65.582402529 65.5830868808 65.5848921715 65.5867670252 65.5915395222 65.5937613518 65.5957072312 65.5972784229 65.604726092 65.6049988949 65.6058082921 65.604610616 65.5983129985 65.6015099881 65.6009726403 65.6025638267 65.6037159944 65.6052913594 65.6068000446 65.6083601964 65.6016999994 65.6004069625 65.6007308398 65.6067560043 65.5989768403 65.5987963694 65.5984011055 65.5924586115 65.5904150201 65.5851287407 65.5817750162 65.579096661 65.5611423006 65.5610673257 65.5594170993 65.5601725022 65.5618124499 65.5619562259 65.5364124641 65.5047498355 65.5177463968 65.5210964577 65.524588313 65.5448532309 65.5589440014 65.5626370883 65.5362393302 65.5423044666 65.5728524123 65.5809078468 65.6261003995 65.6411445715 65.6954222548 65.706555329 65.7342956392 65.7457522314 65.7577429158 65.7894124868 65.8020385697 65.8376881636 65.8517761868 65.8917364274 65.9343151655 65.9790452275 66.0018919634 66.0502998033 66.0915204198 66.1405961949 66.170839114 66.2216079789 66.2582187282 66.3075037275 66.3562961226 66.3925051478 66.4414090619 66.4694334594 66.5161016284 66.5565939305 66.604037566 66.6257903846 66.6726572278 66.7206208501 66.7706454346 66.8235470004 66.8423806824 66.8988572942 66.9641962801 67.0297622455 67.0496291767 67.121354394 67.1982033849 67.2922379489 67.3806421348 67.4008705848 67.4934578493 67.6123745295 67.71325795 67.7250994972 67.8244453164 67.9230266981 68.0628200389 68.1605214404 68.1463930079 68.2317608506 68.3747376508 68.4499017246 68.4043604146 68.4609101344 68.5065343339 68.6277614886 68.5494501739 68.563179751 68.5627497162 68.5527382583 68.5410877848 68.5277294794 68.483417625 68.4584851673 68.610494623 68.5560033882 68.5966661066 68.5637735966 68.636601457 68.6047737094 68.3208253502 68.2580246207 68.248423482 68.3209647648 68.2991674808 68.2655674437 68.3023627721 67.9195688101 67.6796685925 67.6536470015 67.597440364 67.5805438583 67.5523098991 67.5116476547 67.2896025817 67.1932757802 67.0890048518 66.9972802319 66.936668357 66.8256011687 66.8244668433 66.8303123661 66.756646619 66.6226017077 66.5754109483 66.5251742221 66.5066571186 66.4291879123 66.3118860281 66.259232742 66.2240143472 66.1662648414 66.1668555031 66.1492777343 66.1476398087 66.1521810611 66.1025866907 66.0886268936 66.0255382976 65.9984556816 65.9680219249 65.935702471 65.8752801862 65.8490520281 65.8254603949 65.8101844099 65.7949484538 65.7790302301 65.7773585884 65.7803323805 65.7756323105 65.7762645232 65.7711180638 65.7739575737 65.7641872623 65.7626012178 65.7436391745 65.7377877175 65.7176205404 65.7100677553 65.7021986729 65.6840891976 65.6775774443 65.6727375859 65.6668966005 65.6572476747 65.6535799484 65.6484048167 65.646503773 65.6452532756 65.6447358841
65.5758572046 65.57584432 65.5759059538 65.5761994869 65.5763613313 65.5766594302 65.5769347789 65.5774165611 65.5777212393 65.5789950952 65.5794149809 65.5790244175 65.5792998893 65.5822316668 65.5847134173 65.584480684 65.5840160641 65.5855311182 65.5843422437 65.5846958993 65.5834534603 65.5809209025 65.5799695491 65.5800198367 65.5811103936 65.5826707886 65.5847035166 65.5868072815 65.5911146151 65.5936420974 65.5946879149 65.5966959655 65.5983016091 65.6076179197 65.6068250406 65.605933649 65.6050409997 65.6028239722 65.6001711358 65.5994581548 65.6035448738 65.6051087804 65.6083920068 65.6112381395 65.6084822355 65.6092551483 65.6074798446 65.605058321 65.6035453846 65.5942644353 65.5926016832 65.5911360017 65.5860945736 65.5843145686 65.5815099466 65.5772775176 65.5567706365 65.545734097 65.5432472431 65.541085294 65.5255352631 65.5421289871 65.5211802154 65.4910138394 65.4785379792 65.474766398 65.4877039409 65.4893806539 65.4867071229 65.485678938 65.4874738705 65.4891812153 65.491722984 65.4959002821 65.5244733468 65.5317090261 65.5099376277 65.5890958766 65.5981016804 65.6519167014 65.6719113865 65.69011275 65.7150637202 65.7362297891 65.7555605421 65.7945998925 65.8207323277 65.8669056709 65.9159739336 65.9626802363 65.9989754153 66.0531544132 66.1082993119 66.1640740849 66.2108626617 66.2538499662 66.3096009766 66.3648388182 66.4063801409 66.4516667412 66.5049375319 66.557606285 66.6099777972 66.6446041485 66.693123479 66.7461209178 66.8005992209 66.8337001276 66.891915691 66.95314678 67.0185413208 67.0888950102 67.1299158973 67.2126554615 67.2975937482 67.3889962524 67.4398862082 67.5494697586 67.65591227 67.7676205059 67.8839338788 67.9407734664 68.0772370749 68.1978708583 68.3185232245 68.3648303818 68.5092000841 68.6197087677 68.724562325 68.822447737 68.8331209446 68.9592331491 69.0285754825 69.0852398703 69.0543375697 69.142648958 69.0879138589 69.077761002 69.0626550338 69.0292575818 68.9888768758 69.0574320877 69.0118766409 69.2361176498 69.0580556743 68.9348381719 68.9879378851 68.9534517736 68.8999842898 68.7741585123 68.6534955281 68.5688609164 68.5634314458 68.5355594412 68.5855129168 68.4964775079 68.2927698452 68.0128138166 67.8057500234 67.9006652751 67.7904897951 67.8771597781 67.8367343868 67.6346937715 67.3776314355 67.2471697882 67.0691444953 66.99903255 66.9080208693 66.9106657518 66.9151483249 66.8341462997 66.803970636 66.7640953537 66.6332655847 66.5538220019 66.5000457242 66.4110335549 66.3324085969 66.2561263624 66.2223996107 66.1957049732 66.1748698111 66.1806362048 66.1723991577 66.1658267686 66.1244866812 66.0455148952 66.0154868739 65.9824826082 65.9557208718 65.9203423521 65.8634987061 65.837888742 65.8157766678 65.7910769407 65.7831740696 65.7819466889 65.7863870964 65.7896767181 65.7838378396 65.7799929686 65.782296703 65.7714206142 65.7691655016 65.7652695006 65.7457922947 65.7213446259 65.713249641 65.7064781463 65.6978837401 65.680602522 65.6742560524 65.6628213531 65.6588574828 65.6553051884 65.6503497614 65.648497146 65.6472417696 65.6464135451
65.5755272498 65.5757689978 65.5761777105 65.5767108102 65.5768530482 65.5770050858 65.5772803597 65.5777408229 65.5780368966 65.5793425088 65.579779895 65.5801732889 65.5825871394 65.5828477805 65.5855507227 65.5853635132 65.5875381507 65.5865287388 65.585198992 65.5852473537 65.5832302812 65.5804197974 65.5780750933 65.578088247 65.579983147 65.5824228149 65.5850341168 65.5874484412 65.5919712697 65.5946358468 65.597050465 65.6066151554 65.6083947077 65.6092374304 65.6174302408 65.6070873525 65.6108674467 65.6018083784 65.600099403 65.5968712741 65.5986090352 65.6039165731 65.6078977308 65.6117335854 65.6139704235 65.6131931628 65.620304428 65.6062018352 65.5938941052 65.5914366496 65.5849976569 65.5849875287 65.5844614576 65.5860443821 65.5762467175 65.5697638538 65.5487685577 65.5353812837 65.5325377331 65.5339306776 65.5289214187 65.5299220946 65.5171515131 65.4782640819 65.4576963954 65.4536094432 65.4636785538 65.4828318963 65.4809114801 65.4460406826 65.4140704935 65.4300324384 65.4704302873 65.4716668166 65.4514713928 65.4614855119 65.4852267569 65.5070891863 65.496963096 65.5373766176 65.5633650698 65.6107695757 65.6341781633 65.6878357627 65.7169578101 65.7346834392 65.7939057682 65.8405469463 65.8803743207 65.9324292959 65.9869375647 66.0422793716 66.0874531784 66.1442513673 66.2022036915 66.2598520842 66.3109616929 66.3615500132 66.4176517451 66.4731748198 66.5271262797 66.5696401926 66.622543511 66.6758927567 66.7291057965 66.7810421177 66.8259179161 66.8829913758 66.9430199086 67.0057481899 67.0586907096 67.1295807577 67.2068997353 67.2897569574 67.3794015558 67.4537793431 67.5549000813 67.6627224468 67.7747667318 67.8695168317 67.9906479642 68.1167963915 68.243942253 68.3780518411 68.4739926576 68.6007776965 68.7239096611 68.8398920799 68.93036916 69.0350741254 69.1314664521 69.2154583271 69.2755888118 69.3376657146 69.4380413872 69.3919351438 69.4049127376 69.4988132466 69.4667776546 69.5508758813 69.5259875289 69.5757453488 69.400374065 69.4166243127 69.4236865534 69.3374172407 69.1299007921 69.1028580863 69.2252077632 69.1695896022 68.9235204865 68.6402974909 68.6108059538 68.7206579929 68.7423745688 68.6456924072 68.3753797862 68.0139519038 67.8570007458 67.8622202414 67.9346588906 67.9858828628 67.9590380426 67.7355491522 67.6405150389 67.4210344062 67.130239148 66.9408977247 66.9325809796 67.0014354385 66.9844932618 66.9932451537 66.8993882871 66.9504381526 66.7805695422 66.6322440331 66.529337644 66.4200641683 66.2882702887 66.2150551417 66.1917061521 66.2036737454 66.1927395357 66.2289552964 66.2006456379 66.2102553995 66.1494776804 66.1232903887 66.090348059 66.0046085207 65.9669133275 65.9294584413 65.8697564679 65.8415597441 65.8149941983 65.7864042223 65.7740044046 65.7735278249 65.7808826382 65.7927415809 65.7911890902 65.7881937788 65.7905491784 65.7911565315 65.775995688 65.7714578264 65.7504506162 65.7424476665 65.7179288616 65.7088284855 65.6999100992 65.6820455578 65.6756532769 65.6641554213 65.6602189773 65.6540319496 65.6514074987 65.6489943078 65.6466992614 65.6459449551
65.575162217 65.5755562302 65.576376976 65.5769619808 65.5773607869 65.5778008521 65.5776343068 65.5780710765 65.5783589905 65.5805119643 65.5809638818 65.5833671001 65.5838561228 65.5868982317 65.5864696127 65.5863373289 65.5887062324 65.5876600158 65.5885779364 65.5879529012 65.5844738423 65.5797527237 65.5767188357 65.576637592 65.5793460803 65.5827655103 65.5856026697 65.5882412269 65.5953010609 65.5982348022 65.606853571 65.6096040772 65.6114841654 65.6215025043 65.620492162 65.6171661268 65.6121911102 65.6048868504 65.5976953992 65.592746916 65.5953612832 65.6049152578 65.6136461076 65.6197146441 65.6282790009 65.6302892798 65.6216545001 65.6183819867 65.6033773956 65.5896761891 65.5914854333 65.5854423393 65.5859870856 65.5852892583 65.5801036416 65.5495701212 65.5369962262 65.5255254905 65.5231166954 65.5289510056 65.5379934906 65.5431344141 65.5069771689 65.4654117494 65.4372570665 65.4331370251 65.45729454 65.4913201247 65.4879048494 65.400773263 65.3659070413 65.3941309445 65.4688510977 65.4699702781 65.4223899529 65.450721414 65.4998138855 65.4669584035 65.4765406562 65.5418874579 65.5059991649 65.5888638115 65.6025949749 65.6252217143 65.6741412921 65.7296339218 65.7688040342 65.7886860359 65.8438492426 65.914626742 65.9769049548 66.0093784922 66.0526193803 66.1252881295 66.2006284557 66.2555801966 66.287207916 66.3447375021 66.4172964899 66.4811937685 66.5182379311 66.5593136349 66.6202390754 66.6864497052 66.7394538881 66.7737673604 66.8229398394 66.8894721225 66.9595001622 67.012907232 67.0643076686 67.1321463775 67.2247454371 67.3201965485 67.3930846343 67.4647529716 67.5743058798 67.7098507065 67.8299932068 67.9242292112 68.0234444295 68.1754046582 68.3378865784 68.4636072386 68.5441823023 68.6728759388 68.8358931767 68.9882270495 69.0786111901 69.136222023 69.2473800684 69.3745976344 69.476971346 69.4838348826 69.5148480211 69.5777498817 69.6500231081 69.6632005371 69.5810460807 69.7938020346 69.5299938506 69.7031020941 69.5663265533 69.3883170395 69.5108114805 69.4482672135 69.1290900476 69.1260785173 69.4150942157 69.485845316 69.128216486 68.5763995283 68.553350466 68.7696373109 68.8891142569 68.8942498711 68.4657633928 68.0539136075 67.7266089655 67.7925521383 67.971809551 68.0929216636 68.0862171431 68.0415046752 67.8273876833 67.5151084141 67.1408515041 66.8672869148 66.8645538225 66.986937923 67.0310603934 67.1510016471 67.0724854545 67.0153733233 66.9102032719 66.7957647584 66.5978275665 66.4637898517 66.3178079346 66.1799830711 66.1480519687 66.1902297378 66.2470012962 66.2548475854 66.245442882 66.2467839374 66.2300117626 66.1528906489 66.1157973656 66.0736374468 65.9899311999 65.9498403084 65.8763083135 65.846205712 65.8070789434 65.7831235782 65.7654781984 65.7656175039 65.7819421141 65.7981628122 65.8056587596 65.8062685589 65.799009346 65.7994231381 65.7831095889 65.7779407977 65.7717706722 65.7477480871 65.7377670159 65.7143332357 65.7051095691 65.6834000079 65.6769731382 65.6654413639 65.6613663719 65.6577764023 65.6525775763 65.6489951002 65.6461789706 65.6448151534
65.5755709255 65.5759874737 65.5768280004 65.5773953359 65.5779742939 65.5782031241 65.5785546408 65.5791609193 65.5794841264 65.5808403624 65.5813143221 65.5838650086 65.5844255282 65.5877207369 65.5879572066 65.5909999762 65.5903780992 65.5919724453 65.5900312445 65.5895348781 65.5861284116 65.5820091745 65.5784110553 65.578401335 65.5814201895 65.585174449 65.5886534899 65.5916558058 65.5964839328 65.5994776563 65.6085795065 65.611553557 65.6136415747 65.6245489662 65.6236194345 65.6303294965 65.6153863365 65.6137168054 65.6039621986 65.5976863738 65.6009687474 65.6085258056 65.6167575801 65.6225589367 65.631244475 65.6331533725 65.631954992 65.6202134373 65.6043985932 65.5982501331 65.5889348011 65.586570969 65.585934551 65.5839191409 65.5775716357 65.5688944686 65.5296694474 65.5177860296 65.510233237 65.5158312812 65.5209566698 65.5238863291 65.4825978674 65.4170582068 65.3815903045 65.3625874046 65.395263065 65.4477791882 65.4281808887 65.3467926724 65.3031935133 65.3110668549 65.3770463381 65.3942412035 65.3281449519 65.3177410281 65.4116915922 65.3784839519 65.363208895 65.4360236764 65.4289283798 65.4810078834 65.5047183858 65.5366439508 65.5751749591 65.6118703391 65.6545045814 65.7140494799 65.7677828167 65.8017182059 65.86121117 65.9291411309 65.9898776735 66.0311319451 66.0992857501 66.1695977682 66.2306003733 66.2949166233 66.3393658311 66.4027772084 66.4647896738 66.522933724 66.565280104 66.6266075347 66.6860294635 66.7427075371 66.8029236233 66.8520388001 66.9200752382 66.9854135381 67.0584930297 67.1243872896 67.2154615999 67.3000526333 67.4007343639 67.5091038685 67.6162482053 67.7495019484 67.8573508637 67.9948949764 68.1313473134 68.2883304316 68.4055213591 68.5616696059 68.7111941936 68.8713190846 69.0316472496 69.1239133004 69.2585957164 69.4044825278 69.5260627109 69.5762100914 69.6737603843 69.7869982349 69.8447968916 69.8928253048 69.932270541 69.9731292839 69.9572446141 70.0631050355 69.9311243976 70.1270843195 69.9371284103 69.7515037122 70.0637939613 69.8942068911 69.5055184936 69.5467166107 69.8471851589 69.7979498291 69.4424001958 68.9338017338 68.8122565503 69.1268720775 69.2992703857 69.4248580177 69.0780490661 68.3604177344 67.9536122058 67.985604656 68.1376323016 68.2591995997 68.3122997437 68.1858968239 67.9444549614 67.6548941443 67.2864576564 66.9864525112 66.9831386213 67.1478179029 67.1939125149 67.2400184045 67.1534778756 67.0720451236 66.9738600504 66.8511640904 66.6440043735 66.5110779083 66.3701605439 66.2353935786 66.1978965722 66.2390671477 66.3076541542 66.2922142355 66.3251247562 66.2787423187 66.2589539506 66.1747173208 66.1340125378 66.0886060435 66.000002279 65.9587168311 65.8941322491 65.8629058139 65.8317702897 65.7942860717 65.7757812123 65.7755482943 65.7899760441 65.807947962 65.8154557034 65.8156484644 65.8203624517 65.8086846563 65.8059023363 65.7851623776 65.7769504516 65.7513150705 65.7406768513 65.7160086916 65.7064761531 65.6876240883 65.6810484786 65.666542545 65.662977868 65.657193913 65.6544868359 65.65090361 65.6478712803 65.646337072
65.5768830114 65.5771276207 65.5776715386 65.5782719168 65.5784955626 65.5792313869 65.5797105837 65.5801370447 65.5798057997 65.5811821622 65.5816791314 65.5843952564 65.5850376472 65.5886256357 65.5924561286 65.5923195797 65.5953358159 65.5969847613 65.5946428692 65.5939242321 65.5903885639 65.5859595285 65.5841315965 65.5841400325 65.5858216044 65.5888663577 65.590433095 65.5931394953 65.5978794879 65.6008933461 65.6105365276 65.613785901 65.6270548803 65.6282092211 65.6275257665 65.6354432707 65.629496098 65.6211562882 65.6144689135 65.610989062 65.612715741 65.6158076755 65.6218583176 65.6266462961 65.6352212723 65.6369867961 65.635547167 65.6231026113 65.6166106949 65.5999127468 65.5888339826 65.5859913648 65.5835943632 65.5937492762 65.5921808869 65.5652020514 65.5218356779 65.5062277734 65.4945208894 65.4648181302 65.4714352916 65.4541947036 65.4295369124 65.3726970226 65.3388400366 65.2750791364 65.2813512431 65.2951742707 65.2642277032 65.2383625334 65.1445445776 65.1124396069 65.1378635395 65.1161159816 65.073931149 65.0881388312 65.0578401607 65.1242319068 65.1575519163 65.1952906262 65.1768929422 65.2296954416 65.2198024893 65.2827360954 65.2718909531 65.3439057224 65.3917508333 65.3879977403 65.4761247628 65.5386223278 65.6075324529 65.6214286837 65.6990031445 65.7973480278 65.877544137 65.9593477909 65.9863434042 66.0801759502 66.1597086158 66.2380881577 66.2684094601 66.3451950508 66.4248923684 66.4974763787 66.5701835975 66.6057974025 66.6803584038 66.7578432464 66.8406517217 66.8950049569 66.9935283777 67.0793127588 67.1932463778 67.3196297734 67.4256214872 67.5297477359 67.6894933846 67.8626665149 68.0226652467 68.223542925 68.3413382759 68.5520594993 68.7681641705 68.988232146 69.0898222139 69.3095174034 69.5232876803 69.7626129151 69.9671973854 70.007429113 70.1789813077 70.3293298971 70.5451591043 70.51026861 70.6096164662 70.784513131 70.7116307791 70.8647663644 70.7851112767 70.9073214283 70.7900604243 70.8638857901 70.9591230676 71.138934335 71.0370572331 71.0198568158 70.7887534295 70.6905788686 70.7969596113 70.6008633866 70.0671593029 70.0141348278 69.8860867499 69.9618596633 70.0166703346 69.7990521753 69.513534626 68.8967166779 68.7393729406 68.5679262354 68.6561325132 68.5690598525 68.5110446148 68.3595270943 68.1251227569 67.9278046927 67.6709110857 67.4242053837 67.3096430105 67.3841392273 67.3438048404 67.2881990981 67.2484872123 67.1534702089 67.0438147117 66.913997858 66.7016453681 66.5827828858 66.4733863392 66.369450193 66.3434081739 66.3675324654 66.3784269328 66.3806188404 66.3695517176 66.3147195585 66.2906166823 66.2548479082 66.1531626506 66.1042613396 66.0103717997 65.9682913613 65.9032516813 65.8747657196 65.8513804685 65.8287534623 65.8093158348 65.8085211991 65.8118468998 65.8238025115 65.8356366272 65.8363571862 65.8419950311 65.8317826217 65.8136958457 65.8079917316 65.7824119739 65.7549941404 65.743662375 65.7176451148 65.7078077175 65.6884825661 65.6817348863 65.6760718154 65.6667909247 65.6593792955 65.6564334794 65.6544359075 65.6525204147 65.6516240989
65.5781778541 65.5783245216 65.578725202 65.5792700854 65.5796184284 65.5796932074 65.580063294 65.5804999169 65.5808614646 65.5822939894 65.5820542721 65.5849543281 65.5856893437 65.5896135967 65.5942344933 65.5978892163 65.5970409837 65.5989486469 65.5995820646 65.598661177 65.5948244752 65.5903632199 65.5885429391 65.5876054753 65.589203408 65.5911434895 65.5940446273 65.5982398846 65.6016314197 65.6024538445 65.6127168793 65.6163078989 65.6309430609 65.6325022209 65.6463511929 65.6420954685 65.6460436477 65.627301232 65.627641816 65.6232515319 65.6217365049 65.6275635395 65.6268405326 65.6313280226 65.6400356051 65.6418157204 65.6402048838 65.655020053 65.6383137295 65.6206359357 65.6010727802 65.5922153559 65.5899698338 65.5920400998 65.5921050146 65.5788222658 65.5652482645 65.4937223788 65.4874180966 65.4393387075 65.4264359415 65.400862083 65.3697038033 65.3293266703 65.2919574982 65.2039109585 65.1773981304 65.1337791262 65.1166171132 65.0359075612 64.9058348525 64.8937049141 64.8743544801 64.8794637599 64.8789678772 64.7493541104 64.7307809717 64.7699377681 64.7244014318 64.7221286524 64.8740741704 64.8651213933 64.8680245563 64.8712149425 64.8941312702 64.8752890658 64.9515619085 65.0043695604 65.0672467884 65.075827974 65.1548564819 65.2646108878 65.3553830752 65.3866646858 65.4858490544 65.6012318843 65.7017574931 65.801655556 65.843832671 65.9415418864 66.0442889155 66.1360297645 66.1782296691 66.2677833668 66.3574151897 66.4454655777 66.5360609517 66.5916586407 66.694418116 66.7901276403 66.9090429301 67.0035871499 67.1509410304 67.2727878062 67.4482629896 67.64273001 67.8209432596 68.0535563662 68.2172689103 68.4761282755 68.7269978358 69.0150045759 69.1880681117 69.4845597391 69.7835291403 70.0900029725 70.3880660282 70.5187521822 70.7896491421 71.0935461612 71.3333856897 71.3834060069 71.5714439431 71.7285115162 71.9517762062 71.9004080662 71.9613411356 71.9696346839 71.9597477034 71.923021532 72.4098944762 72.4470195668 72.2631951662 72.435599708 72.3670801317 71.8612079809 71.8809037799 72.0395469137 71.9769295064 72.0852363316 71.3154235985 70.9593539253 70.8735391494 70.7830722798 70.7065714653 70.2124273531 69.9398143436 69.8241704421 69.5227610208 69.2873936424 69.2919553493 69.1373343708 68.7362194154 68.7662726548 68.520295099 68.139337277 67.9353171157 67.8111103045 67.6707853197 67.696940202 67.6309973932 67.6159305286 67.4673613039 67.2418036514 67.1180445533 66.9787377594 66.7576421974 66.6460798176 66.5758198944 66.5111221329 66.4710474362 66.4853363966 66.4484274422 66.4548651176 66.4231294774 66.416107225 66.3248730224 66.284300811 66.1730996167 66.1203613674 66.0205941149 65.9816883767 65.9423198061 65.8890384669 65.8663154146 65.8423389531 65.8349890286 65.8339268256 65.8391242004 65.8455733048 65.8563108344 65.8575176046 65.8521615965 65.8407016063 65.8387639687 65.8171314655 65.7881324645 65.7587521597 65.7466934865 65.7192093773 65.7084504725 65.6889594433 65.6827529948 65.6717448904 65.6684103668 65.6643219015 65.6604538285 65.6589086715 65.6578332456 65.6574695714
65.5781597493 65.5784592585 65.5790887106 65.5797497583 65.5803572961 65.580606764 65.5805035367 65.5808778941 65.5812103226 65.5826362089 65.5853621204 65.5863230535 65.5904773467 65.5951601496 65.5956120404 65.5996579683 65.6028378867 65.6046901455 65.6017929341 65.600694267 65.5961279337 65.5912077628 65.5867501945 65.586729758 65.5893037275 65.5923959898 65.5957690043 65.5999919975 65.6034201994 65.612759108 65.6172943591 65.6191190544 65.6376521604 65.6539539104 65.6524757123 65.6615079348 65.6516196207 65.6380050913 65.6237814347 65.6143838539 65.6190106442 65.6283430395 65.639090824 65.6495107112 65.6555142835 65.6477370281 65.6762869811 65.6696583848 65.6441188321 65.6218147383 65.594102452 65.5754248111 65.5821920015 65.5919433398 65.6026588726 65.6004746154 65.5457964558 65.5141334086 65.4431334888 65.4137822044 65.3772964223 65.3700679462 65.3487066454 65.3046509271 65.213839144 65.1387284508 65.0976982273 65.0387039092 65.021498182 64.9173561539 64.8122092289 64.7594216695 64.7538283114 64.7371131416 64.6581316346 64.5833726903 64.5532905099 64.4975089393 64.425760616 64.4284585983 64.4444543973 64.415922339 64.4065309607 64.4603943766 64.4900423509 64.5683577151 64.5254720143 64.6308568296 64.6263477702 64.7782719365 64.8626283002 64.9206884353 65.0173533321 65.128593092 65.236709115 65.2763871382 65.425326124 65.4769560837 65.6476536114 65.7553169056 65.8301264102 65.9292322591 66.0277337942 66.1234738629 66.1710779796 66.2894040326 66.3421578393 66.4832971619 66.5933968388 66.6915468355 66.8209072191 66.9485507063 67.1104588261 67.2678899164 67.4688562614 67.6443349237 67.8909337452 68.1538653178 68.4154534027 68.7101224909 68.9656260256 69.2964985908 69.6941557996 69.9671238499 70.3247375083 70.586260403 70.9298484002 71.2671718273 71.5809865291 71.7950943123 72.0758783256 72.4984634537 72.5719871906 72.8707319051 72.8315783183 73.0717598211 73.2021992251 73.3864503198 73.3894288 73.3564187368 73.4510667352 73.4728320233 73.2421133119 73.1228495751 73.0334260643 72.7451775062 72.6064624162 72.5447396643 72.7388438408 72.6036960171 72.0866590169 71.4835314074 71.3871238807 71.5217290999 71.5402350628 71.1061357851 70.8363193859 69.9804656664 69.6221857163 69.6274806522 69.6128455937 69.6331082914 69.4056285523 69.1232073305 68.8223953835 68.477463198 68.1269552366 67.8418965945 67.7898303756 67.8067442451 67.7710595844 67.7480828485 67.6296888254 67.5246382963 67.194530789 67.0790862914 66.9202961439 66.7126510932 66.5967463334 66.4920714569 66.466649775 66.5020903643 66.5078640141 66.5063300297 66.5186102579 66.4582768758 66.4323563667 66.3255091637 66.1936007542 66.1399008587 66.0823833234 65.9901707162 65.9506488681 65.8973594527 65.8736984821 65.8480978888 65.8368470606 65.8366317297 65.8444129783 65.8561604052 65.8676175679 65.8685362284 65.8750684285 65.8646211454 65.8473174595 65.8240075367 65.8147782925 65.784235553 65.7488237032 65.7355751671 65.7095116325 65.6897349747 65.6836989482 65.6730282626 65.6686223152 65.6642327586 65.6626198863 65.6609342582 65.6594313017 65.6587550166
65.5776654237 65.5782816682 65.5793331948 65.5801958393 65.5808654418 65.5814102501 65.5815084836 65.5819078489 65.5815706503 65.5829827074 65.5867393064 65.5908650379 65.5960556491 65.5964820448 65.6016979494 65.6016031915 65.6052662253 65.6071504239 65.6072518955 65.6029116523 65.5975192508 65.5906633467 65.5838967782 65.5837266963 65.5898477608 65.5952319821 65.5976458634 65.6007560737 65.605344941 65.6187939795 65.623616335 65.6399860469 65.6598402612 65.6606765786 65.6596617692 65.6696809933 65.6710524578 65.6494809201 65.6227093905 65.6022148768 65.6112324533 65.629497438 65.6445020523 65.66821765 65.6761673749 65.6961695292 65.6961395171 65.7177569735 65.6933840073 65.6558804962 65.6055019155 65.5627152874 65.5609619898 65.6015927497 65.6309230708 65.6395870645 65.6271297338 65.5550101988 65.4706964627 65.4006081516 65.3673163171 65.3664245417 65.3561879738 65.2572764138 65.1822617366 65.0992197674 65.0608434496 65.0537288309 65.0403235717 64.8872869494 64.7393662107 64.6935142064 64.732267905 64.7012852769 64.4840413712 64.4153799561 64.5323327082 64.4330921764 64.3487995032 64.4098213716 64.2422807246 64.3534832285 64.2522725346 64.2686034698 64.3197754741 64.3696829418 64.3501184082 64.3586007727 64.4459892987 64.5792976779 64.658701277 64.6883773338 64.7647704238 64.9208842768 65.085018275 65.1604529313 65.2169495319 65.3498349109 65.5207879539 65.6349624026 65.6873418343 65.7676320697 65.9027090649 66.0384195148 66.1055076065 66.1575850444 66.2625147958 66.4016616648 66.5203841864 66.6052949614 66.7086668954 66.8644900956 67.0732186575 67.2626958332 67.4279726978 67.622151972 67.8957543839 68.2322005887 68.5195535607 68.7688748339 69.0578931169 69.4731906744 69.8998649623 70.2391873563 70.5159944603 70.8712125519 71.3515959024 71.7553856193 72.0260648477 72.2432275655 72.5692948974 72.9565076595 73.2312915507 73.3367979736 73.3944029317 73.59620659 73.7778867407 73.8641751257 73.6396367422 73.9732233615 73.5328743338 73.7538384374 73.542092188 73.187636153 73.869074192 73.7144888011 72.6882794606 72.5527312682 73.0630091331 73.049937671 72.2855357876 71.3149928459 71.2028812559 71.7215703847 71.9256241629 71.8902930043 71.2639944935 70.3100499248 69.3851254569 69.4899693557 69.7586419052 70.1222443639 69.9340903541 69.6856661534 69.3052493523 68.6954837856 68.1697303182 67.6774954386 67.6860009073 67.9261790518 67.9963082635 67.9554656109 67.930811718 67.6620020281 67.4967012866 67.1914724245 67.0168801089 66.7461480866 66.6046519923 66.4608900607 66.4164346477 66.4979401352 66.5680198847 66.5968057928 66.5691557357 66.5026032204 66.4717592729 66.4257820135 66.2956692919 66.1685066648 66.1083100634 65.9979612559 65.9312658042 65.904866134 65.8789001534 65.8490124792 65.8291955467 65.8290811172 65.8469976171 65.8647316668 65.8782949837 65.8889684211 65.885630692 65.8752499589 65.8562404171 65.8504564652 65.8210328297 65.80681146 65.7725914405 65.7408196744 65.7104345121 65.6904103786 65.682205955 65.6726233491 65.6676264818 65.6662213862 65.6644773881 65.6621973379 65.6593699422 65.6576950405
65.5783875604 65.5789857988 65.5799769918 65.5807948808 65.581436898 65.581955876 65.5820024422 65.5823277157 65.5826838723 65.5842674293 65.5871172937 65.5914957082 65.5970919071 65.5984274325 65.6040840528 65.6087365255 65.6121460546 65.6137550052 65.6101945238 65.6059332958 65.6007472005 65.5944448793 65.5883475956 65.5882942293 65.5934243194 65.5981554099 65.6025157146 65.6069149395 65.611283552 65.6210530588 65.6261724033 65.644012831 65.6661039115 65.6693599393 65.6868028585 65.6974822437 65.6825493474 65.6719409966 65.6376371825 65.6193397199 65.6264190417 65.6477050288 65.6651379865 65.6778750027 65.6859604051 65.7079329096 65.7091766911 65.735306839 65.7169190754 65.6760618352 65.650074058 65.5992218013 65.5900217385 65.6242035241 65.649845634 65.6566942053 65.6429270277 65.566966212 65.4788833665 65.432647969 65.3815661147 65.3727345746 65.3911544843 65.3119499795 65.1611084651 65.0821063113 64.9780234503 64.9979482119 64.9650530326 64.7605875987 64.617953168 64.4901945277 64.5818392672 64.5118133862 64.2891666049 64.1696484706 64.2263023764 64.0754051168 63.917515736 64.0375487022 63.8763261991 63.9911856095 63.9119577689 63.948654222 63.920062092 63.9746400393 63.9911922685 63.9712973229 64.0773165746 64.1614515875 64.2482878603 64.2750896147 64.3865204838 64.5503624416 64.6870044844 64.8137225713 64.8772722743 65.0411223291 65.1871460499 65.3181541194 65.3796477978 65.5012802341 65.6437075616 65.7623704532 65.867528162 65.9241527424 66.0526046723 66.1771887375 66.3038945828 66.3900380333 66.5430811721 66.7165025635 66.9158699765 67.1360411176 67.3258229272 67.5658988495 67.8703131809 68.2074419322 68.5137672808 68.8968881407 69.223628895 69.6565062237 70.1120201601 70.5313900247 70.8672166308 71.3249121165 71.7957996083 72.25167433 72.6813088274 72.925821811 73.3030753304 73.6654306311 74.0281095323 74.1228567976 74.3177996625 74.5645380012 74.5929090627 74.7912596359 74.6639911077 75.1790137267 74.7697455129 75.3971874576 75.0050724467 74.4624780594 74.9395510953 74.649274437 73.6922485168 73.522181497 74.5553285532 74.552564601 73.7434948104 72.1206378842 71.9818953287 72.5987115111 72.6357532394 72.3683060764 71.7639759699 70.9743238228 69.9074048398 70.0144356854 70.296015383 70.4588265921 70.2282368202 69.9421980124 69.5290583691 68.9031754252 68.4175118545 67.9864182562 67.9613867075 68.1739710319 68.1633585232 68.1360256906 68.0663920471 67.7611327722 67.5760611746 67.2467860679 67.0678634854 66.8371852669 66.6941442903 66.5494235073 66.4923383195 66.5674489599 66.633814948 66.6547922358 66.6813305383 66.6145449926 66.5121938966 66.456721496 66.315168984 66.1787769666 66.1161023555 66.0181054227 65.9642213801 65.9136545912 65.8908679547 65.8627953826 65.8429463657 65.8431054724 65.8607506485 65.8776525799 65.8905230101 65.9005494236 65.9086500748 65.9001456321 65.8838768374 65.8574558755 65.8257980557 65.8112754553 65.7750269625 65.7416889815 65.7142726551 65.6881550338 65.6832823256 65.6741313685 65.6695838543 65.6683020859 65.6666654592 65.6644737016 65.6616523789 65.6598813393
65.5801751692 65.5803928293 65.5809174745 65.5815193742 65.582070012 65.5825376721 65.5829273809 65.5832288736 65.5847308269 65.5854008005 65.5875024431 65.5921572693 65.598209028 65.6054999231 65.6116631221 65.6167473754 65.6197890042 65.6169406245 65.6135640897 65.6095966995 65.6051166333 65.6006644885 65.5976321792 65.5976107582 65.6006133654 65.6039386617 65.6087152432 65.6131494603 65.6215084129 65.6234834067 65.6288975592 65.6484405084 65.6732294185 65.7008942264 65.71983585 65.711101276 65.7121350693 65.6916663053 65.6717796425 65.661457308 65.6615702755 65.6759867283 65.6909326176 65.6897880867 65.6975388353 65.7218011505 65.7249811016 65.7576753583 65.7420635012 65.7428992799 65.6957348198 65.6702494602 65.6675582154 65.6629558788 65.6783338799 65.6808617708 65.6656373724 65.6286621079 65.5257643557 65.4961978636 65.4277805016 65.4052316491 65.4029428267 65.3497899758 65.143263466 65.0456480565 64.913850073 64.8685969287 64.7949574103 64.6254155719 64.4931296061 64.2738871887 64.1544374716 64.0823798543 63.8363376595 63.5817855054 63.5266322288 63.478414756 63.2396469646 63.2012295376 63.1385330451 63.0076801128 62.9729206635 63.1278012883 63.0804813867 63.0575672074 63.0563753587 63.0769781718 63.1247207738 63.1992088161 63.2564595474 63.3705631615 63.5050949097 63.6567571626 63.7549391444 63.9259492037 64.1024452954 64.2804048571 64.4564579721 64.5595805538 64.7256417818 64.8831916827 65.0324305818 65.1167857462 65.2555359537 65.3914565121 65.5291009368 65.6740028683 65.763897772 65.9322378582 66.1227586826 66.3415398771 66.4858396657 66.7608602882 67.0751341762 67.4317082963 67.8328970986 68.0929822179 68.5639715841 69.0754528605 69.6249803093 69.9701825094 70.5696676541 71.18958831 71.8229435029 72.4617151332 72.8428733925 73.4658683431 74.0652049615 74.6315015069 74.9516016006 75.4414582372 75.8706505687 76.23267422 76.4152513464 76.6535314396 76.8055325997 77.6032580018 77.6613820922 77.6681373513 77.6410220233 77.9638738308 77.3408993253 77.8252167241 77.849120023 77.2573882397 76.3417035472 76.2987314981 76.4158308564 75.6580272715 75.0734984793 74.6256920448 74.1125001836 74.2200523073 73.3545254385 72.9521220471 72.8167753708 71.9491481682 71.5341193925 71.2634554272 71.2191042883 70.8827985483 70.5757130654 70.2280459957 69.7844779767 69.1698047688 68.8144906836 68.6476556602 68.6172660163 68.5200168189 68.5750657537 68.3178409923 68.2182144887 67.8674282671 67.6598125145 67.3039524132 67.1237863995 66.9842527806 66.8089967458 66.7278248007 66.6899829115 66.7192612401 66.7230579602 66.7642984956 66.7393049575 66.7366318418 66.6381149836 66.4898831067 66.3353595254 66.1886690399 66.1236089586 66.0623120019 65.9836799131 65.9338634463 65.9025229785 65.8841171886 65.8772701658 65.8773188368 65.8842337964 65.8943208675 65.9042529296 65.9128112637 65.9199038732 65.9257465922 65.9098192382 65.886166776 65.8553179371 65.8159696596 65.7775148061 65.7424947663 65.7110031648 65.7022654578 65.6798203453 65.6724566817 65.6715767094 65.6704989458 65.6692019077 65.6677554183 65.6664805263 65.665952839
65.5806527928 65.5809946454 65.5816194562 65.5822132824 65.5827215617 65.5831434202 65.5834898034 65.584506802 65.5843563643 65.5856928409 65.5887116097 65.5936599705 65.6000747226 65.6070941114 65.61385993 65.6194592941 65.623251944 65.6204122383 65.6172309146 65.6134120876 65.6088669527 65.6036094542 65.598709327 65.5986664919 65.603540011 65.6096853012 65.6122080533 65.6161352838 65.6199241173 65.629856481 65.6482689466 65.6532074369 65.6842665639 65.711565101 65.7337125495 65.7456438902 65.7283898688 65.7168062773 65.685295681 65.6590189354 65.6661593791 65.6885174685 65.7050770282 65.7199120715 65.7443095784 65.756121875 65.7981532571 65.7956064588 65.824090948 65.8249205504 65.7443822343 65.6725859752 65.6597090008 65.7098400235 65.7401632008 65.7537155008 65.6953327731 65.7346885496 65.6155724133 65.5021247006 65.3924141247 65.3658832147 65.4188914546 65.4215662638 65.2387452497 64.9811460217 64.8507215839 64.7158253421 64.6940752797 64.5591928283 64.2621771502 64.0723340816 63.8602199036 63.8066569789 63.5256969567 63.2515904436 63.1519542962 63.0136447332 62.7876851034 62.6257185691 62.4426883476 62.2850423419 62.139861746 62.050623621 61.9984223453 61.8526996768 61.9004937847 61.8972895081 61.9181264003 61.883553765 62.0520051277 62.1851731097 62.3354595892 62.5071261725 62.5996349493 62.8746900461 63.0947070357 63.3096495799 63.4415017327 63.6918984181 63.902047692 64.0896547284 64.2639870987 64.3598825076 64.5535585118 64.7065681827 64.8528295943 64.9470234911 65.1379622841 65.3297431857 65.5380534575 65.7808948949 65.9868639342 66.3271505766 66.6968943642 67.1140020918 67.5202590421 68.0100061661 68.5943442877 69.2147426518 69.9035731236 70.5632793775 71.228484887 72.0039049848 72.8085930585 73.6336296699 74.2774551228 75.0802160409 75.8486837999 76.6128688844 77.3870502377 77.7908623609 78.339242686 78.8272125103 79.3988484504 79.4541453213 79.8386309997 79.971721157 79.9998394472 79.9344844066 79.812899508 79.6264664983 79.279012795 79.3174386242 79.7107351853 79.2197649512 78.1087360431 77.9208987769 78.307859026 78.0352958088 77.0802165342 75.3261481084 75.2166316189 75.2866252171 75.2283534472 74.4476648559 73.7040124371 72.721724869 71.8095832842 71.7219861209 71.7572083099 71.745851075 71.429002414 70.5302571297 70.168667621 69.6389411633 69.0663365777 68.742439652 68.7158461728 68.8379725243 68.8390415399 68.704136758 68.4221585977 68.2360737063 67.7778631716 67.5332318902 67.2037147701 67.0395577137 66.8661644766 66.7715375209 66.7332075897 66.7828717042 66.8228987928 66.8321635423 66.8553402221 66.7903085467 66.680305157 66.5346782209 66.355870224 66.2654372303 66.1265096423 66.0271405035 65.9911280437 65.944210915 65.9218700423 65.8991335972 65.8909631791 65.8910309343 65.8992567204 65.9090181078 65.9178561517 65.9252867709 65.9313654871 65.9352293692 65.9188619409 65.8938549532 65.8610467554 65.8228430601 65.7752380679 65.739070686 65.7111058603 65.692200646 65.683554289 65.6742805882 65.6735644877 65.6726747295 65.671594211 65.6703618867 65.6691758776 65.6686004519
65.5803779279 65.5812877614 65.5824367555 65.5832351825 65.5838378585 65.5843246729 65.5847285349 65.5850675746 65.5859555061 65.5859878091 65.5890323379 65.5995640888 65.6074777556 65.6151247775 65.6227705085 65.6282397452 65.6315123966 65.6284170115 65.6247338425 65.6202839001 65.6146975015 65.6070807268 65.5974069731 65.5973050087 65.6069656187 65.6146164407 65.6185468141 65.6226960786 65.6228303428 65.6325057261 65.6571166945 65.6853156402 65.7196398423 65.7235942708 65.7494961757 65.764453003 65.7629001243 65.7430020662 65.689170576 65.6462326878 65.6685264117 65.7013234289 65.7242593044 65.7357312421 65.7814210774 65.8276305705 65.8410549772 65.895269773 65.8652105205 65.8678183428 65.7704989575 65.6480399044 65.6384446332 65.7332150365 65.8208793703 65.8637923787 65.8639321187 65.8237341886 65.805670812 65.532719313 65.3890030945 65.3379144669 65.4875846473 65.5221202044 65.4590237689 65.187351635 64.894563703 64.6937279062 64.6854740054 64.6122383479 64.2582994907 63.9777697393 63.8424713681 63.7945787869 63.3883903661 63.0810620495 63.0983434645 62.7827349987 62.4237951466 62.5434404192 62.0779728391 62.1850145099 61.841013027 61.7770582487 61.7375466594 61.6896466922 61.5177175538 61.476161746 61.5138417736 61.7136775229 61.774585119 61.8002472381 61.922905138 62.1815067012 62.4748202404 62.5825377642 62.7349760569 62.9498742283 63.3189168554 63.5293316471 63.6475422655 63.8075813816 64.0417648246 64.2747598966 64.3586209414 64.4637559242 64.6036461126 64.8484963275 65.0132897472 65.1433850713 65.3163074624 65.5792765732 65.9309844209 66.248186749 66.5546501222 66.9121853091 67.467395987 68.0957955481 68.6531313134 69.1873555693 69.8185006178 70.6699888697 71.5985197683 72.2846609224 72.952704867 73.7657031084 74.8160923934 75.7001714598 76.3709261987 76.951329956 77.7064302903 78.6936824049 79.2271628931 79.5740399212 79.7196579659 80.2207105466 80.6240150813 80.813062354 80.292106571 81.2468263087 80.0905383191 81.4410782516 80.8778911414 79.3272416101 80.6609631534 80.8128770589 78.2704623191 77.9980508366 79.2370677725 79.5394483191 78.1758883534 75.5086385136 75.1475391765 76.3217704088 76.4216217629 75.9594858967 74.8652449819 73.1734451929 71.6360829397 71.9248160791 72.3761576751 72.5368764892 71.9631886666 71.4654930089 70.8331109528 69.9803763703 69.1794638957 68.649485504 68.6566771743 69.0409405419 69.0653449521 68.912061177 68.8144763161 68.3835919612 68.1062741201 67.6584746244 67.2527393279 67.0311666714 66.909793119 66.7734908148 66.7043534939 66.8099681375 66.9097880658 66.940444395 66.9210513101 66.8469629078 66.7251509207 66.6495143042 66.4678437078 66.2932315374 66.1321676723 66.0322753543 65.990200055 65.9495162174 65.927046805 65.9113993094 65.8906335157 65.8908568946 65.9116406452 65.9272083758 65.9381711515 65.946716055 65.9536929625 65.9594949539 65.9463080585 65.924117196 65.8911831926 65.8457704907 65.8021951256 65.7395240901 65.7110908108 65.6975230408 65.6787145585 65.6779950658 65.6771336858 65.6760886442 65.6747820107 65.6730145865 65.6703736776 65.668220749
65.5821625436 65.5825923055 65.5833300481 65.5839879959 65.5845200674 65.5849490601 65.58529932 65.5855885601 65.585736807 65.5869236756 65.5903686301 65.6002005495 65.6086759482 65.617662327 65.6254793536 65.637560363 65.6352278224 65.6324341716 65.6290613858 65.624950884 65.6199230213 65.6140254376 65.6086891439 65.6086430342 65.6139483524 65.6198530192 65.6230363351 65.6264478542 65.6301478019 65.640759412 65.6601851673 65.6909053138 65.729346477 65.7673127744 65.7948636157 65.8074249181 65.8029373018 65.7706179362 65.735228809 65.7066753624 65.7180506327 65.7396367663 65.7586323598 65.7748251344 65.7990503625 65.8500954928 65.8690592482 65.9375438222 65.9879599388 65.9378693147 65.8924871872 65.8088359481 65.7875170573 65.8465061889 65.8823894873 65.9025520808 65.9242398858 65.8910278528 65.8969790312 65.7162040155 65.583205983 65.5514509514 65.6146292817 65.6098104477 65.5361738518 65.2526022491 64.9679061627 64.8075734905 64.7394867311 64.7012418651 64.2340832304 63.958447077 63.713107146 63.5281581131 63.1204634902 62.6763556575 62.5118047868 62.1997375035 61.6471257992 61.5389440397 61.1664388565 60.8854923224 60.6977096251 60.4423581859 60.293224693 60.1371182537 60.1552456597 60.2085790002 60.077184953 59.90338099 59.9829951911 60.3208056777 60.462985732 60.4912404089 60.7459187544 61.2188625674 61.5811699443 61.7601549904 61.9451521248 62.228412392 62.6515959236 62.8473435691 62.9912229942 63.2075877942 63.5072164628 63.718486784 63.83784089 63.9285962593 64.1171178212 64.4233545506 64.6195298172 64.8114618265 65.1479271732 65.6368465707 66.1119509219 66.5402944685 67.1078012599 67.7805923254 68.605659168 69.2431529002 70.1928772981 71.1465753758 72.1835952699 73.1034322448 74.1708730421 75.5703741972 76.7107920898 77.6843744702 78.5210707625 80.0308488089 81.0122112169 81.6131496988 82.0316599843 82.9896675532 84.12494314 84.5650504556 84.8457006043 85.1004952351 85.4505882678 85.3296744498 85.0477123411 85.3402082573 84.798978744 84.1650387652 84.4418322719 83.9331827083 82.1630052719 82.0098277801 81.4321867722 80.964498476 80.5248489887 78.3077656404 77.6985393737 77.724125587 77.4355508779 76.7946944607 75.645679791 74.2148524806 73.3794538555 73.220043899 73.4123779854 73.1183447634 72.3803782967 71.7861601832 70.8135530413 70.2306468854 69.6297313025 69.2752541579 69.243227606 69.4761156631 69.3502920268 69.3385225566 68.9868714744 68.4949462325 68.1863162527 67.704633544 67.3552864715 67.1592418887 67.0027302514 66.9062938891 66.8764576085 66.9260079962 66.9943625468 67.0527443561 67.0431271977 66.9829174959 66.8547927357 66.6821990981 66.4853237466 66.2988680373 66.1510109219 66.0264941985 65.9987483972 65.9614543451 65.9422469605 65.9308990014 65.9198913951 65.9199918196 65.931052187 65.9423775174 65.951566619 65.9588480879 65.9646983331 65.9694707886 65.9734095331 65.9321258966 65.8992207486 65.8498236323 65.8039595164 65.7425638878 65.7046530488 65.6882824832 65.6801877774 65.6796254182 65.6789376635 65.6780837196 65.677002828 65.6756221808 65.6739899612 65.6729783796
65.583167636 65.5835813395 65.5842220307 65.584780203 65.5852334809 65.5855965934 65.5858884007 65.5861246656 65.5863174619 65.5899803471 65.594418483 65.6014243224 65.6106198691 65.6273858802 65.6355762682 65.6411964704 65.6391938442 65.6367538855 65.6337620608 65.630074526 65.6255319012 65.6200286573 65.614216829 65.614158811 65.6199531637 65.6254682851 65.6300226714 65.6331633292 65.6421926727 65.6576097359 65.6857932079 65.6967675577 65.7748364003 65.8168048395 65.8456553245 65.8323745103 65.8302085838 65.7994413956 65.7625407923 65.7302147871 65.7449442902 65.7789640279 65.8001000366 65.8244319054 65.8711324467 65.8746024551 65.9871316824 66.0778483454 66.0632265334 66.0746357932 66.0153744798 65.8678661111 65.8623766049 65.9469112364 66.0170494497 66.0624051139 65.9959882903 66.1225938453 66.1576515684 65.9544818026 65.713833763 65.653549744 65.7836829558 65.8462137099 65.6434407371 65.6219554298 65.212921784 64.8275424796 64.8241972953 64.890846422 64.4478819965 63.8242882019 63.4300856092 63.3197114687 62.8863280655 62.3228460686 61.8838851053 61.5580132546 60.951154222 60.6898554657 60.1424308553 59.8017936131 59.4572392642 59.1254458639 58.8516574363 58.5265634452 58.3238945261 58.1466050665 58.1313676702 58.0788422607 58.1616770408 58.3540089411 58.5052108209 58.7354269673 59.0605580737 59.4821784653 59.7635241347 60.1543574453 60.5625864699 60.9877717926 61.3868698128 61.6209313956 61.9134260239 62.1885822412 62.458324764 62.6164263546 62.805868292 62.9904421109 63.2086489731 63.4680824607 63.661160004 63.9538902421 64.3401932787 64.8542335835 65.3017573804 65.8549794917 66.6129284618 67.4983213941 68.4791327963 69.2090269422 70.3587445369 71.6665953721 73.0913396896 74.3280060113 75.5244996679 77.165202918 78.792664754 80.3343810382 81.3781791926 82.9328715031 84.4289235656 85.7332154399 86.8682983029 87.5111363962 88.4327569258 89.0235519105 89.5452366999 89.5032208071 89.756920737 90.1432212144 89.4274208059 90.1512243209 89.2332532119 88.0817721393 89.0094221264 87.9188260886 85.3504600272 85.0007644732 85.2708096648 84.3157952358 82.7453937985 80.4755350352 79.6739703061 79.9249821389 79.6431517397 77.7089264666 76.7751664134 75.3628863001 74.1995863221 74.2381769175 74.4057750622 74.2641725316 73.4616165148 72.1235839719 71.4807291742 70.5742260144 70.0544667874 69.628601112 69.6284330746 69.8352394609 69.7813381795 69.5989399859 69.4497779002 68.9307410431 68.2679917837 67.9309361739 67.5181175694 67.2611939763 67.1097503734 67.010121208 66.9792815494 67.0238451765 67.0802208172 67.1285921445 67.1122919522 67.1111350533 66.9977157568 66.8277761367 66.5029636533 66.3702078694 66.2007184395 66.0860377528 65.993094253 65.9651798529 65.9577807511 65.9489424343 65.9405259512 65.9406037651 65.94905972 65.9578843969 65.965263447 65.9711427552 65.9758018043 65.9795194091 65.9825128743 65.9627941175 65.925268318 65.8557444497 65.7964438919 65.7540925521 65.7222222352 65.6819727192 65.6816458393 65.6812379565 65.6807239186 65.6800700664 65.6792368013 65.678205209 65.6770866833 65.6764584533
65.5833546048 65.5842402136 65.5850568341 65.5855809434 65.5859656627 65.5862611854 65.5864913399 65.5866718363 65.5868142249 65.5903000679 65.5946436604 65.6086446058 65.6189434366 65.630051454 65.6463629242 65.6450195429 65.6433877865 65.6413501692 65.6387909463 65.6355501745 65.6313605463 65.6255561556 65.6168220498 65.6167077072 65.6254660345 65.6312993837 65.6355038192 65.6421327208 65.6487515913 65.6637440863 65.6895297202 65.7397752564 65.7879026593 65.8379924089 65.8701334191 65.8839575977 65.8603389553 65.8302401541 65.7881924819 65.7366340653 65.7695012564 65.8135277338 65.8456807224 65.8726680934 65.8668773406 66.0118912901 66.0278192462 66.1428201646 66.2302521609 66.2324274974 66.109074408 65.9236962219 65.9059728994 66.0303077719 66.104100962 66.1411492593 66.3140794566 66.241163122 66.3213347512 66.1494195041 65.8152071939 65.7050216797 65.931472986 66.1458149819 66.1102971897 65.9038593273 65.3333334512 64.8952318362 64.908230128 65.149965544 64.7087991641 63.9942695238 63.4488174117 63.4114184959 62.8945128172 62.1193664255 61.8442368453 61.4077632618 60.6126654733 60.4171536262 59.6734620098 59.4239108167 58.8362849642 58.4336991184 58.1196876834 57.8668344259 57.4218470286 57.0400699864 57.0920124039 57.2861344506 57.2933047316 57.1729152069 57.3506694596 57.8766728143 58.33389378 58.5308788875 58.7681470821 59.3636863097 59.9793651198 60.4243915285 60.6691726844 61.0030478938 61.4407719685 61.8018295758 61.9713040865 62.0806034786 62.3523164329 62.6271413719 62.8300102748 62.9607464297 63.1721276364 63.5680719099 64.0283151771 64.4353200424 64.8953540461 65.5574932757 66.3942446912 67.3849037895 68.3239675819 69.2854209384 70.4360083795 71.9251375959 73.4776050712 75.0637497326 76.4516869783 77.9097826911 79.9122773386 81.9395213857 83.4522116917 84.5020440361 86.1145460742 88.1405994716 89.8575549326 90.3963673433 90.5682926745 91.6976026754 92.6219180328 92.6558076631 91.8321224788 93.5093067986 91.0981245897 93.2746855443 92.2210839937 89.4972127443 92.310068654 91.382049687 87.4042455976 86.1911872776 87.5384989146 87.4181952809 85.3031441997 81.2285579308 80.5882590199 81.7420855263 81.2437552053 80.0603116424 78.3585842712 76.0155995667 74.4313265758 74.8151513453 75.022340043 74.9760573114 73.9625168853 73.2313982827 71.7297936763 70.808259973 70.2941603632 69.7727911917 69.7733536074 70.1989510582 70.2180512447 70.0744913082 69.651713193 69.0549066801 68.654598484 67.7979363369 67.5435951348 67.3111678974 67.2021522581 67.0737463679 67.0009279231 67.0942111506 67.1611922386 67.2047317575 67.2316540092 67.1717690006 67.0534989399 66.8638401832 66.6152439141 66.379431446 66.1737031903 66.0696743563 66.0130609576 65.9787935215 65.9725777647 65.9632865659 65.9475427438 65.9477594143 65.9634374927 65.9726706444 65.9788602722 65.9834327939 65.9869014021 65.9895560352 65.9915989768 65.9883305383 65.9325714033 65.8864756768 65.8259477382 65.7540487565 65.7126251138 65.6832692604 65.6830769478 65.6828196412 65.6824746459 65.6820102604 65.6813768504 65.6804626796 65.6788921683 65.6770258581
65.5853996994 65.5856710649 65.5862369269 65.5867544336 65.5871758232 65.5875183645 65.5877992901 65.5880314107 65.5882243969 65.5899062257 65.5948372003 65.6091984794 65.6206732158 65.6406934176 65.6573750563 65.6556779312 65.6536425149 65.6511888311 65.6482144901 65.6445857432 65.6401373972 65.6348317841 65.6299925201 65.6299522784 65.6347614619 65.6400751807 65.6445348939 65.6481729487 65.6535271737 65.6665760636 65.6989840983 65.7457202329 65.8472684181 65.8962175143 65.9285218499 65.9384160589 65.9120428216 65.8800315822 65.8433019189 65.8162783076 65.8309127144 65.8615929305 65.8780444557 65.898506477 65.9441107828 66.0405852872 66.1884595166 66.3518799526 66.3287504224 66.3527178891 66.2928791779 66.1428073253 66.1380500024 66.21322114 66.3510400996 66.3163675948 66.4201930676 66.6065260813 66.7774042244 66.5484473345 66.2734134349 66.2213227444 66.3127066837 66.3794021488 66.3311313319 66.1527280094 65.9456826958 65.4840647754 65.4609188013 65.4652299452 65.2138457334 64.3460176052 63.7577919979 63.6257873567 63.2316695773 62.1199912715 61.5015246186 60.9560698957 60.1302347314 59.4496982256 58.5419613214 57.952216082 57.2754431913 56.6930312176 56.1196023083 55.4971741659 55.0514576289 54.7132728711 54.5323305179 54.3209559118 54.3492892988 54.4673960364 54.7206182701 55.0668165084 55.5246505094 56.1827940357 56.6853710849 57.2728136419 57.9297031267 58.6131182521 59.1563879987 59.6901213031 60.1097576687 60.5077744903 60.8780280041 61.106670035 61.3000406455 61.4781994085 61.680420239 61.8932246877 62.1500927205 62.4427498737 62.8481714153 63.4528768439 64.0247785192 64.7169734188 65.6847848583 66.825543851 67.9912383082 69.4057784558 70.8510425089 72.6884444956 74.781344449 76.658038484 78.5430926604 81.10035749 83.6079424966 85.9167033001 88.3550076087 90.4433764451 92.8979464682 95.0470327712 96.8878874461 98.1056385437 99.6990257204 100.611729944 101.31253475 101.284947565 102.037865294 102.891574774 101.02774139 101.102016367 99.6893209684 98.0619227236 97.4370159617 95.6709890475 93.0156080363 92.1559008152 91.8122010678 90.049479088 87.4935936917 84.9917890218 84.7002278385 84.4261760989 82.6270733585 81.0659592375 78.7514098585 77.3423126158 76.5116703281 76.4710787634 76.3544909727 76.3526351869 75.1306376731 73.5605377342 72.1471202139 71.4681268745 70.6941598638 70.396160053 70.3938349225 70.5939299904 70.5336220345 70.3356757028 70.1592822264 69.4743141085 68.7232439357 68.085215812 67.5917942114 67.3768765923 67.2770629168 67.2071788007 67.1926842375 67.2225036149 67.2723806928 67.3161693249 67.3516149082 67.3072350804 67.200293814 66.9987152424 66.6291116328 66.3970242564 66.177370132 66.0463467029 66.0042989376 65.9990477366 65.9925332348 65.9847401208 65.9785245243 65.9785632568 65.9848415442 65.9926246932 65.9991214949 66.0043586342 66.008621869 66.012128078 66.0150344421 66.0174593077 65.9647165067 65.8807264557 65.8271545705 65.742148355 65.7009878836 65.6868346466 65.6865058892 65.6861112658 65.6856339443 65.6850507517 65.6843288035 65.6834344681 65.6824877447 65.6821647503
65.5857623985 65.5865513852 65.5871620514 65.5875908551 65.5879244659 65.5881885437 65.5883990834 65.5885680875 65.5887047271 65.5902398514 65.5991600438 65.60950163 65.6309810605 65.6527022264 65.6610629511 65.6597829999 65.6582112068 65.6562686568 65.6538539469 65.6508366488 65.6470400369 65.6421070375 65.6346981901 65.6345853683 65.6420335188 65.6469858678 65.6507938895 65.6538198146 65.6580090844 65.689571353 65.7053292965 65.793988544 65.8617547827 65.9645539776 65.9915229786 65.9729191176 65.9497891683 65.920816759 65.8827883577 65.8315107979 65.8652783587 65.9086643468 65.9304024029 65.9867794106 65.9994657297 66.1038477165 66.2656826217 66.4375578146 66.5597039797 66.5637210645 66.474734296 66.2499462018 66.2424752138 66.4258670822 66.4732001314 66.5714728025 66.9058544726 66.8629331664 67.0531003712 67.0336739211 66.5913944459 66.3660449339 66.743077508 66.8469640055 67.180815769 66.8150206871 66.6610105317 65.8200706218 65.8063878438 66.1328757235 66.2239894639 65.2050555685 64.0590433082 64.0205234374 63.5178500341 62.5705223584 61.5603335899 61.1532876839 59.9076182987 59.2112551313 58.1591810222 57.4988505169 56.4936086025 55.8432355474 55.1677062918 54.4777148031 53.8671316536 53.2918263154 53.0696152843 53.0267774376 52.9919160534 52.8997022232 53.1559980961 53.7845481438 54.3082446564 54.8278049498 55.4246042579 56.2728082561 57.1511264566 57.8282195111 58.4565883183 59.0809069579 59.6930930502 60.0879642837 60.4460761923 60.6929409114 60.9127874335 61.0905622878 61.2707463812 61.4189527982 61.6349864212 61.9917867559 62.3906828936 62.8957347658 63.5126340541 64.3395263382 65.3821071939 66.4817564398 67.8647770513 69.3912716762 71.1623820091 72.9843988619 75.3018125496 77.7585323479 80.1495850471 82.707684151 85.3392250915 88.7105617722 91.5545328594 93.8646310344 96.182290286 99.3785534489 102.140120863 103.512631366 104.538689175 105.646522546 107.333935481 107.851695171 105.811646613 108.561921729 104.290386687 108.458738837 106.191068526 101.087064595 103.850519149 101.842301535 96.6474436587 95.5002472953 96.6603299893 95.2369211777 90.2401545084 86.7330448946 86.1816605298 86.8332476079 85.3916213846 83.8896673933 80.3983947987 78.3963267349 76.9496787371 77.4228037387 77.6860491109 77.1597170443 75.8482136488 74.7883703536 72.8346745833 71.7095227631 71.1722927797 70.6523788469 70.6327349826 70.9368849007 71.0009684594 70.8346703214 70.3598294445 69.6530237141 68.7470215479 68.090960604 67.7647835225 67.4232371665 67.3429967596 67.2846290886 67.232063383 67.3093352667 67.3580651357 67.3929995242 67.4201861979 67.4416578975 67.3356353185 67.0311466071 66.776797204 66.3628174461 66.2213591941 66.0542100986 66.0159171373 66.0120948459 66.0071863046 66.0005460619 65.9891909634 65.9893778291 66.0006482762 66.0072570064 66.0121493187 66.0159598811 66.0189632108 66.0213503645 66.0232636603 66.024810137 65.9985442572 65.9147914371 65.8143790832 65.7508823377 65.701490583 65.6879335961 65.6877378704 65.6874936773 65.687186113 65.6867949808 65.6862922058 65.6856293422 65.6846155336 65.6831165922
65.5872771216 65.5877174361 65.5881347986 65.5884544105 65.58869586 65.5888773566 65.5890137785 65.58911657 65.5891943879 65.5892536933 65.5992972916 65.6180785235 65.6329460077 65.6558312018 65.6648982742 65.6640734139 65.6630129976 65.6616407524 65.6598566793 65.6575318066 65.6545048567 65.6505971323 65.6454475724 65.6453735624 65.6505411607 65.6544612457 65.6574982354 65.6598309241 65.6718658511 65.689388609 65.732281711 65.8033479591 65.9290299877 65.9916386166 66.0257139246 66.0108713323 65.9917538512 65.9672067154 65.9359271595 65.8968583299 65.9225039557 65.9569499102 65.9975926483 66.0172372758 66.0923166207 66.2553294259 66.4807469777 66.6856523207 66.8089671547 66.8096511834 66.66570963 66.4856472867 66.4688199862 66.6044131594 66.7094013418 66.807923796 67.0470660363 67.4246388991 67.4313789718 67.4687926349 67.0958882466 66.9265199815 67.2759970662 67.4260939362 67.5501133966 67.7911786387 67.4280607686 66.636609338 66.6959133992 67.016437583 66.8362939389 65.86022253 64.8443856316 64.8594269942 64.8892585657 63.2843594906 61.9044520822 61.814809287 60.0707779564 59.051740253 57.9210265269 56.7371326751 55.4704492288 54.671344613 53.5984944328 52.4405917003 51.6669709465 51.1446887437 50.6629646834 50.2408657228 50.1073281631 50.3554890054 50.6096303972 50.9190811939 51.7419336175 52.6813748218 53.5190326765 54.3502723268 55.3785757494 56.5966555686 57.5205152724 58.2267795071 58.8533452086 59.4978254428 59.9756248388 60.2595012477 60.3940363445 60.4601075505 60.6141839924 60.7990902484 60.941637959 61.0777504074 61.4981170209 62.1393745572 62.7913812234 63.4985306942 64.5548318271 66.1894651556 67.7734417593 69.3348909981 71.1969831143 74.030091532 76.983855893 79.6400746119 82.3438563742 85.8321088286 90.3729926632 93.888151361 97.1049100319 100.641694205 104.750906189 108.473215481 111.245987111 113.391855797 115.443755276 117.682711042 118.258174125 120.133509382 117.78325305 119.952373929 115.481583419 117.097946951 114.337162876 110.110123056 112.493268927 108.65914247 102.804049535 101.234104937 100.806190687 98.0204615996 94.0467151849 90.1080638 89.634538518 89.4972752665 88.4215589068 84.9797953305 81.7493006314 79.8215109209 78.4763795858 78.7857383769 78.7786935957 78.1030695469 77.1593325782 75.1033988639 73.2787334585 71.989532488 71.5254258257 71.1565719852 71.1573419865 71.3290431812 71.4679549694 71.3371812373 70.908907888 70.0866767608 69.1771949563 68.270082932 67.8112442403 67.546524942 67.4354228827 67.3989155647 67.3721662122 67.4131216637 67.4461802309 67.4712740744 67.490004789 67.5039259365 67.3867426262 67.1972608899 66.7476726532 66.4130267766 66.1730661911 66.0802897117 66.0275572917 66.0251537133 66.0218655979 66.0174386907 66.011578372 66.0116609354 66.0175027128 66.0219138664 66.0251891398 66.0275831056 66.0293243116 66.0305874328 66.0315031254 66.0321677946 65.9964670148 65.9191899497 65.8459766959 65.7507404313 65.6890633887 65.6890199641 65.6889543647 65.6888569569 65.6887143763 65.6885083637 65.6882143052 65.6878009022 65.687241505 65.6866645341
65.5889146325 65.588990418 65.5893697582 65.5897039575 65.5899772368 65.5901996887 65.5903809212 65.5905290184 65.5906505493 65.5907507763 65.597540797 65.6172222226 65.6438781864 65.6684705484 65.6773634097 65.6762021838 65.6747859781 65.673050398 65.6709153579 65.668283565 65.6650433165 65.6611097715 65.6575905733 65.6575746252 65.6610561707 65.6649978912 65.6682465792 65.6708853577 65.6730260441 65.6928196598 65.7424967908 65.8614689302 65.9483095982 66.0663382899 66.097942251 66.0806672869 66.0593539332 66.0331484968 66.0019464897 65.9824161591 65.9912208981 66.0225304835 66.0504724304 66.0706633581 66.1576201861 66.3198396256 66.5726384629 66.9937626785 67.0964891255 67.0843390287 66.9333782658 66.7828598177 66.7705198744 66.8650353169 66.9714497032 67.1574101998 67.7294235936 67.7873503711 68.1749382008 68.2112007479 67.8536266946 67.7904230171 67.9807456078 68.1871188635 68.9543394737 68.6694835677 68.7662816869 68.0672064097 68.0023233451 68.3252384564 68.9194730079 67.7616461345 66.5630810037 66.5273132981 66.5048948243 64.5379461398 63.337098449 62.7851417552 60.8073143244 59.8293954825 58.1239874532 56.6683990452 55.0503458228 53.8998473192 52.3881744121 50.8352039773 49.7874446169 49.2135886565 48.2823284089 47.5523850732 47.4039539485 47.6841774916 47.9594554911 48.350320969 49.1640208745 50.4865498561 51.8335704914 52.8029305585 54.2440388629 55.7616628349 57.1455347212 58.0572735828 59.0164770212 59.7732454814 60.3143368731 60.5461330013 60.6979354234 60.6850514562 60.6341796902 60.6424290847 60.6861186146 60.735260718 60.9579756751 61.5255299603 62.2313559797 62.9585772382 64.1656675645 65.75212244 67.7054921026 69.4871633745 72.0358813222 75.1194612462 78.8210808645 81.9435314382 85.9497934949 90.8592457072 96.0555183149 100.985491744 105.120439796 110.825559509 116.396099853 121.10207004 123.36834039 128.2738995 132.303725695 133.992143614 132.905973841 135.596043094 134.738337585 133.823997377 131.660404659 129.928985404 126.031233604 122.735394711 120.498368852 116.034522827 110.685156704 109.315462843 107.301281491 104.798655775 97.6007152085 94.2787544358 93.8719647468 93.1254100922 90.7538709714 88.2922819592 83.626612509 81.2636938235 80.3834503103 80.3314234258 80.3084970497 79.6010988538 77.907535639 76.4141832713 73.9853738695 72.6461926973 71.8974732222 71.6844765515 71.6718117467 71.8002646875 71.9483356594 71.8584077086 71.4380112777 70.2558904814 69.1414031836 68.3696749261 67.8005590347 67.634573573 67.5482504416 67.5181910436 67.5173923433 67.5277885918 67.5590134759 67.5856999638 67.6075093391 67.6252833086 67.5389824 67.1920137413 66.906407032 66.4285182465 66.1774189492 66.0503382228 66.0478628042 66.0448370618 66.0411421999 66.0367126515 66.0335605126 66.0335509866 66.0367719422 66.0411936588 66.0448793057 66.0478973543 66.0503665116 66.0523909192 66.0540564738 66.0554326353 66.0293305741 65.940331686 65.8289008708 65.7332669489 65.6923699337 65.6922234726 65.692047375 65.6918347922 65.6915772784 65.6912645244 65.6908843744 65.6904246675 65.6899245665 65.6900150885
65.5900298617 65.59019078 65.590427614 65.5906269054 65.5907838849 65.5909051276 65.590998257 65.5910699422 65.5911254847 65.5911689149 65.6008970177 65.6247105531 65.6567687084 65.6818316418 65.6813427409 65.6807258273 65.6799400526 65.6789313693 65.6776301414 65.6759513265 65.6738028532 65.6711251358 65.6682763045 65.668247772 65.6710881 65.673772281 65.6759272437 65.6776114347 65.6789168837 65.7139323943 65.7715385961 65.8674406986 66.0257973688 66.1473476471 66.1382368797 66.1265289513 66.1115021055 66.0924075947 66.069020003 66.0488708822 66.0603062403 66.084543605 66.1052171634 66.1705318312 66.2092261932 66.5427159532 66.8770685184 67.1359187337 67.3109323056 67.3277591158 67.2061199108 67.0742807201 67.0687025394 67.2069798981 67.2700976385 67.4520532198 67.9190673033 68.7182504945 69.093293187 69.1679619484 68.770269079 68.5845616437 68.8288144819 69.5725441996 69.5546546118 70.6567487339 70.199394748 69.6681265544 69.7110770976 70.7331123582 70.1942140809 70.7564524997 68.9956595478 69.2432424384 68.8836106927 66.9252764773 65.5602392427 65.6093712571 63.0440263543 61.5101824244 59.2451608537 57.6888067489 55.4103507713 53.7774755392 51.7938842396 50.1312583652 48.6705704164 47.3646192508 46.3297254957 45.6621984609 45.2802124888 45.3333645272 45.6844821133 46.4033080922 47.4083413263 48.6720624628 50.2890490538 52.0691876046 53.8525582985 56.0150149507 57.4688253235 58.9943846047 60.1318070015 61.2112584049 61.6018599978 61.860300729 61.8223044925 61.7265899052 61.3501454182 61.1362082968 60.9263706618 60.809699353 60.9358422044 61.2423209471 61.8412475394 62.7211284213 63.8301434419 65.54477228 67.5465552289 70.0456271142 72.6035266792 76.6185017813 80.4726813109 85.2210205312 90.4670946232 95.8374558353 101.744418709 108.703790092 115.519351961 121.767716337 129.552016075 135.252324655 141.294536672 146.253473593 150.417951356 152.477785671 154.085679261 154.953527502 153.040341593 152.32053934 148.369536792 147.378539382 141.199747052 135.581391358 133.55984051 126.309990767 120.412287281 117.450565218 116.109446599 108.529056838 103.594950176 98.3055302754 97.8796115011 96.4784333313 94.9678214604 89.568201752 86.2824439879 82.9432687385 81.8576852629 82.0115868913 81.9671616955 81.2840829534 79.5363969958 76.7424122576 74.1689243557 72.9266207337 72.4483396124 72.1318204294 72.1359923604 72.2347890882 72.3273802321 72.1525463934 71.6671515171 70.7477063599 69.4834010726 68.2999484663 67.9561255815 67.6617857835 67.6458040865 67.6274597992 67.6189065125 67.6339848841 67.6518666704 67.6666505001 67.6782075829 67.6870751643 67.6938462829 67.3634130174 66.8570981937 66.4755133052 66.2114754398 66.0601847645 66.0591253537 66.0577288371 66.0559191904 66.0536808115 66.0513900227 66.0514128739 66.0537112762 66.0559448967 66.0577489675 66.059140704 66.0601963673 66.060994115 66.0615992065 66.062061927 66.0624195727 65.9771890387 65.8414736304 65.7392451527 65.6931984449 65.693164547 65.6931192027 65.6930579923 65.6929749869 65.6928627469 65.6927132733 65.6925218584 65.6923013292 65.6921562943
65.5911151981 65.5915427119 65.5917708396 65.5919634197 65.5921335036 65.592279437 65.5924025514 65.592505494 65.5925912364 65.5926626147 65.5974267475 65.6250466653 65.6693138661 65.6953389637 65.6946281663 65.6937694859 65.6927296153 65.6914699915 65.6899486446 65.6881253514 65.6859731316 65.6834752898 65.6796683402 65.6795928133 65.6834407081 65.6859437362 65.6881001838 65.6899275194 65.6914524512 65.7078404565 65.8114614026 65.9305215328 66.1103362338 66.1835554953 66.2218006585 66.2087263939 66.1929141652 66.174037043 66.1513598674 66.1137167595 66.1408713764 66.1665339712 66.1865694993 66.2175022596 66.3575317439 66.5758967066 67.1928180371 67.5067721599 67.6692961611 67.6943614401 67.5725741741 67.4011875492 67.3883277581 67.5487526394 67.7374013924 68.0751496683 68.8274882023 69.7055969366 70.2863514191 70.0906377124 69.7983728375 69.492747116 70.1513049823 70.6953027078 71.7485178764 71.8773683089 72.7837983351 71.8141163957 72.0240785516 72.4665802687 74.2024593874 73.330551934 71.802815844 71.965233675 74.1088953602 71.9089410681 68.6588857543 69.5997059794 66.3530018861 63.5910492849 62.4016635186 59.0830480827 57.0772737665 54.9110546804 52.2008387868 49.7377039201 47.5633860102 45.9282662961 44.7248610529 43.6986489418 43.1614068481 42.8883394189 43.2444042116 44.2187908793 45.5419759522 47.3788250277 49.2382115748 51.349118486 53.9694826698 56.6253906154 59.3260657375 61.3817754908 62.3456503302 63.2699560474 64.3535172686 64.8312414332 63.9036276877 63.1796473071 62.7359525467 62.4869569302 61.8788073506 61.2207937628 61.0306965056 61.2523040185 61.7255817394 62.3463700158 63.628557187 65.4890976654 67.7722300824 70.5489174324 73.6232895211 77.8711548355 83.4972129622 89.5729714853 94.7802275847 101.962111254 110.592938981 120.822214733 129.743358017 135.777955145 144.188826001 154.808365627 166.543704228 169.542589433 172.333210124 177.400521495 183.830204648 184.533674873 174.506029274 178.666501072 165.307471866 168.091128615 159.539849336 149.99293059 149.928557387 141.892040238 128.511115113 126.192449499 123.030323051 117.595164741 107.286840469 103.115306577 102.377092933 101.332000577 97.3355818403 93.4602777501 87.5911189876 85.1186877765 83.3312460389 83.582749368 83.4161932883 83.0708643937 81.2631853725 78.1341744847 75.0926263022 73.6239984688 72.837722001 72.6148849776 72.6269871007 72.7597482232 72.8448053787 72.7008399201 72.2875832 71.3495377126 69.5322305045 68.5205722404 67.918611229 67.7806574394 67.7655871297 67.7464528279 67.7194182237 67.7547102092 67.7710804344 67.7856931202 67.7987399152 67.8100181789 67.7175967887 67.4874770574 66.9507470749 66.5332836293 66.1531848959 66.0807249551 66.0791904251 66.0774317548 66.0754864235 66.0734303457 66.0697983029 66.069884489 66.0734576831 66.0755118724 66.0774553341 66.0792112845 66.0807429355 66.0820528092 66.0831608643 66.0840931797 66.0848763242 65.9975650073 65.8420496689 65.718705182 65.6961770257 65.6960788892 65.6959630371 65.6958270786 65.6956693663 65.6954901507 65.6952937735 65.6950922027 65.6948725746 65.694279789
65.5927049952 65.5928332366 65.5928817865 65.5929227488 65.592959325 65.5929897539 65.5930141356 65.5930333588 65.5930484592 65.5930603617 65.5988075797 65.6327585087 65.6714160529 65.6988524343 65.6986570154 65.6984106121 65.6980974552 65.6976974728 65.6971866815 65.6965399159 65.6957376741 65.6947646433 65.6931366413 65.6931026268 65.6947508167 65.6957264754 65.6965307571 65.6971793919 65.6976917506 65.6980929797 65.7998565345 66.0077162702 66.2031899283 66.2716194327 66.2671329476 66.2613720458 66.2540117638 66.2447280453 66.2328623268 66.2115275757 66.227050167 66.2408954999 66.2509490137 66.285636752 66.4719867255 66.8361625491 67.3092319713 67.9193470623 68.0667589213 68.0073651899 67.9312085642 67.8137510835 67.8045454229 67.9205448982 68.1401340608 68.823950712 69.2403464997 70.352898695 71.1739908726 71.4764644425 71.0925650377 70.8789663156 71.464478164 72.2984104355 74.6516137113 75.057215192 76.0308861139 74.9420254927 75.4522691751 76.729171807 80.196529778 79.40015702 77.3584811206 77.8510762922 80.1639785888 80.7173752175 74.614789929 78.2262070284 74.6283048544 69.0953504248 69.6256518481 63.2018958324 61.2685491188 57.5774850129 53.9943555688 49.7200183213 47.1551589624 45.1849082128 43.2997031099 41.514000474 40.6768278546 40.8113840274 41.1592421374 41.7666407662 43.5751947148 46.3273720769 48.9315833432 51.6119500956 54.7849141386 59.4613353488 62.9306954704 65.4104011077 67.2128945249 68.2558299574 69.9612935842 69.4326060573 68.9538566549 66.7631553888 65.616760662 64.7023185272 63.6910542969 62.5433362875 61.6377722735 61.7318867929 61.9575297248 62.3317542539 63.3293845381 65.622668674 68.2848881086 71.1453049745 74.6613467826 80.6086101296 88.250473592 94.7635974288 102.029026023 110.757612688 124.477289903 136.237993712 146.80555115 157.544946392 171.166246867 188.998273246 197.578662077 207.370048697 210.230120638 218.867415875 221.335313116 226.418590213 211.948980552 221.364947272 197.893336594 202.522062934 188.275245742 172.4091172 173.739554687 155.504081176 142.526062908 139.757961488 135.228974695 128.307528881 115.015186044 109.080078409 107.773062164 106.62124339 102.350383598 97.7299435501 90.5303351523 86.6763574849 85.3829242349 85.4650307069 85.3057325566 84.2844485887 81.8828642811 78.2950245609 76.0691461386 74.1670332874 73.3275728498 73.182703626 73.1868373622 73.2261540817 73.2476571805 73.2665609057 72.8282281832 71.3374807105 69.8811879074 68.6717189292 68.0101254128 67.8669316952 67.8654635941 67.8635628655 67.8574022991 67.8646165751 67.8659377476 67.8675174444 67.8691361658 67.8705576957 67.8717221218 67.6683808086 67.1278736912 66.4486326186 66.0900620188 66.0900335282 66.0900063612 66.0899989919 66.0900573631 66.0902649807 66.0902444638 66.0902560019 66.0902612617 66.0900558872 66.0899988128 66.0900066412 66.0900339019 66.0900623554 66.0900862159 66.0901046122 66.0901182834 66.0009828492 65.8539957466 65.7208281272 65.6968981698 65.6969076387 65.6969194349 65.6969344829 65.6969543993 65.6969822377 65.6970239916 65.6970910528 65.6971931906 65.6972018616
65.594484346 65.5942462946 65.5942380545 65.5942670191 65.5943050075 65.5943452304 65.5943838571 65.5944189969 65.5944499771 65.5944768028 65.6013127281 65.6406105262 65.6838493775 65.7122528009 65.7119412151 65.7115716298 65.7111354741 65.7106262239 65.7100426386 65.7093936023 65.7087041121 65.7080422011 65.7084205189 65.7084515175 65.7080351181 65.7086953031 65.7093850493 65.7100347951 65.7106192923 65.7368745622 65.8372053845 66.0816702534 66.2238630921 66.3624210847 66.3574014219 66.3514667984 66.344560622 66.336699555 66.328569264 66.3335884907 66.3271035947 66.3337172037 66.3418719753 66.3941848933 66.650814957 67.1242377992 67.7007091193 68.1240825263 68.5005279274 68.4463641644 68.3820181307 68.3342188205 68.3349988638 68.3968094176 68.7454931406 69.0523094072 70.2167453601 71.8116846848 72.7480544147 73.0169503995 72.8411320067 72.7714591077 73.3312600015 74.852024365 75.8466519922 79.1314950097 80.3343302272 79.8706793386 79.7108545258 82.6529169331 83.7319261857 88.3009899673 86.865049121 87.960042168 89.8297944711 90.9545452642 88.0456632726 91.3903601598 90.1486155588 83.9295478947 82.2219371454 76.146850908 71.1598240891 64.9485432696 60.2580817729 53.8561084428 49.0883088 46.1860354704 43.1881686694 40.4233392523 39.1263129664 39.2037567911 39.5468729298 40.3289152485 42.7017304764 46.6213142556 50.6483884061 54.4584922265 60.3808670623 67.4649220494 73.0186356719 76.3916143804 79.945970785 82.0046556872 81.5720804803 81.1480426138 78.598463928 75.7838122689 72.3377955195 69.6337902922 67.9247526842 65.8428578131 64.0110261361 63.0340589296 62.9198766131 62.9244046976 63.7308165893 65.9537554647 69.0868653638 72.1626354788 77.1015569834 85.0126932252 94.3943384298 104.086713014 113.41079296 128.431638489 146.49956514 162.972991544 176.424376696 196.199319872 219.94200808 238.50256795 256.368935065 267.01394711 283.768249771 290.71938744 284.356730359 289.543322199 283.777247755 271.620141015 255.800995179 245.765443536 222.437949393 209.144431932 197.127065662 175.260754644 161.31258162 157.483757142 149.357247019 134.07249011 123.742614805 115.323806551 114.937461422 112.425103001 107.731678606 99.3399208857 93.8163698785 89.0261837071 87.733209024 87.6257940187 87.2305056032 86.1891798975 83.6425532434 79.9318269394 76.3443774068 74.8963054777 73.8983888309 73.8077740892 73.8010405754 73.7654843203 73.7759729044 73.7916264455 73.0728354152 71.8062480851 70.227856225 68.8903758262 68.1482152411 67.983876321 67.9835030382 67.9887255722 68.0071745624 67.985222388 67.983394766 67.9844021104 67.9864893762 67.9890114237 67.991586324 67.6374189632 67.2224516953 66.4970469542 66.1938127362 66.10922404 66.1089509168 66.1087687933 66.1087814462 66.1091798046 66.1115901299 66.1115203063 66.1091702967 66.1087794682 66.1087701531 66.1089539761 66.1092277782 66.1095294384 66.1098249533 66.1100979047 66.1103420273 66.0193055605 65.8653628117 65.7248531741 65.699499904 65.6994747517 65.69944835 65.6994227821 65.699402123 65.6993936757 65.699409578 65.6994689546 65.6996307634 65.7001991227
65.5957540431 65.5954610187 65.5953032445 65.595187332 65.5950951542 65.5950216436 65.5949628749 65.5949157212 65.5948777062 65.5948468817 65.5948217236 65.6482863135 65.6990035963 65.7156486259 65.7158576872 65.7161124366 65.7164241415 65.7168065976 65.7172764552 65.7178535542 65.7185614818 65.7194451317 65.7212480574 65.7212908544 65.7194582329 65.7185714079 65.7178616469 65.7172830477 65.7168119631 65.7164285106 65.8749750252 66.0735654237 66.3198897923 66.4026694249 66.404513139 66.4066774144 66.4091807639 66.4120250885 66.4157066345 66.431052094 66.4184862219 66.4131368623 66.4101522482 66.4075278569 66.6462732066 67.4274872004 68.1082902577 68.5792784145 68.8053070907 68.802716693 68.7964842453 68.8143299663 68.8188539455 68.7961276765 69.0864489144 69.9307887796 71.5100735573 73.2732821475 74.3856299495 74.7710216351 74.7255121935 74.733127315 75.4790308828 76.4785490748 79.7585896702 83.5392717536 84.5048922698 85.7460941262 85.6273960501 90.4849399698 93.6718618348 100.552410252 100.467638275 103.11929854 108.679937956 113.568048361 111.459578277 120.090183519 121.93866731 115.710251248 115.140356024 102.037496024 92.0261601953 83.1391345203 75.6737893454 64.4270910084 55.9974718097 49.4632408573 44.5971272606 41.4648655218 39.4683969791 38.9370325093 39.3772452978 40.7949422423 43.9277553266 48.3046098281 54.5857668391 62.5284484977 72.2296944626 84.1999140327 91.229953072 98.7012746071 106.101877019 107.216939512 103.434424482 99.0290476119 94.0044954783 89.5634315284 83.4814416183 77.7301387266 73.5557404252 70.694495155 67.3516704809 65.3126936989 64.0865338183 63.7193416652 64.154101398 66.1483929987 69.2800231049 73.9408765326 80.2866443666 89.7766628102 100.569789045 114.464238833 131.319491921 150.818549637 175.558498574 194.49572732 218.227134222 247.655952775 275.766836987 297.574413181 318.613500814 340.516142677 362.284233591 373.675247512 365.924231332 362.247651153 362.830747778 338.034087631 322.260402601 303.854182441 263.155176929 250.75225938 232.735775679 201.675282177 182.467752308 176.471741685 164.861319079 146.762353411 133.084015005 122.646336971 121.923416801 117.1846261 113.2118252 103.886853612 94.9858359423 91.3859948285 89.8426318987 89.6540306171 89.1500117335 88.1499975634 85.5671082685 81.3689003323 77.3313442846 75.0184001494 74.2194846369 74.3121143758 74.3041039601 74.2163423534 74.1662935871 74.1269512301 73.5913282338 72.4528559996 70.5568536409 68.7050826533 68.0552174074 68.0647343448 68.0768209575 68.0940482227 68.114297478 68.0867260412 68.0721801804 68.0610926295 68.0523387652 68.0454058044 68.0398942862 67.8150568498 67.1334416633 66.542447289 66.1167835094 66.1176846964 66.1188202866 66.1202576236 66.122082719 66.1244231985 66.1281984985 66.1281276145 66.1243891272 66.1220567512 66.1202372008 66.1188041789 66.117671943 66.1167733605 66.1160561991 66.1154800568 66.1150138189 66.0574779746 65.8757645206 65.7000698969 65.7001281912 65.7002000659 65.700289381 65.700401177 65.7005420117 65.7007203671 65.7009471185 65.7012362629 65.7016215719 65.702195076
65.5966504398 65.5965880303 65.5963155598 65.5960660848 65.5958528874 65.595672981 65.5955225663 65.5953975573 65.5952939419 65.5952080506 65.6039873176 65.6486071859 65.7109310617 65.7189887432 65.7197032389 65.7205626972 65.7215971241 65.7228394423 65.7243230361 65.7260778858 65.7281260553 65.7304588584 65.7322216993 65.7322216043 65.7304894784 65.7281539269 65.726101955 65.724343507 65.7228566536 65.7601893394 65.8780861199 66.1416908655 66.4080671973 66.4424415189 66.4510569708 66.4612283775 66.4730637058 66.4865619344 66.501039198 66.5033581367 66.5050288956 66.4917140787 66.4776752041 66.5600451203 66.8034799662 67.4686477026 68.5311841859 69.0361874193 69.117688128 69.1646205391 69.2186271752 69.2447442422 69.242539455 69.3212766824 69.6967302615 70.8682508396 72.8966687835 74.9726557407 76.1890726227 76.3322854628 76.4322242723 76.4388522637 77.0415277411 79.5786461277 84.2711861115 89.0337085298 90.4470879932 90.7150763274 92.0268181289 95.2899456665 106.547996482 110.989956544 112.889947079 116.246548441 137.250095912 144.756502307 142.436685963 162.900111421 169.668367946 157.256154134 171.862574757 145.443853906 145.265445466 127.251899518 101.881573928 84.9096903211 69.8715749529 57.4679459685 48.6393268802 43.7250140441 40.7514445711 40.1822560073 40.6052099648 42.0474373529 46.2383224154 52.6314539969 63.0771804825 76.4612468814 91.329949369 108.079108099 129.832887571 143.883374524 145.24629254 148.394690664 142.819261958 133.175944036 119.180774536 107.771370821 96.0704378598 89.2869752415 81.8913230088 75.3412499522 70.8314132687 67.8919889776 65.4525684624 64.0796894246 63.8908987801 65.7166873689 69.1472999359 74.8149938057 82.3355367259 94.4728251703 109.601797498 130.278176442 153.623841222 177.058049772 205.692775529 238.352596877 267.764830893 291.798485105 327.338769018 359.062467123 381.320139642 396.694776518 406.936948362 413.868250374 417.150017559 411.676323074 402.785280935 390.759197918 368.533500683 352.947472705 308.087037881 286.362874333 266.726983728 230.296440564 197.495497151 190.613901028 176.307394678 159.87518246 138.067580836 129.233929938 126.995701083 123.164857958 118.688297757 108.366643232 98.0829324881 92.9072170497 91.5050773013 91.3097042712 90.6790184693 89.9562136655 87.2552002948 82.7378453402 78.2656472724 75.6401129138 74.8729080964 74.732366008 74.7315131192 74.6436365499 74.5387319168 74.3855611212 74.0752516013 72.8932101404 70.5993427721 68.8752624689 68.3414376159 68.1411611687 68.1644430094 68.1888635832 68.1926057479 68.1808222154 68.1557686604 68.1337309434 68.1150590653 68.0993992265 68.0863640507 67.9188137255 67.2105763574 66.5463390505 66.2243621552 66.1257513174 66.1281741882 66.1310755923 66.1345196776 66.1385379371 66.1419610235 66.1419469495 66.1384842371 66.1344724259 66.1310355864 66.1281406524 66.1257234166 66.1237174354 66.1220580378 66.1206859356 66.1195493441 66.0737011948 65.8761920265 65.7289655005 65.7007347041 65.7008970754 65.7010934187 65.7013310629 65.7016182606 65.7019638392 65.7023767222 65.702865186 65.7034109363 65.7036016963
65.5978599203 65.5976560084 65.5972507658 65.5968797442 65.5965565452 65.5962799191 65.5960462105 65.5958503805 65.5956869501 65.5955506626 65.6161187472 65.6557485447 65.7082811308 65.7202478335 65.7233684018 65.7247886007 65.7264925555 65.7285320911 65.7309579521 65.7338112914 65.7371131609 65.7408404366 65.7441724532 65.7441936687 65.7408895828 65.7371578497 65.7338502859 65.7309913446 65.728560296 65.8208230006 65.9142124335 66.2362124843 66.4174495423 66.4741022731 66.495452411 66.5132580837 66.5340537198 66.5578603288 66.5839108601 66.5976614919 66.5922546026 66.5669884911 66.6064437883 66.7683228954 67.0598092293 67.7704701291 68.6126197179 69.2441776969 69.4060262471 69.5186531795 69.6352810589 69.7265000657 69.7558310944 69.9291960158 70.3969370678 71.8065996285 74.2904403248 76.6735072215 77.4736881743 77.970498386 78.5540605237 78.4157800302 79.4523411683 82.6468062027 89.0975942086 92.8490315199 96.6606071903 97.624513949 99.3844897063 105.827167649 121.619671213 129.403493755 133.280964176 138.971938808 172.680806577 193.014597809 181.250935269 216.27343373 244.729068418 213.788694624 257.372453363 212.402678063 221.991293265 208.534124937 155.580845339 111.432634093 88.6858599744 73.4096810552 56.2448849988 46.556868392 43.31836315 43.1525202748 43.4606453043 44.2823499142 48.9006205946 60.3877713548 77.9070850797 93.6128558681 116.954227907 154.831686283 192.564208993 211.773660207 210.209887218 201.196292232 198.150440022 191.168408953 158.394839528 129.949152932 113.81671277 102.59858364 93.0053450377 82.7679577441 74.9631123852 69.7796953825 66.1377031304 63.9370818489 63.0268686318 64.3299461273 68.2182472282 73.7090099833 82.8656734579 98.6338658422 123.046529154 152.095113623 176.457430063 209.960125266 253.643848665 288.905992629 315.465208479 344.848311473 388.442840679 420.095427577 428.418117319 433.382654716 437.367761051 437.497511331 437.369283323 433.531710967 437.299366031 424.781562834 433.435327192 393.266678287 351.972503609 329.50483907 307.14921533 258.192542458 217.109457317 209.800269742 192.18714598 172.40546377 147.326377092 135.45760536 133.145648883 128.863318707 121.421948051 112.525632443 101.545359251 95.07110757 93.293987299 93.3206286624 92.0586289944 90.8888826392 88.8003618803 83.9780160024 79.1041019428 76.5675708459 75.5626395166 75.2458288584 75.1862937446 75.0387262338 74.883024556 74.6664865903 74.1325366998 72.7483741636 70.8961882489 69.3274523569 68.6733447454 68.343879743 68.2445530696 68.2800748682 68.2929489814 68.267805829 68.2322455746 68.2004560279 68.1729186459 68.1494377213 68.0819394962 67.8620180455 67.3989032795 66.5868120921 66.3491270972 66.1332003497 66.1367649559 66.1409601522 66.1458270065 66.1513578583 66.1566309092 66.1565865309 66.1512844016 66.1457611016 66.1409028803 66.1367159873 66.1331589908 66.1301673132 66.1276655141 66.1255778815 66.1086303946 66.052119868 65.8853244649 65.7614320992 65.7013041531 65.7015474694 65.7018388727 65.7021875952 65.7026032855 65.7030949288 65.7036693548 65.7043297547 65.7050585182 65.7054857662
65.5992332465 65.5986301995 65.5980848731 65.59760612 65.5971859173 65.5968246853 65.59651864 65.5962615085 65.5960462559 65.6040166786 65.6280782214 65.6620181647 65.7042055562 65.7202402873 65.7267530841 65.7286670058 65.7309598517 65.7337026077 65.7369656517 65.7408049013 65.7452416722 65.7502650916 65.7564505478 65.756545076 65.7503328708 65.7453016285 65.7408573582 65.7370105796 65.7674568576 65.825954512 65.9917796652 66.2995347984 66.4373525265 66.4980660495 66.5342612217 66.5608987677 66.5899516468 66.6233574272 66.6612820007 66.7092397816 66.6768818915 66.6731582745 66.675877309 66.8169301652 67.3342944854 68.0492760624 68.9861837693 69.4328713384 69.6673096399 69.8499940203 70.0288185414 70.2783730595 70.3178939369 70.5032062182 70.9129925684 72.0398844555 74.5556142317 77.4207328343 78.6591671762 79.5305561461 80.8117372745 80.84943076 81.8527887093 86.1324796958 91.2490217628 98.7884847686 102.229505952 106.290599873 106.922133401 117.137793152 130.077774339 149.974190395 162.959245227 169.296498311 203.077177132 248.661256669 270.593234722 290.914157064 342.705685556 431.099982865 364.650783357 438.331495818 383.828261603 365.156146528 316.480675395 197.082006042 129.363843086 100.635175609 70.3696782819 54.9514998803 50.6476920945 50.3766421588 50.2580242633 50.4358696639 56.2591360392 73.2578611224 100.27565222 126.917420354 182.366088126 268.08994446 314.830137588 342.179529564 379.143270713 367.896819434 305.545274362 271.050374985 229.286263621 180.018792112 142.183610859 123.237944652 107.090815317 93.2750644219 80.0379056704 70.6073628872 65.330621804 61.5504257072 58.6532686861 59.0585656104 63.2240862978 70.0524305461 80.1663567005 104.223382721 140.340953296 178.784649748 215.777465174 275.430127812 324.578552936 340.792123424 357.445949312 386.161655452 433.595564354 427.687330864 432.425591361 437.481514368 438.886102993 437.797172065 439.0464 436.288337757 439.03288763 434.727948107 438.848446779 416.644525894 388.01665501 386.211305291 336.014724705 275.499191603 237.165409602 229.897205364 206.463275664 178.288926135 155.537033039 140.855162402 139.683427669 132.802578376 126.055701143 113.126854303 104.301583492 97.3930623632 95.1406262412 95.2193650341 93.2344176736 91.8593367784 88.9450507681 83.600198441 79.3016030025 77.0142648436 76.189279849 75.750749939 75.6869465536 75.3905872154 75.1513627447 74.8298648437 74.2987007837 73.0915477071 71.1502391975 69.7853981894 68.7280003573 68.4152959999 68.3848879668 68.3639446955 68.4021380905 68.3453281154 68.2998284006 68.2595718215 68.2243492958 68.1656323575 68.0629934706 67.8806303848 67.4649483182 66.7500916022 66.3572945882 66.2155646856 66.1443730836 66.1496767933 66.155766003 66.1626213732 66.1710096714 66.1708831221 66.1625292606 66.155684087 66.1496046922 66.1443109318 66.1397828597 66.1359538646 66.1327356451 66.1300365568 66.0949230889 66.0282196568 65.892976887 65.7939269503 65.7249248247 65.7021356415 65.7025073436 65.7029495141 65.7034732995 65.7040882812 65.704799675 65.7056057469 65.7065186099 65.7075166286
65.6001054232 65.599432776 65.5987941261 65.5982236674 65.5977218428 65.5972910776 65.596926532 65.5966201017 65.5963630509 65.6050942475 65.6310090107 65.6667646259 65.7050194998 65.7219328198 65.7284625257 65.7320908854 65.7348652169 65.7381841584 65.7421410321 65.746814508 65.7522330761 65.7583476298 65.7656691175 65.7657785718 65.7584295616 65.7523063163 65.7468784944 65.766625667 65.8108003737 65.9007847368 66.1035384338 66.2651341414 66.4300913189 66.5129780857 66.5670679465 66.6023077158 66.6385350416 66.6804331287 66.7278651695 66.7866197015 66.7471117978 66.7379917754 66.813986706 67.0660423458 67.4924780567 68.4259458012 69.0842880386 69.554607474 69.886339173 70.1363936572 70.4864781038 70.739840672 70.7636106579 70.9241986084 71.6561283718 73.5640061268 75.8903963394 78.1009594948 79.6640284956 80.901363543 82.7360493368 83.0723296869 84.8308569363 88.8327890118 95.5379062256 102.301412771 107.545109183 114.482644861 116.518507627 127.302416941 145.916641009 166.372018727 193.438111233 201.13290793 239.322889347 310.92879044 388.57728665 371.144936856 401.167249594 430.533268079 419.392817363 432.399445252 416.655294825 409.252142052 403.089756131 384.984509714 209.871392042 130.74431 88.2973579238 70.5930845453 68.7320434331 65.8021976314 63.1771019644 62.3038172865 64.0344666914 84.4524177503 121.800389715 187.639873693 306.204322392 387.673173989 391.087578159 406.275435938 420.974884964 421.948374028 404.966440416 357.556185673 320.089517134 239.173636208 177.416010677 140.722829263 115.996709565 97.6386238647 80.1838567774 66.8402570693 59.3062602392 52.4173199709 47.3321117572 47.1310771447 52.5168916688 60.4452515657 72.354402616 100.506395145 153.586096489 209.762782452 277.726923457 353.188867988 354.53601903 329.376397691 317.747475438 303.23547657 318.887714214 375.961096882 406.287057245 421.661747461 428.786317887 427.039831396 426.783438059 429.42185125 437.488200622 430.8339862 438.254182742 429.102843886 413.531952528 417.124602137 360.880141278 293.905647462 253.726417881 245.286983634 214.48095463 187.894072267 162.952266163 147.345147788 144.846787796 135.976758274 128.387945514 117.24359278 106.206418777 99.9598154849 96.8491435037 96.6003581292 94.2582807582 92.3647349642 89.4382054826 85.25751094 81.0224459981 77.9273595435 76.536303618 76.1138504642 76.0869354492 75.8555485001 75.3578716161 74.9283467542 74.2348231489 73.166663473 71.7474071665 69.943207845 69.092910487 68.6222999252 68.4485051842 68.4303648269 68.4715654663 68.4094927772 68.3568262062 68.3094735761 68.2679049712 68.1988247057 68.0270576388 67.7981511455 67.3384089406 66.9484562338 66.498718296 66.3045242801 66.2028863551 66.1570057119 66.1641106718 66.1720189272 66.1812465723 66.181112899 66.1719139313 66.1640153962 66.1569214067 66.1507276442 66.1454256136 66.140935496 66.1371511267 66.1225778852 66.0962754797 66.0283893889 65.8987435837 65.7981926803 65.7266844308 65.7026490705 65.7030838659 65.7035990497 65.7042075903 65.704920752 65.7057437862 65.7066697445 65.7076927506 65.708735629
65.6004904346 65.6000453543 65.5993550617 65.5987101135 65.5981459537 65.5976648949 65.5972590283 65.5969177394 65.6037748014 65.6152820022 65.6444381946 65.6771819421 65.6986744789 65.7197105983 65.73056178 65.734975951 65.7380997266 65.7418333638 65.7462944832 65.751596559 65.7578003909 65.7647904638 65.7715676131 65.7716344548 65.7648821296 65.7578845693 65.7516694696 65.7736134661 65.8236252573 65.9709482598 66.1125705637 66.2696887603 66.4101841749 66.5277978859 66.5874662948 66.6337083375 66.6775410999 66.7264372726 66.7807211535 66.8245757693 66.8156389738 66.8346125546 66.9784898616 67.2927937732 67.807638022 68.4664860595 69.1253592426 69.6574475837 70.0340075829 70.3620567349 70.8985746696 71.0373292801 71.120615396 71.4307484407 72.401353783 73.8611987672 76.1728738339 78.511243232 80.406860681 82.0139445166 84.3619129952 84.4904072399 86.1146780873 90.1347396551 97.0776357099 104.672457878 111.549301207 120.233526908 121.929527708 132.511568817 153.391052804 186.85362962 213.520415157 220.59824481 267.753316201 349.914468662 410.346740177 409.320067166 422.723284905 434.918741019 430.775752394 431.395334868 413.371329923 408.881428488 401.725380052 376.217839056 246.273026872 150.085621012 99.0681404465 91.0498810412 98.6823691737 94.0618901284 83.4649286907 72.555118435 63.1495432944 79.6116992425 133.178407486 222.099360214 346.252877366 406.190097295 426.166301503 431.156745138 429.628136325 423.843048355 421.130084962 389.532577155 339.671993819 253.078825654 188.752603857 147.067860926 114.162364012 89.7301626596 70.4063409921 58.2112475728 47.7790702319 40.3328892138 35.6715568655 34.2675723195 38.5481742145 46.8645105355 60.5582229607 91.4025646776 148.597275092 239.732643256 325.454636106 369.161936535 308.421031945 252.911992454 214.531107084 190.625238794 216.477436956 276.630822391 314.430032298 335.261909106 333.922040692 324.9087958 353.632596592 371.149328596 412.847215013 413.723094727 433.19600071 426.697340209 422.564240097 415.939597465 372.613556835 304.961640657 261.494224505 252.535868189 226.513357333 191.488805645 165.67110492 150.597607617 148.022432472 138.235798671 129.020252923 118.214912682 107.255959366 100.890298275 97.8987539885 97.8748943386 94.9072418599 92.5721897424 89.6360030803 85.4660812458 81.3453755816 78.8448005006 77.0833076987 76.4356126702 76.3226118857 76.2730381821 75.4913906314 74.9347648805 74.2862278926 73.1657329194 71.7845204049 70.4523348005 69.4516439338 68.8543690877 68.5769222309 68.5059301386 68.504362224 68.4590402089 68.4015304587 68.3485276033 68.2813632083 68.1855161386 68.0346971384 67.6962778478 67.3424688015 66.9654943856 66.6405804963 66.3224319742 66.2122906483 66.1627258813 66.1706207738 66.1793518001 66.1876173437 66.1875365442 66.1792384753 66.1705147388 66.1626324593 66.1557875301 66.1499483652 66.1450037348 66.1408254632 66.1247244455 66.0778629655 66.0004702072 65.932254972 65.8334614797 65.7535584533 65.7220130233 65.703557447 65.7041223848 65.7047885066 65.7055701266 65.7064760393 65.7074978016 65.7085753939 65.7092596377
65.6009692856 65.6004954574 65.5997379884 65.5990403061 65.5984414426 65.5979353315 65.5975088863 65.5971492076 65.6044087473 65.6264388738 65.6457581121 65.6775428358 65.698557463 65.7155050352 65.7298399394 65.7361671317 65.7405908044 65.7445460917 65.7492681729 65.7549091081 65.7616069813 65.7693207355 65.7767517019 65.7768223943 65.769422622 65.7616988506 65.7733298358 65.8094688739 65.8774554591 65.9831984085 66.12179386 66.2734826727 66.4113672716 66.5183265398 66.5948870788 66.6524778297 66.7037461391 66.7583235663 66.8380052663 66.8715193108 66.8734977031 66.9282417546 67.0323454741 67.3581526464 67.8687732816 68.5058756231 69.1524957538 69.6524018352 70.1175488824 70.4997638739 71.1367897866 71.3179067823 71.3802388884 71.6713855571 72.6596736131 74.1391533036 76.409156078 78.7874515102 80.8582298566 82.7581576927 85.3591662637 85.4708204277 87.1075548103 91.5446434947 98.2934559249 106.435376851 119.591003506 123.842014665 125.479819813 136.491033145 159.017482761 211.346802992 225.443758754 232.287030142 287.911089499 372.227469397 426.831205308 426.892117053 433.041651878 438.723051814 427.368190952 423.257958594 375.078998943 355.483919262 359.24953037 380.843455579 225.174423868 147.383299181 104.796536007 105.92179213 124.614563893 118.657698545 100.847225082 77.6405296676 57.6480404644 69.0936651916 116.726157238 196.537705582 368.037381515 400.727396413 408.295555314 406.417382752 404.877241236 404.146061825 383.593575016 351.861432747 327.42301459 242.517060893 177.700292419 131.319144076 99.5255961919 78.7803968112 59.509524968 43.1826867461 33.3045202746 28.5079758511 24.4700638732 23.4231947552 25.1194523235 32.4578907047 46.9368221258 76.530390701 152.076050941 258.253210698 356.006880635 386.13007583 250.861691462 153.653280064 106.044825965 97.1337906912 120.209319914 186.800786833 208.093357746 229.029236964 244.643636632 226.686792974 257.36306263 298.133122804 385.741503214 385.525770549 430.749649158 423.23834737 416.006001129 415.242492648 377.669557293 312.956626842 262.55259403 254.927515442 241.598708716 193.869840069 167.575107679 152.050530263 149.53354849 144.821811005 129.904671088 118.958416954 108.987140369 101.603055328 98.5248032314 98.5052449304 95.3516472893 92.7795884271 89.7207971244 85.6428846409 81.6652690556 79.1319696007 77.3070238321 76.6590098413 76.564846055 76.470219767 75.580714253 74.9634324939 74.0737652407 73.1531254727 71.8248148338 70.5456432014 69.5516548812 68.9280627758 68.7086186845 68.5716333853 68.5509297764 68.526167472 68.4316864671 68.3618272915 68.275329355 68.1501273587 67.9602457246 67.6880010791 67.3454210461 66.9831756996 66.6652145595 66.4306636262 66.2829554838 66.2045355002 66.1749772093 66.1844164547 66.193312294 66.19322706 66.1842932336 66.1748636943 66.1665069909 66.1593436021 66.1532567934 66.1480935743 66.1344326484 66.1118428076 66.0554895177 65.9991167155 65.9327956276 65.8369318252 65.7827525411 65.7235041995 65.7039219957 65.7045110318 65.7052030514 65.7060155234 65.7069646857 65.7080539745 65.7092174959 65.709942603
65.601462934 65.6007305223 65.5998886571 65.5991878612 65.5985974371 65.5980979898 65.5976741447 65.6034390623 65.6132768941 65.627895617 65.6470938528 65.6779118381 65.6983420044 65.7151853287 65.7274970767 65.7373635562 65.7423157252 65.7462825151 65.7509778853 65.7565583465 65.7632212917 65.771237356 65.7808709572 65.7809897672 65.7713493371 65.7759010766 65.7994130488 65.8483046802 65.8897897493 65.9962736072 66.1310704571 66.2763349889 66.4099522896 66.5175664822 66.5982513856 66.6604457486 66.7150741674 66.7713949316 66.861242194 66.9118313599 66.9018592097 66.9704528624 67.1775463713 67.4314859259 67.9348453128 68.5426955262 69.0745601055 69.6554074787 70.135421863 70.5339375231 71.2761243402 71.4872961582 71.5380197605 71.8901586386 72.9499912508 74.4207397336 76.5855845978 78.7473362563 80.9651731258 83.8784360218 86.0633008091 86.1376619525 87.9742103869 92.5420488617 99.0894700261 111.180420663 121.447937958 126.437570214 127.833967162 145.39270622 180.688934433 216.815203407 233.006352939 240.140118558 301.923897316 376.7787729 436.356613698 427.382158001 428.560738645 438.563780532 415.423070478 436.294882812 232.356104879 182.131497529 86.1456828455 422.020225137 166.703417383 126.89697614 108.032434903 147.727473519 190.654064574 132.922159923 109.126651524 82.0001512964 36.0610101918 42.0450944096 79.2961164533 126.801976193 259.57656405 373.668492949 350.388158888 350.090937439 323.969991504 339.585739979 269.796980876 234.793717914 200.219190241 161.651399777 132.826157279 91.9465421523 71.6581463231 51.1959932403 33.4940925136 23.4328190985 19.5227547025 14.6857654965 11.0671050302 13.0964105057 16.0545180022 28.9189778631 31.3879795733 52.7650522912 135.436515351 267.830111665 379.361354466 393.987220982 95.2801898554 68.9186846856 35.428699397 20.9195730464 40.0500371311 123.867808146 116.029842544 68.7966067513 57.2074022753 53.083326955 113.823697429 151.743293518 225.542599766 335.954500996 427.465324936 410.8618764 402.381864857 397.571872123 373.037885502 317.423813072 261.373303707 254.777801691 243.06365398 209.044623425 173.417533637 152.494742105 150.323388561 145.714865653 134.060852785 119.450666431 109.990681161 102.452191524 98.6948373298 98.8918588425 96.3859204605 92.6541701391 89.1898116699 85.7820326984 82.0309016009 79.5282061215 77.5734534682 76.749254556 76.6802704061 76.5803160592 75.5041450755 74.9192632908 74.0190939456 72.8633150575 71.867523035 70.6528695956 69.6729487631 69.1854436561 68.7704580826 68.6000047593 68.5856487388 68.5495506782 68.4353054935 68.369390319 68.2756119105 68.1414538377 67.9454179135 67.6760945766 67.3471202255 67.0013261949 66.6920470645 66.4554917894 66.364069491 66.2562152145 66.2022900263 66.1864477557 66.1978444043 66.1977056 66.1863135719 66.1765960687 66.1683509801 66.1613258504 66.1553280759 66.1501973866 66.1351434604 66.095301388 66.0530643821 65.997612 65.9334065556 65.8404627423 65.7865735583 65.7466266198 65.7202062404 65.7047641446 65.7054471611 65.7062435411 65.7071733927 65.7082610168 65.7095444251 65.7106419927
65.6007102236 65.6003673962 65.599744708 65.5991472167 65.598618973 65.5981588097 65.6027139361 65.6041139764 65.6223316227 65.6382323778 65.6575039353 65.678278171 65.6980329571 65.7146289978 65.7271603929 65.7359997847 65.7422354254 65.7470927573 65.7514792205 65.7565598506 65.7624044998 65.7689178585 65.7747306107 65.7747803925 65.7782658115 65.7788420793 65.8075882982 65.86107575 65.9430050045 66.0522884221 66.1402568211 66.2781850392 66.4060098703 66.5119169701 66.5823925334 66.6513688224 66.7083894259 66.7613624277 66.8955982419 66.9066855413 66.9553295014 67.027287281 67.2611092233 67.6298320972 68.0064774072 68.5760556931 69.0687771503 69.6185741482 70.0845031706 70.4607402909 71.3352758857 71.6918841339 71.7840191269 72.3851015016 73.3366348151 74.9425131432 76.7005755947 78.6442584372 80.6722771244 84.8168382582 86.2711231573 87.3593257321 89.3970680009 93.7304426665 99.4655259261 115.504128281 124.495249132 128.681928295 132.7652158 159.954770126 184.941732335 218.307205603 236.601203371 256.419423002 311.764602008 370.94446452 409.454477858 419.934362328 427.299284545 415.780780213 399.597754179 363.577775984 287.260389274 216.078152216 177.316113312 93.3506986307 71.9288606512 77.3225728318 59.8763935855 39.285352476 41.5746358505 56.0582145682 48.5415093221 32.2158756473 29.7707684844 37.709375812 52.9677503973 57.6061122839 44.0882099591 59.7953471289 150.746004075 140.879008082 58.9698271406 49.0573521413 76.8186839454 77.9710237075 66.0307357712 47.69244907 72.2807081471 50.4649349057 35.0282752951 18.3691906187 11.0155668076 11.7073013269 11.3549192857 10.6400246204 10.5463635628 21.6538550334 56.2643268241 66.7770705366 57.2567404977 68.7417089579 123.350238667 239.939966085 365.772360661 414.507724547 56.099802735 58.3353081697 52.1177759662 71.045655869 55.5894672949 80.1244248556 90.3004754393 94.6837474472 114.821213853 114.873075276 148.650258051 200.706751568 258.777041244 324.58647115 379.307708866 397.235965218 397.73320482 387.730828197 362.817809303 324.877261979 277.37147276 260.423826643 243.058974951 211.909946055 186.749218388 159.676907691 153.774170391 148.649131205 137.671100898 119.714831743 111.575091995 104.631521093 101.222043681 99.4104110225 97.4261852723 92.11557043 88.9234127711 85.8842511654 82.9965906397 80.1420791911 78.4517746888 77.301703785 77.158897903 76.6514397785 75.360897672 74.7949868889 73.9165767496 72.8275528863 71.9116243791 70.7754694947 70.0610931821 69.3357856089 68.8771442831 68.7168638093 68.618003124 68.6225083505 68.4203867592 68.3383017367 68.2270131064 68.0695551271 67.9238669458 67.6607959544 67.3475625363 67.0197085619 66.8238320525 66.5732885385 66.3906378103 66.2731339299 66.2088775085 66.2022784283 66.190405674 66.1903462011 66.1833631663 66.1754297533 66.1681984896 66.1618200917 66.1562409141 66.1431038747 66.122941242 66.0927078229 66.0502508914 65.9959839789 65.9340671232 65.8715999362 65.8157876311 65.7711910721 65.7218932264 65.7178397677 65.7055316898 65.7062634711 65.7070944778 65.7080232745 65.7089796972 65.7095020238
65.5999531792 65.5997901894 65.5994099262 65.5989667657 65.5985339172 65.5981352844 65.6033377888 65.6117792776 65.6239571984 65.6398590714 65.6586531746 65.6786324946 65.6976423367 65.7138669399 65.7264596017 65.7356109865 65.7421570286 65.7463892247 65.7509979282 65.7552922569 65.759879048 65.7643158658 65.7674050903 65.778463451 65.7794712889 65.8028934479 65.8443885342 65.8758845579 65.9597179994 66.0665314743 66.1491608471 66.2790907837 66.3999511896 66.5021884865 66.5694765759 66.6374381531 66.6913785816 66.8223173574 66.916143653 66.989515708 67.026781896 67.1932894872 67.3661331284 67.7328441598 68.0809677227 68.6051533888 69.0471021696 69.5510953592 69.9411441098 70.3079839427 71.39877112 72.0490342091 72.2367906781 72.9248836911 73.8004524663 75.2539346343 76.7617945134 78.4043902623 81.9015719828 84.8600203116 87.7599955346 89.2239185513 91.2270265872 94.9508097848 109.448841087 115.997090844 125.443970024 131.935260344 146.326641284 170.266284836 189.135346006 219.651625714 246.505055287 279.942624749 319.210706141 360.949145284 392.455694547 399.545309163 414.335745167 399.498122785 384.259659445 340.926184245 284.695454412 234.087115669 176.385749363 123.035056624 93.6262842427 77.9945996197 62.1915421783 61.9297907572 59.592085361 56.0315153772 48.075955693 42.9610780149 38.7300016329 37.1663423853 47.6095031242 71.6506681551 88.2783282726 94.8072399684 87.2258491462 81.9241085856 63.7612698075 55.3024656283 54.4116348478 51.6966498324 49.2700027091 39.0609488319 47.9611753471 33.7228204792 23.1215008485 26.8032117301 35.2061432203 40.5536406276 30.600889489 26.5475447451 50.4567908419 144.185753169 204.217379517 243.333463938 271.843647146 247.434511126 114.818151675 129.644171426 154.232490779 125.104870223 123.449476452 69.470712817 57.4725341902 60.0908835024 64.0162161267 77.7537555418 82.9092813729 101.294837403 116.061006756 136.195565338 167.51753556 225.906718576 266.092667832 316.873203838 354.198011516 378.294168828 376.745604829 377.770986323 355.826346234 330.548809012 297.654892726 266.939576613 243.596990565 215.291291472 196.893417136 171.611432506 158.012758364 149.440614588 137.811868009 129.670166654 113.408641143 107.556456463 104.350769762 101.891888241 97.4569850093 93.3719125509 88.5201589031 85.9526353449 83.4955102447 80.9186851211 79.418638993 78.1838744426 77.8878556065 76.7954738973 75.1197897996 74.4486359031 73.7780574652 72.7734413613 71.9551094461 70.9078786354 70.2512983613 69.5321810247 69.1984705807 68.874628772 68.8026865547 68.6843961741 68.5305937087 68.3090821219 68.1959633171 68.0367390644 67.8968445287 67.6428537486 67.3468858258 67.037923492 66.8543152712 66.6091225166 66.4222650221 66.3521843032 66.2605436123 66.2084867679 66.2038500225 66.1814252426 66.1776594332 66.1722057657 66.1665059876 66.1611084029 66.1495539303 66.1420551047 66.1206677824 66.0895238648 66.0471277459 65.9942692545 65.9347558974 65.8746591178 65.8201781948 65.7755350237 65.7422033559 65.719470192 65.7054845306 65.7061185369 65.706800935 65.707493432 65.708083062 65.7083346154
65.5993671813 65.5992752097 65.5990361142 65.5987205793 65.5983827315 65.6028720072 65.6040038924 65.6130957355 65.6256613187 65.6415236305 65.6598050304 65.6789672002 65.6971879092 65.7077027567 65.72162397 65.7321418063 65.7398104346 65.7454514135 65.7498571622 65.7533203129 65.7567472443 65.7597137654 65.7778292662 65.7795961444 65.8029210899 65.8131832139 65.8606628893 65.9275986697 65.9774005002 66.0811404909 66.1575528875 66.279198465 66.3924264435 66.4678956027 66.5522597065 66.6178306549 66.6617976621 66.823076121 67.0423715478 67.0656621252 67.1151935185 67.313851471 67.4810767809 67.839994654 68.153155365 68.6293016411 69.0156467028 69.4677857851 69.8062257115 70.7067451074 71.9200794072 72.4599209197 72.9686648248 73.4715566674 74.2514916321 75.535638998 76.781886963 80.2452131052 83.6929853959 86.5809893066 87.6747177455 90.084809501 97.2482515031 100.965753963 111.120549919 116.673261554 126.556851384 134.40439958 153.202159344 177.302745785 205.725799192 221.920959056 256.835104084 288.316873638 322.618620975 356.706342044 384.437290852 396.431868884 407.287761246 374.258940233 355.88668868 313.390373641 270.037517311 222.30701787 182.698403121 136.444846272 109.316439019 93.8925773366 82.4369029276 68.2570759954 67.1823813582 61.6937573655 57.7322895245 48.8801013916 40.9421165904 47.1099372898 53.3566763742 71.0043057395 94.0806651143 92.704183973 75.6579235667 65.6682170875 62.1260513812 50.018257532 49.1865728836 47.2606896056 42.6610670644 39.0001989719 41.6338086039 36.9765940674 45.1620448831 68.9114205176 136.321842058 144.297901491 109.720305123 69.8276475348 78.7739515909 139.60757488 189.08063297 220.092069509 235.671820402 207.50029139 107.526707712 98.9124995696 92.8067029135 83.6503018287 116.418862132 98.6402358592 75.4294497254 52.6468271419 58.922521312 69.6443541043 83.2437246966 95.7166674313 112.029908231 127.750398909 173.20631445 218.557358205 268.087869163 313.221817856 342.997789339 368.570329321 368.677391845 371.642528875 352.389769121 334.530791848 305.247219878 277.777188696 245.180746398 230.395454925 201.262465477 178.334721977 160.94368878 150.422911213 138.26044889 131.475408628 119.481040616 114.614763684 105.307255115 101.509013815 100.01291811 95.7537945134 90.8657689413 85.9916870437 83.9713382984 81.6851822324 80.3839259979 79.5379408886 78.6508993495 77.6239992573 75.6417518974 74.2149503747 73.6238038926 72.7097343219 71.9954229269 71.0395224771 70.4521570334 69.7490317363 69.433038297 69.0557657081 68.9648062783 68.9289373747 68.5433599141 68.235832458 68.1568105473 67.9978005979 67.7885794419 67.623387747 67.3453296486 67.055442828 66.8859695009 66.6474227355 66.5374940417 66.3880242957 66.2843879887 66.260556363 66.2109098753 66.2072205749 66.1719179097 66.1682379086 66.1639539638 66.1595868902 66.1473809956 66.129398256 66.1035518696 66.0680781829 66.0224137523 65.9925112928 65.9354518473 65.8777540207 65.8246961199 65.7801228051 65.7457218022 65.7212666158 65.717951509 65.7058710707 65.7064056287 65.7069016465 65.7072755359 65.7074189298
65.5989057358 65.5988473912 65.5986876417 65.5984608277 65.5982009177 65.6035066353 65.6112840811 65.6218768163 65.6274032696 65.6431861398 65.6609329905 65.6792766023 65.6966906045 65.7065872945 65.7201718449 65.7306546326 65.7384219937 65.7428011622 65.7475118289 65.7510963814 65.7536423006 65.7556898815 65.7798264268 65.7822634198 65.8134471379 65.8549556371 65.8780997001 65.9479224575 65.9951628939 66.095446015 66.2035958078 66.2786968009 66.3841507769 66.4527587129 66.5329132281 66.5834625384 66.6342806365 66.821082192 67.1135380316 67.1480830825 67.3234961716 67.4338026547 67.7140953997 67.9414161741 68.2182305281 68.6482461831 68.9803226026 69.3820617983 69.6708741629 70.6589252764 72.1298395489 72.8134032765 73.4628594443 73.9455602693 74.6319048394 75.7615097651 76.7743142099 80.2818982769 83.8494204335 87.0274106685 88.2793239251 91.067969772 99.5346421445 102.654930138 112.74477909 122.649173882 127.62480357 135.979465461 157.832155941 183.163797544 210.84059115 238.047715959 268.164354852 292.114153062 324.192861958 367.811776975 372.165012007 389.834664042 380.213799855 363.807428165 348.265806645 306.736033628 268.385422189 223.950794267 189.256925688 141.949200909 101.407678602 92.3441687709 92.1484208007 71.7357966256 66.3717384458 61.6320257243 58.8498635286 49.8640556284 42.7898711289 47.9007265747 65.4908263763 76.2147446808 98.2648350246 92.9515775076 86.9611727143 68.6902608908 63.1186923298 52.3952882523 38.3197722648 40.4904182924 48.4399565632 61.6229692001 43.1071975941 58.9334796733 69.198761622 95.9823126671 356.719229224 287.950744539 183.192686296 97.1581809964 114.613261121 81.9814795481 79.3210447443 85.1581841263 72.3325890367 58.5807284557 102.758264799 122.645644114 118.060307588 120.006398974 113.242097021 107.259516313 65.3383002499 68.9674903471 54.4701349839 68.775330434 79.7571250963 96.9821568271 108.54084567 131.205191077 172.027891539 204.695043871 249.340312388 289.91736128 328.447481461 340.232391901 356.954257444 351.122291383 360.298316087 326.000972458 308.898448933 283.576246475 256.994555995 234.957763765 206.461422871 182.623555742 162.753688033 151.405574404 145.554029971 133.250241725 121.579836493 117.595404818 106.776194224 102.348353736 100.610251047 95.9028315875 90.8730006947 86.0078066864 84.3702425921 82.3369658242 81.2118953487 80.4185998695 79.185713239 77.9691113532 75.5519173345 73.9852678844 73.4724875794 72.6446310038 72.0305446987 71.1604660492 70.6437789731 70.2152181697 69.6637694813 69.4578393801 69.1304806613 69.0724864796 68.5247324104 68.186743543 68.0597782172 67.9561969169 67.754153767 67.6036021023 67.3431726511 67.1753609255 66.9172483781 66.6861296948 66.5821969332 66.4264910407 66.3754211139 66.2855705594 66.2200930381 66.2150046059 66.1668554271 66.164294251 66.1610918907 66.1506416027 66.1354051803 66.1256313982 66.0990223696 66.0634973186 66.0188645624 65.9907560021 65.9361357722 65.8808097507 65.8292286247 65.7848375041 65.7696691867 65.7406655895 65.7197480988 65.7055759508 65.7059888721 65.7063474697 65.7065990983 65.7066908119
65.5985320962 65.5984921056 65.5983795033 65.5982123902 65.6032396858 65.6101679668 65.612695464 65.623770436 65.6373279788 65.6448077581 65.6620134776 65.6795570097 65.6961715928 65.705409829 65.7186037564 65.7289789846 65.7344221216 65.7408420324 65.7455030827 65.7482020186 65.750794549 65.7804480033 65.782827578 65.8162946338 65.8246734053 65.8725795931 65.8956514203 65.9678974337 66.0121949571 66.1088860686 66.2104566585 66.2777743527 66.3757477232 66.4374451541 66.5132085303 66.5587515972 66.6073821986 66.8254943739 67.186547548 67.3593106124 67.4345848573 67.5444647893 67.8275287923 68.0311535925 68.2735587531 68.6622944844 68.9452961657 69.3022644508 69.5476181868 70.625919826 72.3267809708 73.138633397 73.8780216562 74.3296288633 74.9292880796 75.9291464859 76.7503261418 80.3553074341 84.0472161453 87.4319854591 88.7353358647 91.7282447785 101.361202121 110.449126858 114.232067904 123.983665206 128.53379807 150.168588099 160.979848734 187.41675395 229.2180586 241.856578214 271.584986038 302.246041969 333.5753268 368.147674711 367.990997999 385.26149982 373.709965502 356.562969642 319.380637469 303.171231185 244.552919191 226.53211723 170.641282016 122.320662919 103.475428248 95.5964371734 90.7126219395 73.8395048146 67.7489281851 63.0260566576 60.9173712433 51.5270651166 43.9189324462 49.6458973003 53.627095915 78.6772968185 79.4327961521 95.8128229399 80.1443480463 73.8006452474 55.9437323145 41.9877470298 38.914691899 41.6038606336 44.8719782368 49.3797044341 48.0289253125 66.5245315 96.0620944856 126.567352938 88.0795324257 127.335928413 144.088147544 143.873749383 114.422392685 52.5887233915 85.4760219014 111.552477159 114.154748024 106.985529447 124.149928534 129.912845484 131.003077776 131.786168059 119.00850165 90.9350729767 67.2888508957 72.076807829 68.9977981493 62.5134596592 79.7442778268 98.1760445088 97.3122035735 133.420423664 175.555118123 206.065196523 240.83348277 287.641195099 313.062937072 333.732617113 351.727918736 346.404912691 360.080244638 328.364047836 302.602664947 286.386388949 260.107156674 248.939620248 210.130533899 185.405186926 171.870486135 152.274746088 146.969582635 134.881131454 130.319232102 119.922806819 107.752309421 102.960291941 101.143199057 96.1213134904 90.9450012347 86.0080153578 84.6811211139 82.8518735076 81.8801334267 81.1479939721 79.7359505353 78.2840809002 75.4838885706 73.7777391734 73.3355209097 72.5835910055 72.0596060643 71.2650035465 70.8142894061 70.4328395599 69.8748799428 69.6722253162 69.5347653167 69.2154338697 68.5355674983 68.1381452592 68.0101141913 67.9148577039 67.7203812037 67.5845166151 67.340675028 67.1903973524 66.9468455524 66.7233866206 66.6262115982 66.4651622787 66.4147293404 66.3115400192 66.2933222978 66.224123561 66.2197737949 66.1606607524 66.1517731736 66.1469988109 66.1308319745 66.1083509113 66.094220101 66.0587895609 66.0152724165 65.9890464142 65.9367916241 65.8837584173 65.8336655498 65.8129618226 65.7748363396 65.7445216874 65.7375479671 65.7189502505 65.7055894252 65.705855015 65.706033481 65.7060967697
