DSAA
220 79
-53.665787691 1645.08482203
-604.170018985 -0.98866656817
5.71713670316 46601.7296127
3239.96041512 3198.42084253 3154.51296225 3116.56166687 3077.75795035 3035.39559449 2985.78403241 2924.77440875 2848.81533032 2761.4813325 2655.76059876 2545.56667391 2448.68918347 2386.02988479 2382.1563846 2425.57431872 2499.86759091 2579.13485077 2641.50128215 2676.56439007 2684.85487184 2673.78945445 2618.75220074 2602.76881769 2591.03755637 2582.35845824 2569.87574942 2458.72352066 2420.55333588 2365.76029166 2301.95303864 2245.44436799 2216.920071 2225.01619738 2258.92594392 2302.50088432 2336.03708168 2353.58813492 2356.71936131 2347.6581563 2325.90061511 2268.81774814 2215.32555719 2149.42785776 2082.08880041 2029.84057667 2006.53087299 2005.76649158 2028.58641466 2054.61000561 2032.97271794 2029.90936404 2015.79330793 1992.08027385 1958.10217158 1920.45687728 1877.55545751 1830.22604657 1779.02740609 1724.04164467 1576.84869125 1517.75250739 1451.88602677 1377.74083117 1305.96188353 1205.13876427 1128.9191719 1071.03747781 1041.96288629 1044.16195174 1059.56127707 1077.99768657 1090.70268009 1047.66729237 1034.60355803 1018.1586147 1000.49538421 983.037837756 966.374398185 916.502968471 899.849174059 882.940145746 841.566230071 809.172914829 764.530819753 743.741043273 722.190109331 699.614167434 675.649414335 649.934199212 585.009085268 560.388904124 535.761196675 512.484047181 481.88899855 470.412555209 463.686659334 461.168686794 457.022795854 456.368075836 453.523907219 428.461353722 417.341012654 405.918206024 395.01060919 385.141797397 376.539820217 369.18518654 361.393377744 355.68477836 339.582832272 334.894114066 330.275405611 325.810389576 321.723596259 314.514519424 312.427236991 311.810001272 306.737797837 310.841997871 315.321185897 318.727546408 319.762005048 317.332306571 311.442246926 303.069158271 293.63236333 284.391241364 275.983192243 268.913146508 255.920184524 253.121207421 249.208325802 245.988154933 247.550361449 245.406917865 240.297373534 238.823566545 237.687224577 240.181909495 239.501746125 239.056624237 238.845798428 232.944071519 235.328080697 236.460209324 237.989109918 239.836677831 241.807788183 243.662162028 244.895025371 245.361265032 246.066058948 245.337727522 244.302745216 243.159558998 242.072956395 242.712678178 242.161310514 241.792409961 242.39544574 242.56526788 247.909245609 248.35664479 248.827070994 249.311425187 249.798810632 250.143270243 250.581292147 250.953712942 251.228064825 251.374001881 251.372170814 251.224874131 250.965673042 252.893321417 252.319012586 252.615322188 252.782994572 254.562346624 255.988683861 257.829328367 259.879203189 261.940746687 263.860266489 265.54284447 266.949022175 268.08055082 268.962064863 269.623439672 270.085602664 270.351185847 286.918280775 286.634624918 287.990131858 286.581319708 284.406978183 281.412393232 277.627557071 274.50386288 277.138390317 270.579222221 264.988958088 259.663504464 258.324145011 259.241417743 262.225044277 266.760288679 278.237192796 285.277885239 292.066494988 298.291153666 303.869568249 308.875758028 313.462000952 317.797107602 322.027680597 326.260200323 341.195325905 346.35027615
3357.13304022 3180.02156068 3139.86992275 3099.56087601 3065.10830579 3029.27278401 2987.61089538 2934.72304849 2865.59202562 2782.53718549 2678.07229371 2566.11925913 2465.83863885 2402.68911804 2393.88206174 2439.54385205 2516.40858705 2595.70774374 2653.5622743 2679.01114383 2673.40568476 2646.40509395 2581.45948563 2557.81185928 2546.93740796 2547.82759844 2550.21169851 2458.06883574 2426.68509426 2373.30038628 2306.19828578 2256.18100631 2211.99715152 2221.19927372 2259.11687077 2303.68101426 2333.68672 2345.85333487 2345.58929519 2336.81722566 2317.80832234 2264.87610845 2209.20351394 2135.43461533 2056.44069983 1994.24493852 1968.33951264 1978.4919697 2010.05647818 2043.72805246 2029.77050708 2027.63628827 2013.01726734 1988.28495806 1953.58633629 1914.98782311 1871.25433696 1823.41374793 1772.45381184 1718.99771734 1579.72895606 1524.69097619 1463.40989714 1405.34403223 1365.1464694 1226.03037455 1148.68381101 1088.97382307 1053.81124466 1057.99961767 1067.16315878 1082.68536179 1091.20817509 1042.35777648 1025.68642311 1006.28056114 986.73075355 968.589979866 952.274180876 906.879831378 891.441709133 875.58170058 823.594332521 805.484318132 786.506203789 741.877976883 720.776902773 698.714050317 675.181542431 649.606256815 621.571980249 560.029868637 533.753698666 508.510111469 477.807047634 465.604618759 458.797805516 456.977921276 456.155218358 455.310636658 445.6142882 429.447828785 417.28102965 404.952394541 393.421874561 383.272625139 374.723832699 367.691686721 360.503654806 343.264320551 340.937464573 336.369424901 331.610796476 326.802475626 322.270578632 314.738382086 312.336544034 311.673061794 307.41061219 312.274559162 317.784089866 322.231651429 323.809217974 321.14626531 314.2577603 304.470089977 293.651443539 283.37052324 274.358484809 260.600680681 254.697655735 252.000416795 248.298573938 245.250149021 242.694606776 244.699029689 239.782628517 238.394238489 237.351720523 239.800287655 239.199480459 232.433879336 232.638097943 233.129302402 235.412526558 236.608899794 238.303770023 240.436761514 242.785051179 245.001437154 246.525930546 247.091775242 247.127116289 246.19765794 244.916766399 243.542618954 242.276912424 242.714272968 242.116171532 237.196761035 242.384529802 242.580150377 247.726456474 248.172347188 248.642564441 249.130907256 249.628878634 250.000919792 250.460448506 250.851487173 251.131204576 251.256766505 251.196986717 250.94721231 250.543990958 251.757106455 250.94327604 250.525234437 250.997490387 252.547303882 254.244043288 256.435107977 258.844265225 261.216193544 263.364607688 265.187839169 266.659437566 267.805560651 268.678685985 269.333517691 269.808228676 285.930859246 286.186317703 286.046495755 287.466993671 286.139139743 283.936396209 280.758926965 278.075020143 281.501401651 273.770474961 266.126414907 259.520294195 254.106875407 252.506251152 253.650227658 257.276363885 262.683382753 274.212501466 282.110919481 289.445001711 295.906931564 301.489649713 306.369625585 310.794961679 315.005238504 319.187772897 323.463350101 338.120662118 343.501903722
3326.25847338 3271.48211761 3223.07362189 3078.43118418 3045.429933 3018.23886749 2988.35057972 2949.09366423 2893.91560007 2824.10683403 2731.65911092 2630.13207169 2538.34139901 2480.6194742 2476.35762515 2500.39584919 2568.682198 2636.19271264 2679.62300173 2687.68543738 2661.3499407 2611.35111703 2530.586804 2494.32051715 2483.50839983 2498.27072531 2523.44576073 2536.2884417 2442.663836 2399.57801998 2377.852507 2304.05532777 2254.72071315 2260.87781622 2319.44275401 2319.13164546 2333.77466444 2332.84665374 2326.51090691 2319.98762758 2308.95342792 2266.85604854 2216.47152098 2142.57036172 2058.98749259 1991.41567506 1963.25974501 1975.77436391 2010.26792827 2045.34674849 2030.94504346 2026.67523054 2009.69082186 2043.9129937 1947.45427314 1907.90016528 1863.20380704 1814.49706441 1763.38691938 1711.45306132 1582.16280527 1533.15239019 1491.58475209 1479.32118464 1402.59776597 1316.41036878 1193.82817821 1136.29736941 1098.03613328 1093.97263346 1086.51727054 1093.85389822 1093.85942835 1034.72083833 1013.27341764 990.287045818 968.768514258 950.357530582 909.303822764 895.369110555 881.833807521 867.476255072 819.114667661 801.414032993 782.747285209 739.885420962 719.539026114 698.476557108 676.02681761 651.371616167 623.836553554 562.897624911 535.577939099 495.808733542 477.398337521 464.205252557 457.174192971 455.566737946 455.872062874 455.030834667 445.439244072 428.622561432 415.641991355 402.680234112 390.81145991 380.671229793 372.472205614 366.063496194 348.681093993 344.98848868 341.18325763 338.590579745 333.589170021 328.25645911 323.061766841 314.934178924 311.938712435 310.913357189 306.626270112 311.661599145 317.580336587 322.501497941 324.259301001 321.327039247 313.701080084 302.96138862 291.308997824 280.534905294 265.636974596 258.384340378 252.969891924 250.614116744 247.281848802 244.484087752 242.080080968 240.950510737 239.278243764 237.993948081 237.075636941 239.485889445 232.781370632 232.782506053 232.939811217 233.325149924 234.077482276 236.539084609 238.270587754 240.5674732 243.190660981 245.704960573 247.474026955 248.123073022 247.747123361 246.64879522 245.170782101 243.624739298 242.242761034 240.050690758 239.241235258 237.252056065 242.354923851 247.124116225 247.535698697 247.976541608 248.441588601 248.929935077 249.437806653 249.841745493 250.332398629 250.756880938 251.06050215 251.185533551 251.085889216 250.746740652 252.05241811 250.80070511 249.741707308 249.154375539 249.262642066 250.800823082 252.783856649 255.335339927 258.097559439 260.752112639 263.080815818 264.980661308 266.44646894 267.538270361 268.345609277 268.955612138 284.248532324 284.894810034 285.330169416 285.426843899 287.031967968 285.92696388 283.849523441 282.324278659 277.694328074 280.324006955 271.823686997 263.260663186 255.752930268 250.120267032 248.274374435 249.629987298 253.851420026 263.120450552 271.775903683 280.257700232 287.806948561 294.158482468 299.422217773 303.909980707 307.983395906 311.954943848 316.043025272 329.387624012 334.75416436 340.426516853
3289.75030508 3227.85146739 3174.56921061 3132.68583539 3103.33478615 2996.52670215 2981.68590187 2961.26963686 2926.86592486 2878.57217389 2807.79291888 2727.13174472 2653.4470768 2607.21816544 2603.51346375 2641.92335481 2648.08747143 2694.98979105 2717.00798148 2702.59214395 2650.95083858 2572.1843784 2487.47068506 2413.92187456 2401.21024018 2433.71030986 2489.02518635 2534.09533553 2544.78376679 2440.11492248 2447.83040154 2389.36855062 2332.79652091 2360.24292636 2380.3608405 2393.33914789 2324.96730879 2303.6118105 2289.85235823 2289.8210269 2294.40351094 2272.06416903 2236.52741759 2173.28199886 2096.26217668 2031.39207202 2002.00895184 2005.15659369 2033.13721092 2060.29646991 2035.81471743 2025.6245781 2059.6741826 2035.49306983 1939.02132679 1898.86954962 1853.11084152 1802.76775483 1750.2942607 1698.81847937 1581.2438773 1539.51593596 1558.86933816 1508.41723383 1447.09610741 1376.05122024 1303.44703736 1201.48987336 1155.67652644 1143.27464439 1111.79093797 1107.07466544 1095.3717965 1023.56859217 996.299694867 969.146935462 945.656711678 927.59999123 891.491622253 881.930097409 871.162814533 858.805244436 814.295461005 796.870717914 778.362139494 759.475592277 718.116530598 698.555179842 677.886721892 655.004710092 628.95846787 599.399933255 523.48732767 500.746596892 481.371957058 467.38701393 459.771893873 456.318013252 456.060850818 454.489107566 443.592643657 425.603928068 412.214316046 399.039161699 387.225310442 377.458722816 369.961262582 353.172832701 350.282346672 347.696107795 344.519405612 340.238723608 336.373520458 330.254852177 324.119935283 315.095854182 311.193126608 309.43127935 304.194556153 308.5899549 313.982274481 318.469226527 319.829094223 316.596990185 308.746969968 297.894820516 286.310182952 270.553581837 261.861771751 255.534473416 251.005379832 249.192303967 246.345889205 243.824158656 241.548796674 239.572120192 238.812809249 237.652333157 236.904678692 236.481454378 233.341884009 233.382435034 233.449165323 233.627694166 234.107752888 236.256901549 237.828852454 240.078743208 242.766440988 245.406333817 247.29585645 247.993869273 247.347817907 246.45543477 244.898424918 243.300301737 241.911225973 239.806713386 237.651419488 237.234225055 237.189585134 246.929653772 247.339662923 247.770086611 248.222194877 248.703682397 249.218719097 249.658547989 250.191334217 250.667866852 251.020724461 251.175890244 251.070582316 250.677539807 251.668010189 250.210747831 248.946590813 248.21599823 248.289078288 249.655501469 251.895601424 254.758057914 257.804594323 260.65616333 263.066693834 264.937428793 266.291815499 267.23278413 267.896670017 282.008943855 282.77898657 283.545106035 284.238629477 284.690147153 286.626011969 285.921242772 286.018986363 282.800618626 288.465471134 280.709169726 271.82984798 262.728887675 254.644216499 248.803154047 246.695503212 248.191641954 254.198346554 262.375983395 271.427616298 279.966491672 287.196101525 292.940683088 297.468748157 301.255044283 304.783012659 308.428089795 312.417576139 325.354019187 331.002804205 337.073928575
3248.51628082 3175.7379214 3113.31230542 3066.48186579 3039.19663289 3031.51984135 2960.7540671 2963.53578743 2955.56957378 2934.93766061 2892.17550602 2838.1938604 2786.99888837 2754.36781591 2750.82975247 2775.10069133 2812.83876048 2842.38772369 2764.19536881 2727.18667437 2650.674344 2542.49223158 2425.98843573 2335.01311718 2318.29422504 2369.84110727 2457.73930585 2536.86653621 2578.05543663 2563.08203979 2530.17271483 2488.04735955 2455.04500101 2451.81198536 2437.63215699 2404.89047715 2296.44940205 2248.41222631 2227.23878747 2240.18033638 2269.77150976 2276.47854518 2264.4024114 2221.00347254 2159.92228896 2104.53302015 2060.84387168 2059.64948364 2072.57496172 2083.17741661 2081.48137728 2071.96887373 2049.49628317 2021.84174853 1989.77033872 1887.86761922 1841.23834902 1788.11736703 1732.06474938 1678.6033227 1680.4431162 1596.00284581 1565.35613151 1531.48597903 1488.23246579 1434.69088478 1376.75992146 1276.80035563 1224.80881699 1193.42027912 1136.27404312 1118.01395948 1039.91947771 1008.55432585 974.478113078 942.444576792 916.890405999 899.922602403 872.066831118 865.322225856 858.228989241 824.172810109 809.253583196 791.761949726 773.041751034 754.392426927 716.025158499 698.443523231 680.24008461 659.944529655 636.30465271 604.702371651 532.789145489 509.531562298 489.583306092 474.877773872 466.175223574 458.197600276 456.382517877 453.326069218 439.027196916 428.483106988 407.1212461 394.210654588 382.886673029 373.884658818 367.459297095 353.990036305 352.870614709 351.687336161 349.220451242 344.825612909 340.006651505 332.75730148 322.015258693 315.155514473 310.059572661 299.416432271 300.262607616 303.258530336 307.230522721 310.429159385 310.936739133 307.292419342 299.77593726 289.711007774 274.211472897 264.63328965 257.470503697 252.578083172 249.258084317 248.081571527 245.742148583 243.427264024 241.179698858 239.187195903 238.398000697 237.389525023 236.888275765 234.058589692 234.278013779 234.395527084 234.331784228 234.187463859 234.218724477 233.554900841 237.015228712 238.94840117 241.493841413 243.92426712 245.752120967 246.450569394 245.857070403 245.486832656 244.016562532 239.782533329 237.898804507 237.981336619 237.336262917 237.178688251 237.395827551 246.737522855 247.145210621 247.557437904 247.985074261 248.448826558 248.965134693 249.532426441 250.029708153 250.579397607 251.012226617 251.237963003 251.177502464 250.791070165 251.729903324 250.181030004 248.812139315 248.008038573 248.076472432 249.472325534 251.879187893 254.925720879 258.110947151 261.00768246 263.34844971 265.042184224 266.145272409 266.811138662 279.538264885 280.081013429 280.786121941 281.714422542 282.769546935 283.723839706 286.161425605 288.012478617 286.672622601 283.933685213 290.271686306 282.837296541 274.119314544 265.04782907 256.906950674 250.861420138 248.62980031 250.91251683 256.599170415 264.680734851 273.372666365 281.201440207 287.398587445 291.927345428 295.251613887 298.02795426 300.857413051 304.153045334 315.306616354 320.699511806 326.791113036 333.419801189
3205.61753251 3117.92229614 3041.22561824 2983.88847229 2954.00257937 2955.33030752 2982.84704589 3022.00375887 2973.104721 2978.38619641 2972.13543921 2946.42418548 2917.99885767 2898.67497339 2895.69040666 2907.73635495 2924.48676675 2930.09699964 2908.26656753 2768.63904351 2674.60227865 2545.70243772 2405.46307715 2298.11589793 2277.50945077 2343.01883057 2454.50861391 2558.36392389 2623.11425287 2629.74664436 2616.06161425 2586.00935143 2569.63833694 2533.83153438 2483.05263598 2401.90891129 2293.8421166 2174.06221992 2145.61642008 2177.3290006 2274.91363603 2344.91250597 2295.95371886 2276.08366087 2234.11009428 2189.96733631 2136.513318 2122.66995065 2115.7802542 2104.3871072 2108.42184701 2060.08616682 2028.88129924 1999.34140102 1969.95239765 1875.25700506 1828.72095442 1771.61049109 1708.85289563 1693.7597378 1641.14254235 1575.24307881 1557.9169489 1542.06453255 1518.07574785 1482.34828886 1438.5553136 1383.09612809 1277.15335641 1247.06653392 1156.19083175 1124.91528412 1030.82380439 990.866367725 949.046573795 911.174467516 906.629726565 889.906737233 850.287725713 849.2127442 846.827149674 818.690798055 804.167777023 786.015299954 766.462721036 747.636408789 712.726715248 697.556364673 682.432056104 665.387582946 640.727581691 616.66676095 558.277130996 521.009263563 500.635157241 485.098789104 465.628228648 460.502516446 456.382717263 442.532992601 433.733072253 422.837892624 400.800310861 388.57378461 378.129600116 370.244688535 355.711683106 355.474843079 356.50904831 356.981378823 355.221882688 350.441679002 343.010284555 335.457395134 323.314414645 314.907813658 308.439200651 296.071970333 295.215819521 296.371496191 298.429435849 299.901382804 299.268682572 295.337525905 288.555733083 274.859887956 265.87241764 258.47485242 253.341943783 250.229633864 248.297847344 247.6910257 245.734491151 243.427030498 241.011156973 238.869323006 238.011773532 237.203992669 237.069514999 235.13931602 235.747112263 236.012934408 235.782744983 235.183495199 234.571388457 233.178859149 233.73705393 237.323375435 239.3749991 241.410045238 242.994186249 243.638109634 243.17522701 243.801389643 239.998153396 238.183453874 236.706192233 237.224148507 236.933145674 237.131574638 237.694373641 246.56021723 246.964883031 247.348727098 247.736037936 248.166274528 248.673820047 246.8534618 249.840582633 250.484825712 251.030558931 251.372798514 251.418763904 251.118572112 252.313745169 250.837296126 249.515587755 248.746939965 248.855813487 250.497178035 252.928934036 255.967692626 259.083239655 261.821486516 263.901010655 265.238247529 265.922813437 266.164970141 277.292493177 277.442273461 278.058462869 279.214266478 280.767480908 282.406065983 287.457187404 288.148760262 287.638009133 297.96086837 293.24708685 286.631702338 278.652330011 270.232596462 262.621208409 256.587300888 255.894073016 257.557208087 262.697207093 269.865286087 277.280979287 283.506765895 287.881406015 290.558055399 292.230475557 293.750476093 295.821017352 298.850765987 309.454445637 315.327835825 322.097541493 329.493751219
3166.93784153 3061.22132699 2965.65634355 2892.10411487 2854.07796248 2860.89552129 2909.69206214 2982.51396444 3054.2230018 3017.15017973 3042.01451017 3043.56601973 3036.27078434 3029.32615987 3028.16909902 3032.12950793 3034.33990606 3023.81791912 2988.42346709 2917.44452841 2770.40877761 2604.02431442 2460.51097991 2346.52241259 2324.94517967 2391.38137505 2505.17238266 2614.14900508 2688.42662183 2707.17592798 2706.05357951 2683.17725767 2666.71769284 2613.34299336 2531.54972274 2410.14388419 2258.94022267 2118.70386552 2084.74079597 2143.64079397 2255.64527944 2357.5673316 2415.83294868 2334.54628278 2308.86757536 2273.19859854 2209.3565078 2181.05598981 2152.03974259 2115.45271148 2119.49067029 2031.6825679 1991.62946163 1963.46942483 1942.35364919 1861.70583825 1817.68761224 1808.19354103 1728.4836478 1648.96215543 1594.65800064 1539.53379435 1535.45848043 1538.55005567 1534.28788448 1515.8250821 1473.04608663 1435.66158263 1319.07354024 1281.83119872 1243.65535602 1128.93291668 1021.97909271 973.571577341 923.484051116 900.187934681 863.049217315 847.486791771 828.050234223 833.704770657 836.646139575 813.96749993 799.271628524 779.63110031 758.405244186 738.792240436 722.728216804 695.394371941 683.846092617 667.062659904 650.157302327 628.843511549 571.559782928 533.363336253 512.419153458 495.803206249 470.226117984 462.412380019 445.69610391 437.940419517 427.534720549 416.397357054 404.571433956 382.535741644 373.239364715 366.712760059 355.118471259 357.268331003 360.661992268 362.891076982 361.710750271 356.201315012 347.147928557 336.331245467 323.929898389 307.743716223 300.002536458 290.309044205 289.437615263 288.710283127 288.842811778 288.640209895 286.984588558 280.341504848 271.432247882 264.560558496 258.066976911 253.146991027 250.294321504 249.123873288 248.596593298 247.618786336 246.469548029 243.839653977 240.98294337 238.532082084 237.581252006 237.055127916 237.458756933 236.662776414 237.869453105 238.385217548 237.947361085 236.739082237 234.257538065 232.964792606 232.529930469 233.126194949 236.805959479 238.270636935 239.485465567 240.024247511 239.721773504 238.77130574 237.484862556 236.214372792 235.271481106 236.340250733 236.493121747 237.129208602 238.114977384 246.41414348 246.816965779 247.161367276 247.488991435 247.865205347 246.382301653 246.829784997 249.622510308 250.380170227 251.069411496 251.572734065 251.787630313 251.657848967 253.398848025 252.169685321 251.060614271 250.448835187 250.648749111 252.719527856 255.022721625 257.845706139 260.667266423 263.030714371 264.647785737 265.439054155 265.524395327 275.125466135 274.2531986 273.886620881 274.401822249 275.881598122 278.108921811 283.869723196 286.473550229 288.275206416 288.821719239 300.601809952 297.150512436 291.765608541 284.995902369 277.726823342 271.102911537 268.332292241 266.217610714 267.463470141 271.50358321 276.982176582 282.259489261 286.051383741 287.882478067 288.150541987 287.821103233 287.958679595 289.345699497 297.348232824 302.56910496 309.256357109 317.004705395 325.414434452
3141.18902385 3016.99392284 2900.796531 2807.8069116 2757.56948727 2766.33306487 2834.43692532 2940.07269248 3050.04916123 3138.52936135 3103.96135531 3129.85061415 3140.99739931 3145.19259159 3147.20459665 3147.39221885 3141.81712709 3123.55016688 3084.44718142 3016.83457735 2876.0837673 2754.65331964 2623.19762736 2489.55013633 2469.35836269 2522.09816395 2616.00395949 2710.03760271 2779.05757361 2799.64203942 2804.51769317 2785.70199945 2769.96328219 2706.13933191 2606.95268156 2465.20088463 2294.95661868 2148.5539017 2101.44286947 2165.34928234 2288.69416604 2403.89599053 2476.94149587 2503.06789048 2383.67677832 2351.32798228 2348.24271281 2231.04146215 2178.10134202 2165.92905277 2088.13938162 1982.5511006 1933.04791184 1910.31886619 1905.12580311 1896.24445052 1862.42728342 1795.83222204 1702.86376918 1611.561117 1537.2822746 1497.31255002 1505.35863813 1526.72672443 1541.03390085 1538.06500223 1506.27452517 1474.40164568 1350.57013519 1308.46009076 1262.4107782 1135.06271272 1078.23365151 997.462475501 930.052877333 868.102016832 825.131332466 810.356183164 809.433453457 821.527343838 829.266738789 810.533484348 794.85260232 772.817743618 749.026733379 727.932829833 712.356883224 689.22191671 681.83684172 672.339614697 658.43026494 639.64644036 583.829450067 559.667434874 522.914782958 505.012612518 476.303969537 465.65665089 441.557492087 432.202682222 420.935404153 409.631043204 398.135810149 376.336013459 368.277173537 352.7535696 353.96550548 358.297142369 363.839212825 367.596052846 366.724337354 360.237923766 349.463870849 336.879561404 324.356975526 305.670975427 291.752237364 285.260426223 281.273373047 280.787689117 279.308097195 277.779240251 271.867383598 268.251078778 257.294591597 255.541911899 251.523972743 249.108927037 248.584333204 249.360340647 250.114386802 249.537764947 247.734152501 244.414445777 240.865118655 237.992304738 236.971084017 236.836654105 236.248951644 238.538189343 240.575741593 241.44738041 240.744331364 238.760604837 235.351789341 232.896274979 231.354535943 230.923760045 234.084707844 234.917770201 235.715344383 236.116285063 236.00115858 235.493978096 234.752922264 234.074160347 233.719943758 235.389221614 236.039738755 237.168962078 238.637967427 242.948947352 246.721595103 247.018960232 245.981965061 246.216209971 246.453910692 246.811744487 247.346563358 250.270866623 251.127155249 251.82756087 252.263645161 252.375983129 254.874459344 254.03241505 253.268774771 258.876691053 259.287774828 255.8608943 257.91772047 260.360127692 262.705041599 264.513120041 265.494753897 265.569538842 274.336255344 272.25759025 270.331383309 269.323488734 269.741886657 271.675064304 274.787958468 281.319578237 285.268259738 288.384320021 303.413417936 303.649838518 301.688377968 297.784968372 292.492688618 286.632088118 287.793157664 280.262445627 278.352563255 278.937555391 281.44836883 284.674356349 287.193194529 287.948233062 286.710017146 284.177749296 281.645439858 280.421161172 281.343592625 288.684604429 294.804401654 302.702879528 311.757123407 321.425362982
3138.68311893 2999.72748481 2866.35757614 2756.34174814 2694.41635696 2703.29672016 2786.57653394 2918.96589604 3059.89463329 3177.86826138 3261.14092362 3210.29221548 3235.96862941 3249.326204 3255.05925842 3254.63418677 3246.5454127 3227.2428539 3192.27215926 3137.31708428 3059.66210723 2924.00898386 2828.01599187 2753.85701183 2675.6575483 2706.9740145 2770.16851356 2838.51079821 2893.01056412 2908.27573388 2914.73764492 2899.2990923 2888.29044037 2824.75826002 2725.9908319 2588.63990507 2476.42737516 2324.64892222 2241.10627251 2289.92780225 2395.71151557 2497.66880914 2566.1105831 2593.98579305 2542.201316 2513.44285232 2422.47167616 2360.04571475 2258.51313267 2157.15615489 2043.51058427 1917.5764258 1856.50862012 1841.95265255 1859.81883117 1876.18215645 1860.20373094 1796.85399047 1695.03101987 1589.13690968 1502.20566596 1469.65530532 1485.15247375 1519.67940163 1547.42996353 1545.17865868 1531.16533665 1503.05486133 1465.74028867 1329.50121756 1279.39691376 1220.21385239 1065.68968518 997.051841334 922.819809463 854.024079181 806.474354153 791.57885836 806.627368053 816.30373588 826.409879705 808.866940793 791.312508396 766.247816588 739.322950395 716.232886119 700.802667126 686.207237644 682.361930226 676.107259683 664.720475925 618.089689044 593.499968078 569.206331412 529.347716009 511.445876861 478.840923782 447.918735324 436.866492112 426.122753425 415.223070685 402.773892199 391.638688638 381.465053001 363.006417292 348.585739154 351.148426656 356.877600668 363.719329471 368.291620164 367.366239294 360.004253369 348.011115134 334.367693175 320.998749332 301.684891878 286.723099858 279.292105642 274.184444129 270.743623233 270.138991873 267.705911908 260.7739519 250.159349405 247.258693763 244.735381669 246.031716911 245.909499132 247.52503933 250.041523195 251.812988378 251.325567939 248.690882898 244.507856418 240.224650095 236.974790981 235.982918668 236.340135306 236.908012372 240.333035166 243.344649625 244.629125666 243.60547241 240.265460109 236.319782638 232.690534194 230.078103691 228.678662413 228.311910136 231.577593029 231.981081146 232.241523406 232.364894982 232.234483834 232.00506523 231.897053322 232.122814642 232.841353722 235.54349411 237.182790384 242.064560114 243.475006358 246.689601275 246.081160084 246.369373602 246.461057542 246.54882618 246.799589027 248.233174509 249.078673063 251.214224706 252.134080167 252.825892128 256.754566383 256.593652118 256.218438928 265.615134978 265.064428549 265.628606637 269.509814465 261.274107874 263.24914245 265.014346567 266.15878291 266.394469825 277.084317814 272.439452533 268.885154251 265.715132929 263.956138952 264.297842529 266.829858627 271.042931849 278.557447492 284.034564391 288.596438071 305.160527013 307.023435096 306.628719959 304.277373958 300.514728535 296.077556376 300.264051733 292.591428692 290.718294098 290.4257947 291.153011886 291.844029761 291.307779322 288.734518578 284.167567252 278.65290076 273.876565935 271.434872532 274.697246727 279.221001777 286.684852156 296.171270685 306.810061358 317.919139808
3168.74593783 3023.11325091 2881.93122165 2764.23908196 2697.36268701 2707.2562555 2799.0898352 2945.72161374 3102.92322681 3236.59544777 3334.00735412 3397.66143845 3325.5312268 3345.11266373 3353.98781129 3354.44218168 3346.78805053 3330.14535337 3303.21842529 3264.74662571 3213.85735486 3107.53074228 3046.49722023 2995.7151707 2973.32890926 2907.87471176 2941.95910902 2984.67159394 3126.11112357 3158.06948419 3036.85879952 3026.16192833 3025.17325199 2972.98340795 2890.88893937 2863.1944357 2718.08717629 2594.93172327 2540.87080577 2501.85625366 2567.4188345 2637.11478049 2685.41672924 2703.04975016 2639.01157865 2603.94270918 2499.30931942 2417.70526902 2288.70050453 2155.09814792 2006.56143461 1863.89151723 1785.90646116 1778.60058473 1818.02329338 1863.35958903 1868.79506055 1816.09708158 1725.1481872 1608.80486614 1517.30370237 1481.92582282 1494.87047911 1531.82025508 1563.06980869 1563.72275866 1551.85286147 1524.57105722 1487.08786124 1346.47014885 1296.29130763 1217.08920262 1081.66002222 1012.58224792 937.48030123 867.473344429 818.598463177 802.449898352 816.263089803 820.830335654 829.210460836 809.374474441 789.305488533 761.280870352 731.469867593 706.444879672 690.914358395 683.207413394 682.157862871 678.276523926 668.555160765 624.373494098 599.313375137 574.774847306 532.885640818 496.012964731 458.261600702 444.095097174 431.493512065 419.678941597 408.241058895 395.827227592 385.00009871 375.379321318 343.273561271 342.635357507 345.556921572 351.401235555 358.144665216 362.438676765 361.12946527 353.44081961 341.335981086 320.374380422 305.754419135 291.74910205 280.086081947 272.297668905 266.563356078 262.340154843 261.317842203 249.06004611 242.109825868 240.042581005 238.299011795 237.381909761 237.898630472 242.395747597 245.616278041 249.334589224 251.69147656 251.115829313 247.976442198 243.207238337 238.525230951 233.34000809 231.996040665 235.233582479 236.737193711 241.149271812 245.017314984 246.660722044 245.340389129 241.318268311 236.39134633 231.824979926 228.372351316 226.211778906 225.159425313 224.862191432 228.362228649 228.630958982 228.907161752 229.105121578 229.326680408 229.730247518 230.482915746 231.721989597 234.915764653 237.030334246 242.166170996 243.890858517 245.862717748 246.530405868 246.752667521 246.702374147 246.639246745 246.785980926 248.116141526 249.04239385 250.102730046 252.503042254 253.465930158 258.110315699 258.434676842 271.988720665 271.510223225 271.494069724 272.217874714 276.428974378 278.545574653 266.309635114 267.480138377 267.941440835 280.383135396 276.812488516 270.664674104 265.565153353 261.061926516 258.497389111 258.79248177 262.034378326 267.485394066 276.139894174 283.190600116 301.531568696 307.358151581 310.777983538 311.875814901 310.989569088 308.642685967 316.220562065 312.372987967 304.405434005 302.380822184 301.081733189 299.966695382 298.122360229 294.566385682 288.715451266 280.873698597 272.442880683 265.540321089 262.092095514 264.439613957 270.077181116 279.198652609 290.495308047 302.841766396 315.432341287
3344.92500969 3094.86080774 2958.61613601 2846.67946237 2785.31345764 2798.72211083 2890.85112889 3035.18906244 3189.516817 3321.48107921 3419.03940982 3484.47408187 3525.11696219 3434.32392901 3444.95927791 3446.34775081 3439.75088112 3426.06870047 3406.42919274 3382.11278844 3353.69993046 3320.59420579 3241.37324678 3207.95924174 3186.67719049 3185.83279098 3109.85591299 3133.78809633 3272.82596073 3297.99532846 3310.97846571 3164.14056304 3177.77944467 3265.41928421 3201.30206344 3112.73930532 3008.76282883 2913.89973316 2858.02751474 2853.38244593 2778.13410685 2808.93751979 2829.66273289 2830.08591172 2747.97185881 2810.92804114 2736.26917714 2467.68459344 2339.4661443 2182.08934176 2008.44510108 1845.27525693 1755.19095309 1750.09000832 1805.93995411 1870.16368905 1892.98914945 1854.88814921 1780.39487206 1675.12960268 1589.37137615 1551.51092345 1541.90857924 1569.20896868 1583.13004232 1586.14795704 1570.09279966 1539.66564978 1500.5335516 1358.95138625 1312.33043939 1238.83751576 1175.96659696 1043.96165631 974.137435977 908.72218821 861.830521456 843.173052378 850.135175067 835.00095578 837.607733545 810.942200408 788.384610639 759.68849211 728.247223856 702.163060085 686.484801298 681.799882676 681.935026512 678.897665663 669.659007045 625.693948018 600.341349566 559.97423821 514.84036998 494.021106256 452.580699375 438.8962925 425.279629827 412.755076607 400.962847503 389.838867661 378.016758472 352.230414283 346.776231552 334.454076709 336.632850861 341.220020675 346.424331041 349.39284122 347.525193559 340.264317644 329.317190998 308.846853105 295.892827668 279.600624103 271.893868927 264.304072846 258.408111055 253.812310558 250.128885085 239.727627272 232.347786862 230.697211049 229.736765906 229.854684284 231.482942216 234.85354533 239.610121192 245.468575339 247.919982173 247.315431289 244.476802435 239.821385407 233.589867734 230.302689795 229.336916867 229.527114654 235.028006092 239.885896509 244.139703706 245.954380155 244.511427383 240.078937541 234.721000697 229.726874128 225.852965603 223.265965872 221.796597778 221.13881073 219.455779663 225.1941793 225.619803245 226.10752005 226.715847858 227.555102853 228.75322253 230.424801275 236.057290922 236.525585681 241.972510901 243.973832199 246.040338344 246.790100204 246.987685743 246.840685172 246.670744372 246.751954554 248.057376485 249.068731248 250.267477683 251.519719812 254.192414729 259.538383443 260.331719623 277.045750281 277.320862297 277.80545434 278.691894263 283.207090045 284.693008734 285.902502035 286.265672946 285.112796735 282.140930536 277.252905828 269.755014419 263.287567871 257.574734018 254.274698147 254.555360077 258.50121138 270.285503088 274.922580581 283.354902802 303.097247585 310.348922239 315.093114353 317.474032662 317.848417038 329.135688291 326.718306617 323.768569258 315.38857912 313.094049006 310.795639941 307.982789228 303.86947979 297.651950013 288.936750484 278.242912 267.276115869 258.551765887 255.01539601 256.134254131 262.979204794 273.760241011 286.784949176 300.696273963 314.593175246
3468.62950036 3311.2191158 3093.39125418 2998.72793801 2951.32185296 2969.50902222 3053.8783695 3180.69507539 3314.46996846 3428.39846912 3512.87358026 3570.45682754 3607.63515892 3629.75635491 3527.47233972 3529.32647542 3522.88642861 3509.66862757 3492.28217543 3474.1208453 3457.7105264 3442.5240645 3387.51928873 3367.82803915 3352.2224274 3348.91333791 3378.20983708 3389.69093397 3415.41186817 3437.10184659 3451.73184949 3458.20775589 3470.22939452 3453.4989873 3422.77474202 3373.47282809 3305.86514617 3231.6755829 3170.91441188 3137.57085693 3001.78419943 2996.67509425 2990.12088061 2972.04986815 2992.49582072 2938.09684232 2854.40386977 2711.6188424 2424.60677384 2257.31524484 2075.43848359 1917.43590536 1808.88278742 1805.32744048 1870.07701769 1912.42112459 1939.97777829 1928.36972447 1860.98118446 1774.05826791 1699.4913629 1659.51391025 1656.20253641 1616.7928794 1621.31210786 1611.08873071 1584.49578607 1546.26994819 1502.99189918 1364.18352039 1304.2118596 1261.05662049 1209.73130444 1086.26199775 1025.83415856 968.303034348 924.819007282 902.561702489 899.474568456 855.999645698 888.424276683 816.344299383 791.533524247 761.136082263 731.298468779 705.424016872 686.033167417 682.726114336 681.845411303 677.740053313 667.683473446 608.997939039 581.435727966 555.76563971 509.347754636 488.544582346 445.932268704 430.35481987 418.116833871 405.237765517 393.262349002 382.112115414 371.910855227 344.112887971 338.295101482 324.090432773 324.631057703 326.954677592 329.675405594 330.729741448 328.319468185 322.086933273 303.852949383 294.140339868 278.51935014 267.111735158 258.5086659 255.503826693 249.806635302 245.149842177 230.995309226 225.232765505 223.122464518 221.67204379 221.070874926 221.615322549 223.595481972 227.086231166 231.638505117 236.042157711 240.183586784 239.809096757 238.125683995 232.492162688 228.563291611 226.00662783 220.986137699 223.258515746 229.748974485 235.903629422 239.886601268 241.607456441 239.86486308 235.862565648 230.804277168 226.030081594 222.250319104 219.637318167 218.063441959 217.284182712 215.503736389 221.843142831 222.441023494 223.193630542 224.130331154 225.324887443 226.871484137 232.746652824 234.902951624 237.387239499 241.300020151 244.310970053 245.777173327 246.64266761 246.89067261 246.746209245 246.568948755 247.3079837 248.069057662 249.179078653 250.521745096 251.963967948 257.733910942 261.044477194 280.826860891 281.994393831 282.938149623 283.877644296 284.936170116 289.748975157 290.744510986 291.245258122 290.758287437 288.717965414 284.856898773 279.072546815 270.601713438 263.261398914 256.765306918 252.988985312 253.286475753 257.74242165 270.189250684 275.873770418 295.722091811 306.306412898 314.513181903 320.20363521 323.552314703 338.373910032 338.224337408 336.761554627 334.463705 325.620397687 323.045883695 319.90233874 315.72342644 309.842675754 301.614123815 290.800340471 278.068746706 265.311105368 256.134189984 250.563113531 252.195414571 259.953919479 271.961631016 286.231914074 301.23728272 316.015200988
3628.37066559 3492.92234041 3372.20574459 3198.38867815 3167.00924516 3187.83239919 3257.76914183 3356.85709655 3458.1630462 3542.35550427 3603.84501487 3646.60416621 3676.76546165 3697.77201811 3599.76618245 3602.58696362 3595.42785633 3579.01034172 3556.24729913 3532.20937495 3512.810022 3501.85971726 3498.62222938 3466.68479716 3465.69943417 3472.89922976 3509.36401683 3523.67256197 3548.43295081 3569.46638623 3586.16528329 3651.08632229 3624.70512996 3630.2860281 3630.1068982 3614.5327829 3574.59889871 3513.30062834 3447.40684803 3394.26789287 3359.96664996 3185.99767027 3157.9541184 3182.04815908 3142.15047233 3082.02513561 2995.397045 2850.32644201 2693.77461493 2388.61860032 2225.48747063 2070.04815652 1970.3186243 1949.9554649 1992.75495373 2053.66223745 2088.89052034 2013.53781083 1959.81274026 1889.1031546 1824.36268045 1781.22688466 1761.39445126 1679.54734869 1663.40430665 1634.36064515 1591.45364847 1540.15067469 1488.89262598 1418.92440228 1307.71151603 1277.16734811 1241.26662573 1131.83811443 1082.56524813 1033.6416992 993.490694772 967.358902887 954.091432501 925.871990037 845.339531019 824.668730768 798.017559121 767.792474905 738.16335767 713.821833949 691.032278125 684.871240493 680.891357327 673.982685351 651.346831737 597.059113246 570.87920733 546.583041163 499.667859888 480.993079719 437.19096474 421.821758918 408.027215686 397.081383257 385.070114316 373.882010393 345.107326768 335.229161795 311.239799359 308.3886474 307.190464584 310.031278396 309.961716983 309.027513418 306.22690669 291.023242307 284.189870757 276.526926959 264.611751333 255.238938507 248.085243092 241.85642756 240.934975164 225.801311448 222.30259507 216.392461827 214.230913361 212.74878708 212.109553657 212.546320578 214.260882459 217.248422108 221.073165995 224.755294474 227.056132824 229.809375985 227.624193504 220.019445837 217.176610347 215.39178095 215.443445894 217.50116161 221.269408784 229.422722365 232.614355433 234.00676479 232.116897069 228.875008142 224.717688401 220.728417436 217.516394457 215.259186132 213.884045466 213.353938909 213.501918645 218.504262464 219.306755798 220.310231517 221.52550441 222.9984456 224.793577719 231.04208216 233.342253123 235.918896712 238.669102264 243.291440003 244.895431753 245.908079573 246.303979251 246.301408673 246.259695109 247.271106974 248.139027679 249.377703129 250.879924431 252.519124442 254.182537002 280.841610929 285.013328418 286.856565594 288.383127365 289.736718244 290.987485814 296.115716194 296.79091907 296.81962335 295.777932232 293.219796808 288.9297018 282.824960127 275.238781143 266.46215486 259.871221102 256.052042875 256.398942992 264.296491565 274.758523059 279.732339313 300.759887902 311.58301831 320.13806465 343.340799812 347.745413511 346.618906368 347.251758523 346.470414013 344.632837623 335.339881841 332.573891396 328.856086179 323.780170742 316.800331023 307.419467313 295.530975837 281.878128834 271.280669565 259.040722451 253.045972275 254.694871402 262.719945878 275.12140205 289.792525963 314.061007028 331.498614797
3812.90625613 3700.58237142 3604.17290736 3535.45049921 3398.95633322 3416.94377551 3466.82553279 3532.38161842 3594.61256295 3641.84565951 3673.91579653 3698.109578 3721.39355303 3744.8956744 3763.59340009 3666.09631323 3659.39154175 3637.54499819 3602.69025916 3561.04249847 3523.39112865 3503.2689401 3509.27313179 3511.77383163 3536.50167445 3654.70252955 3717.62402789 3759.26183206 3669.94536244 3691.19496509 3708.61979143 3772.48900767 3757.59478736 3777.84081492 3798.93279072 3806.9666088 3785.70107174 3733.62368962 3667.83113234 3607.80575718 3562.18196116 3366.76575424 3326.22626386 3347.40483873 3302.92601985 3242.32586628 3159.581846 3021.1455553 2878.35041153 2710.40089514 2431.74135566 2292.87768735 2196.89606668 2160.77214261 2172.26170749 2200.02130078 2213.0530482 2122.22263525 2073.67384731 2011.69395573 1951.19764102 1902.10884747 1850.39869009 1742.99135889 1704.02336128 1652.33025429 1587.85154513 1517.39514604 1452.56134696 1390.66279876 1295.32075438 1280.08422287 1262.85046326 1236.14772587 1135.87249419 1095.39252247 1058.42728896 1029.2008474 1007.5795713 964.269397942 860.376121294 835.575477445 807.216674579 777.157027067 748.531432511 724.686683131 695.852190042 686.403929939 667.766011808 655.302789391 603.157102484 578.893016143 554.913469977 508.264947825 487.975324895 470.224854558 426.694643826 412.094068236 398.739697488 386.31474703 374.633357751 345.120070922 336.056180867 323.752160137 299.627183808 295.063861029 291.493423553 288.666710031 289.266575436 286.566637096 272.304365356 269.059293184 264.980588402 260.276346136 250.83459882 243.365202444 237.596816865 232.238714073 216.817544255 217.371199594 213.919072574 210.98810479 205.655234668 203.947389943 202.958992266 202.90093499 203.964317438 206.166417274 209.174229217 212.25094121 214.496288183 215.313745731 212.090634174 210.729240693 209.345657209 208.433801881 208.772069006 210.430954419 213.189190663 218.457506602 223.413343767 223.129259237 222.26456049 219.96413301 217.003679868 214.139296033 206.708334512 204.828042616 203.747247618 209.26813143 209.6802467 210.450831915 216.175711103 217.422630278 218.876390776 220.561128719 221.870248712 229.036470209 231.370103089 233.909462216 236.575074819 239.308195209 243.325059599 244.512126254 245.154708839 245.440859335 246.513679629 247.178680808 248.230574034 249.64886415 251.342154747 253.196016791 275.71479573 284.278794282 287.24665101 291.694980043 293.731090384 295.469544219 296.94199067 302.421023639 302.953208832 319.490922995 317.693778208 298.791155252 294.560037723 288.742169505 281.658305748 273.198756858 267.260333277 263.875083354 268.8062701 274.625064457 284.2124318 296.620673507 308.761952249 334.624811741 344.413668467 351.510347213 356.087431941 355.205418328 356.314550412 355.979601782 354.462364437 344.778319078 341.969079784 338.006371473 332.559923298 325.209058651 315.600181304 303.734484565 296.583913891 281.421252942 269.576829165 263.145398402 264.507588583 275.468036063 289.109988214 305.380146087 322.47932714 339.280659763
4419.66290407 4290.92105388 3841.64347344 3786.28913488 3758.29423012 3630.93059989 3655.41390599 3683.16898631 3701.48365447 3705.81052024 3703.07995313 3706.94763671 3727.31812045 3762.20211391 3798.65528249 3820.56771909 3719.33830852 3694.03451564 3646.12028463 3583.0804698 3521.12780007 3485.58532255 3497.97917169 3569.35065538 3656.29857312 3732.95784673 3813.64006191 3861.51686792 3894.49825412 3799.97757578 3860.54693705 3873.46027133 3861.7127563 3883.48910637 3909.65112211 3926.53883316 3916.51925226 3877.00704431 3823.76538667 3773.60562072 3733.25899386 3700.8960516 3551.82307175 3515.52447218 3472.10205776 3416.42814186 3318.13253552 3219.16390762 3097.64409794 2956.08431965 2825.56741738 2559.77487594 2465.26804572 2410.4591224 2388.76583715 2380.96123973 2367.06649383 2253.33601045 2201.2772336 2139.53974531 2076.68928452 2018.12068889 1945.46128689 1804.55342689 1741.99882152 1665.32954491 1575.00080678 1479.21151154 1382.52550722 1328.21183366 1263.57227672 1265.92598865 1270.46567584 1264.78410294 1247.78406299 1149.36490552 1115.95939524 1085.01825056 1029.22447894 1002.40910759 876.908439322 848.316155843 818.020881856 787.388624507 758.60010894 733.80808869 695.246459302 669.698761963 655.544435254 639.141516823 577.849819576 555.594449873 534.296573385 490.014427146 472.700032255 457.277752748 414.962058472 401.529302714 388.890767424 376.876379216 344.335030149 334.526019587 326.910834427 318.059252487 288.140974104 281.901199133 276.086186983 270.680273904 265.834941548 253.410918763 251.198617196 249.456505314 247.712212764 245.459966085 238.177759632 232.221689408 227.551329028 212.693028845 208.423792916 204.645933966 205.938359059 202.956408454 197.525882454 195.475116942 193.943732379 193.1669341 193.412714008 194.818262684 197.192794375 199.958812448 202.368971956 203.878073161 201.530333254 201.471089356 201.208162357 200.908501532 201.387249758 202.591858596 204.36537832 206.423854087 210.385852757 212.152004018 211.511496889 210.102700062 203.504484577 201.642570967 200.155761973 199.174391262 198.722598596 198.673227672 205.825570006 206.898075542 208.222714915 214.522629297 216.185567373 218.03191201 219.316255509 221.537856396 229.048501891 229.760753635 232.411086045 236.461033265 241.104213039 242.487167738 243.457743818 244.15707235 245.972986898 246.961219372 248.293694366 249.963263486 251.89712999 253.997006696 278.638675406 287.889768368 291.344942009 294.380525293 299.063415343 301.169086708 302.896761005 308.766030149 327.62324742 327.135011411 325.416114954 322.199107407 317.301469429 296.659237262 290.662051813 283.004650324 278.282888345 284.347332761 284.803741669 289.63354184 297.615149355 319.909044013 334.743652949 345.494441014 354.222647953 360.727393745 365.075046401 364.127055411 365.451294707 365.369117414 364.068477889 354.071404428 351.377239064 347.488547336 342.163268767 335.106211582 326.095040512 324.956641824 310.982917162 297.457044546 286.823478127 284.611877302 285.584599987 292.87298206 304.739446182 319.204564302 334.665575534 350.067062773
4671.06098828 4561.2181065 4465.98639663 4389.58516864 4015.43779287 3991.61464932 3969.6218 3800.13834485 3768.96939434 3722.82187894 3678.01625308 3659.39730041 3683.39786132 3743.36729646 3813.19086779 3864.1973232 3877.60050329 3759.31729117 3705.71060871 3630.5245101 3554.89514687 3511.34647859 3528.32218086 3620.30339836 3727.43036087 3832.60527093 3903.07785451 3947.78532425 3977.59180141 3999.80273939 4054.36840188 3956.0818191 3962.12009042 3948.42227235 3960.2268151 3969.26251675 3966.03283825 3948.41584136 3924.01380639 3900.36405568 3879.34058303 3858.71616191 3873.71481265 3839.12786207 3795.26619889 3740.51750613 3672.76338797 3436.88855302 3341.04993534 3248.95157393 3126.36432609 2853.33238554 2755.30273931 2680.3158815 2626.86124253 2585.07298513 2543.23952933 2403.46653943 2341.08257392 2272.55680294 2201.80960733 2110.54697428 2036.91099017 1956.59592118 1781.11222965 1679.55129175 1562.05393725 1425.81434476 1319.22414402 1252.01547014 1218.73922101 1239.54201514 1267.5957751 1283.89850851 1287.43781543 1275.69408685 1166.3281851 1201.66856837 1071.62967699 1038.99125372 894.198751535 861.994433072 829.282029058 796.987446647 766.480092915 714.400578029 692.309254133 653.87630099 638.414366392 617.38015701 548.635312958 528.173644381 485.076806979 469.269156051 455.456548232 442.860134101 402.61917459 390.563857653 378.76851661 367.246156503 335.584392685 325.784084466 310.703470086 301.174403982 278.886787811 269.767026407 261.991229508 254.343471207 236.410697152 232.858670783 233.534331849 233.11967239 233.270377584 227.844968165 225.268382956 214.252419024 210.398565791 204.514994931 200.590722819 197.074769956 193.942208958 195.504899241 190.062097317 187.655634125 185.519224136 183.950097871 183.372822721 184.122113798 186.139272116 188.873737658 191.559167477 189.810126647 187.952686204 192.767309093 192.991114924 193.269814665 193.7797516 194.567807369 195.518668563 196.514068651 197.760374007 197.616911931 195.750831922 195.117672211 194.422446369 193.852941618 193.516723909 193.504179266 193.683824181 194.145481181 201.997081547 203.40234038 205.00791866 211.626056651 213.48054102 214.640269106 216.677944512 218.844112504 224.52573534 226.862611874 229.208240907 233.170967895 235.078672799 239.915848158 241.270864154 242.475478042 245.126568585 246.560184056 248.282130991 250.291009094 252.530857646 277.423545241 287.385732679 291.662922311 295.554215846 299.039735348 302.122362189 306.908098235 308.92187621 331.601932591 335.413939936 335.120343264 333.749180488 331.157602444 327.281866579 322.218098091 316.330946528 294.886726046 305.908080208 303.112706619 303.540619802 307.201990635 327.056072784 339.297263498 348.944247087 357.734935314 365.068505669 370.677570084 374.519131282 373.28723725 374.622922464 374.637989139 373.467420661 363.230325242 360.77236134 357.202615533 352.372949434 346.105896442 351.047071274 340.255112337 328.586282364 323.652953451 314.076692554 308.947050583 309.291442049 314.849784878 324.411792028 336.470271853 349.711823514 363.201870887
4919.95207305 4822.83284958 4734.21893647 4654.37355487 4579.62590641 4500.86371091 4113.96473143 4027.32578172 3910.04982221 3702.52894914 3607.24184271 3562.72134358 3596.85251716 3696.21273229 3814.79587847 3907.38301099 3949.28098486 3935.42194672 3794.6772662 3723.83638134 3653.60617977 3616.02838627 3636.13510763 3735.52624376 3922.76241636 4007.9012072 4049.12370467 4067.94128257 4089.18209859 4086.25943585 4114.39303798 4125.70031646 4025.70598188 3994.55361643 3981.76748356 3973.88436141 3975.7095351 3985.91761416 3999.27366408 4010.42389571 4015.16099326 4096.41846829 4037.14184512 4008.5148987 3971.28031829 3927.27513585 3876.74761725 3750.70683487 3661.54200017 3576.07290489 3435.05443304 3324.34214756 3055.36878977 2958.92673549 2875.53926692 2802.31655323 2733.32523563 2567.76803778 2490.75463277 2410.80899784 2306.69510468 2220.2279034 2129.20306563 2028.69954439 1828.67889143 1706.06445093 1550.55029151 1406.37601598 1276.77288513 1195.32555556 1186.48116993 1218.52581704 1275.16633565 1305.54007689 1324.14781283 1323.53452568 1309.23613845 1257.59104957 1227.93615531 1073.77800572 911.647159146 875.843987264 840.155093653 805.112254692 741.813344868 712.099301223 663.700450024 637.239047819 610.277462646 583.636021871 516.399850186 473.172016459 458.577402415 446.939927746 437.089170329 427.724811409 417.957717254 379.648801953 368.659508016 337.165658341 327.132246618 317.445150775 302.359567676 292.496699665 263.273920667 254.976668643 244.83044748 240.585074098 223.693941341 219.601766619 217.962323643 218.38682297 218.185810022 210.678471327 208.382947448 206.440549216 202.730250232 197.048018384 193.362973246 190.120856825 187.244552935 184.572677124 183.4994853 180.850522781 178.199970233 175.919376125 174.63816598 174.93218916 176.828269156 179.669694245 176.94920156 178.855429835 179.60015267 180.409512091 180.948614804 185.906169675 186.397752998 186.870851127 187.216514067 187.401178274 184.743908424 182.592402933 185.669197785 185.66661808 185.964466378 186.5017747 187.192521238 188.010823518 188.848532112 189.804915643 198.276773312 200.012251404 201.893251612 203.831548527 209.943999648 211.974728442 214.058932304 214.030152081 216.260888585 223.878935791 225.529060159 227.454492285 233.349908819 235.146288662 238.648441484 242.125720657 243.941326433 245.942949468 248.170125722 250.616592288 275.516655547 280.372985997 290.90826619 295.573696722 299.878615641 303.783537312 307.270003475 310.324998943 315.05272712 364.554451269 365.209716059 343.302005485 342.419981075 340.585923034 337.833501225 334.312877616 330.342443557 326.451720029 323.927292074 322.159468879 322.540548493 342.079249807 347.515118287 356.234558794 363.541556434 370.41995039 376.325687518 380.944916666 380.009570682 382.518139974 383.721105019 383.70841245 382.580841755 372.151100583 369.976305102 366.849348023 362.715992989 374.863599392 367.026154004 358.222309118 348.916465728 346.388298888 339.008425267 334.852180544 334.752738158 338.696370527 345.965367297 355.530601892 366.400780125 393.042248085
5164.58769384 5076.0791193 4990.05542133 4903.95436334 4811.44744621 4701.52200059 4559.06556163 4368.68005873 3942.83355073 3799.31638918 3581.33230435 3476.79947699 3513.50507386 3657.42851838 3828.59860743 3965.19093164 4038.98616895 4048.77979981 4021.18838637 3958.4346649 3895.36234831 3865.53626339 3919.98705615 3986.17877861 4053.84225477 4081.27393031 4067.06359238 4049.59921538 4068.3345226 4099.06325631 4157.33707781 4191.73881096 4165.4986717 4054.57658737 4025.94889326 4007.42930954 4014.24912742 4046.73678119 4091.26506119 4132.0756194 4232.95351924 4249.80621805 4200.55259776 4175.12510747 4142.51479179 4108.29233908 4075.15112049 3976.54550208 3917.06839423 3860.64045287 3741.62353854 3637.451305 4115.4227484 4032.20203241 3125.73395837 3023.71427115 2929.43690147 2799.46625505 2702.36739892 2553.97365719 2433.74747922 2333.27069026 2227.08315236 2110.71609691 1892.53627394 1756.53416293 1588.24736968 1432.18285132 1291.07825744 1201.17973896 1191.23688849 1232.79679173 1296.63783526 1338.62702185 1366.55509305 1372.54887642 1329.2406169 1304.06326305 1272.12850519 1235.48050639 928.882359536 889.394151328 850.251216825 903.926133099 742.213738739 684.680125601 650.7108024 616.723541221 582.742877736 549.713324519 477.768111258 442.000404207 430.872482395 423.775587716 418.41074014 412.64545031 405.282032294 369.186985762 338.994852864 328.848024909 319.027639674 309.597943434 294.878526235 285.077967181 255.878651267 247.023994395 236.213729912 226.549499256 215.044291281 210.874976836 209.700099367 210.830543341 209.905995496 205.025553155 202.15937328 199.83065647 195.864031018 190.205784324 186.707574155 183.787967842 181.281725475 178.941197143 174.338322046 175.359346028 172.472449707 169.764354979 168.042551166 168.090571403 169.948421377 168.694319183 170.562929408 171.568125085 172.679014599 173.470880342 174.099273507 174.680535069 179.56323287 179.87664645 174.377248149 174.415579658 174.83663697 174.29572065 174.023138784 177.462674565 178.533167305 179.969476198 181.56626606 183.020594379 184.414475136 185.791456006 194.751137968 196.780944671 196.109581208 200.119433731 202.326603412 209.40569487 209.321678693 211.529873478 213.607733707 220.591599634 222.208933006 223.813121232 225.483339088 231.55625231 233.68743708 239.89000357 242.419173218 245.115164568 243.938387109 272.75358216 278.084301462 283.404959273 294.520039458 299.59851352 304.314823434 308.623714348 312.497435438 315.915715612 347.511205839 373.427000401 374.383855937 374.32487859 351.100558813 349.982300721 348.232030338 346.031797284 343.649995715 341.438220936 340.441588363 339.471806475 358.680079824 360.946512525 364.797593838 371.835018259 377.341174576 382.685343509 387.382037796 391.100409351 389.46518314 391.615600648 392.593623832 392.449122986 391.263454362 380.647713395 400.78692731 396.566056388 391.63161202 386.06428308 379.931428419 373.345813241 374.023966318 367.541683927 362.336791266 359.320501014 359.13580278 361.924838874 367.344408197 374.765184422 383.495883511 409.996402589
5405.67200871 5324.10701016 5240.20330431 5149.74379917 5045.07055417 4914.4592298 4742.72734843 4514.77362898 4225.17626282 3848.51244521 3588.74210443 3463.93260978 3546.55873322 3797.54563513 3952.3809101 4144.81647015 4262.68549043 4306.24783252 4292.63106013 4200.90584522 4161.57881697 4143.99554377 4147.09751455 4169.62964442 4173.34349148 4126.848842 4041.53940482 3980.37730858 4004.55812402 4086.83291802 4192.87453633 4264.9466151 4284.41269412 4238.52796177 4122.45003151 4107.61764389 4121.73615632 4166.74928062 4228.06658413 4349.50573618 4393.66018811 4411.815097 4407.49029597 4337.04124966 4304.102895 4276.2474135 4884.93403419 4855.30137778 4822.79277244 4730.35769184 4685.71097228 3934.32914404 4419.52713099 4342.38509976 4264.71665459 4187.39499992 3124.35381094 2976.26167978 3764.55819728 3634.72353055 2565.01006616 2452.1441338 2333.9773751 2206.87620848 2229.48979648 2032.19820484 1668.38579855 1516.76472393 1381.32614939 1293.62890812 1279.24236733 1297.34700594 1345.95603069 1394.61283074 1422.02308419 1427.81506293 1381.65949176 1354.22740469 1318.94914845 1278.17770592 1233.17161003 1045.35234922 967.89872628 897.490025499 849.44486836 677.801074902 636.910952278 594.922285321 552.396440291 511.838173927 441.637284241 410.277253852 402.541675311 400.550592717 400.305221583 398.445423006 365.919021678 341.037466077 330.978523921 320.84789558 311.209489919 302.206691855 288.318914045 279.073147655 250.587344544 241.640552773 231.761688912 215.411041158 209.785751947 206.658287762 205.956933406 205.620081205 203.897635271 201.06165354 197.061342843 192.581490955 189.526948379 183.8548075 180.577393856 178.068159415 176.046323726 174.179555437 170.18783488 168.42050618 168.611767846 166.003028104 164.282128053 164.256686213 164.075292742 165.047166173 166.022656845 166.323225508 166.929733397 167.464461679 168.030115497 168.670529684 173.43794453 168.327867875 168.718519688 168.67455705 166.581707579 168.11899863 167.869750038 168.331725853 172.440124632 174.544630679 176.753195167 178.736389323 180.538650198 182.221288988 183.87898562 190.845228458 193.16701651 197.325009419 199.747787301 199.971394771 207.097242662 209.354643354 211.365730706 217.86198151 219.128350671 220.385940642 221.842066027 227.745240062 230.294566445 233.361717736 236.6115454 240.003390086 243.480313385 274.59779664 280.607940413 286.505246303 298.202142031 303.726249228 308.86016699 313.564467132 317.811319989 349.240726587 376.908267174 379.660267394 383.273443274 383.504563098 382.783386767 358.884104368 357.833274707 356.522679253 355.186091159 375.520420719 373.855751845 373.26748415 373.80871799 375.722402582 378.835418392 384.985940499 389.478305587 393.875929969 397.747405074 400.777995927 398.582587206 400.375862143 401.075572247 400.708384189 414.664560017 412.046825466 408.576079543 404.461365693 399.935289541 395.213945508 390.455544214 385.756827025 388.98388892 384.989660712 381.899569388 380.236328071 380.451669774 382.744804974 387.00767673 392.899973545 416.685022036 426.663155622
5416.40259414 5570.42432003 5490.86355818 5401.31145264 5294.15016738 5158.41653051 4980.41413219 4746.99584174 4454.70600987 4128.23035559 3803.71070225 3682.90078624 3764.31420205 4006.55544903 4297.07497314 4306.81091792 4430.02213586 4487.44985731 4495.03188491 4417.01878679 4397.38956648 4385.38277619 4370.04904538 4350.36078472 4295.28827667 4182.67319507 4035.95542627 3939.42236382 3972.74662125 4099.92701055 4251.76136292 4360.90749723 4409.41479759 5061.22572448 4363.26854379 4264.29401669 4288.21175577 4340.45841222 4467.13521879 4530.89076019 4570.62548502 4580.06518919 5331.54193892 4490.03457829 5130.25601659 5112.42090258 5010.27507534 4970.75275208 4933.4119877 4865.04190552 4844.98307117 4704.47257733 4657.63367427 4599.5737142 4532.98800701 4458.95838192 4376.33532068 4245.4583349 4021.90618792 3878.60852901 2700.90249394 2876.08132069 2740.07958584 2591.60715028 2428.40979415 2170.87718974 1995.55115244 1652.57754204 1536.35239632 1459.84558933 1439.65633956 1416.00816999 1443.20632605 1477.07381888 1493.58090946 1459.27570854 1437.4776459 1404.81037838 1364.54092062 1318.84426295 1244.08927903 1187.41654263 964.748826334 912.795691009 858.90634517 672.195478192 624.755711404 574.827857369 523.188850587 473.400675608 406.314647572 387.405591687 374.80525612 378.545294289 383.959764013 386.051747369 366.773898435 333.857924795 323.418228129 313.030171947 303.519003674 295.12125699 287.449445755 274.435790381 247.392024317 238.69703657 220.170019086 213.641560801 208.585630815 205.906704279 205.344088987 204.786512675 202.548372819 197.469779421 192.235882678 186.926886662 182.367742906 177.95379693 175.028332907 173.03548011 171.554589555 170.192501645 165.226959923 165.640323596 164.513131763 164.476415338 163.061589754 163.064599439 162.941431354 162.763620337 162.574530382 161.982954862 161.969951042 162.167814388 162.630255102 157.635000058 158.7647601 159.703877684 160.645584781 162.86150035 163.050931392 164.181966416 163.954070023 164.463530539 165.660785202 167.205890556 172.988685119 175.285139026 177.325035928 179.178357167 185.626270885 187.953755359 192.215984965 194.682740084 195.043829604 197.921018888 200.834494969 207.571735906 209.629890468 215.508339584 216.402417136 217.260689938 218.450076219 220.236776058 226.777392059 230.553929143 234.662667128 238.922728974 243.197474459 276.330788746 283.152995 287.495383107 301.971220206 307.963288501 313.517142352 318.607217355 351.209469407 355.9105283 384.451093626 387.488550698 391.765723977 392.147213911 391.529741655 393.435687774 391.178102949 365.162847465 364.18220819 384.064214225 382.548996651 382.257700916 383.212919508 385.518483904 388.900256784 395.104954613 399.491594395 403.620501331 407.115834241 409.720381116 407.150927488 408.621025846 409.015315505 423.690444528 421.753479352 418.75520382 414.8856975 410.438784827 405.794751645 401.352156726 397.422438629 401.50265513 399.057429983 397.373082683 396.459568245 396.480215633 397.671186607 400.200645009 404.077790325 409.151169509 433.541853142 442.408825207
5644.63713418 5817.22588075 5745.54270757 5663.53656566 5564.91921754 5440.97825459 5281.15691028 5075.86253253 4824.16418749 4548.78566059 4311.59996421 4136.82917858 4199.23407078 4389.46305181 4621.87350782 4824.18463643 4646.60637239 4702.48149686 4720.06623448 4714.23442184 4639.78212 4629.9137588 4605.70233819 4553.25688066 4462.90517251 4317.31744069 4147.74963311 4041.89702205 4078.08561723 4231.83723761 4377.46143488 4502.51007006 5336.9201619 5394.23020472 5391.22628994 5378.25458029 5268.62353096 5291.2506804 5355.21906164 5347.60145475 5345.84193023 5370.68534622 5900.03598088 6022.46430535 5235.8708809 5211.99386894 5093.67621175 5021.65725932 4954.84608146 4896.56623863 4900.01600375 4925.49179599 4825.90794149 4803.4429269 4762.79629106 4704.2266674 4627.96768084 4817.35027087 4275.81441059 4444.03427705 3917.6026471 3034.56222672 2893.45609638 2742.51644502 2580.88969089 2420.14101596 2176.1894347 2030.12709918 1723.58180746 1661.75885694 1638.18885295 1625.01293149 1644.26194447 1659.07735514 1661.07937942 1528.55916941 1496.34767084 1455.58086825 1408.65095272 1357.17593915 1276.29869707 1177.43600692 984.647176517 928.730194718 870.157188593 797.491361049 617.199522194 560.428910775 500.262789405 441.009425398 384.065704805 352.513623555 350.712199174 360.253060781 371.110261214 363.988143069 359.728402928 328.214776225 316.156953213 305.230071434 295.784372265 288.165152434 281.858912466 253.221985639 246.155897211 237.77033592 219.9252354 213.525834722 208.927683558 204.788664007 204.213838079 203.012782901 199.478596526 193.101721472 187.061227785 177.648627387 173.00435507 168.52113548 170.375611671 168.982459898 167.958297579 163.404448341 162.335450802 161.705946996 158.958433237 160.692755289 162.53772698 162.489909828 161.69810378 157.444487398 157.199609561 153.369954129 152.710337621 152.44525897 152.779954994 153.560672282 154.806532018 156.098921514 157.616806545 159.167351259 161.255359361 162.335092335 162.18876632 162.54133815 163.513403912 164.905000804 170.311294544 172.705326461 174.822961331 174.116153762 182.996190153 182.139705085 184.662946702 187.488707077 192.902862382 196.070165955 199.331923583 202.485399431 210.764812205 213.624249481 214.130851828 214.524608057 215.375527097 217.12635999 221.598118647 225.746951306 232.929361927 238.133506603 243.260519138 275.879896654 283.505078192 290.717129828 305.873869593 312.330248283 318.292423797 351.578816565 357.412975947 362.462127414 391.64566227 394.923336077 397.087098515 403.359774674 402.522924787 400.539051157 397.574660867 393.951081212 390.181676038 387.273086613 385.037359774 384.73896791 386.482221101 390.074858779 394.85824074 402.143467409 407.343054754 411.853917003 415.38134734 417.78641643 415.016936806 439.697752865 431.373479725 430.252118656 427.860529751 424.243656199 419.573514311 414.211446947 408.7186068 403.770995016 399.968817076 404.077799937 403.430459749 404.094602378 405.639818274 407.822897673 410.615319781 414.090411928 418.301035561 440.909759453 448.615938337 456.885630243
5873.48853266 5824.57276866 6004.20133881 5935.62276269 5854.92857485 5756.77521192 5634.83173655 5483.58973827 5303.36119721 5109.85584309 4943.33896636 4859.27020225 4781.04721356 4894.23567164 5042.04193157 5178.49726788 4908.21306247 4949.11567168 4966.52362004 5033.46461417 5419.4202037 5380.68443085 5306.91477489 5201.38428576 5042.90163245 4576.12894171 4426.63951294 4658.32063224 4725.63504391 4986.02634294 5269.74326116 5537.39668796 5682.00660097 5757.83789724 5770.39269742 5747.03681271 5686.122993 5566.29210316 5453.21252881 5338.06908599 5278.62348293 5591.54101183 5799.53049797 6021.35910317 6140.98750526 6086.2808438 5151.48883594 5026.92145814 4907.53741696 4842.61459504 4870.40357239 4954.4804841 5039.82232059 5096.46183393 4963.7972436 4929.68586992 5138.54186286 5068.42771405 4884.02636669 4695.48543384 4514.56178193 4309.18018403 3958.34463111 3716.84197057 2745.06660694 2591.30808362 2443.27571005 2226.78364668 2201.13387749 2130.81619901 1901.60847936 1802.35163866 1792.82684287 1778.70406959 1894.13953709 1601.63458526 1555.91831586 1504.97836232 1450.19218377 1369.51386588 1276.0822279 1209.70785836 1002.56736838 943.337748798 881.438271752 814.95743106 617.363591575 556.459411213 490.349292775 423.692538638 363.178788209 335.241649838 336.099162277 350.268428463 356.163690529 359.335139513 354.358970443 322.084661158 309.870795995 297.42276025 288.01257575 281.336143822 270.135298171 253.400341125 246.210166062 237.549908755 220.649155468 209.150459163 204.697201355 202.760017374 201.069192556 196.565527957 191.339556747 181.857542304 175.184118236 169.499412847 166.042669194 165.969412576 165.13749422 164.154107179 162.506992063 161.261317954 159.661123977 155.949461276 151.989978527 154.478022189 156.39026888 157.808439285 156.108046568 153.661403561 149.391824418 149.769694022 149.258633131 149.097714441 149.4334925 150.168584753 151.399588526 152.936031231 154.984806147 157.359826851 160.235188184 161.41022058 161.88278377 161.982315875 162.502749204 163.528781257 164.922630476 166.511916508 168.417464857 169.551864909 176.187573823 180.114441934 182.552876918 187.736710576 190.853299301 194.327686091 198.002156775 201.624276917 209.779354691 212.264482061 212.414275834 212.31299343 212.772636636 214.461734497 218.875939111 223.754147879 229.326295296 237.908263873 268.835276144 277.939416712 286.392590613 295.751099877 309.969209153 372.945004644 350.324203666 357.299458968 363.498583514 430.810074055 398.463758631 401.950411465 404.215820382 459.293522594 409.267588867 406.487972341 402.221725771 396.738940066 390.672272828 385.475827285 381.607236334 381.01098333 383.997753183 389.877618659 397.242313042 406.618163444 413.420308705 418.800306132 422.60911413 444.432244717 445.834182993 445.8179677 437.343881596 435.905279691 433.029975903 428.623630277 422.761786888 415.83097108 408.610690917 402.202093754 402.823422715 400.908952794 402.018202749 405.348071107 409.862837982 414.792873118 419.78876152 424.804340227 429.916248726 454.051922425 461.898771873 469.994833203
6296.54642746 6751.19174453 6678.48971818 6599.60932987 6154.37798079 6089.66682349 6015.94089484 5931.37303901 5835.46502086 5732.66109425 5637.43333833 5573.79646529 5561.67818012 5453.21890758 5511.40422602 5576.0647869 5778.84632947 5825.23581515 5847.43950989 5847.80370647 5753.43065418 5723.86273217 5673.69721241 5575.44769692 5453.22282524 5299.16980366 5449.74211788 5363.28742795 5414.71105364 5591.85313002 5771.37737143 5973.38875103 6090.46131288 6154.84200126 6154.34566173 6157.42151718 6013.04456949 5797.06630829 5820.80948723 5379.04513548 5195.38083732 5480.51597847 6004.28480735 6567.20486326 6907.47805389 6878.00005549 6407.27847221 5041.2699835 4967.99248034 4785.40608338 4830.79742718 4969.8132656 5124.36024011 5238.32787795 5296.7422437 5395.26115163 5374.55619424 5312.02604567 5092.38971113 4933.62763597 4746.58735474 4533.80542489 4297.42484914 4037.19452133 3769.24186371 2752.64209152 2596.87369647 2463.28778185 2358.18275772 2286.60728004 2229.39323206 2140.41344406 2125.59346259 2110.67086377 2169.69419577 1868.9347948 1822.69157841 1770.01730227 1504.73774067 1411.75518374 1301.17548866 1230.84286092 1020.41018304 959.026040829 895.723459477 828.593152102 625.999215611 564.886401778 497.650997129 428.914872458 366.201571248 336.038935846 336.653893699 347.943739463 354.500516938 354.609713691 344.977442659 316.401041673 302.870924273 285.651294858 275.801850958 271.133061001 261.493425862 256.738337065 249.161653814 239.797367455 217.833781308 208.668062099 202.682472498 199.277981822 196.206590843 189.926067667 184.54519526 173.898855858 169.702631051 165.738330621 163.716750604 164.083143667 164.870498172 165.021404554 162.626191994 156.797201638 153.170746706 147.245160183 147.344848675 148.609169537 149.679500923 151.915010221 150.610319197 146.644492692 145.211320855 146.508431326 146.663154553 146.894390562 147.207873708 147.644730497 148.524315356 149.967639227 152.226442662 155.110101596 157.322045974 160.52777962 161.318189773 161.668316574 161.844589591 162.592504844 163.942797642 165.706402866 167.783817032 169.001243357 170.542856751 178.495112276 180.696488544 185.599506529 188.827353608 192.578729777 196.673491788 200.808461939 207.911525898 209.81102397 211.346900766 210.835059798 210.938507372 212.578165082 217.041811803 222.660347149 229.130099105 235.914954396 267.718020495 277.53743674 286.553308676 294.875541778 362.319101622 379.000880579 387.497285399 362.887360504 369.429857213 438.454330775 404.867964061 408.560654349 410.929197235 467.100029673 461.383997275 411.809496156 405.909102295 397.986281731 388.783696884 379.891729649 373.717950058 372.775825814 377.433294176 386.501446951 397.428079614 409.657587508 418.507796382 442.034663654 447.20598292 449.981718768 450.962149833 450.596085156 442.189857608 440.604234576 437.399840698 432.223008578 424.933247594 415.863899257 406.036025617 397.158319427 394.614033273 392.735498034 395.769188543 402.284609405 410.373338896 418.587060185 426.226129342 433.151546595 456.822865058 465.319640463 473.60614689 481.808779801
7207.25486643 6480.77831767 6939.11345314 6876.43947154 6812.24604442 6748.88777211 6689.65328662 6637.67149995 6355.58207696 6335.77345874 6301.66418701 6251.37734103 6199.14177774 6165.03957131 6101.67124682 6116.49984537 6142.08575782 6166.67339015 6182.68621304 6187.04866022 6234.78064086 6204.03236733 6161.57660153 6856.29121416 6755.20553346 6639.14803082 6534.61663219 6126.70273088 6159.2071926 6258.34371068 6338.72742325 6468.77920774 6565.80095765 7337.37545462 7325.86907811 7262.84296665 6975.45795061 6508.35792322 5832.03875863 5352.59800144 4992.61672409 5240.01011612 5923.78488179 6652.67670796 7108.82889986 7133.70979404 6663.39815011 5967.9096523 5274.66468591 4959.96447812 5024.54187098 5383.18402169 5798.23216324 6136.75243198 5716.20638459 5773.43079349 5767.9913907 5522.8086554 6051.78560377 5166.30569056 4973.74117102 4754.42159379 4510.23894681 4240.43571209 3956.24571605 3094.42714171 2904.64402767 2561.89254255 2430.82349329 2432.14258425 2371.89714009 2314.53105678 2202.21399617 2253.42921779 2247.10133509 1935.3696575 1877.35451483 1821.49747808 1754.66999788 1435.04673308 1364.81033541 1248.34859301 1037.61201304 974.976540644 911.950792663 847.12719539 777.757612319 586.834876955 523.575327138 458.621736966 395.752819002 357.140390019 350.453560666 355.775786475 359.347700793 355.761478439 344.782548991 312.159735465 297.464117772 280.430761009 272.917187473 266.594716023 265.07979065 260.442316639 251.870284704 229.40462709 218.071168333 207.271299604 200.928084147 194.755417688 190.408182818 180.241852216 175.142632304 166.932345242 162.693383262 160.458577872 161.789514562 163.814341661 166.228807253 165.55893514 159.594161227 151.747990983 145.543923537 141.58078039 141.98930801 142.095800025 142.409364215 142.191963548 138.530444906 141.281352262 141.358068387 142.51672704 145.518504627 146.474838235 146.623448908 146.284577007 146.272174423 147.117470758 149.094168922 150.463869966 153.942142689 157.941891444 159.089337569 159.12663481 160.813890058 161.679378263 163.337307774 163.432473791 167.515603639 169.554256137 170.919790964 177.389258061 179.067693424 183.563821793 186.786327474 190.724112838 195.168765345 199.765569837 207.267283564 209.503813354 210.351132954 210.324828234 210.27476193 212.280332932 216.682427985 222.981403875 230.277552218 257.332748589 270.761925256 281.129645916 290.523559551 299.128545584 367.762757586 384.797441539 393.649719856 368.280941062 440.158196786 445.448080874 449.112235984 414.712313818 477.640174634 474.62130328 468.486450502 417.246707688 409.843169637 399.487080241 386.98698608 374.518614909 365.60339646 364.760118174 370.350449373 382.952892948 397.736403614 412.944214917 438.55724422 447.312551794 452.139481185 454.107876305 454.313425246 453.531452769 445.548601116 444.206555767 441.131285601 435.551485673 426.962902089 415.541902629 402.543352681 393.301497943 384.087583813 381.990298108 387.152299059 397.262964963 409.27973922 420.974559152 431.326651517 440.174980212 465.81567465 475.245375585 484.043887239 492.472496045
7430.44143302 7427.04617775 7364.70299014 7300.73637554 7088.75408807 7047.51231121 7018.95692732 7008.68277582 7016.94194567 7030.51247597 7028.23092314 6992.85981777 6933.75401576 6879.94219226 6703.95127026 6496.30447732 6493.91495462 6504.90029771 6518.17904682 6587.62671328 6578.66068917 6565.16654973 6551.05866437 7338.79670718 7301.91587091 7267.04112755 7240.3572612 7229.49934694 7247.20451984 6899.96121621 6908.04080789 6981.48260837 7915.49458699 7852.69927385 7890.39488873 7726.20637075 7396.42396411 6871.30423753 6455.87651236 5665.867928 5290.78647588 5542.70539452 6246.21645953 7006.34060351 7502.14392095 7579.56297242 7174.66027605 6572.60420221 5955.96084581 5669.36927443 5813.96929614 5790.43507211 6154.81256855 6450.07833012 5950.03439844 6826.64796642 7466.79803572 6397.352046 6289.44212802 6131.33028356 5418.35066873 5203.13006987 4954.63666926 4438.70754917 3445.49454628 3236.15730822 3007.10220081 2753.3620908 2532.96468242 2365.34029608 2285.1638316 2271.63653979 2323.73054335 2296.20385152 2301.70604794 2248.20819328 2195.28701722 1852.25555908 1778.62804729 1450.96658609 1378.30544765 1258.79910952 1053.2937741 989.542732875 927.520240848 866.938588669 805.51956941 712.340318697 641.88319091 558.626441249 437.170847678 387.290072328 377.214717803 371.304623975 366.91212315 357.619441369 343.117898305 325.086669224 288.431081637 275.78675399 266.792336349 267.814482573 267.724451338 262.536459732 252.593871121 229.142574223 216.398012942 202.50320481 194.911182036 189.874342407 177.482081187 172.628945966 164.456722998 159.877993893 156.664685418 155.517128547 152.663797557 158.390607196 162.93200714 161.55810967 154.353320361 145.127238095 140.750535838 136.160147908 134.092765036 135.3355532 135.193551616 131.950606501 131.820909692 132.598333073 134.827401716 138.870100751 145.032983702 147.869018361 147.661694974 146.033724339 144.538784771 142.552987028 143.710162082 146.198402728 149.238894307 151.900635319 155.366653851 156.061396765 157.561143404 158.789058971 161.091909226 164.331021794 168.993552876 172.40294972 173.692511007 174.21206724 179.628649466 181.691525877 184.744894321 188.721619943 193.372479655 198.2907278 206.384906504 209.092021036 210.344167114 210.543851946 211.092646943 213.519438375 218.319959863 236.572265093 249.179844358 261.685000958 275.348211143 285.839042852 295.252060989 361.639368077 372.907523666 390.147091955 399.342578011 438.915655133 446.075478075 451.588843552 455.451800837 420.27399255 484.393760814 481.873312247 476.115549322 466.06517802 415.364914742 403.419864233 406.23236328 381.351988459 363.877648538 360.108618986 369.652036421 388.240032382 409.888809582 430.574551658 444.600701177 452.742391954 456.03999447 456.217661337 455.033104491 453.720652054 446.728612972 446.333584827 444.267706772 439.151610976 429.981330168 416.701126478 400.773906553 387.446347628 375.708666078 373.281320443 380.416293003 393.853641349 409.386192043 424.055067648 436.603002935 462.724824598 474.215086869 484.294725455 493.465642479 502.100385046
7684.14450143 7633.07296663 7579.5660133 7524.55950222 7470.45414897 7421.74781818 7385.09264635 7367.66554384 7311.58327032 7344.37703351 7361.63183747 7339.93558611 7286.52417708 7232.60298057 7315.69094281 7337.26177526 6819.99878394 6829.71245827 6846.32572325 6913.92100749 6913.7023114 6913.58174894 7768.28186695 7760.02933664 7756.06652892 7761.41600359 7772.72910739 7783.569729 7799.87936122 7879.46759118 7919.55637464 8799.00911601 9264.31807326 9334.74883364 9289.34882741 8257.97951233 7955.43658213 7476.5937385 7250.54467376 6574.85186984 6256.65105601 6454.50733969 7035.6697532 7686.38960735 8133.1793906 8286.53607314 8032.86575513 7560.27183987 6978.75193093 6738.45786224 6798.05593586 6390.3367127 6632.56242345 6821.77841831 7129.0583939 7676.08217165 7700.44394539 7657.27170757 6507.36180168 6341.01269743 5609.68165779 5390.68906585 5141.08664314 4865.15940887 4548.10173369 3390.39559148 3118.17198083 2801.57060379 2509.48992112 2280.58675095 2177.21195349 2204.79589694 2301.83844403 2381.58178712 2319.11117954 2285.69461346 2221.46751493 1866.43239518 1787.18186922 1458.21172511 1385.40082348 1175.23980056 1109.08906159 1000.72106732 938.82849953 882.666098851 814.204574158 761.180922859 684.290969655 623.983985551 536.115920739 424.64227225 405.202258002 387.825213301 374.783617081 359.656098012 341.950345586 304.029328652 285.52740123 267.816904077 263.634236133 266.185166805 265.885666454 258.99900132 237.85645818 224.815809381 210.492520427 197.317949069 189.162911639 182.655049002 170.205819178 165.114554158 156.654926234 152.715870717 142.561672219 142.749376142 145.350783659 149.273095639 150.600811865 149.719919452 143.939803273 136.585799364 129.973249066 125.151113306 122.552265869 121.258405844 124.423605622 124.468978601 125.266458414 127.182802873 130.984323947 137.080429221 144.208966717 148.946731089 148.265711882 144.087065442 141.160566381 139.40394423 139.66511794 141.416706614 143.887999522 146.308822197 147.449701683 149.035223567 151.863464249 154.375600229 158.957533108 164.133400345 172.141626595 175.101260484 176.001029386 175.491937779 176.146891602 176.87400926 182.754381471 186.59523089 191.274217718 196.336945244 205.141624041 208.428860861 210.389420006 211.380885061 215.941000811 216.816690297 229.151655582 242.988083107 255.628544672 268.097940011 296.069750184 291.621110473 300.642012556 366.159089539 377.400664453 416.58566941 427.854379272 443.561526155 450.97176657 456.579491454 460.516313671 462.954125012 489.746324217 488.404137431 484.147140517 475.592444852 463.756506278 442.656208044 417.128708664 391.757801814 375.553031962 371.476578174 385.415789777 397.401318144 421.67642247 440.051392406 452.669198796 458.283703846 458.324658507 455.263644558 451.764635079 443.643849303 444.606882983 446.261378062 446.581445175 443.351787087 434.994639921 421.256044503 407.806312064 388.562778426 375.23414971 372.485629396 380.694525389 396.025845486 413.519800617 429.737012261 443.2881097 470.6984739 482.468827476 492.675009443 606.387204243 621.870630741
7859.11417734 7820.68139622 7773.72816397 7724.14407412 7672.80003831 7622.12348291 7576.53704184 7541.86730923 7522.73447466 7518.05471281 7519.09058384 7517.75520356 7517.91197279 7532.02687422 7566.23711175 7615.55688888 7668.9530076 7742.94953233 8497.72098346 8237.68825551 8226.87262325 8189.69021971 8223.10155651 8859.34937694 8702.98118441 8546.04530484 8486.06537664 8491.19427835 8630.99773042 8867.90720879 9146.78583225 10010.4618743 9767.1297083 9859.08173348 9844.22181596 9791.39166604 9288.76909449 8901.08020028 8412.59018725 7946.95175895 7637.0284695 7767.93245281 8178.57249146 8659.67878121 9055.45519406 9140.7894647 8966.76212431 8627.35805486 8703.19459531 8366.83246665 8323.89674754 8420.74401163 7117.474523 7340.27678907 7363.07063832 7857.12343953 7863.6386665 7821.4854682 6696.20572423 6519.97258668 5774.5731808 5547.93449204 5306.69042509 5042.73109451 4736.80534355 4365.0830291 3891.88261198 2911.03160029 2564.83262972 2290.36940758 2166.92250679 2207.6763835 2326.50201977 2433.07006653 2375.82688078 2332.98365061 2251.99268855 1858.83911423 1775.1086903 1455.37937385 1386.07166492 1186.86978186 1117.06136352 1031.80607196 964.281883046 897.070732718 832.843099121 794.139344922 731.372555704 642.95827022 592.939720691 479.194697371 427.289658759 406.862294549 381.051929528 360.901325634 317.40339631 288.574830269 276.509547966 264.382795336 257.699275763 258.847605634 257.214830111 240.92175722 226.888774881 212.677515131 200.474717251 185.714860904 182.132295023 166.387842807 155.590956032 150.56733239 142.128102663 137.136320311 134.860479342 134.019728286 134.6925769 134.811887157 133.969714662 133.093437674 129.642279829 124.890158173 120.883174412 117.369212462 115.332723236 110.481555532 110.23076396 113.005912109 114.328491234 117.077940113 121.628196422 129.255863638 138.311590311 144.421498793 144.179811901 139.042399966 134.792620059 131.808586673 131.133532337 132.224270114 134.333493981 137.530957024 141.993965413 144.389554716 148.572407937 152.438618881 158.58347551 165.489455887 173.452369206 177.87074244 178.458984016 176.872080775 176.001744054 175.806145215 177.33546652 180.548561708 185.0931563 196.718364388 203.568859385 207.515869256 210.428495977 219.594382095 221.972630029 239.741122186 250.226915394 263.313855342 277.191213094 292.004920371 303.506238854 313.454264502 322.331005331 369.497223253 380.751464401 412.156525721 431.37739578 447.09597058 454.629051798 460.022631003 463.675620753 466.140090493 492.534782245 493.070391213 491.620898829 486.459494862 478.039808139 460.588843265 438.520313137 455.630605861 405.161943174 401.776087458 447.929838963 485.060081091 501.691576532 529.626319164 462.608038988 463.487145 468.162233235 459.296483886 451.676410713 448.828347159 451.612288982 443.059705052 447.60573011 448.105171572 442.41997078 430.272322897 418.501499804 399.783816454 386.597540092 383.658208579 391.467247831 406.341923956 423.347204212 438.981801458 481.429700006 561.618866896 580.339557399 596.989327406 612.760240502 628.323661575
8010.35190968 7978.54610184 7945.48864867 7900.26505023 7850.08796063 7793.84592149 7731.6406812 7665.84023395 7602.19943532 7550.92496341 7525.98929695 7580.91630436 7592.07820948 7673.58192734 7767.70748816 7859.74851822 8846.16604774 8964.28014322 8801.6681059 8817.03972179 8531.02315205 8489.36442756 9261.77885167 9085.2475686 8827.73933973 8529.73581863 8321.44334142 8299.56324275 8552.8774694 9441.50405675 9981.51109176 10376.1238361 10620.4303498 10697.2710582 10878.0490611 10279.916291 10824.3983814 10670.9455204 10425.6171464 10166.9615347 9941.70086388 10053.2216321 9523.80421425 9899.61700367 10129.8355649 10180.4874001 10040.068135 10322.1216213 9984.48304619 9570.06850194 9328.16662674 9117.47390186 9067.02027226 8070.80096916 8006.26561722 7874.02212432 7912.37650594 7911.31880469 7457.49758521 6659.13713072 6524.73026866 6178.27138154 5432.13653184 5196.25063806 4929.0848257 5080.590817 4142.96093383 3626.72069035 2760.03524803 2472.18972085 2322.26414132 2344.65566945 2435.77445054 2514.42496034 2417.59277201 2338.15789217 2219.37954025 2094.7188531 1727.13129964 1654.66306138 1389.99536115 1208.01028234 1133.36567972 1052.04636916 956.148141993 897.462493407 837.733216901 812.74303175 750.578154736 687.603734394 556.219235604 508.596674832 470.864328978 412.978292012 373.765048262 350.203689313 300.546201872 284.95723021 272.357188982 259.567927229 247.290763324 245.113785198 241.814819259 221.450004402 211.101213738 200.504389058 186.222002389 177.511184541 170.030019755 153.898346889 148.219759057 141.21112533 134.982268847 129.628799472 126.627033644 124.312223107 122.627831131 116.736255583 116.519307619 115.769499102 114.629134208 112.804463314 111.251621943 105.75890756 104.691086907 103.70919936 103.574253363 103.990337247 107.365024505 109.607112973 113.126432566 119.184074307 126.517212299 131.889336935 132.493665445 129.207494748 125.115314651 122.321731219 125.642089768 126.578663424 129.368485639 131.608055094 134.089548472 141.186755242 144.701981037 148.459014898 155.320545555 163.892191089 173.814158709 178.720185343 179.311892155 176.756829466 175.287637606 174.390440434 175.399326922 178.235257255 182.501214825 194.507322152 199.223427163 215.997900511 219.548003148 222.919145455 227.061803992 248.450811229 263.094245279 275.333722554 287.984711353 338.231195047 349.80539473 360.310929699 371.020006048 386.19083894 401.56119104 413.953317453 433.672464821 449.495915011 456.882478331 461.444546322 464.047181739 485.926615161 488.592965295 491.887471559 494.769962253 495.160299195 494.303045689 483.261599528 539.299040221 520.962864519 500.454023144 496.743343476 511.666266572 538.879536026 538.218230993 555.450439292 567.071286721 477.574901184 463.754072264 446.888349846 433.462465072 429.104413297 435.20086849 447.919104816 460.741324993 453.245683317 452.012186306 506.269590739 436.099231312 420.319580333 408.925489745 406.003373502 412.104709831 469.809534216 495.531390139 518.80617064 553.023949281 570.534155738 585.839679382 600.597928267 615.79304027 631.745489515
8138.33021207 8109.74376393 8079.90481922 8051.48928971 8006.38414361 7950.60286955 7878.9667772 7789.3845323 7688.23085076 7596.58433438 7549.42864213 7651.9095088 7892.82236666 8224.74569792 8649.98057138 8931.30641525 9120.4592949 9224.17960334 9263.57698299 9061.56651029 9039.17513631 9650.40855166 9500.79159994 9293.64983384 8942.30309589 8495.13114796 8133.82443905 8102.54270833 8647.96536824 9511.21642178 10817.2419415 10723.5174619 10930.8892498 10898.5728709 10959.8999912 10992.9303489 11126.3170809 11332.4693466 11497.2541137 11595.5733479 11697.8934501 11749.4199531 11989.3527085 11233.6173869 11376.1092591 11380.0410242 11879.2462545 11581.3557439 11186.5187206 10803.7081687 10273.5974663 9625.72971191 8986.9545287 8482.58088928 7684.69088444 8026.77170494 8265.17463875 8453.14409715 7548.20630363 7361.90613762 7153.42332622 6793.63183707 5987.91523946 5772.3860638 5570.51273721 5312.49144996 4938.98280743 4424.33433235 3428.82553356 2817.48985682 2627.45380988 2591.55922687 2623.1836813 2622.58693844 2462.99958024 2316.60833516 2138.10703239 1969.35825594 1649.80934887 1596.76885264 1560.03220236 1406.94890925 1141.16903269 1048.11610834 941.999311246 874.600977461 836.12364802 824.960817852 773.023370071 727.488091063 673.448540046 621.470518417 466.82330617 429.878158471 371.494575125 345.817905436 296.176581212 279.82007591 266.09898136 250.620263245 233.398571191 227.495923868 221.739017938 199.908905599 193.772035832 187.00035501 177.099141874 163.060889311 156.908631495 146.941402682 141.546277985 134.534174183 127.595560866 121.341399874 118.585395886 114.809476469 110.864396927 102.812982933 100.700401432 100.106251752 101.005630651 101.764118823 102.281037176 98.4462536956 98.0204502243 97.3217594394 97.2815366443 97.5609421706 100.190135892 101.260390007 102.779536644 106.12642283 110.833987181 115.248008971 117.628786207 117.510169236 116.261531488 115.307690551 115.222699158 117.05477758 118.655608615 125.734565239 128.349853903 133.304467263 138.60238037 143.959265511 151.052461168 159.722776353 169.113794269 174.818504966 176.543024419 174.216836004 171.093187457 169.260248864 170.443689903 172.769954092 176.706961656 189.140449618 211.692307679 217.182298201 222.264011007 227.408198848 233.330129651 259.800391045 275.321331654 286.887403275 298.359461617 344.331391821 351.861919703 359.141145688 368.051335494 406.915692108 423.678873326 435.742813462 483.908594875 467.109605924 487.926433063 477.489432477 477.295107719 477.23863564 479.858130637 486.093947992 494.518391661 592.181083281 602.752177556 599.45962045 587.8682589 585.068706239 573.249868178 571.637705135 581.493164113 598.236173821 579.127783046 584.567294002 583.841259308 556.500596788 514.662364838 432.124730164 411.372318909 405.118710373 415.580045199 436.570163449 458.319353984 473.258861156 539.630616559 543.488231403 527.375913394 507.346317955 491.827971579 486.670310685 493.121671586 507.196970272 523.178389983 551.162505013 563.852262972 574.677425404 585.810310711 598.783467083 614.067130794 663.487007244
8238.889669 8209.30257916 8181.94151684 8156.85365613 8130.64329882 8095.81439265 8035.2045131 7948.39192769 7841.4163966 7741.45324102 7692.89033927 7946.30292466 8197.87938039 8617.25309999 8966.83134145 9231.44803913 9384.41465066 9435.08994036 9418.53315211 9380.83942052 9988.52974731 10024.1462323 10562.4367283 9550.45285448 9193.73273107 9064.32996676 8412.79004902 8329.99646027 8940.28810939 9901.16876903 11300.1963439 11849.5788106 11145.0343976 10827.8064175 11023.8664789 10517.6140326 10892.0544075 11562.4232883 12244.4296724 12782.9789732 13183.1301906 13950.6654922 14257.6109112 13881.8570494 13499.9961431 13497.9727264 13240.4569647 12875.5010052 12817.0512917 11714.9130854 10798.6462921 9652.88180309 8503.86214526 7632.83035649 7212.39801362 7435.02907032 7953.1112915 8363.78133886 8615.67430278 7537.94259503 7106.59755529 6626.836089 6250.39513862 6054.53999636 5994.05181359 5932.30847255 5254.39388333 4902.24739093 3921.641103 3613.56944579 3458.26793532 3005.38961103 2851.57727568 2754.0842193 2512.65239251 2292.42707586 2022.18106201 1792.95137019 1518.27489829 1492.22614656 1501.70512197 1402.67626029 1323.75324731 1046.2251114 928.696447005 851.602359223 817.65233228 813.015920496 787.558369413 740.728495301 682.855735686 626.977399089 466.853595183 427.360016288 365.732513354 339.270638625 288.047015888 273.184041192 258.04005168 239.489152293 217.786847262 208.094254993 200.257178102 180.250628381 176.875255775 170.837257047 159.882397879 154.823022521 149.588047152 142.647096123 135.125200559 125.600066143 121.387195634 114.915510482 111.042057691 106.119172755 98.1086376357 91.4874872578 86.7638851464 86.1976974388 87.6981538863 90.6358654522 91.7491321699 92.1507151251 91.9723138482 91.4060281486 91.4537344494 91.6272643207 93.0589619519 93.0068715409 92.1619950253 92.6092107337 95.0731841993 99.1307180416 101.221234563 105.885649636 107.138223711 107.929781563 108.847896681 111.224563771 112.977915411 115.163932057 119.486563881 122.681844359 132.751698623 137.789580539 144.212697345 151.87180731 160.610076172 166.692293829 168.331634874 166.89930029 164.568317052 166.272640255 167.061653494 169.56895218 173.525052915 204.910521403 211.641506279 218.170634813 224.61630257 231.351585674 238.926601498 270.481945888 281.187975648 296.790892781 341.697058559 346.475090638 349.475662464 353.277104006 379.972220935 395.613066462 416.160249219 459.973685084 481.953254551 494.065307912 485.376068069 481.554156931 487.711889256 480.49162018 480.615331911 490.416238028 562.028574638 590.469333605 691.175138696 631.31129098 649.348203474 646.512445147 643.278606522 644.121250437 650.051552713 657.943035407 661.665387946 655.447729536 605.504299714 565.939500149 510.448748736 449.45135592 402.196956113 386.218119003 401.032939416 429.965531652 459.884656007 540.02171807 569.237065759 573.90999211 566.591499581 553.990482235 542.702780806 562.242062786 563.752378348 569.541596069 575.325873999 578.663918551 580.405402349 583.621489255 576.786927621 589.224340952 690.51667767 721.325753128
8307.91181268 8269.47095853 8238.00594511 8218.26197889 8210.29778781 8205.66081157 8191.42413996 8142.16634491 8068.90968812 7997.90007059 7971.33774406 8498.66013694 8742.15942125 9060.76899578 9357.22568694 9557.95052255 9627.04397665 9572.30346302 9446.04429854 9332.40720864 9805.70030004 9950.02693452 10891.4313783 10732.4636456 10429.7582286 9862.00940204 9358.40543021 9326.96699004 9880.40942145 11217.6534386 12074.0714601 12372.2853087 11964.6729314 10952.3640302 9987.32501823 9494.76157715 10167.9490856 11446.6112315 12772.1867231 13831.9268203 15040.6055015 15599.370402 15984.2681751 16233.561761 15781.3875496 15711.6704385 15450.7264627 14970.7870894 14065.9820969 13242.5761707 11710.0975623 9965.75110213 8115.61577219 6718.93156786 6346.55808039 6767.1448424 7655.75169249 8446.97153488 8644.29950785 8214.86434733 6925.41197533 6251.0754634 5756.93668876 5599.97517204 5729.46339585 5927.5944729 5991.98492908 5334.95678203 4978.4772183 4197.76844921 3988.10642912 3834.22937024 3221.39830697 2911.98047691 2567.44153694 2260.51161404 1909.62010835 1586.43827163 1355.49532574 1362.53593565 1435.52140689 1404.89758328 1348.15120845 1203.55827486 941.041223916 855.90056423 818.354117536 813.556371887 786.205963995 735.490979227 673.76238598 615.644605295 456.697185438 417.147385615 355.421082121 329.682608549 280.342434449 263.099331652 246.809514559 230.485785355 202.326146065 188.645188214 178.596405008 163.519755629 162.978140263 158.737024557 151.590966826 147.379499493 142.642302353 136.089406604 129.013132344 119.834436667 115.812533141 111.739996223 105.53136861 100.255630475 91.6838993233 83.8370874753 78.5159009505 77.6869155875 81.0259141664 85.0877142779 86.8666470848 86.934988215 86.5030041707 85.9065405436 86.1379456151 86.4488648319 87.5337045384 85.7609294299 81.6625205914 80.707163458 81.7968558827 85.8926437885 89.9587193992 96.1850875076 99.0110528477 100.980551627 103.792134828 105.524528805 107.441384102 108.785739984 111.419506676 116.155328313 121.849690114 127.631577946 132.979053356 139.151321487 146.952662314 151.70514174 157.263265299 157.653461161 158.195727148 158.298074921 159.582467463 165.804490979 169.080347811 204.030209013 211.409867411 218.830628128 226.409898268 234.457676618 243.417569938 278.030171132 289.085580495 362.237562526 344.898197828 344.881879803 342.989140828 343.183218871 361.996863855 381.10575096 407.314629679 453.881299371 478.767949891 496.69571117 495.859924482 482.937671587 466.070820135 450.647558175 447.754005645 461.900669271 534.606185789 581.542387715 701.50375625 743.70547331 765.830895305 702.907046665 707.803581909 711.542448587 715.179583384 716.76916067 712.00953601 696.6761133 636.158972007 589.253851243 526.405160646 457.995421176 404.829072715 389.322030186 416.838659381 471.657635724 529.991170995 575.773522751 612.825429198 607.443030321 606.313452385 629.612474204 619.955924026 611.750374264 605.374899959 598.751467013 589.503295755 577.645408573 566.736634205 562.08202577 594.883475123 634.468178964 666.582480522 704.822152039
8366.09807306 8359.06900791 8301.43735527 8272.98028172 8221.54200205 8260.04439259 8305.03765502 8331.65455674 8331.9867598 8947.84969361 8977.19805495 9099.71186792 9316.51415177 9575.92343716 9796.07001732 9900.71665787 9843.82615725 9625.99010986 9318.48621297 9066.50239778 9368.07626368 10160.2029001 10809.5175654 11298.5859655 11196.0022683 10993.0053435 10762.1749083 10827.8751339 11284.2529197 12561.8532011 13127.8440707 13098.3762675 12247.9358723 10659.7194162 9084.61448086 8544.98139752 9521.60798213 11447.5861497 13425.6196487 15407.8720107 16560.600539 17313.1809981 17781.9733281 18786.4552278 17489.7536953 17382.5952087 17070.2357962 16984.4486586 15705.4392541 14870.752572 13005.6825253 10656.9733956 7966.74325358 6194.23711223 5756.70201404 6662.05513918 7729.87068244 8620.34672382 8829.53722762 8261.77581907 6786.97042374 5866.9225005 5202.71203468 5061.11934334 5390.34237241 5863.55699094 6185.39812289 5644.59033945 4895.00006385 4681.83665902 4467.65463408 4260.17646501 3504.08444193 3131.78176391 2657.02449749 2278.06722507 1845.64787748 1450.6015317 1238.30133181 1263.48865992 1388.5343196 1413.13179378 1377.59263403 1260.94215889 980.91537475 892.693685389 832.135596627 815.273606863 788.446774517 709.436327765 644.502700128 586.759694209 434.598795724 401.239224631 341.381986986 290.187359931 271.933176545 255.285757155 238.689389146 220.40221111 191.385086294 172.693051493 154.332377845 150.385804703 150.215311406 150.805474034 144.977735238 140.705793885 134.156437746 129.764423201 125.765318977 114.580331996 110.827382026 107.075065554 97.4953861566 93.7297687198 88.7072800016 80.7598058047 74.8533889649 74.5024085162 78.4595223499 83.3201248767 85.1468059707 82.7612417582 81.3307959673 80.6017668312 81.2639939534 83.6340878516 83.4249952363 80.9937603136 75.3789224044 72.2094997527 72.8325698952 77.8727899631 83.7881008227 88.1290954995 91.7092190849 93.4855173707 97.463008023 99.4785503902 101.520962586 103.677462104 107.886412046 110.406125274 114.571636188 119.589681331 123.153160298 127.20801919 133.435510594 137.424234546 140.291054714 148.097373298 149.882801156 151.850923246 154.480591984 157.321478023 165.183408171 202.919307735 210.893126439 219.043550758 227.496549213 236.524341696 246.503403069 283.289075947 323.073425691 366.967480124 362.124188561 351.787473623 335.154596571 335.627182338 344.127005557 367.700535136 400.523316103 451.916981777 481.216538211 499.44348654 506.663947345 482.483539181 448.829671976 416.731636618 409.334893496 428.4932286 503.896214375 651.227435381 734.533605657 797.512195659 827.663805158 853.103118844 767.901674893 774.775934241 777.632303487 775.53316902 765.720694321 745.434988547 678.928574149 631.255109333 569.831128766 504.165081042 476.923138663 456.64282767 490.591579643 558.830856379 632.378461098 619.573370484 648.780001585 736.679139475 737.268177474 675.682051711 665.65998734 652.861520486 637.095297833 616.732292575 590.849017178 562.043819888 537.490032329 551.308765432 564.610536545 593.643575654 636.360859905 685.397916103
8363.80699776 8267.60328775 8181.84514518 8162.83893318 8184.21230168 8282.59915697 8433.70906763 8565.28846941 9357.80862932 9490.83174148 9540.4304931 9704.98245808 9912.04569097 10123.3831346 10270.304645 10270.8207654 10068.8290981 9650.88291289 9103.1549744 8650.50543671 8697.00284171 9537.97470748 10626.0217501 11636.5075508 12252.6408817 12460.9283016 12315.0856819 12515.5777241 13687.3801992 14238.2445538 15138.8537321 14800.4406209 13563.9071687 11513.7317909 9510.79337552 8832.31928677 9992.90521589 12323.2592467 14706.171389 17020.1311439 18362.1377487 19211.579735 20429.0498573 20694.3487899 20748.7319914 20552.0875392 19373.9236184 19301.6122369 18282.7400866 16456.1493166 14462.9873886 11944.2272935 9252.70568458 7105.20747401 6585.35480798 7334.96808671 8614.84957327 9166.60710446 9258.06174263 8531.52222156 6870.54515523 5758.85709113 4950.1820528 4798.9605042 5260.98400614 5927.13055392 6484.47588685 6151.35896997 5304.39408473 5128.29524794 4911.33756498 4665.80750867 3783.73892548 3356.98528042 2998.55349088 2410.47821504 1945.4309591 1516.50119626 1280.41976982 1328.56320762 1435.74921049 1471.9245613 1447.06415846 1342.02088894 1037.30411704 945.312088494 855.229674906 812.214702823 761.463169998 696.325217061 521.337130017 472.839326559 404.356573724 378.84046603 327.3247415 279.89706903 263.227501831 248.141562678 232.748444769 214.232983882 190.754117166 160.952513631 143.740959743 142.576574247 145.175402209 142.891274955 139.056415332 133.719378306 127.500353009 123.480628798 117.579960572 112.383776402 104.515226943 95.9938155544 93.8745893855 91.2997376346 87.9576885974 81.8480346892 77.0953914436 76.6786905211 79.3050366763 82.3755719875 80.9336214343 77.016571123 74.8845469821 74.2416247345 76.5575661451 80.1770729388 80.8187624933 77.0618073921 73.0106331378 69.6278742639 70.0420156125 74.6527196191 79.7486921133 82.7210349287 85.1164973296 90.5723364837 92.8027640279 94.8805285698 96.8935978064 98.9057207827 102.878373415 106.5403723 108.178438638 109.4025911 113.252932807 116.327580657 119.907714414 123.43354625 127.151405494 137.247918683 141.20536206 144.389390927 148.384078016 152.793319488 181.146333309 190.510567765 210.012979507 218.72029494 227.773817371 237.422469099 247.997949158 319.443328241 327.680725048 371.628865212 363.721401945 349.409551409 333.703873023 325.985654312 335.213919049 362.688149295 412.308588466 456.918362773 489.517772452 505.832379954 510.307741882 477.792220927 432.526437588 392.647063893 382.120273413 418.006687138 529.57922807 647.871637294 753.310665447 834.231160299 877.686541705 913.595410024 935.177239882 835.816487477 838.900852508 835.241028296 921.824519846 802.006631277 733.941990149 780.329430843 714.215715962 645.09799836 591.651291016 573.837614408 597.236344535 647.754723742 704.2394311 761.22967788 773.821430615 787.497466362 787.36610451 719.727819159 707.010474893 688.092173225 662.067144726 627.319357636 583.902320907 563.374021229 515.760404007 496.72531239 508.703279542 549.231397438 606.017033396 668.035435514
8332.11360137 8198.19726447 8066.30486287 8007.33926909 8026.5767696 8183.69750432 8428.4242917 9256.3333795 9613.20180501 9899.89198111 10149.5876503 10378.6985139 10617.535472 10694.5564524 10791.151465 10713.8571781 10392.4572865 10393.4414335 9346.95208015 8456.79752068 8291.52433466 9191.04521646 10725.0082668 12120.4259849 13160.8993933 13767.0829285 14161.116839 15876.6896233 15586.9820046 16743.5781808 16907.1298162 16528.0678273 15418.6434549 13634.4574174 11995.5840285 11421.8568819 12769.2436576 14690.2253814 17431.3739901 19325.590533 20596.808564 22034.9628833 22494.6280891 22701.4541986 22696.9978763 23005.5952725 22515.6250322 21234.0478746 20305.2560686 18949.5675731 16712.3286426 14352.1240782 11810.0606709 9877.59720304 9112.83869894 9208.35469016 10022.8493418 10554.069786 10438.3839176 9189.86078235 7923.64279152 6209.12450266 5377.58170289 5199.76906955 5644.27498862 6356.64287913 6911.25375104 6567.25067663 5725.10980546 5568.15748288 5344.3957157 5071.40874665 4124.57029166 3817.48799307 3279.57709494 2832.49977497 2340.09784619 1914.50608164 1666.72335879 1676.64061071 1780.95709562 1589.66496719 1547.16405369 1438.63146751 1097.19257164 994.557686826 873.066864559 799.107021588 719.293445179 632.60943572 458.970990108 391.49771362 368.973415738 333.410536349 313.236583951 272.796372509 254.186095338 241.487038759 229.200514218 213.110873049 186.312219737 156.059959663 143.317278167 141.839415642 143.401769099 138.814905196 132.530898317 125.573260879 118.619951714 115.311400278 113.323422475 106.760251543 98.2371235574 94.0984982103 92.4204613821 91.048956567 89.5757772381 85.4601107682 81.6679591459 81.0125052642 81.794165427 83.1409380863 79.9651945029 76.1503093989 71.2185053821 70.2333473309 72.4097413571 77.7084001465 79.1158641776 76.6868331871 74.1763553458 71.71236229 71.9183341844 75.1835020011 77.5706379109 79.9513827646 81.6991065732 86.4932623183 88.7001932994 90.7534109609 92.6685485884 96.3862705234 100.000267418 101.383291292 102.373772418 102.357289225 102.207013473 104.93948211 106.275644033 110.470328909 116.464273733 126.332739812 132.311897106 137.852052805 143.122553468 148.383600806 180.582549902 188.746909268 205.177272044 214.341143715 227.195099444 237.101656194 284.697216148 322.513827946 375.694847569 375.698913145 370.227134954 355.937513409 340.700588091 333.249985508 343.283109541 379.807305857 425.556648902 470.983791476 576.000162629 591.67562966 587.176245403 489.737860516 439.568359732 394.689748661 382.373109345 436.013140636 546.632820033 676.098693063 794.022764278 883.868141635 964.355653126 975.740078219 1001.44288425 1017.03246434 1018.66436037 1010.63349916 1120.963172 1099.16983214 950.834145914 864.364141688 815.418226424 766.126518046 728.062464597 712.959052439 724.327054119 754.418615969 800.339537794 832.323955146 853.654745342 958.508569293 838.406203017 763.244095481 746.640310392 721.369300405 685.790095348 638.030975782 612.753904523 535.446956025 471.763971621 444.600540373 461.75115819 514.868830544 585.798210114 659.995004697
8334.73508765 8164.76400587 7985.7350023 7860.55575575 7878.10405299 8084.19018683 8419.77749626 9349.07949918 9849.77447889 10262.0534943 10610.0337753 10919.603463 11198.7192175 11398.7428625 11486.7291905 11386.6581194 11790.382422 10942.4207191 9843.48119304 8910.89371869 8852.49108627 9849.3124364 11874.1400404 13721.1016096 15083.7459215 16043.5050457 16659.7654089 17900.5791881 19318.4570261 19733.5331925 19039.3234861 18852.3579853 18194.9057848 17704.9876958 16787.3347575 16812.0110715 18246.2309959 19835.0805449 22504.1025486 24077.4573069 24748.2449459 25336.4158167 25295.8923663 25385.4278906 25318.1364563 24928.9155592 24485.9706392 23334.4987223 22621.7244401 21565.6858968 19656.9952208 17657.0947351 15823.0015426 13944.4719717 12527.6025691 11788.6225868 11935.7036927 12043.476034 11628.245254 10613.4920976 8946.69788774 7727.0157503 6497.03290509 6290.02988963 6622.07237286 7136.30486153 7564.84751579 6936.48691354 6912.78594317 6029.18400856 5786.79259001 5662.49298569 4475.82372383 4167.72122638 3791.73827853 3402.99434972 2826.33470395 2481.66611737 2254.24190663 2186.70727268 2139.54880821 1914.77248184 1678.3954215 1545.65283899 1342.65159777 999.042114782 893.138660589 782.121000117 669.478780872 555.847061242 459.704272765 356.765359716 317.090560618 315.269801978 304.311817928 262.31718112 244.359288766 234.360492857 226.902819252 214.739012715 193.381599404 164.690796214 152.716359244 146.994771512 146.437537637 135.187870732 126.306341802 117.528912405 110.946748224 109.388767089 105.577637346 103.751362139 96.1433838191 92.7564370818 90.123566317 90.4275573279 92.0116933083 88.5507135103 88.3132932341 84.622309714 85.3725888924 84.3464151083 80.0374756323 75.3593931576 69.9091497357 68.794991285 72.3117572613 77.6251999828 79.6195178208 77.7149159865 76.4519756092 75.1077917425 75.977626252 77.1320014882 77.7932133708 77.1059677313 77.7807346259 80.1625901762 85.0598624423 87.0590784159 90.6692913415 92.2701113759 95.7142559415 96.9441016422 97.2566997932 96.447098527 94.66677196 92.9337405592 94.2715243874 98.7427875221 104.82633922 117.459268722 125.258427397 132.222628584 138.495456047 169.726126633 178.316582456 186.897448912 203.519496623 218.616017015 227.915497433 275.074924924 308.378273973 373.773841913 380.811887088 383.390939424 379.991268326 370.970224413 362.286811273 358.717874526 370.43797453 410.285846988 453.732355657 566.671821749 609.001413844 625.479473246 625.520867346 579.937724748 517.238301291 439.491479487 466.285876742 517.805678578 624.164709966 747.960450223 859.855741414 963.531635408 1028.01135981 1071.65943724 1197.17891228 1216.72153741 1084.40869586 1214.42346149 1193.32601804 1175.03817209 1026.1460805 949.098810293 915.561938818 883.340061289 858.122043825 845.388249133 847.213550762 962.882386303 987.889473804 906.158321748 1019.34116218 1022.89272029 934.158221396 897.563101117 875.121538253 839.673159168 785.770503127 705.745591805 622.41140165 532.315313938 463.70851567 426.142111341 446.694751007 507.945764644 587.661117762 669.038000238
8389.5205873 8207.24618006 8008.24411497 7865.3444758 7878.62740346 8125.52593425 8519.2323195 8946.40809055 10138.0285692 10635.9848867 11060.2080191 11432.0055683 11757.1351166 12017.645425 13230.6955907 13170.7790933 12806.2101877 12037.5188703 11149.4988401 10808.3426559 10721.0248776 11612.620141 13658.3129776 15854.3586788 17407.5032298 18610.6110123 19544.6082748 20942.1174792 21567.295703 22060.9580598 22374.0258233 22456.8426388 22201.756532 22058.1097158 22158.8409175 23298.3646697 24618.8802615 25799.2118113 26901.8752339 27631.1753738 27653.7978105 27812.0064682 27492.9457849 27423.1231856 27266.3117175 26848.5152152 26462.2435437 25503.8415487 25102.604832 24475.6734134 23419.3186094 21882.4145501 19889.9830218 18015.9389255 16656.7525497 15062.0706248 14552.7672445 13656.6511579 12963.4119606 12026.1941005 10472.2854754 8738.48589113 8120.85264739 7934.81085764 8057.05832245 8344.4681981 8384.68261371 8443.34996962 7623.49598669 6678.61852922 6403.05272856 6073.39660511 5562.4851312 4515.54077134 4195.99158282 3879.6680916 3367.92966406 3101.05575966 2884.12684161 2804.77981465 2543.9047806 2169.87355229 2014.55615148 1796.86383925 1430.11420113 1031.03371296 901.376795224 764.57003296 630.06897507 489.01697521 327.264254709 294.189827217 298.44815701 302.031255193 294.787966329 267.996660922 233.634944419 226.018453945 224.056207477 208.702121476 192.686595978 175.71843347 159.489428966 153.372078028 147.264813994 132.245129219 120.680914399 109.160739234 101.258041814 102.153723227 102.353385778 100.851411968 95.1341116211 88.8858609008 87.1204086899 89.2768326635 92.4593694538 93.6752558202 91.0106837898 90.4660666909 91.1855825354 86.0629341433 81.7083716989 78.028205338 73.8871376679 72.4903250156 75.1473883403 79.2687048824 80.9820458126 81.1871247782 80.3178884634 79.1137617281 77.8943975868 77.141550442 74.8708345226 73.7297561154 74.8507413384 76.9282768495 81.2477191071 85.5399338526 86.9235134319 89.9569593033 91.7011417298 92.9199326559 93.4536353919 92.053385662 88.9528111764 85.6772599198 85.6091770825 90.0738268866 97.5189383725 110.845030219 120.046630661 127.980161008 134.852758396 167.199403542 176.173247884 185.017780942 200.274948715 215.676692302 229.173416949 273.549550794 283.988679183 322.833006468 384.114624604 391.071902631 393.913464395 395.03441431 392.406921117 396.291116743 410.658056894 454.426962957 562.857951021 614.950869233 654.522678352 673.250885389 755.946800888 651.879525632 608.359345009 627.541584902 614.828215635 662.720815701 752.468411876 855.843931451 950.237953881 1041.67270895 1098.27095809 1137.76601359 1265.11804844 1283.78862674 1289.74488541 1281.29063266 1260.33799878 1243.46245308 1212.66581131 1144.10688963 1000.37874769 979.439106752 963.125749435 952.986598689 1057.60981901 1066.28669559 1079.13386204 1083.95908271 1089.14119267 1085.50852198 986.091824807 946.870475216 921.761289981 952.435571824 892.162365663 810.906479068 709.631206594 600.035878997 511.753498175 470.196950358 481.575084186 541.544129716 620.078079347 700.314732453
8511.27121844 8354.23696814 8182.26424951 8066.34274605 8102.46517053 8335.86777043 9209.57892955 9845.07908819 10441.6809303 11050.7455574 11520.7860666 11944.4927654 12327.8862531 12659.6773733 13875.9104957 14135.5006849 14791.8283211 14441.0728623 13833.5811241 13964.8073933 14043.2162482 14846.4006792 16051.7428219 18017.062728 19393.3126132 20574.2000077 21573.3773057 23446.9691899 23853.4950857 24469.7166692 24993.1719046 25453.2488205 25632.6998743 27024.9845341 28004.4279003 29349.0156857 30750.2334416 31374.0393816 31551.4667571 31317.8270888 30600.5642078 30272.2888533 29669.2915691 30267.1052573 29536.3659463 28711.0162914 28348.8383819 27595.7226173 27555.2443417 27438.4137723 27031.6727863 25721.37017 23755.299032 21725.5939732 20068.7347434 17755.7160085 16704.5504517 15330.3674283 14412.2634514 13438.9188201 11908.7746755 10181.0579504 9718.57018732 9447.94268652 9397.884434 9446.73465831 9245.3493773 9136.25723479 8205.24254312 7919.13361834 6855.70611186 6347.46930776 5940.69985691 5530.97480532 4575.90547605 4312.09220028 4086.78103312 3760.24355111 3545.16523827 3324.7339129 2832.82164587 2420.13626923 2140.75741423 1914.60775868 1695.13495685 1056.68541973 908.797584548 766.350797705 620.181092222 465.585591486 321.713770683 263.636247936 287.606056233 316.100941672 288.372396734 259.788302143 227.178220416 220.448547697 219.212428625 212.712542844 201.519425605 186.181367289 165.989378403 157.380961449 147.544541927 129.212305182 115.740273224 100.361686583 94.4196983818 97.7666853054 101.208034204 101.427859175 95.6815953478 89.1696385611 86.232703378 89.1756938245 94.442384861 97.030429877 95.4469665384 96.889506985 94.1050378576 92.3710718167 84.3767798816 81.9853625995 79.8132202203 78.70471844 79.6757557857 82.4345423785 83.2844799924 85.7348772327 82.3908858037 80.7339809728 79.2445682264 75.2808001477 70.6164292957 69.6654375305 71.7788952068 75.104179282 77.2339764923 80.4674603002 82.3170301728 84.7828451598 86.832439333 88.9833441827 90.095831511 89.1140390654 85.6523761979 81.6609966381 80.7124283256 85.3414630789 93.679536158 107.310463055 117.175402303 125.443551845 132.404604965 169.886659338 179.128070628 188.140504013 196.992033052 213.250829475 226.301292584 270.205901036 286.640084384 318.089530615 383.215403671 395.570982889 409.792947362 417.514085125 424.852224574 435.80178559 457.587860551 506.204598144 626.199333929 672.967533661 710.829410723 838.865809412 840.822307582 823.371887627 812.099892573 792.231043909 800.119063409 833.932718523 902.814927991 979.75036988 1050.58195794 1124.3814324 1169.71639105 1202.88174068 1329.1828134 1345.98966666 1466.26968883 1459.71859735 1440.55039694 1409.14789243 1268.00952436 1198.66003364 1166.90916453 1043.35712422 1032.30617807 1126.26420469 1131.70779082 1141.82810198 1152.50361302 1152.52459905 1152.3966106 1143.86534056 1149.66748882 1127.30123583 1045.35323669 1004.50305377 948.283787513 874.892067087 785.719092266 697.930873911 617.301527895 579.149092321 595.416129818 655.158283444 736.94411327 823.241631362
8692.94736602 8597.1804933 8496.7853645 8449.61797101 8528.84951123 8766.53334548 9120.07695684 10330.6674789 10886.2071629 11406.967322 12025.3198544 12492.4505928 12899.4863677 13322.4735208 15942.720359 16215.1613048 16347.6126995 16327.1935563 16221.7786134 16186.5576175 17194.0261559 17821.1600968 19431.2348428 20606.5455774 22575.9943553 23766.8399547 24710.3339514 26793.2577131 27661.7428086 28057.8068168 28709.7781849 29389.4750563 29863.1303364 30949.1549714 32685.1425331 34703.8351003 36358.8996131 36964.5535093 36220.4691842 35187.8430368 33727.8566476 33113.2394603 32519.7260636 32134.5483529 31328.8374945 30880.2968754 30537.261842 29440.8892921 29740.8181821 30164.5754489 30160.2622749 29072.4836692 27100.792953 24857.0908965 22769.7948962 20214.7676947 18836.0475706 16922.282109 15835.6825025 14810.7086479 13830.3117384 12169.8783129 11041.7121392 10726.5795983 10554.9258807 10438.2620187 10069.5570785 9209.75760709 8795.2630421 7969.02148191 7588.82655746 6751.88582187 6301.58609601 5851.96491964 4900.54654528 4653.61043471 4482.08234832 4243.92215183 4038.77264909 3758.75820869 3172.4128969 2802.54155226 2290.38384703 2013.10024739 1760.01162243 1080.55629439 921.789033616 776.513552431 637.928586435 500.941546194 340.658817316 296.086531476 309.88303183 306.97245332 296.834785203 265.302443933 237.208597511 220.624557775 218.846638204 213.62868046 201.707414441 190.411542493 169.517251502 156.529906645 146.501895209 129.344179 116.831303104 103.344149844 96.1502150572 99.5076445472 103.822685179 103.902696855 102.744678953 94.0257564688 91.8532078322 93.2325298147 97.5976098672 99.6262292791 100.217880315 99.4574247068 96.4055069234 94.6278897425 90.0032778624 84.4042886702 82.8739778216 82.2867931169 84.4036909039 87.2998353856 88.0451677839 87.8947259264 84.428250467 82.483467246 80.0804029594 73.8471798779 67.658066136 66.3586727052 70.1123695847 75.623714542 77.7887060733 78.5298518463 78.362176139 80.2041022253 83.1004548154 85.9448357354 88.2421017662 88.1123453885 85.6709508908 82.0448202612 81.3003899981 85.3970700069 96.8072397371 107.281736479 120.496935551 128.976121179 158.8906858 168.157256994 177.169464652 186.16706383 199.81268516 208.08646804 222.748212651 271.665558241 279.304613585 337.696210151 351.679543073 393.244345806 416.439503927 434.864354004 453.148318962 473.336846587 658.283434266 556.540845289 692.361529254 736.870798088 775.162130442 920.485703945 934.976889183 936.933877622 950.389340732 951.550705565 969.302754645 1006.49783962 1044.18961652 1095.68771559 1240.00751676 1290.61542441 1234.85190471 1262.59960677 1386.43346738 1510.74704801 1515.41505828 1507.31461763 1486.04143016 1449.93975039 1397.92325071 1226.57945739 1180.63437996 1146.55963383 1134.48580271 1143.94855752 1166.09103197 1189.55224166 1201.2279909 1209.00135512 1304.53597183 1296.69898372 1199.80567244 1176.57060773 1094.67003738 1057.4670759 1008.9322577 948.807563875 889.872942546 816.664013792 755.475192087 724.229338581 732.162100227 773.766340145 835.184472624 903.485237784
8907.75250219 8894.74057057 8890.36706869 8933.84817587 9069.2548187 9311.65729235 10351.4380311 10831.8676856 11365.1226556 11954.6177072 12437.21345 12928.7683643 13435.7343912 13960.7566489 15569.2152144 17285.3191628 17751.2159795 18168.4660778 18508.143244 18824.700422 20002.8583404 20508.9920405 21899.149706 23596.459489 24705.4618233 25832.408984 27825.2986288 28838.620818 29764.9368284 30627.0416441 31731.3104035 31960.0967907 33659.5507642 34277.6777791 36301.4449522 38888.3910097 41060.6171141 41338.9904324 40007.1417788 37750.6838947 35796.3539303 35176.2529008 34682.80507 34365.3515342 33134.8404258 32506.8710238 31940.8723394 30890.2522263 31388.5554148 32306.0762734 32638.5767763 31644.1396134 29511.6168352 26988.9533784 24708.7629723 21964.9445267 20393.6030565 19073.06756 17784.8553666 16027.2494216 14992.1440346 13257.286432 12065.8700161 11683.0083864 11430.3909279 11227.0287362 10987.6751298 9899.1351186 9359.17786012 8457.13538325 7890.03203263 7415.67061408 6920.22517314 6139.43971899 5160.0907327 4879.14488567 4731.07962326 4598.97196201 4421.29686235 4058.63950481 3394.83304215 2972.48192697 2608.45970499 2080.34579592 1802.43986375 1100.18466912 935.133745799 791.4471226 667.801844495 548.83351944 469.143952071 370.161902241 337.488813396 323.92936901 306.909528884 277.133296314 245.33544703 222.246120567 217.797627274 211.696827801 202.112066655 192.38727609 171.072392538 158.204832302 149.212217387 135.746298842 123.452026084 113.895141789 108.489563286 111.098893329 111.710642795 111.750047202 109.61007479 106.356586465 100.183615818 100.208702699 100.796933727 101.366715644 103.625721741 101.140490529 97.9148455115 96.1249328187 92.8409695034 86.3974785034 81.782387106 82.9224908622 86.8907182081 88.8904488121 89.5568842888 89.331586912 85.9521501172 85.2743953565 82.2565553307 76.4966058943 70.6882757054 69.2690433237 73.1855211775 77.0278411858 78.3991142344 75.8371847157 73.1969181051 74.1801627339 78.9418233594 84.1152462625 87.8191403342 88.9944324145 87.7554270474 86.0009715068 85.8885165587 92.6369944351 100.549791318 113.713034442 122.752756049 130.004131249 157.847150283 166.132243761 174.80687683 183.903089289 197.580773418 205.620533086 216.071434739 262.918562411 267.847237261 319.84991884 335.248458038 385.065046755 413.758588622 444.126809003 474.511166417 660.727315357 727.997305064 772.65122841 934.003707603 985.341063299 1033.95762638 1060.94594527 1205.67464125 1208.37687758 1076.3909354 1088.60641931 1107.9316627 1134.49068933 1168.06088269 1195.25750773 1299.86253343 1339.76901161 1382.88629979 1437.70954442 1462.58697217 1549.97765029 1552.08967784 1542.36987495 1520.30932883 1480.72682888 1416.43468595 1301.355358 1161.02643612 1103.80629294 1089.10375109 1119.0069686 1170.03336605 1217.0503863 1259.50119438 1344.73877898 1349.66815883 1340.72630981 1243.14455593 1219.55862701 1138.94044775 1105.41897508 1064.68664015 1018.21048635 980.937449084 931.51618573 890.708786895 868.572729749 871.395671801 897.656808276 940.088290773 990.473632671
9028.1823972 9116.96813235 9225.16533691 9370.2250839 9573.37013929 10575.2105501 10938.7160679 11330.9983474 11742.3651036 12590.9424529 13079.965932 13317.7491676 13876.1949196 14493.8268939 16320.826324 18228.7175679 18995.4266185 20103.7122282 20778.3505461 21054.5863205 22176.0332651 22580.9814098 23855.7882855 25516.7377179 27041.0556712 28181.4895656 29747.4159513 30794.2461962 31763.2715273 32983.7922253 33809.6990903 34681.9576437 35758.6814255 36902.4935159 38901.2213611 41865.1001207 43685.6764929 43929.9821913 42124.5447386 39703.209919 37905.8557276 36445.9094446 36162.3199707 36062.2404161 35649.8435244 34785.049586 33502.9321035 32797.4801738 32426.2850839 33325.8002491 33883.8343454 32903.9408424 30629.8569638 28170.4120771 25915.2675734 23148.5963803 21543.5709121 20170.4761578 18890.4338163 17137.0624029 16023.9258751 14086.9116374 13329.9382995 12473.2367668 11974.8269144 11756.5048872 10961.1934822 10516.1532108 9565.25644808 8998.20337937 8488.87749437 7785.42716706 7263.97241238 6668.23918344 5386.99739178 5007.86004126 4835.47552525 4796.51435963 4652.47986289 4258.32015085 3539.2741233 3047.19709413 2646.51878763 2110.51901408 1553.38075322 1324.63972402 944.119379195 796.701387497 660.57473238 581.141423128 461.115613583 431.070276744 375.474426974 342.473059117 304.036654252 280.429884751 253.261352948 221.988145342 215.413105582 209.652984065 202.751475536 184.772797985 177.122938546 159.733059394 151.637416554 140.079215788 130.96233089 125.476960785 123.352277855 123.523921717 125.513574603 124.436258021 120.605462622 116.249863631 109.922005993 105.29993444 102.064336366 100.052764184 103.315552712 101.739773276 99.8496795332 96.6005001486 93.9662006273 88.3911956449 78.3075808372 82.7532812839 87.4212851616 89.2598042516 89.7441755417 89.7240076398 87.775803307 85.8512624628 84.5014978808 81.4002642429 78.2075215077 76.9586662727 78.6410935972 79.9263619998 79.033660568 73.7783868455 69.2732688508 70.3034578145 76.6749547898 83.3836339654 88.2386843572 90.663219769 91.0983941873 92.3393541201 96.0553848743 99.9474704167 115.970101984 115.638272906 126.246986392 149.511262586 155.89809824 163.011867833 171.561555898 185.449931178 195.232365589 207.234653826 247.888348027 248.930319176 251.212528924 254.935794649 307.540942578 358.001583501 398.586347061 442.820417237 649.921652322 706.279157041 870.488075656 840.47105869 1019.55981567 1073.7688837 1119.95418937 1296.05240051 1317.151677 1327.46194547 1185.73673987 1199.05360597 1210.42318176 1219.13545873 1225.17096249 1234.06824247 1311.27451552 1353.23782714 1406.62725739 1467.34402111 1495.60112722 1575.09246254 1571.34945188 1559.44977125 1541.00187859 1506.0232003 1436.98439886 1301.22860325 1166.61442007 1056.31596762 1026.25531019 1081.11828444 1166.66648843 1300.81924086 1354.73642786 1380.67313106 1384.36826919 1373.63956588 1277.43810087 1199.26033926 1174.32848882 1142.07222311 1105.67841054 1082.1377068 1048.29862895 1019.08569692 997.013888914 985.990156291 989.373171649 1007.41036003 1037.05149824 1073.81665788
9176.55644306 9349.25656807 9555.83431164 9798.7010794 10079.1707161 10374.427238 11446.494508 11763.5638783 12100.278389 12895.9204594 13369.0020663 13912.6969153 14527.9018971 15908.3040898 16890.2314471 18198.6941999 19985.3343285 21352.8374483 22255.9551595 22916.5209732 23762.4430587 24485.3649875 25895.411299 27343.7827075 28675.7457626 29957.5292463 31118.2018799 32661.5996909 33660.56042 34888.6004917 35715.9764547 36515.4849468 37380.8667994 38203.2120487 40475.2069043 42362.8538288 44077.9229236 44275.1043099 42606.8258822 40599.2119201 39011.7690528 37688.870506 37851.7830961 38155.3601267 37843.2195339 36654.2859272 34520.9816307 33278.1040502 32514.9576143 33186.2955997 33572.5339507 32653.0699325 30624.2185779 28351.1271782 26349.2443622 23851.4067565 22364.6475528 21040.3622995 20012.276911 18222.074471 17011.9672259 14949.4763008 13941.6655399 12721.6333017 12266.9381755 12066.7919929 11612.6274749 11093.6453389 9976.54098959 9313.02558926 8790.78518993 8158.69457884 7663.08649759 7024.78972753 5846.35631235 5156.21776008 4853.42734019 4836.74246946 4703.74114754 4269.00519834 3561.56507374 2997.35031184 2602.88373039 2084.59720071 1555.51678993 1338.36170515 958.710828745 773.561657781 640.047522897 556.599929521 488.841145279 465.350556228 419.870654168 354.15034954 312.983717967 285.450019883 252.219008243 222.605974204 210.36913529 206.796586407 200.937765664 183.71666108 174.742914784 164.863351224 151.291517758 142.444923338 138.299419662 133.958448549 133.314228796 133.408423456 138.315577216 136.372715708 135.210638861 130.104696194 120.493684051 110.335796665 97.1959848528 95.9325788508 101.59596736 103.094440892 98.0562671914 95.929307335 102.472723917 96.3248172426 88.3563194464 90.2923380925 96.9737270074 90.0583962785 87.4120268646 89.1326527322 89.7282799493 83.0072842583 84.2855504181 85.2546194572 85.0603842321 89.379676682 84.590109719 84.8957852966 81.6011225735 75.4612737973 70.4536619751 71.4964069206 77.0521746372 84.862920186 89.901714093 92.9698542588 108.169297728 101.847403348 116.170985138 119.803948913 124.953049485 130.141403088 141.030919659 149.112561315 152.953082727 159.208647131 168.46885055 181.979423426 197.164692124 206.379537035 240.139228758 235.087417787 227.725157515 227.454023702 269.579801833 321.709270198 377.031922812 437.450193389 669.492999312 744.935068345 929.247617892 1002.2307901 1101.10930659 1160.48833686 1211.10924206 1394.20260203 1422.59347254 1435.44819728 1435.58913944 1287.2007567 1281.90318431 1263.46242066 1236.81263371 1219.6867194 1268.44799698 1329.36264875 1410.42243967 1487.48240048 1519.72375308 1582.97251975 1563.92762596 1546.15115923 1538.47832138 1524.98824743 1472.66271964 1335.58529698 1179.64015665 1045.45718157 1015.76047039 1100.03906754 1229.98673589 1336.89004186 1390.28557447 1408.78101245 1405.21207813 1314.03901365 1299.88469273 1224.58736636 1198.10794195 1162.41764816 1123.50811203 1101.85764561 1078.26749282 1065.88025812 1062.26153808 1065.62868151 1076.01549593 1093.72259594 1178.8031633 1212.8313325
9050.12028028 9518.54099065 9819.69677527 10167.3235831 10547.0268092 10907.9726186 11494.0244107 12120.458062 12379.7203944 13107.5419753 13576.8544725 14136.9305494 14773.8409176 16163.741768 17523.5573513 18601.6519795 20895.3541523 22199.0411361 23218.1489164 23893.5597824 24299.2020888 25038.8157339 26732.969548 28490.5960389 30214.3991014 31705.6663558 32931.9876382 33986.2734969 35464.5488206 36696.2124494 37551.8541975 38271.815528 38852.0828645 39870.0711052 40644.7204259 41686.8582478 42772.5645175 42855.6095697 41852.1865088 40064.3164749 38905.9250543 38156.7212977 38955.2242184 39856.02806 39689.388694 38139.1499129 35437.3410306 33610.1361829 32308.5464605 32269.3854222 32231.9196317 31299.5222305 29716.3262639 27974.3754963 25564.0553983 24289.8132604 22999.9140162 21773.6114478 20793.8406629 19000.1384327 17717.1636863 15552.9865559 14282.1460044 12938.7764093 12236.0349383 12012.8462241 11905.2370174 11533.9490366 10363.00005 9649.14965565 9150.66433041 8666.73020943 8135.31060636 7509.80739823 6669.01642293 5519.13258096 5011.86315091 4769.90552682 4554.35949051 3919.07635371 3332.69060432 2871.14298736 2475.56838043 2020.70519793 1544.88643314 1338.84786572 1117.46653207 785.442632924 614.344115223 492.374567208 487.945079134 471.403046189 430.851006835 359.605120623 327.118716861 287.852416869 236.111789141 213.289565619 203.89098478 204.159003592 191.464493335 180.25797198 171.15481529 166.185307402 154.982490487 147.666097668 138.553656018 136.45847913 143.095885903 144.229313733 145.826534199 150.74910621 142.877077368 137.541583261 130.578260585 116.184029084 93.1674729404 91.1645247519 111.443311178 105.521847437 94.0079779384 87.6883915068 103.538192204 107.763792406 106.08820141 104.932506346 97.7014821333 79.833458389 84.668492 93.6030245505 87.9792455824 76.7139110632 82.3560072783 92.729655012 96.3215618733 96.7938790982 97.200811254 90.0318048287 86.8139591854 93.0499550745 78.0173589782 78.4173780247 91.6760369884 99.5233879457 108.302709446 112.53052211 114.860022577 121.684175068 126.033016393 128.84823446 132.122646678 137.520247714 141.942237342 144.823187925 146.042556865 152.017095522 162.941438082 180.2438425 193.35572684 205.016480471 233.570531799 220.862580325 203.629528222 207.341731182 223.910427267 282.01958886 354.778974912 579.173631947 686.046500424 783.668199758 983.309587893 1068.3389884 1173.21987076 1239.37813313 1439.73104946 1486.2452733 1703.08212006 1710.34011085 1694.38043174 1516.03501064 1456.35324258 1364.98906151 1262.99915864 1186.16575963 1214.46744986 1287.59772417 1499.10907927 1509.78862661 1540.20451973 1570.59103354 1516.21898874 1481.64569399 1493.0752757 1526.08954146 1523.46430145 1449.30356029 1303.52614219 1190.12070049 1145.82580032 1230.63259362 1320.73283309 1408.6320397 1427.29346027 1421.10956303 1402.10300802 1316.27480492 1306.76298217 1239.36113432 1210.10288747 1164.32277861 1123.52175157 1081.40541721 1062.29208554 1066.69697248 1085.24404725 1108.44479887 1183.92327973 1213.15957258 1243.27362312 1274.64712086
9061.52589584 9394.83666867 9808.20649157 10463.67655 10978.3419958 11452.1819401 11763.8424884 12116.7929932 12184.2071096 13229.7824237 13716.0746948 14304.0497855 14946.1324738 15653.3386056 17607.2601497 18745.2941025 21485.1517705 22765.3348041 23745.8275135 24207.1692285 24234.7912651 25005.7935523 27244.8710414 29703.5496159 31912.6560722 33585.065063 34780.8393445 35737.8671887 37430.5516072 38424.9473817 39421.5605104 40170.0581343 40896.2353331 41109.5517385 41016.5095199 41383.850126 41598.2012473 41234.7209212 40457.0163617 39172.3220951 38514.2328545 38709.8031244 39511.176624 40848.8810655 40762.6269851 38901.4560354 35842.5179473 33656.9278635 32701.8139783 31213.4288728 30745.6574423 29759.3703499 28618.3257518 27444.1024738 25553.9388806 24504.8684674 23576.9898691 22444.3795825 21281.383871 19633.5833125 17561.7433712 16494.6326713 14868.4588315 13242.4886458 12322.5643984 12024.5071447 11938.9182478 11563.5043869 10843.69898 9640.28742117 9201.54419891 9014.89936585 8699.57762515 8008.33645706 7133.3112206 5808.60177133 5215.03324867 4828.75807035 4304.151214 3547.34029245 2961.34883162 2560.35647687 2359.58724569 1968.6310195 1559.90159539 1360.00340932 1182.52389797 876.09534854 672.037063024 502.615138204 492.191276504 474.619635861 397.810107571 351.884567734 323.592123762 300.242402757 258.265350725 213.686956279 203.915682805 204.328067857 186.848000322 173.328923867 165.4037868 163.519410625 154.172703722 143.937975125 134.57972629 137.419759092 144.727050759 150.701748889 151.595089217 156.860417891 155.679603884 145.00042001 142.00164786 132.146958631 120.524281021 112.801521719 125.41353503 121.721643909 108.092514427 102.350757284 121.480283072 132.321838948 127.672917482 124.600591553 111.226650703 89.8960021482 95.2642327677 105.334543554 95.090945693 82.4238453161 89.8984601248 100.487298149 102.898687006 126.273511601 121.394321888 119.328645017 115.057032721 107.589469221 104.310037948 115.068244846 120.09959827 126.697216911 132.316673437 122.878679716 125.896390742 131.118983716 133.853687555 135.749773958 137.349675916 140.497031413 147.258081037 138.973579892 137.944704306 144.25180644 160.493022325 178.04969124 193.623243989 233.19182717 229.74118473 211.803839416 193.098643327 171.390184993 189.108746994 248.135396198 445.966904504 585.937236424 711.812987043 886.145119742 1104.83802397 1201.98320737 1242.46873486 1315.63385155 1522.04339905 1573.931509 1802.85719906 1811.45312426 1792.60064617 1736.82934043 1520.06422421 1480.28067774 1282.07461874 1141.98343273 1160.80660183 1326.6275168 1526.329997 1664.2307324 1676.77710901 1557.20750499 1423.0223296 1352.05026572 1420.7067155 1545.06245233 1639.00585548 1639.43473493 1545.38240786 1464.23770509 1431.55475808 1486.34683164 1451.90906318 1483.98596736 1503.43119891 1427.90582873 1385.51351674 1375.04076112 1358.54536109 1359.70285119 1321.95157666 1225.84053422 1081.20779823 1017.65216033 998.563487042 1024.88504877 1073.92243878 1165.82063689 1215.0270467 1255.38046044 1290.22153948 1387.5084103
8994.91478895 9374.27599683 9868.01177723 10497.1077522 11231.5294475 11996.1457869 12378.698487 12528.6304382 12447.8788809 13283.7774022 13818.1944072 14458.4267932 15094.334707 16507.378852 17318.9177568 18938.3403171 20386.0196695 22677.1726971 24058.4736598 24382.7404937 24475.4733424 25613.7674598 28504.6596874 31375.5004863 34013.527928 35759.6255514 36724.7919872 37393.0269763 38476.6024158 40028.6258728 41363.4775029 42653.714476 42925.622688 42253.0938304 41403.3905043 41005.7112328 40599.9729112 39872.8382705 39230.1221045 38559.8433509 37880.3300626 37629.3960442 38903.5028677 40150.1005954 40017.8672216 38189.3793041 35566.0334985 33500.5447987 31263.3684649 30124.1069112 29590.0262835 28877.1730589 27382.7066919 26393.7663669 25789.8221389 25008.9964719 24007.3103021 23090.0284266 21522.8476868 19537.9664496 18640.4602906 17372.3005683 16028.0255915 14051.7401038 12903.1866611 12438.0372876 11974.8029922 11508.7221971 10747.2015439 9580.42365121 9193.70885609 9125.30218077 8989.0002819 8434.20341783 7592.25646302 6115.37085827 5409.99991106 4833.31579279 4050.40741822 3155.66846794 2488.33968112 2110.97973056 2072.65281072 1915.76605013 1557.05269563 1356.79591536 1210.08958113 1091.1281616 735.4698837 573.530004805 520.320546148 474.83787721 383.850563055 332.148464756 311.749733954 303.982017168 275.21051111 230.364536164 215.819357795 206.426265266 182.93493773 164.128629305 156.579170335 161.140604661 156.996748105 148.423864155 134.520240369 138.551804665 150.38118381 157.781975976 159.864252536 160.849824348 159.756091385 159.425983772 148.769718691 147.704940817 148.040166214 148.510861474 150.935175995 146.015620175 147.504029113 140.140899648 151.764870089 154.601598123 151.267603577 140.164164809 138.121772579 129.817402786 136.138559092 138.899892796 129.979170056 122.74654293 108.098051482 129.133262667 135.454685622 137.791368853 137.673577728 134.79452763 124.849165518 132.248202337 130.680038877 130.66506075 133.569060196 137.680951637 141.51986936 130.162397469 132.988164161 135.083279264 159.312216058 141.168795593 159.747577378 156.457686164 146.501922716 137.48499825 134.11799025 141.36662229 158.417671566 177.967114773 196.674778793 238.125826444 235.118560892 220.526822442 195.450683938 169.167775191 189.588854859 264.394608767 467.410179588 617.733291075 767.759854944 934.465240436 1160.8291264 1264.4928553 1355.88610791 1468.18718088 1531.28476007 1657.54136987 1927.95888532 1912.19450577 1898.43690712 1847.16705825 1745.20416559 1595.05900066 1395.58890074 1273.75861329 1297.29815829 1543.48763077 1636.43801274 1749.80060708 1794.64544061 1603.48840352 1359.36178918 1210.51500658 1287.84253136 1508.73244502 1704.04533617 1791.17317352 1772.7844155 1753.89877161 1726.29825922 1733.6487357 1667.24625747 1593.27495991 1488.72477216 1360.86180063 1264.59495423 1250.95805514 1308.84621998 1347.1754337 1317.48475854 1220.83094426 1070.77698931 925.015136698 916.899284457 983.726745049 1116.51391196 1224.38892175 1306.85831975 1368.13728269 1476.52004347 1524.50475322
8842.58840408 9235.00126436 9771.84349228 10504.9635355 11429.8163504 12362.6415363 12919.355145 12830.5913813 12544.6322712 13186.6992102 13802.5936525 15233.4789438 15847.2772412 16342.6731136 16962.3558037 18432.2835149 20722.4250834 22319.3569991 24043.7295131 24966.6672641 25549.0056556 27100.4006031 30393.2252855 33782.818722 36679.7611742 38576.6706003 39373.6144495 39157.4312947 40064.2691492 41396.9025665 43464.9307969 44910.0762376 44953.659098 43678.32415 42032.5823872 40904.0626047 40005.6863163 38925.904317 38239.6043863 37662.1660477 36992.8053059 36405.4655034 37200.2623929 37824.8101815 37544.1693731 36147.6165357 34780.832166 31538.1975777 29735.2661344 28901.7151112 28415.2548294 28042.7509726 26939.5652632 26585.6873603 26434.1334355 25786.1572452 24654.9732107 23472.572145 21272.9267162 20631.3073486 20015.8479397 18976.6461638 17360.1989715 15209.1744497 13884.2459588 12668.0487438 12128.5305262 11494.6007468 10709.2835866 9637.97701455 9237.52672417 9132.81411481 9033.33717957 8493.46879145 7422.75124028 6325.44124847 5603.29326567 4935.2289915 3939.73783803 3108.26608521 2169.15469056 1751.82348969 1870.16280762 1747.68914671 1519.05664568 1285.02746641 1210.17681285 1163.7867113 848.52957286 689.189292966 546.39235636 471.879918981 371.792462252 318.433583118 301.641320857 301.76635532 270.781415543 243.827414974 226.149960377 209.471523651 176.945581176 153.118304769 147.761866114 158.353661868 163.004354507 160.196063055 153.790657387 155.089338759 160.199740039 159.85566957 163.911951659 165.140394749 167.32129356 167.272610029 152.045757484 146.524942868 167.181619894 180.492513518 185.252943587 180.733652056 170.188760786 163.145987801 162.982499134 170.866126553 169.202106268 157.582428606 145.992018687 151.271595983 158.845801708 158.570503063 150.735180486 143.947772044 152.22687638 159.185391079 166.582283991 169.821207287 145.83484334 141.654988683 143.332273944 135.768923144 134.291824683 136.667631741 141.356899767 145.905806829 149.387118488 136.973362776 139.485114815 188.328728034 166.794920935 165.939671387 167.728852549 174.512255864 159.861748458 144.608391595 141.875500762 152.245592445 172.090178678 183.899137355 218.36949827 262.937870656 260.205981627 243.609808567 234.670741664 217.002532474 241.244390063 390.516944151 536.869816471 696.474955893 825.40539091 1006.32444682 1110.48581214 1325.00475076 1421.39921044 1537.11909512 1606.53762522 1911.42975501 2020.19212301 2011.19287106 2010.40021413 1978.36402451 1905.34545394 1912.71737958 1743.44517538 1592.99886948 1681.85290184 1836.48473181 2014.51041961 1965.40574429 1909.11182204 1694.32721973 1408.77913128 1207.62353115 1304.03448192 1636.38015151 1882.17796949 1975.28723064 2048.45069535 2034.12437011 2005.48881244 1969.69829131 1879.56488312 1735.27205344 1476.13248025 1240.65719492 1104.7364728 1149.43880179 1248.38088302 1345.26603666 1335.5639684 1220.58709269 1050.84541577 870.745866107 835.780090606 943.666286962 1099.71282433 1231.0200522 1367.75527644 1438.29976836 1493.85059129 1543.55858488
8454.01226249 8971.16266084 9668.4533248 10387.4793257 11355.5370547 12377.7161136 12966.2705282 12832.1484936 12504.6654209 12543.4576468 13897.1528743 15118.7278485 15923.4225782 16210.8393393 16779.3661022 17721.5245106 19172.1765746 22514.990683 23997.6794148 25738.2717141 26977.8933504 28970.8695837 32511.4875125 36054.6570459 39184.1857573 40941.7898196 40924.0084996 40460.0882099 40765.1070009 42519.5364816 44622.3681409 46521.2963637 46601.7296127 44704.0971636 42542.7818317 40759.1589465 39395.1096018 38174.9793159 37367.4485147 36728.2926056 35735.9784551 34798.4674838 34826.8881868 34895.2296618 34497.9186905 33580.7067418 31110.5888538 29964.0527715 29061.0890582 27875.5437717 27568.7799209 26488.9242329 26891.0137614 27230.0740643 27464.8139961 26648.312096 25147.6905395 23872.6177601 21929.1860302 21802.7037897 21794.3970897 20763.4407273 18987.901626 17024.8919962 14913.2665248 13212.5067609 12371.2785353 11573.6420993 10774.7168943 9699.31037918 9278.42986197 9090.03516891 8917.57992168 8410.19561298 7472.81156084 6517.98892912 5846.22985637 5054.51658105 4188.3061728 3339.0762311 2347.52464743 1875.11945218 1954.2618359 1892.02477701 1535.08871037 1286.70288613 1208.19024003 1164.94126943 880.070231278 723.944520446 612.3585951 471.876839447 375.197343808 329.630571169 311.839749423 294.199979888 279.870224191 254.252313068 231.752579643 208.670132298 183.460259511 164.88902601 160.95325221 172.180682483 181.826640233 185.843750577 192.406050193 180.166294738 173.850951988 152.543255177 163.735791406 170.303549403 152.154390172 162.65551932 170.065577168 165.190955245 194.452310446 208.426075249 210.52247084 209.850856319 196.226358279 167.354350841 166.510599007 176.10248999 164.047656483 169.50304764 159.830677431 166.093990528 177.711716245 170.751419359 184.126220816 146.466104275 145.915578793 179.637374524 173.891672991 176.206728647 152.354970204 146.307644219 152.799112052 134.615983035 125.426359367 142.540323227 144.453844101 151.592268897 162.869674657 168.247317091 194.335391142 196.507557044 198.496716013 176.728688144 193.004658652 184.764625883 164.284339932 161.283767276 161.167253353 170.563156701 187.644641748 212.950486602 263.796028784 280.699512589 285.226016991 281.568035726 301.64952219 301.980088811 423.649563659 516.447378671 635.037129894 835.287862094 955.0513637 1065.93534046 1166.37001261 1380.56137352 1522.97928155 1819.91736756 1899.76253905 1990.57769439 2102.38639276 2102.06669062 2117.34173284 2287.17511791 2236.59386889 2169.82566811 2074.09312651 2080.347953 2095.22140101 2187.89950855 2294.51587387 2247.81885227 2123.78564573 1941.32102115 1720.58000536 1559.70070675 1655.03872087 1924.74058081 2132.35936383 2287.17422309 2314.2889703 2311.83348372 2275.06699239 2205.01256658 2125.56961521 1837.96333762 1488.12189862 1158.42985823 969.349303967 1045.96535712 1273.21729802 1445.2601467 1416.44964808 1328.70677184 1112.520629 916.895285666 882.61066813 991.967253644 1145.11730777 1301.68182791 1385.74970148 1444.42974327 1496.07349109 1548.15209779
7758.44462555 8493.27079934 9186.92162163 9795.58789891 10675.4416698 11645.2618644 12253.6464381 12259.9279857 12071.2032556 12897.2099647 13767.1029834 15171.267412 16115.8774928 16213.2989867 16430.7423779 17245.350271 18629.8994982 22131.8780926 23931.3521815 25594.4130761 28135.3673068 30435.4829209 33825.8857581 37336.5230787 40649.6019604 42358.672895 41894.43288 40902.5650342 41123.5209732 42325.6870118 44429.8070977 46239.3740692 46313.5987116 44574.410201 42403.5279081 40659.844345 39368.6582387 38158.0990799 37049.5626997 35406.2711127 34341.6808688 32856.8346452 32544.1461459 32206.048354 31755.7488873 30149.5571048 29487.8683336 28469.2131676 27839.5459477 26713.3249905 25701.7375329 25867.9358309 26596.7667038 27640.9206795 28146.545844 27127.6347194 25272.4673998 23782.3437751 22806.1263193 23199.1093702 23656.8808454 22685.098998 20501.4341708 18134.4633216 14977.0278401 13649.1106938 12625.0619883 11727.2149482 10905.4476849 9724.13395791 9300.88260117 9007.7859851 8740.52795968 8222.99282788 7396.60368026 6696.21106103 5997.01520392 5434.92622199 4581.21195055 3881.17812516 2973.59120793 2517.1832257 2310.3521234 2023.64663265 1622.25838828 1392.71964587 1231.99943218 1145.55474694 973.956204548 714.991453356 613.06174117 489.49378948 374.394429167 333.942207676 312.791073963 304.938988779 278.744874501 255.188511048 231.078051868 218.333381432 200.062789202 185.038954642 184.769934459 194.70099244 195.863944072 202.450049732 213.769255407 208.407230403 186.898068334 158.62535832 176.666006126 188.206248378 168.121860602 183.588686066 204.967439604 216.077606602 216.497581059 208.798908159 221.839762141 219.373223881 215.748373688 227.775209956 230.459497906 210.689992245 167.883681273 216.411699544 229.982717458 213.121561938 169.206638945 180.396223345 200.222949102 165.365023905 167.002069482 195.417605876 193.643681319 173.904723043 178.791864712 179.780718812 164.110988184 121.328535977 116.121833026 138.183628003 160.144841836 173.428185778 167.242240739 197.580858614 200.881814439 219.84111666 205.367944246 201.725253708 196.741415543 192.660625011 175.556354663 179.0823334 182.861245861 192.120020535 233.799358141 254.770226393 290.757571172 302.319787069 314.911560802 352.31211191 359.322887576 519.685088652 571.070436017 651.87826912 746.624822287 930.852085222 1015.59614556 1147.89355841 1249.2286729 1467.94744789 1570.4120378 1872.34881996 1956.79378348 2055.17045897 2236.17020338 2387.43914501 2381.40272962 2361.32968108 2341.97675122 2398.38759888 2398.28560662 2413.32543842 2453.83989648 2526.86748353 2601.73512561 2598.56417681 2510.86956961 2416.88538196 2279.81358786 2193.93761831 2257.97289169 2427.96099648 2630.11621068 2646.75187685 2655.95409167 2601.18830556 2553.07941054 2536.448241 2515.57889783 2071.17152861 1717.63125772 1330.4467255 1112.77603899 1164.2214967 1388.44172914 1508.79718324 1576.6789606 1470.85406117 1293.36974614 1116.92670007 1080.50924975 1148.22441883 1276.23168354 1347.71871207 1388.30941101 1425.25807405 1474.38456209 1468.60117382
7600.77996161 7880.76339704 8377.66486868 9053.62521164 9699.23113115 10468.3551517 11046.5588345 11283.9846191 11424.3305302 11857.4751695 13195.4076743 15007.6623868 16030.0574955 16188.279323 16343.8239154 17032.3461306 18295.7307439 21885.5725955 23862.6732779 25832.2964575 28821.4845653 31522.5295722 34385.2538201 37713.8568009 40432.8605272 41926.7876013 41623.2514496 40779.3197924 40895.7797262 41504.1464678 42775.4396404 44128.9029856 44108.3328742 42767.1447223 41086.0714663 39633.3055524 38440.5994554 36263.040747 34976.186038 33769.2449683 32998.8275394 31202.1678253 30637.1677389 30110.5743381 28750.3974631 28456.4250343 28062.6933292 27265.4500458 26125.8128857 24980.257339 24907.5276154 25125.7123339 25868.7374648 26860.8889282 27298.6829902 26257.8945354 24579.447021 23322.6530247 22892.4922994 24089.5863596 25059.91929 23905.4894917 20783.1878745 17876.9015412 15784.0836267 13721.9525864 12667.5589599 11751.5641566 10244.3569879 9727.50144523 9260.6451118 8884.42282957 8563.50774176 7805.99083862 7414.22259705 6894.18084349 6059.61420652 5654.68645956 5252.94933875 4635.90005085 3784.19649472 3234.84948643 2747.79837286 2240.90411504 1751.94642306 1402.53792085 1233.7767277 1098.1255825 795.770300693 698.239732066 617.678984526 504.126890687 385.46060006 317.708291307 287.138138152 283.126130273 274.888970848 253.723764359 238.861027617 220.385198999 204.849343257 200.529385543 203.255792479 210.401109244 218.700870852 233.487158201 233.121629975 232.448334327 225.48787514 216.684879671 217.323811051 221.962126713 231.733957749 258.77898512 250.594357218 247.612484925 229.83849925 208.742397091 241.078721491 214.095788278 232.706163318 307.127084088 293.091891081 299.976705527 297.147250679 307.291751733 303.759524523 272.959524445 181.325095278 193.919849792 238.011149606 233.939619093 225.436589074 208.448098737 168.810806012 171.365150781 208.273164835 214.156621896 183.179367862 144.313855611 131.796393862 161.131976878 185.359543109 197.174663125 207.377315772 215.700229356 222.210589192 222.042134204 204.898366256 196.29416562 191.17295842 191.460031954 181.074666312 205.888496278 214.463769998 241.928576437 258.864793491 294.704435119 314.864335152 333.131783322 374.870579072 400.844522847 459.873429603 619.632372926 693.248296602 764.647155002 922.237850768 987.823969865 1059.37283055 1169.95217882 1275.05259685 1505.12753524 1839.43698645 1944.94631429 1995.03578153 2261.26098887 2337.84231419 2418.41670645 2404.35913231 2391.32309088 2361.79113297 2396.06588799 2518.28348329 2629.45345685 2734.56949091 2831.45816975 2913.81900589 2975.87232778 2930.41379286 2897.59490007 2895.0248414 2893.43013699 2928.66685684 2986.63597162 3039.78552406 3002.71146497 2974.75492578 3028.52441823 2973.83603835 2985.43256974 2855.4312334 2517.0420816 2098.74551387 1774.53095048 1601.97389114 1623.83501474 1780.29899251 1830.66552916 1757.65797537 1666.6767425 1530.54241526 1373.02712013 1359.18968752 1364.13984569 1372.79254346 1355.85890946 1337.8019576 1356.53531247 1417.81943593 1445.81298859
7532.46166013 7842.94797053 8013.5023002 8256.19026942 8524.32816525 9331.83333888 9839.61395562 10230.815608 10609.8881838 11184.0737098 12465.801534 14226.1040789 15567.3702667 15918.006338 16184.2462951 16789.2554286 17909.4627042 20401.0684831 23576.7625137 26413.333871 29595.4960848 32328.2715133 34595.2191221 36867.9522066 38845.0207263 40187.0878637 40164.6313153 40314.1173975 40253.3148078 40567.5484456 41006.1094706 41369.6935145 41435.4784567 40553.7287881 39510.4612729 38479.7487174 37456.4090619 35234.2607008 33884.5838066 32574.4343731 31726.2540165 29129.5436112 29242.3438608 28761.8070537 27926.9355979 27736.9551186 27272.2694293 25504.9242925 24924.1242279 24130.612056 24260.1371038 24297.5939329 24612.4868042 25150.0502724 25124.902228 24354.0876658 22541.2426404 21733.8808999 22142.5099304 23525.1551829 24424.0529894 23069.2305076 20121.5862806 17355.3154072 14787.2030658 13453.4788278 12370.5746805 10793.5408991 10195.9819056 9772.42139788 9180.50387303 8729.29816058 8032.86356246 7816.60092182 7613.30360815 7027.95126517 6414.22180162 6003.92088457 5862.58090534 5553.62441381 4824.32916604 3865.83693769 3066.2049323 2600.79050398 1729.953617 1430.13843636 1165.6148164 954.548061907 769.998775084 665.077357571 587.582828627 505.072710792 438.927301934 325.287330456 277.296167462 280.866144863 264.673077572 243.240090183 234.179897959 222.037303214 202.52425904 193.316065023 205.312162114 220.387960853 248.353607811 267.461829545 249.204592526 250.83761202 254.720933009 250.872862075 275.63409901 264.760091192 268.145407946 283.75127845 299.46882468 318.852855858 334.232871191 334.297402968 359.254385172 321.759388985 361.407058723 420.001387856 424.610910853 383.657674647 323.680258951 334.484137022 357.489596826 336.117286333 326.51779476 325.183397532 340.860444287 339.66022703 312.453791304 237.243043679 141.668198519 150.255840198 227.72083618 240.225005311 228.294659426 198.793753894 187.802642185 193.626913058 211.989977552 193.196284792 209.807495514 209.641786011 222.474103544 222.484897558 199.645497078 181.362738779 171.167187977 176.711251637 196.286324722 211.682095492 244.547130335 262.883317651 340.764193722 318.100721372 338.125658688 405.533506924 430.48784907 497.40500119 516.744829979 728.923791285 816.817513383 867.330203108 962.36768319 997.176649701 1050.53059101 1161.35938972 1284.01269857 1721.95393694 1860.63444949 1960.82912609 2195.8822132 2272.29686994 2440.76777186 2473.97552884 2436.73273546 2332.18721994 2262.88770511 2333.1146736 2550.30076989 2803.28306444 2996.48423455 3153.45868347 3259.40066588 3296.83363057 3302.2312762 3418.64703005 3485.00533215 3559.65699908 3573.94722875 3533.86969768 3480.08721272 3362.53223452 3411.65247404 3378.86336775 3449.35171131 3366.46492124 3225.31692204 3065.81820987 2773.89170825 2391.21172854 2262.6591406 2193.60115379 2256.73008437 2203.99269281 2161.04363138 2060.02005089 1705.79688453 1654.91691378 1575.81057818 1504.11989441 1407.03213524 1284.05040205 1200.81074677 1221.36525049 1288.07578418 1410.77401215
7505.83873752 7986.0310399 8208.46103227 8105.53458434 7975.30745844 8090.42533847 8376.91429271 9089.20876675 9555.40244015 10196.3544114 11499.7568666 12347.5425811 13870.0485806 15143.5558222 15667.2783131 16395.5792364 17533.872983 20756.217561 22677.9257489 25946.403487 29203.6487186 32195.3308763 34204.5433336 36015.7965653 37439.1090139 38644.5248986 39061.358325 39211.6091093 39566.0679978 39660.5695798 39664.2855424 39613.5216907 39218.3367705 38913.6185361 38313.1067182 37539.3214899 36553.6119958 34249.072046 32539.8553984 31464.8291399 29650.5604617 27894.3914477 27641.2084746 27663.595672 28051.1543927 27815.9404762 26390.6341263 24966.3591922 24353.0813456 23873.3267376 23976.0242071 23882.3053693 23503.1489733 23290.249817 22819.8757345 21534.3814528 20731.9169461 20226.3124875 20004.3650887 20640.5746155 21246.3260334 20185.6873392 18007.4462652 15342.3693811 13883.3411249 12726.6100562 12012.4003567 10507.2325199 9993.01537815 9704.94227097 9233.58151592 8594.74266045 7995.74190749 7895.95083449 7753.24155823 7219.46629824 6564.9375782 6386.34540027 6429.55545627 6273.99074028 5538.73270531 4244.2116055 3350.13659925 2650.79740556 1832.17324496 1462.41244334 1086.00960658 700.061771057 658.167505432 636.611685718 570.309403175 506.383500442 464.90511192 370.121790929 312.191203168 290.575600121 250.324697895 222.409302949 224.211910317 219.37832382 201.670838412 190.931875972 218.092292275 252.447597179 258.684363525 277.443723018 279.037022293 272.988537791 262.846496806 284.079330706 317.943950651 304.052462482 296.008289711 279.989984257 323.19934741 296.691450058 351.829660003 477.561676224 507.787325156 506.8143356 431.25406784 449.476508415 484.241584043 451.139612149 422.150335106 458.687014812 455.94409563 312.542942777 434.316872526 454.851646498 501.365211341 491.145821946 453.820386947 358.222799849 261.581226877 239.412059462 286.242218488 311.420504608 297.192525184 276.516370006 257.599350573 250.236425447 202.764623726 166.948069544 172.316457177 209.331990043 223.42625263 214.997284248 193.226407107 177.428932552 148.344155517 169.048377142 186.900025284 216.224617361 279.595453918 343.95002456 366.277919474 338.724698775 414.837238567 426.676384878 460.266728583 512.587245607 554.916923837 782.45627736 869.319204955 911.367803579 957.437878243 958.4888282 999.718799851 1226.06236103 1432.80337854 1717.10424507 1858.95707482 1935.93402632 2116.67214843 2189.25203963 2302.26018554 2472.56432636 2505.31717441 2344.65545938 2226.41556076 2329.09089109 2641.47802961 2969.81515028 3255.38820243 3490.07262124 3622.54016526 3589.90243337 3573.24661012 3816.10519411 4015.66918235 4143.27897185 4138.51475056 4007.14933028 3864.21076264 3768.28878158 3712.56875868 3834.59572393 3748.6341247 3688.8325431 3603.26346411 3539.05045175 3363.52671692 3211.23080395 3008.44374591 2841.36990762 2703.59377531 2534.87463072 2429.83473149 2304.98491218 2152.59691966 2020.65557132 1741.15727531 1597.93373872 1397.94824566 1170.71005623 1006.63709809 1060.47422393 1205.87270088 1386.42380821
7308.60425271 7953.32082237 8294.32096547 7902.433156 7485.40742189 7330.95015821 7371.51129957 7710.6196591 8629.52071084 9191.7716029 9855.11145452 11041.7020236 12450.988399 12924.5988928 14660.9697956 15644.9833189 17472.299992 20362.1316474 22344.0819308 25574.2175448 28895.0429686 31990.8380924 33988.4035939 35743.3173388 37037.0672508 38085.3950761 38447.0339927 38677.73199 38651.3020444 38650.1627796 38896.4702945 38613.2571999 38361.2325065 38122.995005 37871.4230836 36998.3328164 34785.377529 33267.7949208 31499.4902686 30357.2541438 28521.2124441 26870.2370109 26868.061326 26973.4479891 27924.0456799 27452.6980529 25332.8477009 23753.5741728 23432.3196245 24193.8292166 24891.0182374 24348.1159556 22966.3599393 21834.7415971 20507.6967315 19080.4256331 18776.0746989 18297.5602193 17586.7968122 17312.4898595 17144.2877845 16255.2228863 14665.7460455 13530.0137609 12752.1301666 12002.9825664 10733.972825 10272.5932709 9992.88049212 9566.85920088 9119.07933157 8607.83276942 8000.90968594 7926.85624092 7755.12257545 7296.46729524 6803.58533936 6465.82263976 6650.91016362 6549.99042176 5595.84961101 4373.74819331 3556.6265285 2768.47934841 2105.82586273 1553.55284133 1135.62817095 734.75920856 640.768203402 644.763583083 556.671780387 476.749389845 477.834176706 434.022136226 343.996483211 305.098100263 251.846354166 208.088986908 219.936866467 232.726587528 228.687638189 224.436665469 244.793707834 263.978616861 273.978309317 292.607374211 278.613281953 277.771134826 332.354235037 341.527151765 343.404493088 273.54101723 344.6806388 409.112156662 444.291127501 391.617481981 510.262498451 601.858351259 635.183255372 629.802697763 539.312889211 570.518564707 527.237936465 456.767025555 653.647795309 678.786471635 670.264256044 686.500005416 744.009066732 736.786870551 695.461976408 674.573183535 659.300186009 595.517768841 495.075305697 433.687209375 428.894960664 442.948216902 449.777117398 398.982070455 361.016881419 300.029503742 193.662530129 130.15610852 141.756413202 202.496321828 273.414641885 240.193818288 231.145147234 162.358915059 121.066079587 156.510763661 220.078737332 305.251026769 357.785420951 419.15531747 445.550140131 415.302781681 434.330787228 465.657448268 474.440824382 529.694680302 574.412452337 632.129374315 895.487437812 926.589894846 936.927737705 907.320580029 942.299514495 1204.29130767 1487.41854549 1735.54478559 1860.12993986 1882.01047708 1958.37095606 2014.22053842 2257.64890157 2540.56500726 2599.36094351 2508.73358768 2433.1986097 2539.46893858 2870.33001467 3277.9499977 3510.64569044 3744.72254271 3865.30155203 3859.4045173 3980.72605466 4099.93629593 4373.64693559 4585.52316729 4555.14962414 4347.51375928 4185.68730319 4178.82600664 4134.40526678 4097.1229675 4054.01470315 4045.87241904 3943.04540362 3968.58618551 3978.1520782 3900.93789194 3590.31840229 3308.89026495 3094.4269174 2844.23532996 2745.40367429 2588.80270331 2357.75387368 2204.55424305 2033.05532208 1731.74007777 1460.69972287 1117.11557307 888.015144635 974.001265082 1217.81617925 1487.62799457
6719.60302071 7239.96143766 7511.36996335 7092.41424415 6532.16914217 6372.23014044 6525.35048891 6851.57396684 7307.44896272 7791.94488212 8299.22824897 9915.18467393 10196.5333707 11416.9643506 12151.0391241 14350.8670324 16746.3785074 19828.7500828 21919.2760122 23846.5616316 28304.3550395 31732.2157673 33987.8175248 36165.5846753 37964.5188826 38767.2806364 38566.3540819 38548.0123715 38493.2836877 38449.4803684 38229.5246708 37943.1888324 38064.3475313 38284.247287 37830.9822373 36069.2545552 33878.1045435 31136.2749603 29723.5255758 29189.1778002 26091.1137048 24592.4064787 24750.0118048 25239.5073309 25677.8549343 25179.6164384 23013.590404 21801.6592311 22790.0412589 24347.7000193 26101.817291 24587.7661975 21300.5624054 19061.6769623 17546.50103 15991.7768908 15354.0752379 14526.0295508 14306.7926373 14359.6915583 13841.320189 13121.1207884 12291.7365567 11924.3536342 11697.6207577 11303.7024285 10199.9486351 10075.5465434 9923.59135328 9618.77447949 9281.36191991 8293.05933409 8045.43705642 7909.46916848 7628.07340372 7192.81750596 6722.27545431 6284.97996336 6305.1382407 6024.53046773 5215.97530195 4123.50438879 3517.86716516 2666.78206278 2281.59362276 1953.14823093 1473.40435411 1111.26260375 848.39269209 744.268895436 587.522451468 498.264220995 477.162951441 445.280287504 353.451063069 315.890141824 275.614594881 242.947706613 243.21120492 248.162495993 255.318488015 263.085693038 278.930969085 250.520300578 253.538741972 303.72020284 297.539866031 311.440494331 404.812444057 441.933799105 454.016273806 420.358047278 475.307849159 554.06862143 648.790412265 689.844079724 604.215056029 648.661098356 709.887921782 584.150562166 804.355117767 878.474469494 912.746967737 939.311334533 1027.87812516 1032.98508132 974.626869281 950.790093228 944.832092594 873.110078445 845.694708593 803.52291183 854.373192998 758.429592703 679.159009369 585.997317012 603.068400451 577.62620258 528.960458626 475.510256418 449.023876399 358.390140017 263.199748174 178.511585596 188.741353196 258.49708396 342.972703551 320.954019477 305.190314403 232.526846194 183.329813531 206.035235137 304.917495215 376.492675116 409.12887253 442.961800785 466.947436912 431.850733755 461.781791543 423.438594742 443.077916412 533.020258632 575.561530133 631.455478718 904.326456745 938.696212254 945.003629274 910.29382017 966.312540211 1241.30323683 1546.15696114 1858.34845269 1937.47021799 1848.15101278 1751.44519503 1774.65697953 2131.80990905 2519.76966788 2804.35713438 2801.15083027 2826.30738054 2966.495948 3254.82973596 3600.96232291 3793.75313735 3947.86273927 4074.39235134 4042.29852424 4130.79559431 4352.6909901 4526.85946535 4751.72443078 4722.22442163 4517.34178113 4409.00528987 4388.24030936 4379.9404465 4347.71700194 4289.52273878 4220.57284437 4206.70357581 4299.85580503 4405.32733182 4348.48255252 4108.71230638 3782.24104107 3516.04644108 3218.28582184 2963.8696984 2701.63218732 2537.51070316 2367.88370582 2224.54942257 1880.0231397 1631.9916193 1319.79465676 1097.15001443 1144.44204424 1379.27868944 1596.05357183
5714.33225099 5947.20466779 5860.94079848 5580.80867284 5268.18107884 5371.1494653 5722.86693552 6121.18761657 6597.1636429 7100.99558671 7647.80102654 8621.50989027 8786.09956468 9876.61005745 10664.5882604 13199.8782256 15927.8681152 18992.4928472 21128.0929226 23313.0997456 27156.8210037 29587.8502066 33349.7958997 36984.507193 39397.7376856 40040.6846618 39159.5169298 38532.2074202 38620.3320203 38849.0314208 38528.6214989 37902.2806151 37364.9419086 37811.4908511 37084.527471 34281.5866638 30859.6424882 28955.0596154 27594.7772219 26332.9854207 24964.9907788 23473.8282779 22481.280053 22600.3665998 22674.674077 21415.9546588 20459.9553899 19857.4739817 20571.6010972 22498.7917533 24297.3190458 22732.2381691 19326.5754562 16145.8617731 14496.5348845 13845.783383 13232.9469896 12080.9289312 11892.3874834 11864.8113239 11689.978921 11188.8261442 10797.7244425 10877.2330721 10329.8789235 10113.7635328 9925.1029224 9778.04196986 9923.11799298 9505.81331814 9411.22324461 8821.55982091 8409.87206122 7866.35798106 7501.14111153 7060.85043389 6378.35133363 6091.9191271 5647.77650398 5200.9007711 4327.40690406 3755.47125201 3435.97292458 2772.15516972 2371.86956528 2184.60290057 1979.90780106 1512.85223152 1099.9832667 915.00200646 642.702209251 527.905700401 453.027166184 415.106933233 351.436034102 323.786951878 298.941439048 287.670594111 283.492212703 294.027099377 297.381208816 323.207368875 307.662096845 285.62931181 308.728542278 362.415887268 412.609555442 449.309092566 487.34590204 533.97851161 556.249936351 554.246831174 667.593058629 800.089729892 1011.33397062 951.923225791 933.336050185 940.66368756 1034.43925381 1048.2812327 1279.12059858 1305.04298491 1245.82064454 1135.32155218 1162.62263418 1158.41914495 1163.46540335 1062.66279922 1084.40765068 1078.50777427 1019.54298143 970.709931646 896.584931208 863.214433285 809.557959825 750.972681552 696.798377683 684.963301304 651.32008547 592.186664816 529.286709909 493.024474868 417.323968656 349.098455638 345.240570724 390.811660848 414.566469239 419.705113863 407.045094719 345.136345363 316.099466766 336.52382809 379.099167067 418.968827501 438.660948259 463.483150955 483.707747527 520.264756705 469.534288386 426.311982741 424.219333697 523.253256774 559.204336445 608.351770751 930.261804009 969.812395027 993.160009482 1006.96940731 1099.90546751 1405.66799228 1711.79332792 1913.39864627 1995.91780612 1818.80843926 1578.1598543 1581.56939048 2049.61750728 2591.06365819 3017.68622591 3201.05084883 3280.44278745 3441.04665034 3645.4842058 3919.55936933 4048.98423263 4154.88585397 4166.14464047 4173.13945527 4214.384411 4383.09026482 4549.52734346 4667.27381447 4662.55491375 4557.64835368 4516.89438978 4593.61603984 4643.11584273 4606.57715952 4505.36148966 4394.98902028 4391.76091386 4483.39913778 4623.38769263 4597.43887903 4318.39023226 3990.13729558 3714.36315014 3513.03237219 3143.07992802 2873.19445583 2696.56921667 2514.96394069 2372.10879815 2179.89194707 1882.39965078 1697.38120939 1545.55235052 1535.57618464 1637.75515909 1764.558321
4772.33405458 4802.47519111 4622.00682472 4225.38462264 4148.09869201 4529.45455253 5076.04877662 5519.8602268 5932.82771508 6495.20954081 7165.97179813 7818.6048332 8334.2212677 8342.75341498 9356.1970805 11368.2941745 15183.8211883 17294.0661998 20597.3363759 22703.6632246 25607.2242511 28653.3481305 31633.2170115 36010.9984612 39790.0105671 40542.0547835 39178.0701635 38547.391544 39055.3077698 39971.5514584 39433.8962092 37781.6752869 36621.9417594 36102.9170516 34850.9442174 31764.5796652 29074.7944489 27396.0953739 26321.281466 24727.9630978 22580.8014558 22266.7208998 21855.6497237 21067.2233026 19544.3396464 18440.1699602 16567.1389787 16172.3134044 15995.5538975 17349.4520178 18010.1030533 17158.1086419 14751.2412678 13113.5629807 12012.0456468 11655.0001075 10344.2051347 10128.5441368 10049.9446537 10287.6682319 10383.6416669 10462.4610835 10449.4874155 10273.1435239 9595.46495697 9409.21488417 9360.58862088 9278.28818672 9540.29433325 9311.10500001 9749.98939243 9758.4830554 8886.99404948 8052.96103863 7419.77160853 6913.12727777 6037.300114 5641.94568903 5190.63166702 4560.23244237 3816.63141283 3346.03681855 3221.43298 2845.97413561 2497.85128554 2343.90782045 2271.53860284 1732.75918978 1276.73497763 1001.49005232 743.801327532 530.243324843 375.163522232 338.989416176 363.22756485 316.470921746 285.009124924 293.937172338 301.12740785 315.059049098 326.148550473 352.700857095 362.73441046 392.068034101 421.820755977 465.945610376 532.413583794 536.862883113 493.448698658 576.599092176 639.309173812 675.685015545 964.544751789 1133.53734428 1249.06002952 1384.25100712 1592.08476283 1523.46240696 1512.28728194 1483.87258585 1450.24920367 1551.93087355 1495.33637406 1471.18502503 1463.23216147 1266.78763761 1355.5893181 1515.35905888 1320.98466886 1030.05672037 1043.53100974 1077.97191007 958.399695406 878.991182054 922.194099549 941.757128644 822.348893222 746.490398396 722.897624217 691.188961785 648.880381796 622.102549026 558.02191552 512.029381356 497.421889853 509.604427555 583.16765835 579.991372524 505.562017535 458.095406393 489.050220592 424.409434952 424.069904118 437.360192696 459.560218069 484.636729099 505.246280074 461.470500598 470.79916329 423.672496872 417.069284142 430.514554337 534.192940782 645.84862741 888.782354054 964.717444698 1038.43293606 1170.2459719 1282.54841048 1486.44813589 1901.86336402 2077.16627136 2201.06048336 2053.16924749 1806.5465713 1883.65220694 2374.53645119 2945.43595236 3335.69674837 3574.13476432 3791.13399859 3930.80160317 3989.91841891 4177.77414168 4250.54592356 4256.49361482 4255.52853564 4247.29796572 4262.97585428 4378.41509946 4470.86607646 4515.03930649 4528.88302461 4541.07533839 4668.12216583 4832.30850351 4950.39196438 4893.8229853 4701.70071887 4589.77702491 4470.54989996 4616.55850779 4637.48304569 4590.51491357 4457.97649585 4062.08539864 3962.95443808 3656.86908478 3409.08926688 3230.02619805 2840.38720504 2695.13564907 2489.38647581 2286.4376201 2078.982457 2048.14948201 1899.14251033 1858.20486389 1877.19757345 1929.38713602
3932.07116965 3969.04413893 3972.33765277 3821.30871939 3739.77265023 4008.71080127 4694.54099699 5076.34928596 5370.86046162 5886.41456104 6701.92174848 7573.88015751 8232.71971116 8215.9758489 9158.41611763 11064.0770786 13807.4782352 16689.2231457 18589.0918553 21599.2822057 24101.2463652 26414.8755114 28806.8792838 32971.4879389 37073.5410282 38350.5269548 38033.2105375 38254.8375497 39866.2749528 42037.5487791 41147.2590968 38236.1550574 35893.3332729 33912.5207609 31504.781127 29787.2617862 27557.2718851 27297.8583539 25717.7220602 23564.1036059 21923.6438219 22592.1981334 21885.9263274 19488.7160684 16397.1576837 14163.4897222 13061.7332502 12424.4887299 12291.4018473 12138.8967215 11403.3289493 10323.8435315 9414.25511825 9701.85539666 8617.00273011 8316.74499928 8421.72227579 8295.12070797 8228.07687521 8583.84122388 9507.76123069 10025.5325447 10255.1638115 9639.7102212 9298.73610204 9449.55407199 9718.85617002 9574.7858137 8995.47021149 9611.82606233 10750.5173514 10911.9906667 9425.42340763 7978.35574391 7075.29478107 6554.66470159 5835.39755811 5445.38761518 5046.27153988 4355.19856254 3423.25091898 3104.19590866 3184.09303283 2972.57821159 2509.08018583 2360.73774102 2248.41907387 1868.73394431 1418.80142451 1061.03377369 811.088160569 647.159541129 422.459713231 371.539565907 381.389684059 338.682715038 306.453385409 317.334451807 318.852332085 335.057068611 367.951766536 403.302442622 417.184120047 412.203288653 489.116567592 556.140642242 616.317801799 695.092807192 670.541372163 773.014814596 870.919873616 1172.36263097 1299.93850901 1343.39999996 1620.56649125 1690.00411577 1672.5787121 1830.8810985 1827.64155321 1829.47652813 1787.35530909 1810.33001777 1754.25696348 2085.10703977 1990.35560556 1888.78555499 1887.96766046 1790.56516034 1612.93007007 1310.42670644 1265.28687103 1297.67534233 1208.74628734 1110.93936648 1090.82662265 1054.37765928 878.283663495 858.636568389 829.271205712 764.67581975 722.523767078 682.119250545 652.279608747 626.801470096 685.610188985 754.283077764 765.747586223 715.322436751 686.912109352 667.98272428 562.526888484 485.197162338 399.917356984 408.236265353 450.862120256 487.270195244 519.918112268 526.244800098 470.772380198 482.508084965 405.599828326 450.471427943 454.685744516 568.84588525 629.388299475 923.779891291 1056.39241521 1281.60892922 1425.86359636 1667.33789549 2110.88841501 2415.11308585 2495.18604763 2511.92150508 2416.62321458 2690.76846511 3048.85620966 3459.86675461 3778.43441618 4094.23536958 4290.36510121 4297.56518781 4380.70867521 4367.01954338 4378.71127342 4283.60409978 4276.54391147 4334.16494287 4276.96442478 4286.81208796 4506.6704844 4377.53224031 4426.97717888 4601.71874683 4719.85166689 5051.32699329 5180.5199193 5085.05698901 4812.15885807 4581.81828337 4641.78025393 4604.5715146 4627.92495831 4583.07000801 4553.47984922 4437.30006595 4229.86321628 3984.20032169 3541.52790983 3362.36102205 3223.46737166 2997.55743192 2711.39525457 2321.65802509 2100.01016048 2079.93476764 2049.49088075 2032.44353717 2029.03638724 2006.01281752
2899.50931992 2987.24074985 3264.09254555 3564.28608677 3761.0898703 3918.71245953 4519.18220728 4805.95643106 4842.19338089 5125.50201337 5854.86282569 6878.05724851 8021.30836705 8443.3814955 9935.27535426 12499.3437967 14772.0625241 16327.5839629 17418.5332013 20989.6614499 23048.6020963 24838.2089721 26029.3875878 28515.5124663 32107.2358163 34199.8198672 34848.2841272 36184.2046453 39137.5768969 41438.9543054 40159.857461 36709.032507 33453.4082645 31555.6129408 29896.905808 27754.4820057 27038.7707427 27203.6945849 25438.4254401 22173.1629542 20948.1331922 21922.8118812 20631.0723681 17025.5080757 14049.1584597 11551.7761379 10492.3016171 9731.67745321 8430.75163853 7569.24346476 6093.87008249 5102.45456056 5545.45534769 5790.09477725 6561.52404923 6484.62094923 6316.10272193 6434.90661981 6371.84060705 6763.13378376 7401.53951585 8175.08491112 8706.79826665 8608.3421788 8777.8040031 9714.98378971 10537.2127423 9971.12853077 9053.76475159 9386.30929747 10762.7422462 10939.4084268 9212.99500736 7672.76326911 6782.18028628 6318.42080106 5637.49650343 5356.26669789 5007.09512327 4531.36896538 3747.98819387 3357.88833249 3266.74133108 3061.45852711 2578.96974585 2340.0000152 2025.30638395 1637.10358348 1384.02257465 1087.36290202 932.337344476 802.480560259 692.756102198 505.728779499 461.066386635 387.759414204 355.453737726 328.0550041 320.374867212 361.521904034 389.624335023 411.376814242 432.890797544 431.242513482 574.487165001 652.959270733 754.776398762 777.586667925 793.91986121 962.712292708 1164.84701646 1365.17045355 1400.63169328 1645.54203944 1599.41278525 1891.62172019 2152.62585823 2226.69134574 1997.62093742 2336.92157169 2561.8348871 2597.66164092 2854.64221733 2761.86184062 2657.86772914 2296.5995608 2057.01388027 2038.24270497 1801.22468881 1786.92583211 1694.67797199 1619.07135189 1419.82439299 1295.70037369 1147.61562868 981.004862597 878.629178305 859.366081849 860.055496928 788.02767166 715.834829058 682.437644095 701.276165753 781.729429201 836.869545017 863.312469138 873.245599649 901.399189274 862.704140602 753.664674582 641.617795579 462.974560184 339.767528509 367.607269463 440.860370402 493.516489259 509.717447146 502.259363551 453.12051797 461.754866989 474.380699617 451.48288115 437.47244295 468.375682588 673.239171931 883.999207447 1042.9327025 1348.12788878 1594.36920885 1802.42206803 2355.3931976 2582.04142195 2859.84136314 3092.95827504 3226.52219993 3654.1972331 3878.24195642 4094.45837178 4275.20638998 4428.91624427 4522.43648607 4740.31807385 4660.65086861 4601.17164998 4570.13087473 4498.67529346 4449.58551155 4422.87491302 4298.64229153 4244.90730231 4214.09872186 4280.33754608 4281.59876136 4395.88950422 4737.02580195 5018.65213876 5156.36744256 5052.34556664 4779.98981139 4555.71038885 4674.36125482 4628.39999763 4661.90174583 4657.6080644 4529.35389157 4363.51870462 4244.41887025 4073.64504515 3877.38017044 3722.99329618 3512.08888498 3127.22114116 2764.58884338 2362.7575417 2075.32750316 2073.37468649 2199.90728902 2244.66459946 2121.8496348 2164.19591983
2169.32095239 2133.07997324 2478.52582263 2978.28745703 3273.26064987 3476.60062978 3994.08694222 4551.65702156 4791.57850723 4860.94454914 5386.6609924 6634.01251732 7709.39558212 8686.24461426 10238.5770903 13854.1551859 16302.8841785 17341.3928123 17603.019526 19830.7595725 22501.6682533 23774.0786141 24089.1609261 25775.9150291 28806.1988868 31256.1836417 32562.1350458 34146.0689155 35044.9404168 36205.9176621 35430.0410863 33365.6756838 30699.2679533 29007.4207342 27689.8176052 26027.0433609 25357.7566762 25392.5713715 23730.7475518 20627.1390905 18688.417476 18280.6636893 15822.1865284 13200.5723998 10160.0056963 8896.79932374 8134.5006639 6777.3832104 6275.9062262 5480.60530561 3734.0263017 2902.21722864 3305.92943938 3839.97831575 3712.67951737 3530.67555074 4121.51976492 4203.31756376 3960.0566029 3730.50157566 4704.8618957 6144.10943592 6866.64480588 7279.55606485 8029.50896531 9143.05620934 10513.3233717 9864.61730357 8593.38165385 8430.16805967 8986.35487192 8833.58948097 7738.24819112 6945.40873295 6378.51729066 5791.44023873 5511.05033911 5305.02891033 5169.79014545 4804.66945117 4277.70023401 3892.78107841 3489.1650749 3168.26511869 2840.10785767 2211.54699489 1856.02476534 1370.56708362 1240.04462865 1174.78381213 951.818894973 863.526170481 810.806823903 616.556252193 515.505677187 449.913090198 386.753244777 318.672600982 315.310958171 366.244885647 340.690482882 369.536550811 501.700080882 603.276326261 671.899444475 636.050746776 717.421683588 877.281898879 989.814509302 1146.25410502 1217.56229594 1512.86751918 1748.28132616 1975.82557451 2069.28495773 2430.90436403 2761.1967227 2975.7001229 3337.73793045 3651.89854663 3362.75541443 3375.95135034 3047.29603771 2940.2109525 2878.9988273 2807.32602455 2542.23617112 2352.86725341 1964.3265775 2067.97197177 2036.62788674 1858.94556608 1730.76970035 1483.29805603 1195.18733641 864.380530013 759.754520515 873.021615626 931.63449189 874.067917688 737.62553664 698.949868052 792.516427273 874.266289621 955.432749747 988.739872037 1012.69967846 988.945360107 953.554479006 847.019973596 728.071116383 567.991329997 377.566918086 428.60672806 570.505420482 572.860591468 458.913009372 425.615334533 412.799892235 440.165546109 454.711945264 412.057118663 350.984772717 338.149168798 444.691520328 799.495272678 1012.98671114 1372.33211628 1663.1526156 2155.15558863 2432.84287968 2883.85547764 3208.29190173 3585.87395675 4075.39128341 4572.2227459 4700.84759443 4732.53028768 4740.49573155 4827.93709855 4883.13537552 4934.83895938 4989.91742572 4998.09713267 4840.22983104 4834.89972711 4770.40713765 4675.07900946 4425.71205069 4217.38233701 4249.23204991 4288.35521536 4115.8296239 4395.48548622 4550.73766952 4742.76970873 4831.42647199 4790.21285882 4756.04083417 4707.94679875 4703.70957651 4679.41858311 4609.60204017 4680.02260276 4506.29738473 4221.29002525 4070.98396069 4089.46393726 3944.97412567 3713.95727887 3481.03953326 3268.67250129 2997.12398827 2626.83490097 2339.45361893 2270.90507659 2290.49074235 2131.00535819 2109.98897906 2136.38690315
1650.41147637 1438.59597024 1714.43280051 2186.66604601 2530.71397167 2814.23086433 3292.68669086 4178.91938653 4507.37477033 4458.11756455 4641.65148349 5271.94550354 6858.72980156 8549.48111856 10169.3985302 13804.4634584 17360.704776 18447.6697256 17543.4711433 18503.1992283 21535.1047424 23642.2407306 23895.2066943 24290.9390393 25427.2591441 27279.8591585 29443.1205265 30191.9646216 31948.8243692 32385.6706626 32290.5941456 31020.4889867 29415.3032357 26768.5564236 25866.7018531 25216.7764401 23561.7191322 22354.1776658 20630.8710929 18302.9025057 15603.8660228 12978.0872947 10718.2222316 8130.72694423 6754.15359922 6491.93140985 5551.91845613 5034.42311461 4738.49642651 3889.54265616 3180.89954262 2964.04313006 3065.55043337 3202.99988639 2898.50640519 2748.18485744 2775.28399904 2655.97948993 2290.87500868 2473.52385514 2932.18062037 4281.37795087 4712.48658409 5325.176378 6212.95355 7280.82534512 8202.40620168 7923.29592065 7391.70058569 7073.60703935 6829.91119518 6684.96509473 6474.5256247 6256.40330942 5989.37707324 5508.43090182 5476.38662143 5167.62144318 5181.5622107 5268.38222029 5026.99788806 4229.98496948 3732.73079372 3177.80185933 2827.54401768 2311.43052589 1836.50792015 1255.66320893 1147.14174932 1222.25187157 1059.00968994 884.809314311 808.944346461 663.820508104 552.011353637 492.304529028 454.487330429 396.017207243 404.346059157 440.013801299 408.776683487 466.119467218 634.193967731 744.903572574 833.97717177 845.858724374 927.201625203 1177.59516285 1317.45777528 1341.04168479 1322.22468834 1722.00152639 2150.03573072 2571.28030296 3105.16309117 3533.5108159 3385.99989593 3609.5286373 3679.10360438 3756.66594886 3649.98729426 3906.09817271 3382.53911388 3243.12415175 3175.06837539 3368.8192305 3075.86473077 3179.21323264 3131.57936563 2629.45967233 2319.51685772 2075.58883852 1901.65740193 1645.0920221 1384.77130831 1063.44052379 910.975447701 1031.68655433 1026.20534351 1022.85484316 928.685028005 889.741842493 967.5907471 1020.77919127 1020.03132344 1051.7072267 1076.49683978 1048.25229101 1015.31754462 941.118727904 891.093476563 783.164882182 657.261982483 648.957951623 687.553840034 610.093054246 393.219738228 323.891183084 375.930862418 465.008845656 455.428590137 400.022193981 303.869101742 286.034920071 413.32867821 750.836695731 1006.73719254 1382.78734159 1699.99251356 1958.78237293 2392.32157973 3019.85275242 3451.49280257 4147.24792953 4796.07818584 5404.8150398 5492.83931108 5264.76335156 5154.37098067 5206.86627394 5250.55534044 5285.92263163 5336.88413657 5368.4813323 5388.42367371 5379.92119865 5225.2028864 4764.19682298 4472.56353501 4264.5471889 4057.48654526 3989.77890453 3921.73989512 4024.36708793 4333.94605762 4460.224584 4487.87647351 4509.41781938 4609.4620595 4650.93357033 4688.42008736 4726.93883894 4933.87975968 4823.53836827 4551.28712139 4169.14142254 3916.83857228 4039.53951876 4062.7192397 3699.97455342 3371.59015745 3304.54551331 3202.713327 2890.534155 2654.22428899 2500.02723623 2344.42292619 2092.44959877 1942.98273013 2036.79726332
1475.65950286 1371.87194093 1527.51636024 1785.9735876 2009.96147831 2219.50029783 2515.35425959 2842.88570741 3384.01859341 3635.12316926 3952.99257214 4635.8657066 6211.82741508 7566.0017 9391.44442661 12345.5713491 16405.4721885 17749.7338573 16720.5554855 17465.0735717 19356.9219355 22389.1922253 23104.4782983 23592.1156611 24243.1002166 24987.4645093 26118.9873005 27096.1235472 29338.1837474 30708.2063784 32340.2360351 31376.510697 27896.6034081 26019.8945039 26004.1376423 25608.7064135 22935.4632461 20387.3262644 16893.4115318 14834.5625688 11462.697327 9568.67508657 7284.65879796 4983.95499276 4129.81281351 4446.89172816 3739.09122732 3394.84562852 3285.27932759 2931.44324208 2891.2026242 2873.24125446 2759.07131401 2451.85351067 2148.51088017 1920.29107984 1928.07322366 1994.69108361 2156.64964757 2151.66546762 2494.48777183 2887.67274262 3604.60136283 4075.5315073 4553.28781336 4984.28326742 5454.44748761 5656.46485655 5613.59458749 5183.83537578 5147.6603599 5286.42625187 5942.07707021 6523.13356648 5805.00863086 5383.05731075 5515.47392195 5246.76067414 5190.39795839 5831.58948228 5464.48343327 4320.6305047 3640.07964194 3248.06495089 2920.63946698 2537.21395249 2187.2381253 1754.70895737 1533.16476874 1419.6937539 1247.9054832 915.434091487 740.217939625 579.214129283 558.676351849 490.740010713 457.393858293 461.485496834 480.734132986 528.54683197 602.626483905 651.304605567 765.124089623 910.436274126 1068.00899453 1246.96295495 1282.18279907 1460.42738309 1678.85744192 1988.16190848 2129.36511873 2183.04715238 2504.42323272 2858.02685166 3512.90999381 4056.26838378 3649.62986049 4147.36290807 3843.97073358 3562.50551336 3525.37289755 3644.41975311 3497.81812387 3430.20150466 3461.09143848 3659.0270489 3268.93201727 3311.93342553 3284.23048348 2786.36972374 2434.44320143 2192.46637978 2027.89068214 1843.92064538 1714.67878537 1448.01650335 1270.21002918 1220.99041439 1137.49841734 1151.78540488 1093.12280735 1105.55257488 1089.00520822 1051.34710638 1043.52983584 1082.98721539 1186.5031752 1122.26405147 995.64469243 1028.44566437 1112.16746283 1153.17402687 1023.609901 893.468694149 820.750511563 666.632116817 405.068210358 277.967516139 379.091054348 501.002245482 484.190729523 413.845476297 359.992371037 372.312600014 494.086323364 649.814608208 1026.61096802 1391.04656536 1697.85321258 1963.27361461 2409.13087314 3034.95253243 3514.94797625 4339.97270601 5341.14422221 6210.67867322 6095.88180101 5645.55421169 5477.41269083 5534.32962969 5667.42115933 5662.03647368 5678.86402785 5698.93031471 6050.14482799 6076.06940673 5599.14882933 4922.06357971 4392.68276988 3906.88817077 3858.19380542 3533.82952639 3565.67401537 3820.28097321 4162.53452644 4309.40112237 4343.88285871 4291.88911614 4286.23942238 4523.3519842 4579.99926291 4686.30496013 5114.25973439 5151.42217465 4899.2493017 4508.4225485 4210.9446126 4288.59459377 4203.56409224 3842.46470486 3458.81690471 3385.58255088 3338.02701979 3064.44061002 2863.699817 2656.79386406 2360.3843922 1952.84207096 1764.78902407 1968.90652533
1397.82655731 1356.11599854 1392.94235684 1395.39930965 1503.42460904 1622.31666959 1514.76592638 1767.25850928 2109.3728088 2696.7349938 3237.76864381 3943.45971359 4597.33477974 6439.66765873 7687.75024963 9494.54350973 12427.2501022 13619.2762037 14443.8252694 15040.1387758 17314.5266862 18786.2069475 21853.120989 22999.1050771 23622.9866827 23494.6816296 23819.7166708 25462.4434463 26705.1678509 29013.0898593 32151.6711058 30592.9492366 26583.1604417 24861.8094143 27483.7978104 27939.2535517 22297.7535746 17415.4068348 13227.4016251 9979.76463073 8262.40948409 6641.57956918 5153.84714098 3815.19485961 3634.2983325 3198.16590458 2807.64851597 2944.11008809 2958.72789742 2181.70254651 2428.82376941 1644.22061482 2185.36245627 2046.80609338 1797.81465951 1919.21280209 1773.3591165 1801.85101408 1921.38351286 2148.21796923 2192.941925 2293.50898564 2464.58427184 2657.73343 2954.64904455 2997.35496045 3328.39544199 3799.99672939 3721.58129024 3969.75650254 3977.24134885 4207.71385333 5095.2750013 6033.37450794 5308.17377965 5297.31423275 6109.30762071 5283.52502284 4806.27947939 5153.73684161 4850.53243797 4000.1980829 3530.62043845 3242.60949888 2912.21933062 2725.67566109 2564.90124526 2483.68749863 2079.12935729 1665.93391976 1363.33448668 1034.2966458 705.798189743 505.883993872 583.048970097 517.408981853 468.728885699 509.829851556 544.018268699 608.993158899 678.521894742 718.796686908 809.112426347 964.876615007 1128.82993183 1342.8539177 1442.83495198 1782.89988948 1928.18041218 2453.41654805 2560.18732173 2502.06173405 2616.79135527 2959.14587273 3171.18875993 3338.84169803 3310.17860654 3578.27283123 3378.76722544 3244.50584097 3276.08131878 3650.25817942 3555.10350025 3521.96406753 3547.26996669 3167.25615428 2946.41611265 2847.92331189 2647.99500969 2564.73429796 2349.27876714 2234.54298743 2036.92408163 2023.16936678 2087.49670978 1898.3806354 1563.00727464 1401.18090765 1332.82179105 1284.14013148 1288.69557965 1287.46431712 1178.69077876 985.464817862 979.895305724 1208.72402025 1277.22696678 1122.24567911 899.510447581 1041.20234247 1281.01743734 1369.40905726 1278.74473245 1176.11362324 1062.58062094 891.010886638 623.948389039 458.187609623 510.020223988 534.984241005 547.035412212 497.392495706 457.049573779 516.642208172 623.79828691 703.764628163 1001.71543905 1319.73062919 1618.16062048 1921.68928078 2354.55795387 2921.84959113 3435.61996305 4105.67948063 5256.68953233 6359.786936 6178.50846124 5626.29657853 5657.5441985 5960.00518524 6205.02233922 6040.11063496 5756.08460133 5932.05632574 6600.23329017 6773.1975083 5879.92740388 4942.99514629 4224.78890999 3662.0036083 3592.95008293 3269.20695157 3302.38802688 3482.49249922 3961.05602322 4306.78864501 4414.08027681 4299.44161039 4393.26036593 4398.15819742 4632.08827592 4822.03013819 5273.07523493 5537.983796 5417.41617303 5141.27682352 4924.38659744 4834.19472798 4631.87232438 4211.93233826 3902.62847537 3762.58770259 3623.02174835 3313.47663788 3130.67165966 2871.20838268 2606.09587967 2261.3163488 1994.23962431 2144.92202364
1204.91500487 1106.53768461 904.660886187 772.303702157 1002.4753362 1092.77177797 933.619062917 634.180440394 934.863754395 1942.88488052 2688.59642152 3199.06875013 3761.29983572 4520.46150215 5763.71563361 6366.55554248 8171.89797909 9605.29449214 10674.349188 11499.6553642 13732.44595 16875.16303 19212.0418988 22689.0703924 24148.1065612 23315.7657927 22956.4488031 23887.7538398 24563.3347789 24839.8900987 25966.1618361 25209.2188557 21900.9940265 21807.9329696 25623.9846814 25668.1610418 18572.7336218 13419.0039277 10587.2560124 7614.79076246 6257.63488826 4950.44117322 3229.62862666 2617.32674812 2709.5281886 2482.45733178 2255.85090194 2080.9604523 2129.88375425 1621.03002236 1308.24799364 1170.56404632 1092.09109659 1162.54272165 1376.54862275 1455.3280774 1293.05672408 1478.05868223 1578.53829191 1793.01079578 1775.46653705 1699.49041006 1784.6507363 1939.3969157 1870.5434329 1604.6162641 1855.40901676 2478.83875948 2759.16546451 2972.48801007 2973.28931959 2895.92129141 3034.37898181 3829.05191189 3990.03765626 4183.89962677 4813.84883859 4418.81166076 4082.52285308 4008.19456092 3763.09295975 3490.08430577 3365.46879104 3102.31142506 3036.46426494 2859.13846676 2766.99754623 2820.29212766 2368.44295913 1886.41760972 1566.39848843 1218.99172532 996.730226763 748.894874866 708.012818082 623.417386606 568.308541477 527.850366041 565.657753995 590.760346953 651.235698636 771.613329758 888.534100714 957.532853236 1091.86361012 1348.25199558 1630.6500723 2135.54635012 2003.52450654 2171.16329069 2364.4390074 2865.27647956 2829.69749534 2984.3424303 3179.15826366 2667.00627861 2734.98954893 2802.93108098 3021.85262609 2866.0132075 2996.12518846 3064.32418931 3002.85755927 3041.72080998 2969.4810486 2615.73564021 2516.22650609 2431.08610567 2513.73277701 2448.03840497 2312.52189936 2269.62399457 2056.59387166 2079.74891132 2245.84714209 2022.73812892 1661.24914973 1426.13343531 1402.01604183 1406.98025956 1404.65654037 1372.44129824 1313.57532106 1150.06389976 1153.04966398 1393.41263989 1469.74124085 1319.30371616 1103.95194751 1250.40070371 1582.4414086 1703.02611487 1620.63760959 1561.33442987 1335.25987776 1126.41896566 926.928891597 824.571803577 699.855066557 636.067377889 613.138331026 579.105058568 510.286621987 537.606927854 695.348267741 745.823930433 853.752595483 1221.62323659 1528.51335655 1779.9198617 2210.85303651 2702.41146761 3050.01024122 3447.11536057 4350.43883275 5241.88622249 5454.41589447 5386.02623554 5751.8267236 6568.38082725 7078.17340585 6562.77166096 5850.18719416 5761.51708383 6389.08584723 6535.61664656 5503.16532791 4329.3835432 3697.58788485 3313.881244 3037.74058606 2961.11765901 2976.87505941 3165.33126214 3685.33403319 4286.75562706 4487.03526711 4227.25261472 4312.06585126 4425.58441802 4637.72649524 4907.27754519 5685.48450288 6053.38384514 6085.13516378 5900.10530815 5645.73263928 5424.15010859 5149.08675614 4745.58653786 4330.21146102 4070.85200992 3701.47536626 3528.27647283 3317.65578429 2980.96092673 2760.16881754 2504.43158685 2412.24177058 2402.83933567
982.801415606 828.99369936 576.289828312 379.551684073 549.621114408 758.281686268 697.099347675 496.331266112 690.173926859 1581.73846982 2136.691754 2585.32913196 2981.36071256 3569.72057944 3847.33061996 4050.5914381 4832.83818364 6647.92577037 8163.77303617 9478.35746502 10870.8343919 13936.3658427 17550.1497379 23629.5679668 26513.118635 22267.9093453 21497.3801207 24119.9298514 26086.6197548 23003.6984309 20597.4550304 18826.4891303 16466.0956153 15498.9600366 16117.0690536 13829.9322954 10310.4496529 8339.58105257 6634.23514149 5502.45346852 4443.82714898 2687.62996902 1308.70932172 1105.37528928 1008.20734158 1084.42973226 1097.35150899 1002.62751771 813.845615684 822.168487622 830.133913549 693.715792494 664.304238311 712.669090368 745.159766753 791.920662774 841.304911312 861.330702931 853.940129442 897.380953817 1200.3481779 1242.03662684 1204.1067696 1558.07031761 1447.72667786 1373.04671252 1426.615576 1729.56033639 1815.51628722 2116.76962026 2018.67362279 1926.37018405 1801.12159429 2253.19733054 2570.6173085 2668.66578902 2770.09993055 2960.80659262 3108.64464016 3110.44559643 3090.94125001 3412.27250234 3403.40803141 3088.98319639 3244.44087711 3086.39280907 2676.96986369 2578.03470247 2258.24821768 1914.41159249 1694.59764391 1392.73321006 1314.7274069 1036.76554168 861.380018896 726.665772213 629.92928906 505.542866776 584.019599464 541.69401933 632.588722232 829.363338808 967.985520602 1094.05579836 1171.26992363 1313.65576772 1564.90241545 1828.7776016 1796.82363742 1755.26333639 1957.69344436 2539.34020091 2489.51280343 2281.20276246 2307.38052838 2069.61288086 2073.91016408 2137.81044478 2507.78189632 2440.22568307 2696.96631638 2254.6293791 2223.48429674 2100.1687711 1807.84464245 1975.95459379 1915.19836392 1984.15909113 2130.4752018 2123.49693006 2221.68775403 2283.13092789 1933.77674856 1880.14133126 1930.73366884 1728.84676885 1502.04928116 1396.85875024 1431.41282135 1412.89297899 1500.201143 1524.10419692 1507.59733943 1514.81527779 1552.42770539 1686.33868394 1829.73310272 1783.52052854 1790.10428458 1865.65634046 1935.12389711 1941.29378871 1874.09592007 1734.18641797 1492.7203112 1310.02984125 1225.69520799 1121.04113322 915.38601223 750.791206717 663.578879594 612.783738182 536.006936999 570.50126717 655.861848628 767.510285825 816.412992348 1035.90422933 1462.01700948 1668.53210276 1999.22493225 2374.89289407 2668.11354421 2772.42006024 3494.48220275 4207.28682005 4560.9825538 4998.57785857 5668.15968979 7030.93203589 7847.52100774 6782.37283841 5623.8981305 5241.11180993 5400.45706547 5183.84527211 4443.89214926 3573.06116342 3025.32971717 2806.33339236 2634.76837389 2562.13822697 2524.38856272 2643.22333137 2992.45662226 3629.70613831 3928.06174049 3895.35447105 4240.98185459 4559.46248422 4793.89440238 5044.02949209 5898.71096757 6517.53986653 6721.71085766 6435.51662216 6196.80844104 6321.4539271 5786.10410504 5345.46057598 4740.49594446 4150.85257201 3795.76357855 3628.07068736 3369.97321984 3046.5050688 2766.76713138 2574.96701817 2555.31683552 2509.64904679
631.864255257 570.85952582 493.208898834 424.610558448 530.935986197 668.753779121 720.514602206 686.480246133 777.808201542 876.398274383 1145.97405289 1865.70364997 2104.10826514 2602.6480257 3035.29383753 3011.31081503 3224.36049089 4832.95823385 6701.61647283 7869.94034959 9046.31154772 10771.304866 14110.045757 19673.2463281 22724.8371563 19784.9952342 18734.7128212 22222.927526 25396.8017009 19729.2060211 14987.3182586 12592.9513562 10439.3220194 9371.38520561 7899.42097813 4239.24270581 3138.28108008 3918.58344542 3013.32675096 2393.98910889 1844.74810064 1283.34544462 446.059030496 236.707166611 522.558578435 609.238740587 552.560096387 410.692046168 119.35800752 333.688121348 404.134941552 407.36752523 383.783603865 309.605268399 200.340061915 282.323157418 418.753227171 494.273269807 555.04889569 679.329297181 859.957227781 1077.07847895 1117.60839256 1180.86831627 1281.93843671 1333.24848351 1335.45211582 1335.5760273 1285.30703516 1352.90820894 1384.58710722 1644.92615871 1745.93414914 1785.64814522 1797.09642751 1784.82239717 1671.89357437 2078.43607388 2225.82450867 2234.93035996 2468.35473145 2977.87869505 3065.72332233 2921.21916996 3261.50905863 3031.86454092 2573.06831309 2335.29297932 2096.22675089 1919.87291453 1817.39740977 1488.35589872 1476.94170364 1195.60650304 926.420831023 797.123890107 759.769344007 677.1504172 672.853573651 714.325545577 785.95923513 892.665344036 1021.49850745 1198.8328136 1222.26343459 1313.35366428 1397.18651248 1476.19994586 1415.37633156 1322.94966714 1344.82667613 1228.91157379 1399.11196241 1500.92798986 1605.35336699 1887.24455712 1698.65661963 1868.98912881 1568.31629098 1635.79901351 1344.77532306 1268.21470364 1358.58846561 1433.87865896 1690.49864929 1686.0622918 1817.41326863 1730.3297588 1696.55693197 1563.15653013 1648.41470143 1642.97682534 1572.5300228 1508.5759294 1474.45551612 1425.5476887 1351.07683908 1348.41573894 1433.88798605 1448.936205 1509.3456782 1649.36815357 1670.47752457 1790.1522532 1862.53527237 1987.95832608 2133.93084308 2239.83062412 2243.05064498 2261.93451942 2235.06660179 2164.33516183 2008.04915006 1862.18393612 1594.70146238 1394.75236484 1317.18219812 1239.59318085 945.787450662 789.516781325 653.135795235 604.166081905 524.236743074 555.488941058 654.651732265 767.23565511 783.895376638 1016.72048158 1443.23180812 1557.54652856 1718.57417732 2234.47872446 2543.14900745 2684.91894433 3261.6191898 3778.6776604 4072.49109515 4402.96251929 5115.00745315 6098.70406621 6695.83464769 5959.67623361 4919.69141125 4428.28312479 4216.15848943 3854.35721728 3358.92715362 2807.34982698 2548.52908146 2488.52502424 2354.00629459 2311.35815824 2301.77826824 2318.58762047 2410.0428347 2890.68386612 3190.82053817 3416.87372559 4065.98934105 4840.03951013 5062.66756223 5019.69797246 5797.80578141 6875.72826669 7095.15518379 6688.37270345 6926.02560539 6841.29036814 6629.77815245 5954.77258484 5494.28002195 4209.94042389 3686.12050035 3784.31450816 3305.24234672 3138.26801224 2881.04776193 2602.77916437 2572.52309697 2526.83254477
456.098379955 422.032470489 434.322318884 485.680737396 548.641589088 624.250947505 636.682334242 689.666872232 789.850986831 821.45960573 981.906428949 1554.23497335 1503.58324141 1807.89584659 2638.5502119 3081.12801212 3550.38115248 4733.05131836 5325.28478611 6008.43105587 6796.88779963 8187.82089556 9998.61194056 11544.4203349 13426.5879319 13156.8485404 13806.1833678 15061.8061189 14808.0558997 11365.2932742 9025.00279324 7625.48277128 6572.00373325 5570.71709757 3846.62850121 1666.49074039 1304.77671435 2069.97169792 1697.85828356 1499.96005861 617.685260622 529.98446697 446.343999959 394.703582226 430.674776441 326.125454694 238.184920905 305.605472242 174.167981058 160.563831995 129.263972609 125.688436524 152.692988372 92.0548492189 37.9252282275 120.67541121 233.785631012 295.802515429 353.458569547 446.533648866 528.645738581 663.167613161 723.112294048 752.835790384 760.56184276 900.038144017 1009.3026158 1188.51949727 1164.45367249 1249.40929228 1287.54874903 1318.63391873 1395.52380943 1537.32022368 1555.96621311 1608.2043583 1576.86970508 1514.82890384 1533.00337704 1617.71204943 1644.44275936 1895.19485637 2240.18712169 2399.67128619 2465.10311387 2427.69980852 2298.060828 2175.27519852 2009.89009279 1928.23815394 1846.08888667 1519.02663872 1310.91854354 1062.42855012 940.990925912 830.265730531 809.622245037 759.70825135 761.341649063 790.456593568 847.838251751 926.463919194 963.276088883 1103.08535234 1276.47086573 1421.57289521 1326.05154659 1368.6596226 1118.65872226 1013.61937259 961.667869048 941.047443187 907.798536249 861.550140316 816.564990732 1009.18594598 1111.58373027 898.043105706 826.384615408 841.138880818 947.202912922 1080.76490466 1122.86377853 1085.93878843 1107.22544854 1102.51616756 1036.09210044 953.041047989 1057.97357108 1060.82353256 913.392804445 935.43942135 1104.58969363 1175.24241613 1257.39721764 1307.60597562 1313.18234228 1307.41173574 1375.33217353 1451.01979915 1575.69380939 1709.67221903 1751.1652417 1886.28570069 2085.71450509 2297.09757649 2393.69744475 2504.95045607 2426.43007696 2301.04421253 2328.18098664 2270.23827118 2051.62830572 1997.67725136 1782.40056573 1446.82668032 1309.57177959 1251.77512254 1090.34573284 804.734130426 635.121081102 578.572730238 474.679722833 515.34665184 576.884333307 686.876374053 789.890475212 980.120234085 1357.177002 1506.97667526 1660.71778099 2126.38383552 2532.56269759 2904.95758593 3458.822454 3730.93996189 3835.38664786 4013.71334882 4268.72483696 4706.37361482 4848.38028723 4616.18656277 3811.73847068 3416.19643567 3176.65915893 2841.33591827 2592.94258033 2441.48862913 2477.1718909 2375.93817841 2091.50895458 2097.57320684 2216.12463894 2212.0650575 2092.24057477 2140.1803477 2556.85893012 2921.71063986 3815.04841102 4895.6767348 5215.3611413 4882.60355782 5460.25342815 6391.7135481 6821.86179039 6798.17429675 7413.59637966 7522.49573371 7687.46120746 7135.28234373 6773.67217258 5566.76559188 4580.91435912 3860.78396229 3324.53523108 3148.89434661 2940.52785476 2676.03607054 2488.16651008 2407.27913559
201.291676627 145.360577703 205.511747837 303.475649446 407.268030938 469.946017562 532.230121042 612.620785833 760.69389894 791.179053577 901.998516248 1192.81206375 1291.5118612 1419.10341031 1996.85736278 2550.71923967 3781.47999886 4528.91694362 4721.96184702 5254.85506922 5777.42200005 6767.82318341 8100.34109545 8339.88796331 8676.6583451 8834.3988499 8613.89954155 8167.3696106 6039.38337002 4244.42717524 4348.1626187 3622.03530965 3717.81981743 2189.1504614 1719.40748988 1785.80805487 1716.27923893 1509.21618345 771.551061989 579.128789572 513.874104461 449.139042441 498.517327038 461.952280405 350.867283246 270.374946008 166.72592004 233.925727766 175.025403661 98.0622869906 56.8367897383 45.8420746079 45.9897581603 75.1527317052 73.0327514216 68.98784766 79.8265831474 112.050737041 141.739069856 171.930753798 169.379088152 203.6682883 352.478544085 456.601031223 565.525715303 683.525452818 846.107402193 1033.2340863 1039.41490254 1017.40866317 1017.45151796 977.425795232 977.425130272 1019.5725269 1126.848843 1227.01042963 1206.64692934 1095.61042595 1069.17008894 1100.65982592 1139.75937877 1274.55890667 1403.61060525 1733.52185171 1953.99537534 2088.17574154 2058.44159013 2082.05654122 2084.63650452 1973.29205996 1733.97453254 1483.90130119 1224.3891363 1009.67147095 938.184941525 884.96771452 806.394411911 749.670108972 762.60994532 768.519314055 848.655581078 942.567112455 999.624160536 1064.67400268 1134.65033274 1187.01118595 1098.59433659 975.963370672 961.971342455 816.993761155 842.013616142 671.55564203 652.177607413 657.984500812 629.212276334 521.949704056 519.858330809 526.78701213 580.753097189 627.349721441 619.202263213 641.439346188 582.958697856 454.069924918 541.046042537 549.05878971 413.234428011 474.583290986 640.804857718 664.447002334 705.433500853 740.448717045 878.525953809 922.819900591 1037.76228352 1190.38698588 1254.54306464 1260.00719481 1434.02630523 1458.14077285 1488.24297023 1678.15670292 1814.52181501 2063.22800718 2367.53744747 2500.96115221 2600.04627829 2758.1987864 2668.9940227 2505.00114653 2478.01702996 2311.53917018 1898.59871187 1966.49886423 1931.57690242 1604.71196525 1368.57484072 1148.73799604 915.891044377 710.456232745 615.183667463 559.149608176 478.692530704 397.415355224 454.761907468 569.706890538 739.414479542 956.809004309 1286.48512494 1469.55808729 1604.15323161 1958.57329295 2513.6043422 3099.00782809 3873.45159917 3917.0136132 3831.14725683 3871.08896601 3951.19258495 4248.24395695 4064.36045957 3481.82354885 2955.13592819 2638.66522919 2425.53985026 2143.39172385 2027.52214118 2061.20240699 2055.6043837 2044.94596754 1841.11067665 1730.24534324 1875.72897925 1682.1528593 1483.57138925 1427.35388908 1772.14169489 2020.65047347 2611.35614571 3705.03965401 4238.4135941 4161.72064757 4759.61865824 5808.15697924 6529.94607665 7334.11702058 8562.51164927 8649.31332846 8285.18115753 8191.01025255 8485.84528914 7131.3406726 5575.86104776 4462.04838486 3587.16344499 3234.20846185 2966.45037094 2713.95212739 2477.09445562 2361.49690141
74.4028150846 12.7705565826 51.4375479417 135.880901065 188.173974981 224.887679537 314.511078908 378.4237527 556.640636575 723.088824568 845.260453941 1174.11548674 1335.67428546 1485.81335626 1928.63075971 2337.99827057 2975.45916947 4311.56790387 4542.73393703 4995.693036 5862.86655863 5709.53271736 6957.48089018 6448.71818163 5343.36671035 5886.94222455 5868.3754521 5408.6276687 3384.45727338 2200.42402063 2485.50233151 1435.90017308 1378.5740037 771.318027184 758.275102575 720.483536459 711.478578935 680.773869971 612.38186035 606.939627469 554.920789833 492.012253371 515.31092289 430.314755868 331.176557126 243.660089399 202.626553352 201.055323074 180.450274567 116.791333824 95.5773824391 46.8865544882 40.2029715354 34.2979852355 26.5579565337 18.4376950125 13.9190080776 34.5642946807 39.8112690442 63.0417451338 37.0175011886 58.2550026087 206.735591652 297.148834438 365.915479781 464.969084726 504.929652648 596.626972044 737.146867332 780.517345343 790.280509809 764.747345923 795.337386701 740.564988833 815.574469467 829.181689227 806.58345778 912.718137464 959.08229848 932.543102679 989.520345453 964.564574526 1020.49309642 1212.30080798 1546.77963987 2093.55292675 1909.91214641 2055.2592549 2342.13791829 2008.66057317 1714.4585367 1405.07407755 1219.30003402 1028.64783599 948.154858315 903.63329779 844.354817126 768.110103611 794.956450989 782.874046408 862.546783624 939.874496315 1076.95286693 1029.67423908 1101.73053021 955.359239736 761.635277661 593.395125196 533.435930801 525.569927169 356.246541702 333.881227922 273.715096185 354.614783225 335.139208057 288.584387649 331.481104623 287.199731692 301.14188545 254.022460489 211.090571324 270.66192765 256.749535727 229.760776461 287.837542576 288.195477065 398.741857148 429.889653496 439.78193083 467.383263556 596.588491806 690.463501646 802.188742406 865.071574517 888.563365192 993.425501499 1056.93851531 1177.06131016 1399.74861118 1396.55853429 1389.6003079 1584.85586295 1864.62288968 2228.60919566 2717.13057768 2634.88192061 2717.03261434 2879.78402015 2839.84104702 2782.9825855 2759.54536536 2607.3455711 2265.5368923 2245.41820367 2156.26109024 1841.89536012 1397.92355732 975.879541918 575.009048252 647.523440827 518.345611681 468.984118092 441.373004001 323.754587731 376.335744068 485.157652054 594.380674516 800.651701155 1206.99895128 1447.39204079 1596.31255593 1862.07788647 2227.07530038 2899.26437871 4131.04828697 3782.00305782 4123.35176682 4051.70410718 3582.98349209 4382.61186991 3873.4720148 2448.86445794 2080.04943055 1944.50016063 1616.81173843 1482.86543182 1420.32254936 1118.0218144 1285.65604082 1371.51752406 1415.27324235 1176.56685987 1230.41456366 1030.36355618 788.349212506 794.730181487 949.368277332 1249.84526305 1351.16846624 1784.27374229 2738.71849304 3197.9162148 3588.00348483 5080.36191133 6079.58463811 7719.4971111 9468.07536746 9434.4760748 8813.36125109 8357.47457113 8634.81650468 7729.83768599 6382.4472994 4902.32399684 3805.81138626 3033.61449025 2920.89703588 2767.34910554 2645.67625414 2499.17221388
78.1609618925 33.5745210638 56.6585843056 79.9589057628 105.523714651 161.47541145 170.019828917 195.986421506 275.45396797 499.819761061 752.004715566 971.783564383 1338.08316345 1521.65169411 1674.32379587 2050.46956239 2279.81998974 2737.22734488 3228.61651415 3615.93945508 3951.20429609 3563.78962695 3754.44900497 4163.88027725 3907.81795003 3960.52930756 3948.54558584 3717.19718857 3440.47555157 2791.03599527 2152.79325391 1051.63443506 969.252719729 768.084877074 665.345532864 619.909463008 668.097260202 647.965741241 649.775166191 716.760161408 737.205904257 635.496611194 557.146188743 565.788153632 559.283718365 325.094702974 112.532107343 226.710514327 139.758782456 150.949729322 136.005479703 104.220268844 31.9148574125 28.9345694536 23.6517556052 19.8567838948 16.8811491863 14.4410281408 14.1711204676 43.7777881349 60.9862719579 80.3483533334 104.098124968 159.707748484 251.776753061 277.668811006 281.831332594 289.727448855 478.024589388 553.702716163 589.58161271 682.085190171 674.109186874 689.740471927 568.751015426 589.574352335 529.282079049 555.310614466 594.612004419 601.81695986 570.510143297 655.714252653 698.405890245 817.796388994 903.936881211 1331.9160945 1508.3458512 1746.69494872 1969.6223802 1762.05923216 1571.42485548 1388.6803774 1251.14296954 1042.54851111 945.231171937 925.583611053 891.030304672 858.035324462 836.066905955 870.717660645 892.83056778 922.921905476 923.170992734 860.861252139 731.189632555 552.418519402 516.523843584 393.714966597 304.588794303 266.033877179 254.277120572 248.04743024 201.57869108 144.182599433 130.45420718 139.335434537 167.390594295 114.88650018 140.439483124 135.396766441 150.916569269 145.838430331 160.875027381 186.54409503 195.167131203 217.490400162 270.744294655 302.457060506 362.809475425 384.641747967 470.386182444 487.977582084 612.872437491 697.074407486 693.349362407 769.2360431 849.973109599 904.534610632 988.881180747 1114.90547596 1160.10689543 1329.50651503 1634.64645698 2079.66670388 2437.92939515 2513.62520883 2670.02746574 2925.41296537 3053.33494467 3035.54449145 3045.88400032 3058.47742864 3126.4036342 2794.39815167 2348.22010545 1994.25741039 1580.49470237 1145.52977957 660.58393667 699.731167567 488.333155888 427.096110156 434.090050244 370.732206643 359.62765548 392.358829585 503.857658853 696.478145305 924.156667264 1435.41731054 1681.09976667 1669.80333083 2048.9830427 2265.33933806 2747.37117457 3053.39599876 3809.02672177 3637.29109016 2875.01669202 2752.45899158 1940.64758967 1228.68041078 1147.29621293 997.974083092 918.699565675 801.245847606 547.113874306 429.083687721 623.795198619 697.156768577 768.585205108 730.135681237 704.743783151 484.147755901 257.445077931 320.997793437 597.984749746 587.573434022 326.377127563 586.89472915 1573.47166169 2174.08474319 2757.23167835 4061.40027158 5466.16361467 7105.73800212 8981.75845372 9044.92406251 8891.30110388 8750.09181687 7980.68349671 7339.16016865 6599.73720211 5318.88495104 4657.83197312 3616.71756123 3099.02177089 2701.23258061 2575.02454991 2392.97111732
66.2060948224 47.6355089577 56.2013532009 53.8586088592 61.7293061842 85.9611787106 79.6033984947 28.6474270474 103.497945914 324.26003122 625.367081312 845.921776762 1138.36020095 1593.9880759 1605.66943055 1799.04157479 2040.17801124 1880.40145642 1783.98030884 1752.98310003 1389.46318726 1841.72879411 2143.73242608 2758.61889463 3353.59090436 3605.06193877 3614.11074938 3545.40157016 3024.6114496 2081.74485394 1478.83632744 1013.92796677 836.335301986 683.132210056 469.792730943 508.58633816 587.028021744 574.181315475 526.991085274 856.456370529 1012.29861265 926.923021118 494.214682184 535.970111036 628.226849123 488.681070211 452.367247542 454.755410865 265.074323601 245.517030796 248.830729849 148.399020265 43.0646757011 40.2092357606 18.9551605421 19.4530185831 17.9528412361 15.2316410768 15.6151918851 21.2891861236 34.4185852925 58.4927376244 61.4784019128 75.1540406903 146.783708425 180.059401652 242.282787189 271.702650505 399.120643637 435.007528487 417.477569373 455.473175445 552.999139648 543.995402591 488.685451294 500.392903745 435.823166506 416.594907641 370.706200273 347.656132417 366.480809546 491.301838978 529.394153823 634.626012459 701.821995099 795.925178176 976.960347093 1247.15994208 1463.35184433 1523.05001836 1447.09800602 1371.70140674 1250.35915371 1194.67331889 1055.48040023 950.919280626 886.031117887 861.141266216 839.808104708 850.882687644 851.882872447 833.898878415 749.484945126 668.927761344 571.85930028 493.575253357 353.131896395 323.351242101 245.535928738 201.047178953 161.089959554 110.940510148 88.1673799963 80.4918247172 90.7790320955 80.5123260917 85.0234938447 83.0179202513 138.436994031 101.826176928 196.45639199 162.449309575 152.611203099 134.437126081 91.9119391982 77.7186564915 141.421398527 181.283659609 158.740493693 232.189739365 348.395363885 405.575980316 353.649666473 367.683023426 539.975491517 591.134964019 656.155477494 649.688906325 655.73499682 755.076405696 922.503446071 1134.26522707 1352.07096654 1807.29442398 1964.6464274 2251.42114209 2546.3278024 3212.66005656 3523.15149216 3247.83363482 3296.41723944 3447.60739273 4079.81929979 3259.81524987 2480.08035815 2179.892126 1940.53947362 1674.30608618 1143.55543918 825.492690528 638.748371274 556.554762279 448.002934656 395.796043343 323.268745094 315.009320394 395.264841173 500.226541417 693.19291076 1028.07969736 1428.15118097 1465.06804092 1951.70377866 1973.35932999 1823.03618731 1953.57614065 1866.04021796 1668.5590192 1571.79679193 1350.70576783 648.566031797 410.637405759 478.065655001 435.900754144 481.945983967 431.76856483 264.484953413 42.422705008 265.3927756 469.398530649 526.70560291 475.00283165 377.338003437 284.858098596 191.736374414 245.674027994 372.075614665 364.875228001 228.842971262 321.201624679 639.270380962 1495.01695329 2017.67759568 2700.5647074 4339.71870165 6209.50572989 7596.54464166 8336.87297068 9005.17881858 9203.50377211 8508.85856599 7153.66793231 6653.41894134 5666.83122237 5202.21061205 4710.31788406 3246.46411585 2546.83504401 2331.1752596 2257.51232056
83.8083931267 70.9049991286 46.1912861071 17.6166073322 21.2145848646 61.2600226433 78.8028939712 65.021766911 134.713298268 277.611080862 469.910036031 639.354874069 787.440870115 1232.90890647 1403.44404254 1452.6121869 1527.48000629 1321.04799832 1108.20034328 978.808821532 880.461757191 940.48209933 906.026486114 1108.01968177 2170.83583299 2594.89900661 2792.70832365 2700.83017956 2270.70006118 1934.67307597 1475.57501151 620.421077856 695.336878385 632.244531583 599.589994934 604.552073827 398.59928329 746.517966789 877.283074697 1193.73390717 1238.2968129 1197.84508914 872.908036383 821.660783654 765.281623678 399.332603002 931.446002559 1007.17540495 815.743857202 289.344271524 336.187622337 166.007376179 119.796758734 78.909268538 52.3385858131 24.3861532901 25.8131668627 15.2150235913 12.6859606191 21.2974128415 37.1882977886 59.0577962077 66.9880533139 105.119398857 119.357892704 126.751664116 249.986198357 331.232665586 344.238848878 353.53599239 434.803537499 477.489166342 503.257180319 503.746729455 490.30237699 459.101072329 372.934581812 229.666031779 230.672282195 204.325830484 162.985141923 200.702563661 261.850133043 360.254980174 324.182344128 485.937475003 664.48461468 889.404668262 1194.43362729 1471.60695269 1358.47455341 1427.01829188 1291.52010075 1267.79736175 1107.72235224 963.093554454 874.899794971 852.593688726 840.558695701 831.58426012 775.902131089 718.176249849 681.135106735 601.106507376 572.830992142 360.337496275 224.678575432 117.369377626 105.668981946 64.7986612509 30.55641719 50.1192328549 39.621951215 67.5535958501 108.315251327 92.7904362544 164.728070675 135.411405342 248.521271402 195.848353856 271.004648384 185.131764236 237.44430786 133.354865069 165.121211431 107.255209323 100.445056206 154.326277964 126.816193082 219.98357738 268.841612934 383.855400865 325.891611212 334.083756355 437.375842917 526.052137069 517.111202562 532.287518623 565.323890402 603.451516185 753.301818322 910.205960705 1054.88239487 1487.07463249 1880.68554222 2170.94630788 2509.47125923 2827.60511127 3196.73091893 3524.59225636 3803.60405779 3258.42398357 3513.68826178 2859.83367929 2557.35337989 2187.28109216 2276.81173775 2200.73337831 1361.62321492 944.067388753 712.085772751 513.597850256 474.266000569 415.79007466 334.113955102 313.531545652 344.592477384 382.66610632 446.089976504 492.6461087 769.594829427 913.043464406 1183.78976592 1110.04976016 1198.29418194 1148.3001535 971.708531325 835.598288612 787.847799638 713.737432161 651.195167989 504.719389287 195.105959496 258.835969297 248.118567187 199.294632152 336.252781772 270.732099086 355.477773645 369.581654559 329.437770353 317.697132315 222.598666725 126.150796514 154.069869603 149.445039426 100.418178588 271.286183079 264.760671404 259.635744341 391.691434619 602.813457238 1000.77481272 1677.18975613 3492.6674684 5498.40495394 6360.69281544 7851.10086263 9612.68983028 10201.5789469 9695.33409077 7885.70089356 6830.40857856 5959.20860347 4635.75560866 3879.03135684 2821.57393896 2415.69369794 2363.40541582 2189.82648438
95.6007248223 82.3480768461 52.2775246313 29.9136523261 30.0736202919 63.6562380021 82.9989744537 111.110749598 185.240581785 186.445444679 304.463029007 458.778628544 214.881398205 645.102703263 945.924159152 933.28015443 940.534618118 1026.91913913 711.138523968 691.871969327 424.37637436 524.555975272 693.043709941 974.21783552 1335.69777761 1966.89402169 2203.66159826 2655.91101105 1934.93093324 2047.88931706 1365.43644922 1142.94623371 873.232113443 514.287153792 915.704091191 1027.30089007 1129.81738184 1230.40927534 1348.70389151 1374.28401077 1429.98574187 1359.03142844 1351.15783628 1470.62803563 1411.57003683 1520.05624364 1593.06428989 1600.44308428 1415.83772569 920.323432273 674.237228118 386.059132567 239.009730326 127.391597085 79.3725600627 18.656066042 24.4190532682 17.2744545545 9.59053756567 22.3381072327 31.8818074751 37.6040832716 83.0698296427 158.662267746 198.135832826 230.854368921 303.197155887 385.954194356 426.73053472 453.029804526 495.194833558 507.635779359 495.790762853 505.2923511 486.512760359 446.411263008 368.726650414 244.906324167 197.553494907 161.891513721 145.59178376 126.874726357 142.537110199 179.560803753 231.837655541 358.3883783 441.952585148 580.030870821 796.039414024 1119.27892679 1253.41310077 1441.74791979 1279.85310785 1097.02003166 987.107120087 1013.34887969 884.667979192 801.429905374 799.909557643 756.604482987 741.079476728 678.773739712 617.4454494 442.048009495 256.710010092 211.789563185 114.772115723 41.6688739 30.3812723221 54.6536222756 115.306690195 72.3948192876 125.643181857 96.8817880079 107.305765099 258.196160186 336.234174816 364.968475182 808.408049282 1878.40599374 295.38325239 890.695712248 722.619417333 301.689252244 419.401636218 334.349992127 146.151696027 217.872127871 342.608654982 361.605612488 202.501699046 448.812998599 501.692851412 483.124087642 399.951304862 462.977462711 430.175867193 480.119462539 527.17673899 563.982858645 699.2995004 707.804490918 853.916834724 993.595958816 1430.66014945 1841.96663355 2296.27628392 2113.67854083 2390.5821691 2889.07966627 3145.06689108 2384.28196939 2259.66226004 2245.78763524 2843.04628787 2148.02673057 1903.69276964 1655.06007694 1292.49875739 1037.84068764 911.594770554 566.651973666 485.886334615 405.144170385 400.976135747 382.637137332 329.750080379 361.472301229 405.836411046 419.339769182 525.588856405 577.6042808 661.705431727 841.80060608 758.247770125 827.064232704 789.189917572 668.151597387 511.922764706 475.495672353 439.983877049 393.738263293 221.200217753 275.702718562 269.527954838 272.463344059 531.340730427 566.662790618 471.796516251 202.561393112 61.5578100262 165.081528186 81.7745602506 12.498040832 43.0995731201 56.8675996427 77.2461796853 84.2654735993 104.309811183 145.875140412 159.946763745 384.506590739 496.213568313 1091.79617222 2251.75948196 5138.74701932 6186.18872106 8799.67984767 11257.6002316 11722.5533678 11316.2016089 11239.7946262 7952.38436044 5526.54478981 3793.18545987 2702.43219947 2612.33311769 2223.52175102 2096.10280802 1974.56827092
132.430598445 101.99024708 77.7948829831 59.8250047215 63.8912227481 85.3121768603 124.582084769 127.250362305 154.066386324 92.6897325733 274.85242266 475.509658588 420.655874346 778.524720085 1099.13158985 816.728639955 634.529159216 606.600053193 408.25645178 156.956901253 165.14852672 97.1410068484 313.10343676 730.081444164 1109.2913159 1628.39799524 2478.79382291 2873.50958965 2865.72687764 2446.98556663 1762.02918393 1718.73167396 1446.38816901 1276.27776944 1281.95279736 1369.84053061 1488.1532805 1543.88517115 1592.42052993 1682.73193243 1556.05121079 1725.63181747 1858.48056644 1891.82347316 1868.44788436 1908.29218589 1931.26290781 2092.96244081 2037.62841211 1993.08501099 1488.51816165 998.386556635 136.184034905 268.602052148 87.3335222755 100.570748657 35.7761763193 29.8642699665 26.581111649 21.0847131786 32.8852557601 52.7648545403 126.608460687 194.515297873 265.628204051 304.611417516 357.124192754 403.560335442 501.599450421 519.563493379 538.488340055 592.067971835 551.166389642 529.733029503 489.808195111 470.085700733 445.003434929 324.754048791 209.074380051 134.836723391 113.268621564 99.2744585653 94.5406867665 103.005209796 195.665879857 318.027458094 431.399321644 587.552488076 751.361100556 943.650662125 1073.30736959 1126.27047661 1046.47108561 890.489505898 822.18200174 774.332170337 729.332196543 705.569248003 734.628339644 741.250182051 730.845377441 661.603394475 461.814347743 353.456370057 195.892607279 108.797150344 78.9901321243 378.845182113 346.487345463 295.615159016 163.989456409 99.413885772 303.074049368 300.745241706 645.395348612 694.057889518 2219.7381612 4133.34252912 5996.67097962 4944.3196837 3820.44680232 4704.06892587 2319.65149543 712.850683215 657.412491448 503.896797481 446.026786815 444.143333272 567.835926453 626.968908175 698.364430178 669.768150083 699.859241243 646.977430537 547.660080678 499.58827235 438.252503238 435.526116675 417.332781722 454.97041119 508.741104656 581.272150333 631.872475116 721.861720001 917.055747708 1111.32820299 1154.88601446 1392.24004839 1460.16849935 1352.86985853 1416.37479288 1308.85565242 1191.22616354 1263.5006234 1406.68336724 1391.4719351 1168.64046694 1136.9750207 1290.14702764 994.966053924 1022.82892419 682.621571117 526.963295855 444.963204325 437.919787318 433.447175552 390.465561519 401.45521008 377.022116111 351.724444579 362.194441102 367.396375376 421.035850998 475.71296747 536.560141858 516.962644531 429.569614022 344.552399386 246.84725171 204.694054862 245.924230351 256.957987555 310.05282365 487.005887784 620.910231892 832.472966294 873.110455809 832.19356283 698.44222065 351.535249287 138.89830369 195.497328418 132.915557711 57.5920405004 38.8967764643 42.2854478224 49.3581175979 45.8561668635 62.136041847 100.232436507 157.33401341 286.909949201 415.108345945 709.825197726 1010.97504077 3760.11458927 7130.76624894 11272.3592783 14337.778549 13540.9002667 12261.2844746 13245.3135824 7808.49985 4271.24868073 3039.91040814 1919.97136925 1862.57359404 1623.74130633 1505.84906188 1425.02590832
125.351527787 115.302971402 75.4254638802 57.6734239986 92.7025663146 101.088339398 140.47417461 152.717811354 260.435347267 304.562025899 478.86933472 857.041388812 986.588140832 906.041280047 1025.52290049 918.905390849 519.517094834 376.797618334 190.570249019 69.668834746 74.727735588 28.1570522459 138.478201617 238.838794613 425.789106111 1239.98440593 2360.27133049 3315.11687784 3856.37119893 3730.56573537 2535.51665648 2143.62458743 1750.12789044 1586.8872296 1432.58609573 1440.3503431 1553.25356853 1730.12722518 1885.91787451 2023.86495552 2469.10704682 2091.34825757 2384.94567963 2159.26192846 2090.24817638 2096.30712755 1848.90660911 1997.24622706 2035.10040315 2256.71388456 2399.89415089 1790.45387503 1197.64693891 788.701503734 332.174498579 335.35674497 98.5165389597 83.9245429246 47.9142774855 41.454856289 72.1666063724 141.214312908 158.032070799 234.763991593 275.201252341 323.896885307 381.915316043 411.447214029 430.511886339 480.518282838 560.656896406 558.779426112 585.863356458 570.084636815 539.505953994 464.315179094 399.960131706 343.755874343 268.136348189 165.868219804 107.339648278 92.3307445029 77.5281607899 65.340929636 127.272875731 198.113921145 362.65102347 635.600284542 702.874626001 973.414397361 1037.10196595 1146.48609883 841.253569453 716.911890354 606.57943811 593.631572553 601.617385541 618.678382934 658.338802273 768.660091449 776.557803334 737.570452144 638.59285735 444.504503915 315.534878684 230.388681471 358.944651162 739.650616088 1116.38229404 899.852328435 505.970773529 1632.85830272 1863.05098809 3242.01009054 2824.85468217 5155.7021181 8038.54918245 11879.3206025 9551.35026834 11462.4942484 7821.52271953 5448.866926 3415.85738956 2151.73981319 1043.53497709 635.72619959 605.565000825 646.364938906 694.796323117 797.283679895 780.80507342 807.649982622 794.675739372 792.445022712 679.494087986 573.245687897 438.107315191 400.420533284 364.756477149 339.224788653 308.822870496 378.284016378 431.849058436 563.319787524 708.734012515 782.832946446 963.432390506 1051.69090265 1099.64502977 1005.57562408 757.417433736 568.863113714 490.99627021 393.143338189 412.206779626 648.492089182 667.492706568 545.186037355 616.176648679 626.959806188 597.072202033 589.224194709 574.429764374 468.822220094 448.348587737 442.15627321 378.142867771 433.63019185 376.376602734 330.589603371 319.725536402 312.076032569 300.776313673 267.4472152 283.072780709 233.710315518 192.234485448 192.092370023 181.126209334 173.631504036 177.062389373 228.585062399 294.53424287 632.240383837 906.239328257 1252.66098159 1146.27970093 1078.53330699 975.163971407 828.318078895 574.047818348 349.744565937 173.528869285 104.955365192 20.7718862242 30.6672086616 31.196564389 30.0501296356 5.71713670316 52.2247456296 80.0067029524 124.239316293 213.62025208 640.731112059 1069.44204968 3362.04151242 7778.06425451 11659.8553619 14465.3768332 13635.6676601 10899.9053881 8451.4400443 4669.50729401 3085.92873139 2273.86158785 1634.236285 1456.32355514 1146.97645262 1047.40323445 1047.47428575
89.0174424504 106.054232613 113.170926379 93.6374068282 115.622529033 110.733479062 147.34694313 159.011447917 203.574102941 283.741084306 636.681199739 1129.59466171 1578.6205039 1222.23546489 1356.99139525 940.309949526 712.595020317 245.813836324 72.5797026997 35.792309241 14.5406866935 21.4541763287 27.9247495183 206.927933411 633.994239319 1127.39969949 2292.8778846 3698.68051368 5760.26015356 5511.69786613 3687.30145972 2217.5637447 1855.04652559 1608.80190919 1472.89972929 1698.18595686 1554.00740401 1786.49385115 2317.53344512 2302.12937145 2072.31491967 2352.89679324 1846.03639314 1828.13196381 1773.65237097 1640.46708781 1551.14351528 1733.00766501 1841.2700634 2643.47567716 2949.53756537 2966.69979814 1838.90054341 739.940929512 705.14329217 130.695374816 206.660236553 88.3986770241 53.6801009946 49.6873857789 95.6233892149 153.389902165 219.041656647 299.099411026 325.563973452 339.301413725 365.922480806 352.021789935 368.401782507 379.71905125 396.318575151 440.651275178 575.267005913 542.749877239 530.024097511 444.233015293 397.215407518 353.8897116 298.657619043 247.281883688 156.832189846 56.5573956976 52.0698839126 78.9312092097 105.292622844 244.598133749 447.430077114 617.715327766 894.097817886 1020.52086164 1001.14411419 804.494620043 710.268713419 612.914601006 579.782120124 511.052222851 521.874359897 567.394204084 623.860075819 697.008882564 894.404980019 853.72125625 928.142814446 572.013280108 423.538409376 327.515630822 409.451796751 1751.50704076 810.136141874 5464.33694679 7244.43410373 2285.57965308 8064.60984949 12707.4767038 17819.8301435 29917.9499245 32238.8682768 34233.2463185 34283.5480481 20665.2917264 13583.9584065 7511.48459904 4032.60552695 2867.03039423 1441.83790778 902.928906187 706.455966918 732.89713438 792.854667797 856.138370907 839.101957802 884.946578753 824.630545031 728.163766849 659.866447508 590.495174686 445.619766806 389.30740554 325.523661531 281.207659425 306.906004835 324.14482624 334.811903766 415.234222193 525.640785194 565.932844219 597.960721724 665.173802647 663.268624602 502.348069864 360.726309552 306.384230032 294.0205745 342.301449292 360.174657345 314.016606725 338.704242067 383.744331712 439.779574811 439.305750098 517.125160189 604.746730233 586.760688261 599.41876864 641.855996443 638.421937987 598.893540447 445.794013489 406.990238845 318.47557471 262.458791974 215.972852954 204.209760951 199.302329422 182.587821803 184.303724763 169.2272388 135.624456121 149.666675488 168.146850058 181.570124979 317.054905044 637.729075435 780.125724402 964.442965095 1119.59825527 1251.13864564 1337.26085737 1115.3796732 1145.5530222 743.689150319 436.960137508 212.854133273 93.7515994222 29.4548973221 45.2612849681 20.1329047735 44.9186824955 67.328696491 34.7480248432 54.3586225971 24.0607307051 123.172260971 367.469742949 551.329367161 2775.69315516 6975.47874843 11878.0556612 16229.3553241 12813.3710867 9202.64683955 5706.11807651 3136.97621936 2648.70288577 2040.68122839 1391.53860941 974.193302043 938.422594426 866.011397075 811.302489028
118.421704449 159.51571645 218.018324789 216.252596801 171.757299499 73.6856517024 139.732061539 85.8459168632 256.749901082 487.200979069 723.617091029 1206.2835503 2270.01482949 2398.18694942 2313.78402228 1394.75760746 1036.81538693 291.299206901 128.566380421 54.3367809452 24.6086046744 42.7394095213 60.7099229258 170.689680584 390.277601559 1141.7834232 2091.82384848 4176.13085662 5635.18130721 4433.14885799 2896.16833463 1785.15080487 1331.30852711 1170.5381016 1314.10389281 1179.89657175 1692.11884926 1788.85356495 1297.59863808 1293.73964533 1021.94832233 751.424222172 788.251395088 610.562594585 725.18084043 878.204039389 1005.53080398 1260.32665899 1606.3556093 1954.36005903 2508.83140982 3553.60650782 3246.91518766 3146.1660943 1864.8582457 1023.91137179 450.920473627 144.230374382 72.3150950128 91.8988402605 140.083379035 224.9089941 421.870175663 487.648647318 420.194663952 318.921221787 268.383456156 259.693737452 246.456938858 284.709446747 316.07981641 325.547093141 347.031988387 389.462380226 440.957232701 400.37434593 414.823712064 379.009367766 342.262378828 235.428646127 187.063490837 171.094321323 94.5138895566 81.108633782 67.0629953306 381.071030686 784.29731705 928.730213115 1001.28020458 946.815045948 729.040648753 613.572988104 472.195221 364.204928565 367.207879108 471.248263665 477.452413793 446.77399103 568.997440334 615.520272045 672.64363644 714.604845064 631.089901967 466.9648249 341.376136512 366.588063052 1248.85138709 3487.78246286 8969.59199936 10634.2093978 17486.472279 25676.0351694 20955.0610386 25804.6998186 29373.8887852 30521.7759368 26107.8722773 17603.6927026 17954.7658068 18851.3845319 15291.5565979 6374.43181814 2895.31731079 1877.79041402 1210.03552257 882.091715928 751.769876121 714.476720244 701.970259656 717.492118358 878.5410095 844.559650831 844.697987198 867.704421983 724.969461744 646.015564101 586.960294707 457.829638054 376.022108448 329.704026991 284.211615697 279.284972662 234.772594648 315.453270474 364.025162413 447.721844344 507.082470586 496.029727553 359.861051813 293.889561126 159.667335033 191.882963543 170.648629817 242.924741904 332.025555036 336.250406427 376.057686872 396.645818701 393.769506044 330.929558664 396.606660985 378.135106322 480.302451406 656.795765397 676.416882079 836.063582063 853.300801357 722.457975745 545.026065432 393.705587518 264.112773674 198.875893944 174.650388436 176.301372251 163.850066115 152.766739589 135.984938894 126.131004186 135.534766506 156.692369858 186.174081053 343.379671842 554.692154362 772.473669124 993.888465441 1107.75969825 1232.86236074 1247.35530275 1047.32546225 872.864283087 634.014223752 393.996177007 245.878332965 131.896037303 104.902617193 137.390385812 129.41737954 137.159432481 166.206350538 117.414917986 137.356538982 112.393930071 91.831503118 127.443732933 892.253061972 3417.79169119 5962.02646822 8898.31881328 14944.5216583 11207.2788926 6985.95546965 4106.17821483 2601.13807879 1519.73424738 973.541695233 608.912760912 593.164094116 565.280605758 566.952587371 502.914364282
279.812546998 278.992042995 302.213004464 313.11485222 280.555160394 271.592084619 260.679880994 231.444748141 307.179114719 403.783984442 641.777796539 1095.64475801 1763.39117358 3409.99229556 3653.11139138 2730.46048203 1254.35311622 531.628295626 185.904585424 72.0623418098 78.4094239241 59.6093402513 148.613200612 189.982837616 401.505101212 910.593761368 2294.44616913 4393.72248184 5848.92091313 3676.07941403 1961.88585871 1336.83469889 992.187531717 788.189518582 623.633801918 482.676983028 392.966189035 391.605297662 342.519095692 387.143171093 497.960803622 629.528994502 839.252879544 921.711761903 438.795722575 452.930612728 346.19323191 361.321813972 614.830706463 861.398576685 1569.47522595 3655.01554097 4636.77101098 3065.60999865 2361.94499116 1176.55673342 472.631030506 214.597862066 114.201920887 117.61867602 179.345515523 342.80652871 425.37963673 402.480958018 399.016295471 339.694030943 242.688426997 206.239839936 192.071406448 164.286802897 157.252643342 222.723504299 306.869913855 321.835559618 327.44579649 343.623841634 346.820749703 393.141716408 408.000063149 400.486803163 307.516982646 253.434235553 165.03116693 167.173356834 295.427250589 444.441892307 620.599000938 792.937141552 845.338492822 621.215090419 527.958067511 283.135677987 177.65204874 180.405223945 198.679900961 271.101880472 330.103758616 359.894334948 392.957871343 513.062330824 633.015179111 651.991788106 607.795352645 524.107097838 426.052576219 655.378322476 2146.8691622 3157.92672113 5385.09204703 11680.6365906 15537.7693327 15945.440956 23624.1574224 15583.4355774 11545.3665481 8204.18267045 3772.26578821 6698.35525766 5665.44526254 3331.11843462 3765.13241568 2847.66881747 1808.36820123 1018.23885875 1051.10603266 825.698291019 735.471472559 684.578565295 607.771342332 589.098053638 587.253579239 599.117622333 678.975082879 751.141997804 788.561639121 815.205477427 654.057891248 567.048301645 449.123028413 394.944724541 386.868469455 322.647983613 295.015646443 266.606049979 298.935531559 357.082074216 369.072874991 353.961475827 283.70495817 209.135194147 185.082132836 145.329670011 209.438576621 203.349253015 280.255272939 570.480985418 632.435047481 340.629117666 339.833674566 430.289500794 301.899072815 385.824318342 354.225609237 369.603506033 519.882587039 664.18451687 894.773897969 965.145287422 856.830475722 514.620735825 276.782089656 223.822739198 176.968336922 166.313033055 156.391235366 139.001729602 126.290946098 122.766412174 132.418384493 149.320729417 249.025907472 325.034179776 411.519231553 613.693209401 1101.16977412 1183.01539933 1504.43713573 1046.33935535 791.033208319 679.380013556 522.524201015 366.515940903 267.323566412 143.580852808 110.891113614 126.588609645 158.174751725 286.230548856 396.669468402 268.010846176 210.492833986 139.083575281 166.309868467 215.44423234 722.950743599 2627.43666093 6440.304105 11662.7256462 12956.1629343 10751.3548605 5778.53969759 3193.47044964 1488.70032687 538.884189099 350.769874498 325.027870385 375.213677991 346.141268707 366.683896587 406.96395933
359.570770302 310.370775332 337.905550022 301.707990479 308.045264578 398.43668406 427.068303506 306.865412037 293.382328119 310.231751656 473.061246938 739.434630126 1221.49104166 2246.15146668 3080.36162414 3176.00356264 2052.62806371 1169.8780634 371.055597683 193.247311676 203.852839254 392.704404928 347.39967569 303.138486377 387.096075048 858.343694037 2209.77453873 3286.05769596 2212.46476555 964.499412173 516.443693154 414.569766888 555.769083045 526.34498616 382.42000834 312.464318734 261.662824231 322.19109805 346.042145879 318.664286058 553.523521554 1557.47390379 1790.6480292 1831.89056067 1696.95543984 948.990227663 424.938385739 263.232406686 272.960302884 523.880080511 900.68288318 976.403224252 1578.28003891 1720.99176424 1653.48551278 839.261413067 413.934877521 182.056175367 145.653801953 185.665117008 267.763258512 334.167812532 401.60296553 324.622015885 272.548631475 195.004290372 197.502201667 162.29031434 202.179403734 192.997928074 161.095099098 151.812893185 174.924153701 285.618925214 288.169334257 255.302245134 273.54330482 285.568718786 465.262680806 491.17964345 478.729910207 388.60060295 293.838823237 192.169832484 204.100767416 410.329212193 571.084536374 420.550820579 264.13620768 180.742291934 150.335477195 84.013913082 206.534213404 197.807545877 209.690298971 278.950355667 294.923714932 308.805729236 359.316706751 424.797557904 514.205658428 650.99362179 635.122909012 538.542387848 484.81066953 534.982849831 826.590813631 1186.07997182 1777.44629586 2434.02686823 1433.66984698 2101.88012547 2289.88513846 2019.64852756 2187.49294137 530.050361565 1061.79998718 1104.40530259 754.860144206 596.34911681 392.402587302 510.029418422 358.229535001 373.645567734 365.663447196 546.280228705 656.543009423 736.569998619 790.303257164 681.517702133 589.539523631 533.178108091 505.087878869 529.685503009 560.349144339 591.575618528 631.940858977 591.919175479 575.389954887 584.146619009 520.034625313 465.213766531 365.768357148 314.656972541 322.664894487 339.687720473 339.172522384 338.318095793 344.382475382 257.026943807 196.645752639 198.085000202 300.53845643 401.644495536 657.707965587 929.694456932 919.24592199 798.902878068 657.423457402 639.23955233 645.76460247 634.702438255 543.348768521 417.519832749 427.10003251 497.026519329 624.931848157 898.07437108 954.294782611 690.043960751 314.828889514 206.90292837 176.131397304 169.776836873 164.333801007 134.168107022 121.63912097 116.808036413 127.10740503 159.672808256 208.615852901 297.87983664 458.449584855 502.705573573 603.035228496 613.779364055 730.050837 646.517071341 599.567568335 666.757656037 480.766085368 300.511706973 184.596237448 108.622513237 95.2726611172 156.087780335 296.134229491 666.244831123 802.627542158 994.41426537 853.821383118 690.902806426 249.637148187 321.018190945 450.669655415 1105.43321239 4947.31191733 11965.1079568 12413.1403042 6641.7989623 1728.59301045 582.12349389 383.375614693 250.740392197 204.913878908 232.565587366 256.316979223 284.392320213 328.25315055 307.266945451
402.8810494 426.447034831 480.555360275 519.261420859 582.130265997 520.092501582 552.845273054 511.722275773 480.218577286 345.945570993 298.967563478 403.968571112 768.720176594 1147.44964358 1416.97400632 1821.98522351 2087.07408115 982.122672485 475.294857502 322.273926898 414.4463483 964.841116964 966.955067687 680.24488575 239.995468501 357.254879823 1060.37893631 1170.02404005 317.98832378 235.047804886 304.885338289 384.314237078 539.910025337 530.279335474 539.87739487 511.709318138 501.418029993 694.902013415 1172.69965245 1054.55854381 549.752429916 667.859996127 954.481445769 1182.91521807 1140.65373751 1159.90707899 538.654301058 246.188850947 185.434021599 218.903014633 240.991100873 258.438879408 420.941135566 491.247395934 363.643104626 439.76994344 207.225419291 161.619391365 157.783425688 225.719805352 235.671968633 275.275172951 227.188061525 245.49886622 149.280961675 169.62332675 246.576353936 343.508849905 376.702375531 348.521698735 290.439562048 240.072464015 258.913484866 338.416909471 477.001317786 403.675165424 357.987274108 447.707115521 500.478941671 511.151844754 484.389794398 466.481382326 366.07182768 291.845084124 323.055551951 378.687567747 362.273735452 318.430608423 175.526785256 249.815723417 412.531366257 607.616583211 401.300400847 491.451244954 457.087534476 361.296536751 297.124783696 258.539585831 256.422576715 342.429567588 422.848573575 512.666527384 659.274219291 558.219547462 423.315890783 502.68678132 538.402075719 530.762423576 463.124321388 648.625541043 667.281711492 576.118745231 838.40312721 2029.85314515 1542.74287027 1420.68723076 1197.18794167 1044.2797971 1409.10677105 810.641866093 1176.86372486 746.698702982 434.250045399 386.261163785 358.847295983 434.811350962 674.257294146 991.233428152 911.894752629 810.043451601 644.172155194 545.305539571 436.019106118 413.896992476 454.713690113 478.261979405 471.435653268 571.937771361 581.414111748 605.630742621 903.827767707 660.24355508 287.306809284 265.922558439 326.672547227 358.855935644 279.178497375 283.835948999 379.757522915 263.14426474 140.605077094 255.525461903 343.749643919 571.698643876 690.04134849 728.358083777 727.856920527 741.061247792 723.32225628 735.939250807 787.332684668 851.073395937 686.428342123 525.943988533 400.153343673 333.134933246 409.955251897 566.983609221 741.729712817 727.761449873 319.426708225 145.517462591 141.263997972 153.133643852 171.695417171 128.446829992 113.071058056 134.65901762 128.393946937 160.395127839 237.275655241 303.486071245 295.991650412 179.634323696 97.0395627641 130.645341119 261.284293893 439.431853215 571.722878846 482.974581319 362.879917776 249.705673036 56.2562392071 65.6661175765 82.6727536458 184.391967195 419.643579111 871.941490496 1870.11127696 1814.83711028 1774.80358163 1022.71235435 594.238432802 506.647810277 792.03003752 1670.76996797 3513.19820614 5316.61904709 4761.82007469 1344.61871455 172.62358631 53.2869941121 107.383654849 261.424631191 200.069442185 202.128059689 301.026845461 320.703502038 319.346899177 323.988666111
467.827701139 552.696231315 589.283719733 685.191484285 811.487537389 987.145038614 975.210467013 839.252721223 589.059160393 322.591037497 267.101942258 279.021078531 193.667007738 270.903198483 506.695150621 428.206145374 701.114246256 634.930308088 399.651171596 299.345758604 354.546824017 538.397445778 1182.17257499 439.526699783 126.218263308 205.615284884 443.200653612 413.012958772 243.009645668 246.492275377 623.452399317 743.225349182 734.883764199 626.728690433 691.3209785 791.635095704 1255.02796865 2385.13985046 3082.31965602 2587.25885445 1261.43942016 673.666002237 605.132105177 457.240418026 512.874270708 882.191636842 322.014814381 151.445894579 200.900822836 202.654594247 174.897136741 169.22761714 216.149699495 259.969688828 61.8442229944 127.918723743 81.2140193543 71.4183275621 200.174622853 153.139428134 135.807569834 130.699444877 184.93367487 234.144892131 192.173407679 244.60837502 433.486441286 431.425280764 463.28923921 531.161353373 647.668981122 453.890849887 292.727409717 350.107336461 370.761638338 382.91530389 393.415144196 545.027323844 577.538296837 363.695480947 226.604035701 318.035563512 274.568512361 221.087364673 319.387142911 173.407022704 243.438128042 237.703627996 169.168130514 372.568105974 938.711950388 1015.49795506 907.513959039 582.128321019 479.527335053 371.493120486 309.071276628 189.3638417 184.082246856 269.755083283 284.676895619 269.20627205 310.930130295 200.541755522 180.320163787 293.902979834 338.263502883 196.297813667 309.977355159 748.636916084 508.565272752 601.789895143 1329.25849004 2530.78741616 2896.85490197 1399.19999159 1888.97874728 3198.43629777 5434.56497229 4585.22584888 4440.54028288 2592.38001983 1188.6055813 620.68725115 373.424271872 536.476099181 537.199051126 877.456036253 826.472814086 457.746102949 648.519704561 623.01568406 602.382181671 509.595021872 594.945441721 611.689981576 358.584885694 522.801401623 461.132065837 390.020514341 747.612603392 402.993348554 207.602193045 251.27562266 272.798414811 334.54454278 236.495278545 224.280181496 469.773029153 235.361346466 186.193459243 301.669523338 376.495322011 549.981322865 553.793703851 592.37061813 613.811687164 491.529896167 453.070137417 546.734084811 699.998840944 818.231674833 818.066334428 853.424153226 381.563343883 249.81041842 236.08064923 203.769911922 347.704733718 430.431310797 221.008550097 95.5770364315 76.0398368231 161.233611597 246.421393004 45.4321632405 183.220466274 206.733351336 85.4476006868 105.177969748 221.938599765 110.39469758 73.1857445851 74.8546509971 82.9188512725 92.3868526885 105.410477499 155.80062227 233.755964656 270.897437742 248.500838286 233.68480832 158.272429753 90.5228442963 114.115394694 123.81690651 227.139136291 620.240626896 708.72263274 1854.85653341 1241.54930033 826.077272452 890.236817193 244.063000704 306.425614395 1216.62953785 1114.64029566 2222.02064135 1858.43141383 564.009147871 106.567908016 100.211570831 221.405988426 632.068756612 714.711061783 520.124978536 435.333481127 358.96844916 331.067547708 311.803552864
542.846230068 576.579505006 617.933259695 715.47858909 837.446429088 947.766899089 1236.27248715 895.920394396 545.453967427 223.84994764 227.892823285 353.74835649 460.133127631 270.149166786 337.700831798 162.865638112 293.084205519 281.234449467 240.330218375 221.181748821 257.66368021 239.654138731 352.312670582 691.796619819 153.367145989 158.657070383 339.775567167 323.316139008 527.440570219 843.913131027 870.783992999 1071.73456024 699.676404732 461.555136927 580.289164947 623.257332388 429.539894321 409.610980274 497.094922505 699.54188232 268.905305533 575.189344884 1232.09577273 736.231810037 471.23641356 542.068006928 394.485362951 153.400855863 337.439028663 233.165321554 358.168617827 915.288556815 444.854558158 445.046389088 214.385463528 124.301200798 159.199539851 125.486008333 230.141555465 260.414931634 139.050985093 205.019194339 453.200470927 235.034575306 215.482321364 305.013643542 417.369706294 329.12477186 200.967414602 187.896279085 327.867260654 307.765647962 342.547981527 242.367167845 215.638106668 292.939754535 383.359999432 538.751869041 440.31943882 248.050622593 85.8658990786 153.115768113 240.33031143 217.668527605 401.614336095 231.86596599 146.268255345 228.374305615 315.66730429 434.512326506 396.349115954 283.901731425 247.609561436 209.291908536 220.210950932 278.762354636 253.082733273 149.275126845 215.644429413 330.002759035 392.496382311 154.678579803 134.286667766 83.6030085458 66.0139859352 200.678818233 343.486311874 473.365839361 447.118191608 360.115638938 311.523366412 242.958518073 315.668283956 317.472247305 387.069942477 172.031133356 308.374256657 390.649797224 296.231057197 527.904386788 198.308217861 590.021864362 311.34023329 571.210129272 466.492615238 602.052639305 517.528811534 378.245887729 404.483262614 318.28677159 454.27400039 284.289854862 563.692194051 708.50735817 1413.65269686 1365.45420286 527.166618973 476.786006381 361.739988623 491.243125707 425.829276071 288.609493964 236.57949431 187.397515436 192.452264701 267.374335936 331.934952693 1483.62317981 513.348641928 151.511858242 423.112406458 339.729503963 277.860622042 294.343134788 451.64368685 360.123309404 585.432263999 595.988783265 333.886629608 249.211054601 222.168065586 338.853871318 207.902179598 295.714073067 203.792280411 190.403624196 339.818714237 271.008087155 130.722195941 323.949260896 168.431866548 69.3097360381 103.598133193 233.139104886 203.948077827 275.275358389 199.135771643 210.98402012 93.9364996269 68.8334268305 48.6492291341 46.0456101654 29.1827218718 71.1028768659 82.5361737052 124.240726976 103.989558665 94.5938362596 78.2672326315 86.8218277063 71.9118144352 124.634435278 73.6726419432 103.821604334 199.538744451 90.2811499401 41.4136516601 40.917906408 51.8347808986 152.212236933 54.9901512298 130.566961113 145.462343875 130.638651346 75.5581946591 209.244820755 114.008585286 105.075378855 422.283285125 401.203789943 717.598106489 130.797409624 404.05167311 1592.84143319 853.624302155 755.759576989 470.410224221 421.874219435 352.099179316 318.809222302
