DSAA
220 79
-53.665787691 1645.08482203
-604.170018985 -0.98866656817
9.33448186671 35078.7823651
3217.19479195 3187.8696286 3188.37436652 3158.19711219 3126.07148324 3089.53823059 3045.27966374 2989.56832649 2919.20166898 2860.5176788 2754.30201184 2643.49257435 2545.99001321 2483.16917056 2479.15551925 2523.97806464 2600.31064553 2680.8714547 2742.62818988 2774.69968808 2777.87406862 2760.37271321 2736.84690089 2713.08739211 2694.85472682 2680.12078887 2659.74885302 2522.32850037 2466.22545495 2388.57114992 2300.53994417 2224.39331881 2186.72117821 2196.5879393 2235.71016431 2282.84063501 2313.42252304 2321.88569493 2311.58932821 2285.45605683 2241.94761753 2146.57802604 2058.17660047 1952.7359746 1847.17407232 1766.36123114 1730.43706416 1729.08483865 1762.55015524 1800.2381591 1770.44873474 1765.90665008 1745.44789726 1711.55446946 1645.16622378 1591.62234304 1531.7608745 1466.82550814 1397.72086561 1324.76213456 1132.14508515 1057.27706631 975.112938415 883.54631084 772.521495321 655.848839905 568.325496114 501.613952807 468.106084481 471.110798846 492.381184 520.327795947 543.829792244 497.303029007 491.292421575 481.340162291 469.549126966 457.44057673 445.787481825 401.35930934 390.264477873 379.15531695 355.858149092 326.169372 301.853283103 289.080095524 275.837531159 261.956016665 247.177276649 231.207308272 190.465433306 174.728023944 158.551874486 142.761254692 121.750271404 113.159367607 107.879717032 106.086337686 105.142326345 106.629543221 108.338571743 100.854555587 99.2577956305 97.1012340812 94.6041950532 91.9882299383 89.4341739795 87.062695036 84.6355082357 82.7361602352 76.3451444777 74.8939048239 73.4346042398 71.9091220643 70.2876936386 67.8609879394 66.187967427 64.5581440821 61.3813108206 60.7015573518 60.2627338391 59.9136940323 59.8516753612 59.7166615188 59.3894239523 58.8255330416 58.0624316189 57.1866551037 56.3960215584 55.5777923837 54.4565238418 54.0650708743 53.6167166409 53.2452501487 51.836385708 51.4858765348 51.7594930082 51.408253761 51.0349848015 50.9687495082 50.5979809825 50.1843881292 49.7036700046 49.3575656605 48.3037579598 47.4152214494 46.3520808341 45.1588747215 43.943584219 43.2356179722 42.3959363499 42.0756140559 42.4954405506 43.3157669796 44.5041631514 45.86101569 47.2093007113 48.0582303991 48.9979303842 49.705393067 51.0578482347 51.4437018501 54.4348221089 54.6685193626 54.7822252019 54.7853352737 54.6644169962 54.0463440046 53.528771186 52.7605331419 51.7046419151 50.352039744 48.7380279857 46.9548638146 45.1544643385 43.7067753005 42.4706253936 41.359572113 41.3557305706 42.1556595574 43.2534221592 44.6418421907 46.1141099688 47.4955019408 48.6692732769 49.5805274433 50.2247507412 50.6294637755 50.8354389334 50.8811583345 50.7920890909 50.5751063758 55.2337085005 54.6817067139 51.5020016131 50.5333225654 49.2350726239 47.5935168289 45.6348004424 44.3898987754 44.1534003052 41.3271230899 38.9438067656 36.0959747568 35.5661214503 35.8498641197 36.8558330594 38.3836392619 41.4347963568 43.5781747174 45.6122006019 47.4454285048 49.0603240902 50.4876354307 51.7805775774 52.9952153358 54.1787018714 55.3643039271 55.4751025655 56.7110036897
3357.78930193 3178.0841323 3149.42480121 3148.35374004 3120.20658417 3089.37660275 3051.91524035 3003.03351743 2938.26395931 2883.46370164 2777.96662572 2664.91987737 2563.61361741 2499.77459147 2491.37998738 2538.76468243 2618.16341691 2699.08875585 2756.15664331 2777.71679138 2765.40135534 2730.00049554 2689.69921119 2656.72442522 2640.24275564 2638.30509474 2637.21699236 2523.74881089 2476.15210958 2399.64571654 2306.57944991 2235.64692213 2180.40557631 2191.72997905 2235.36043255 2281.99622293 2306.00006 2306.28393139 2291.65529207 2266.97088388 2228.36695868 2139.56671465 2047.83294339 1930.43079862 1807.45042037 1712.12733496 1672.85457703 1687.92690024 1734.27736861 1782.75754882 1763.16975794 1759.15331638 1737.1978621 1701.22287889 1634.06690032 1578.90991096 1517.6603704 1451.76097123 1382.66531328 1311.44082829 1128.93440641 1059.45920659 983.696362984 884.6149944 822.877428316 678.450441892 590.366701254 522.110151257 483.435301826 487.153222841 502.792721671 527.575864707 546.555827465 493.590683183 483.95124757 470.938772428 457.066339687 444.001990886 432.393653287 392.163671595 382.033681239 371.820918373 333.199307552 322.042859786 310.325191571 286.06626119 273.179812301 259.730909265 245.387476092 229.718759065 212.332316951 173.631984211 156.539720141 139.488000602 118.694793445 108.9149562 103.23640893 101.670834298 102.507735228 104.980113141 103.892378289 100.61679674 98.9017995931 96.5319772254 93.7900126602 90.9502885567 88.2325676086 85.7819124711 83.3904193609 78.1871444993 75.9195497189 74.6079598195 73.2660597648 71.8195275764 70.2318355866 67.8196606475 66.0963198162 64.3967205861 61.3022419923 60.5881149838 60.1535015557 59.9247483466 59.9255520842 59.8216133462 59.460510494 58.7928213859 57.879977066 56.8449113363 55.9150126616 54.6522636979 53.9002734194 53.4930853837 53.0749323216 52.7511343055 52.4763416643 51.146221664 51.4294346673 51.0958724624 50.7324921684 50.6441196921 50.2900963062 50.1380932097 49.7050642625 49.1639035673 48.1552404131 47.2439979354 46.098578905 44.7566065486 43.3427847239 42.3198984585 41.3092252278 40.9360396912 41.3455451296 42.3490552332 43.7721372475 45.3584615279 46.8920318517 47.8869160408 48.8852177903 51.1599929096 50.8852965654 51.2110163477 54.035041622 54.2094490661 54.294117823 54.3028020025 54.216485347 53.6755889607 53.2002069964 52.4390064972 51.3291959159 49.841231161 48.0013234896 45.9107119284 43.7536509775 41.9175866462 40.3946549073 39.579171155 39.330152003 40.2446129542 41.6432761526 43.3774388503 45.172493236 46.8071901227 48.1459379114 49.1388798187 49.8019339458 50.1895953569 50.3689992045 50.3994289101 50.3187604517 54.9411735494 54.6810873784 54.2172722282 51.2023987828 50.2728641482 48.9618500678 47.2373463319 46.192304922 46.0803443313 42.7249826801 39.4594348708 36.6733361548 34.0738210991 33.4707906031 33.8539963738 35.0999524349 36.9383084913 40.1231248144 42.5326232532 44.7283180393 46.6240029741 48.2290560409 49.6083208004 50.8456649366 52.0189550862 53.1872009973 54.3871248415 54.6196690961 55.9171722996
3334.61865224 3293.66409813 3256.99259464 3109.368774 3109.37058634 3086.16130144 3058.91170738 3021.8192881 2969.16886383 2927.63351473 2833.64452649 2730.65413616 2637.59075115 2579.058653 2574.77580189 2602.72984883 2673.5915416 2742.57212364 2784.56822276 2787.29239472 2751.84793002 2690.34607874 2624.83771578 2576.33396269 2560.73048267 2577.3407961 2605.96417015 2617.16102966 2499.93007898 2436.40102599 2392.39218777 2296.02678784 2235.17266437 2241.03753878 2304.59015901 2295.24871801 2297.28100864 2279.77446612 2258.29297595 2239.04417574 2213.83397713 2141.98370827 2058.30430326 1940.63181238 1810.80241989 1707.64333724 1665.21432086 1683.68773723 1733.83321664 1783.45216812 1761.96419967 1753.67594465 1727.3274046 1732.84061899 1619.79830504 1563.16447326 1500.45101046 1433.1165318 1363.39451333 1293.66985373 1123.69520594 1061.90345349 979.930713126 946.825285963 862.078498977 767.589227621 640.953135824 576.024043431 533.64978615 529.990780247 529.320650988 544.661654274 553.811900301 488.776940304 474.077415495 457.184820699 440.971457615 427.191067897 390.447946205 381.183922201 372.623913758 363.73371914 328.263042829 317.518226042 306.067452241 282.737151793 270.357661004 257.630172699 244.152755266 229.344418957 212.622539327 174.636369706 157.199728195 131.456363583 118.21165494 107.865006171 101.692013374 100.159611612 101.656193736 104.405193954 103.728360866 100.402001506 98.4660935403 95.8169210218 92.787714822 89.6966909925 86.7999601895 84.269735679 78.8019510323 77.4056279702 76.2404776854 74.3232476765 73.1408095278 71.8080815737 70.2852436727 67.9120173093 66.1693627175 64.4362746486 61.3337179458 60.5815823527 60.1337267818 59.9618186352 59.9343378217 59.8148374852 59.3834132355 58.5867021543 57.507456047 56.3029276198 54.928725666 53.940977878 53.1647783658 52.768336219 52.4147424321 52.1734988459 51.9788051685 51.3393901881 51.0727015561 50.7546023373 50.3933684603 50.2730468069 50.1629837853 49.8290421413 49.459173222 48.9979773065 48.3663199554 47.2201193327 46.0611825479 44.6365936511 43.0811007583 41.8381902808 40.6858444536 40.2668444234 40.690857788 41.8416398265 43.4459058634 45.1979372386 46.8491789747 47.8164322027 48.8025340797 51.1075050193 50.7310610475 53.3626406069 53.5421769147 53.6244913939 53.6693669851 53.6962342512 53.6787502992 53.266135795 52.8944496781 52.2057862411 51.1052645725 49.5371817832 47.5137384068 45.1415254 42.7660053367 40.4114364586 38.5887296372 37.6162973574 37.6340086526 38.5870065844 40.2972358737 42.3783518417 44.4794637173 46.3303785201 47.7799578796 48.7902888448 49.4061241245 49.7172986399 49.8244915784 49.8128398763 54.2367383807 54.1906191093 54.0456005319 53.7270378494 50.9434054327 50.1210031622 48.8686710547 48.3650319363 45.9623431745 45.5676874657 41.8939818999 38.255801445 35.1119808936 32.6266615743 31.9523870335 32.4250408428 33.8883871691 36.6324908073 39.3184632846 41.8997226389 44.1465449662 45.9909400224 47.4825558955 48.7303481269 49.8537264906 50.9522661587 52.0931522638 52.3807164435 53.6816718156 55.0591784555
3307.05451014 3261.01792619 3221.04331754 3189.25996709 3166.46336015 3074.8955447 3060.7218044 3040.03827303 3005.70232072 2985.62021561 2912.86848059 2830.57181422 2755.63708202 2708.73426245 2705.18342216 2744.54525016 2758.48657776 2806.25505796 2825.79295814 2804.15121224 2740.28348528 2645.68011335 2544.89628463 2473.74573178 2456.4939849 2496.77988362 2564.8336461 2617.80121846 2625.09775779 2492.97396647 2483.19067888 2404.14605729 2335.41537915 2357.88769389 2372.8077898 2372.48944078 2271.99047534 2227.24097473 2197.99875439 2191.25908995 2191.2511612 2149.85578794 2088.60623476 1986.81928083 1866.66518335 1767.30903167 1722.61255473 1726.56020284 1766.00155416 1802.64087609 1765.0216365 1746.74365221 1753.88328278 1714.51372954 1601.19656682 1543.87135157 1479.78692798 1410.05727727 1337.97262297 1268.05299181 1112.53817051 1059.71266322 1031.76202728 975.517896267 908.242877045 830.899441478 752.15791029 649.506910608 600.344176791 588.215977852 563.937563583 565.468806655 561.089529928 481.213072742 460.315789143 438.878427263 420.215721204 406.198542653 375.258539706 368.307892969 362.114189536 355.048938259 322.976601388 312.570400329 301.243089454 289.558413111 267.052974703 255.310466264 243.141948907 229.796905534 214.488319556 196.70880238 149.566597552 134.833268699 121.316074062 110.68064207 104.192625308 101.796946571 103.038858163 105.446635691 104.11132933 100.17335939 97.9108939869 94.9318638355 91.5921979556 88.2358916472 85.1494769104 79.3788780791 77.7336026006 76.5182865522 75.5851541902 74.7498615914 73.0546741259 71.8623922028 70.4288726616 68.1180009439 66.3885443741 64.6631553182 61.4773540072 60.6814096547 60.1911152934 59.9702690808 59.8047874158 59.5994484648 59.0556779799 58.1165638506 56.8732433365 55.320614912 54.0487788924 52.992392167 52.2157044827 51.8637599306 51.6207726619 51.5089556832 51.4327804303 51.3147558749 50.6967510024 50.3850333882 50.007757113 49.6048924779 49.7309041147 49.4368294901 49.1554599969 48.8229526744 48.338264958 47.3424879231 46.2715511848 44.8771977346 43.2952011161 42.0107500205 40.7943874549 40.3483987018 40.7587258251 42.0098901989 43.6806848792 45.4793048136 47.137143835 48.0718528957 50.5150331118 51.1225683141 51.3560336855 52.901127627 52.8896881141 52.8389853627 52.8315387247 52.8944812366 52.9917147348 52.7755123128 52.5890830363 52.0618848624 51.0620241184 49.5044588275 47.3848857504 44.8121476529 42.1468419687 39.4824275516 37.3972525268 36.2833930447 36.3463237399 37.4995626361 39.4773651298 41.8428765224 44.171143844 46.1469898365 47.608945002 48.5371430363 49.0121039411 49.1665215874 49.1418185535 53.1855996288 53.1982800615 53.2404885236 53.2627827549 53.1620278667 50.6967497027 50.0662484738 50.3298257272 48.5381422713 49.138777902 45.7136043088 41.8799471948 38.0218216575 34.6479578772 32.1455492528 31.3878674232 31.9147857254 33.8006740161 36.3768085821 39.1729091455 41.7505133955 43.8734008222 45.5068890734 46.75374122 47.7749156209 48.7269262786 49.7269169629 50.8425099036 51.2553974528 52.6370362803 54.1243891409
3275.71771358 3221.62737898 3174.91526758 3139.71328327 3119.16863215 3113.3145402 3051.07646615 3050.52738728 3039.53232232 3046.38797829 3001.29400059 2945.71059643 2893.58003146 2860.71959076 2857.75597112 2883.27070685 2922.22125169 2951.59552928 2879.19616214 2833.09392975 2741.10707051 2612.14983198 2473.67693459 2372.43015088 2350.57430812 2416.23345185 2527.111494 2624.62476978 2671.58744924 2640.1539351 2590.88507041 2530.38739318 2481.27702438 2467.73049447 2435.0290652 2372.71451921 2217.3197045 2136.40114805 2099.67464977 2115.18765622 2154.27462733 2157.01153498 2130.9094206 2058.58873089 1961.79300418 1875.77530877 1809.01066178 1805.03034509 1820.72841612 1831.46126288 1823.21587361 1770.23847402 1731.20434365 1687.47937279 1640.02427324 1520.97713929 1456.18373911 1382.70548935 1305.20127411 1231.50771156 1205.20368088 1069.4083314 1034.20315859 996.781205491 949.92109158 892.280188996 830.083266573 728.953795523 673.231635362 646.702714512 597.340798153 583.677547334 495.157419156 469.958945885 442.004650091 415.391696899 394.182175993 380.55800866 356.917201409 353.655157471 350.870420453 325.66650628 317.505374008 307.203039399 295.669511089 283.946504523 262.844415854 252.292615238 241.8452686 230.539258361 217.354994706 195.7527778 155.280369313 140.983883422 127.806423712 117.325308198 110.740131547 106.06450977 106.46620418 107.889462892 105.030640144 104.152635996 97.2196414642 93.892494515 90.2489393286 86.6346121109 83.356810711 78.1023817214 76.5719860896 75.5638163184 74.8966268573 74.334893234 73.0017117648 71.959630988 69.9736286668 68.3923371289 66.7013729473 62.8136025612 61.7010386091 60.8519116271 60.2840472857 59.9503731414 59.7186768229 59.1407152027 58.446073177 57.3603828617 55.7897494244 54.3015080118 52.9115029969 51.7901945449 51.032564181 50.7619317641 50.6865057639 50.7635986003 50.8537907576 50.8481552877 50.3162210827 49.9922945866 49.5664030828 49.5251437623 49.1677326196 48.9050058387 48.7326953558 48.5788763504 48.3171373242 49.0425260094 46.7050024286 45.4814261484 44.5074701001 42.9295667619 41.7628477073 41.3199310933 41.6946744839 42.9500785203 44.5375440511 47.1765591312 48.9468931168 49.9945323917 50.8214517455 51.1683947891 51.1194943674 52.2744071615 51.9945049622 51.7601881442 51.6855680236 51.8086906726 52.079890565 52.3710105615 52.2464801701 51.9909759747 51.2082567712 49.784928788 47.7022929807 45.0709558235 42.2736888486 39.436315159 37.1931904163 35.9891885172 36.0660612988 37.3257486686 39.4542286001 41.960137621 44.3622739324 46.3119132032 47.6426624168 48.3553682315 48.569738191 48.467216014 51.9767106095 51.8281134933 51.8277909426 51.9937722471 52.2518955861 52.4592013522 50.4207675023 51.5225310969 50.5901931014 49.0193244243 49.8924959611 46.5918152841 42.8167475614 38.9650333617 35.5647513355 32.8822217246 32.0755203734 32.7555694426 34.5631709613 37.0869874054 39.7411577897 42.0638148623 43.833143626 45.0630802158 45.9202735847 46.622398724 47.3603613498 48.2596997277 48.6329661057 49.9597942708 51.4668638333 53.1073755945
3242.90865587 3177.55744072 3119.94645712 3076.71104875 3054.41983104 3056.29991143 3078.52442883 3109.42271345 3063.7229553 3064.58678852 3085.88757885 3058.79580744 3030.02305742 3011.24167408 3009.60484498 3023.54183821 3041.98751421 3047.73034221 3022.59116642 2883.2068224 2771.46583025 2617.90779381 2450.52740349 2324.87530907 2298.12591275 2382.43396783 2524.69729662 2655.12173308 2733.31212907 2729.6978666 2704.4290038 2657.63911207 2626.86185428 2568.08483448 2484.62654825 2356.19953084 2191.03651958 2019.69135129 1975.01459612 2020.67132395 2147.27253819 2242.41901047 2178.42071446 2140.80639286 2071.74757308 2001.23258159 1918.53240713 1894.02227089 1878.68951158 1855.3868245 1819.39078536 1742.88794889 1692.25792743 1646.81636314 1604.19963193 1495.02646993 1431.45179783 1352.93136584 1265.79955188 1216.50185752 1147.08183729 1040.68059419 1020.71681376 1003.80087874 978.697355485 941.041286494 894.702235918 830.898687118 732.143689396 702.15299779 624.091358351 596.184844975 489.477456703 455.656057821 420.001659314 387.486333585 380.181687962 366.613935207 336.1634425 337.758066871 339.277889231 319.549810546 312.108714635 301.462907564 289.165753103 276.934193397 257.257807448 248.025427297 239.653321809 230.878740712 214.461294764 201.975284584 169.957396876 148.944911366 136.500258265 126.42585371 114.811641519 111.964214742 111.112593646 107.003411258 106.132680618 104.412774051 96.4205489037 92.7698504266 88.8665037898 85.0327155555 78.9465490207 76.8408651796 75.4257337857 74.6289506109 74.2353817026 73.9497836544 73.5063590315 72.0679601321 70.2057107189 68.6712981801 67.0325086626 63.0992862707 61.9468752579 61.0354693119 60.3624215348 59.8708002223 59.4381380268 58.5049431601 57.6373683984 56.221664843 54.7241227362 53.100284985 51.5736932941 50.3677630215 49.6317177464 49.4742516848 49.6287017764 49.9626416915 50.2725873794 50.4065116577 49.9550709288 49.5892397016 49.0653954898 48.8676668692 48.42608318 48.17105564 48.1214384636 48.194526768 48.2296104103 49.2737012989 48.7152163327 46.3554945893 45.7911076974 44.4720251229 43.4685995126 43.0666147028 43.3631559473 44.5665066169 46.8341852454 48.5189358788 49.9939069193 50.7218703069 51.2156757908 51.1986570325 50.7666041745 51.4118233742 50.7710416019 50.2907736046 50.1308507191 50.3452389013 50.8643001799 52.890344675 51.8214795459 51.9620071916 51.5274227399 50.3817018147 48.499016485 45.994608703 43.2815225083 40.4716892902 38.2307689007 37.0186700006 37.0711662221 38.2996821193 40.3996144893 42.8341796817 45.0978853806 46.8257755505 47.8504729418 48.1913233119 48.0063667452 47.5304321202 50.3722080083 50.0164324857 50.0028252029 50.3439345659 50.9270904369 51.5523823837 51.4932143271 51.536570087 50.9971696521 53.357688413 51.1412208805 48.1675088969 44.6830218 41.0839134463 37.8837674877 34.9281112121 34.401622237 34.9028972713 36.5015627362 38.6968478437 40.9071442443 42.6863200331 43.8513414302 44.479832954 44.811920166 45.1246519123 45.6367533943 46.4676473745 47.0025704892 48.4701807869 50.1671243371 52.0173234729
3213.12428738 3134.0552029 3061.79736189 3005.74754947 2976.91210606 2983.27510237 3023.21033402 3082.73882907 3141.58925146 3107.58067063 3160.47121747 3161.08385464 3154.30975259 3149.02698782 3150.42915662 3157.47724708 3162.53854683 3153.28389859 3115.6605247 3036.76159271 2896.07106743 2690.50964426 2518.19881451 2388.08367019 2359.78545964 2445.58543437 2591.65664279 2729.82461616 2821.44354988 2833.89115873 2824.83731116 2786.46671113 2753.87271438 2670.2017219 2544.18897043 2360.92890453 2136.79959534 1934.77940172 1882.90005725 1965.78212138 2123.1556734 2261.35501633 2334.76909484 2226.96724483 2181.25956509 2121.93442407 2022.19200566 1974.35900087 1924.47877134 1862.32159668 1823.45103068 1691.14104077 1628.93186224 1586.59429813 1556.93267834 1467.05357711 1408.82852748 1364.47889294 1258.65998706 1152.99556957 1065.59205514 995.401715411 990.749360041 995.443742096 992.554971982 974.122276875 923.911341442 884.878109022 776.998524451 739.95807258 703.213856384 574.068005193 482.896711279 440.924961945 397.390077101 373.709472714 342.133043913 329.126502866 314.836952654 322.285111113 328.761743216 314.241586264 307.130676463 295.467289029 281.631875174 268.221960926 257.188700264 242.043043716 236.033437916 225.106111253 217.78717447 207.942493387 177.744788089 157.37661111 145.753460824 136.105861431 122.048441729 118.200514688 111.86839522 110.231042065 107.262305201 104.666421723 101.294749763 91.6778920524 87.5992674128 83.626808906 77.84148598 75.7745204731 74.4644246846 73.8539887444 73.6986614411 73.6436141123 73.3798852783 72.3584805016 70.3775384332 66.7984350234 65.2524172051 63.5998265127 62.1531306131 61.1785747318 60.3928592266 59.7337537941 59.0931568645 58.4341797122 56.5733945272 55.2602207701 53.6508487948 51.8804088911 50.1833497632 48.8484691443 48.1101793214 48.0218487485 48.5170265037 49.1679586172 49.7425631085 50.0346330393 49.6481292408 49.2018123891 48.5174203759 48.0776662852 47.4796500281 47.1942289888 47.2752247363 47.6209782761 49.0823127434 49.4387171825 49.3813111767 48.8438730208 47.3155748697 46.3593358387 45.5991820574 45.2775484511 45.4892870624 47.6135508759 48.872551573 50.1821618329 51.2652717418 51.5811194391 51.6532676156 51.1803259541 50.2656962998 50.2725242526 49.1646799604 48.3634771291 48.0960715965 48.4397811577 50.4170031444 51.6336614407 51.2838555142 51.9454323819 51.9864763689 51.2579672492 49.7375312248 47.5495902943 45.1439211739 42.5727470393 40.5040954203 39.3714612815 39.3619835347 40.412735356 42.2882682322 44.4228164001 46.3229753851 47.626503078 48.1671305336 47.9765260487 47.2468910482 49.2938039296 48.2562833388 47.6338111282 47.6159118488 48.2034508887 49.2243825778 49.9415439454 50.9579126621 51.5452105039 51.5056641178 54.4837451818 52.7817790106 50.300943875 47.2938738506 44.1414188277 41.3143794713 38.5578872494 37.7740127289 38.0925695586 39.2882355845 40.8950592961 42.3807210612 43.3517572206 43.6875721358 43.5453666943 43.2504707923 43.1430753402 43.4609160446 43.7782739407 45.0939445637 46.7939185842 48.7619138521 50.8871809868
3193.04137675 3099.93739294 3011.59134117 2939.98435448 2901.02634808 2908.63348009 2964.38456441 3051.76523021 3144.17628888 3220.16470747 3226.73260333 3252.44363633 3265.28679047 3272.60804845 3278.85016142 3283.96992383 3283.29100941 3268.60426178 3229.90081739 3157.28755341 3028.85025542 2882.9028783 2722.87188958 2575.78383056 2548.76934301 2616.7375423 2737.52570262 2857.26526853 2943.20956728 2958.73413746 2958.17372584 2925.33352398 2893.46588423 2795.83512941 2646.81977424 2436.73698972 2187.26275635 1974.31008332 1906.61912652 1996.41140043 2170.00032447 2327.10689817 2421.52157175 2448.1408292 2289.44083921 2233.73237218 2182.47090033 2041.19796999 1954.23666404 1887.99627198 1767.40797341 1610.40755933 1535.73803539 1502.17048313 1496.19497643 1487.28418296 1431.5750463 1344.27377329 1221.59977403 1085.62412001 993.973342234 944.016193099 953.467145059 978.902068812 996.668722553 995.166315186 956.811901671 923.527587964 809.329642611 767.443090897 722.728153825 579.893930835 530.066845636 455.975774649 398.698376191 345.874456163 309.007919404 296.334961604 296.937398739 310.027310006 321.033871675 310.444142989 302.971648338 289.482292389 273.251969502 257.902389437 246.269904377 230.590728543 227.333768858 224.447493287 219.95681507 212.792166159 184.726448908 173.317150428 154.145043441 144.827723076 130.69915155 125.757456075 115.278781938 112.460406357 108.259762405 104.882440271 100.96058661 90.7308857652 86.5946815056 79.7391351999 77.082742779 75.089268048 73.8751962558 73.3966128291 73.3897491131 73.4597085442 73.2785537035 72.3334900538 71.2748457922 66.9422485546 65.1326562651 63.763235276 62.5622873775 61.2487451649 60.3661660022 59.5640406883 58.8585192694 57.9482714082 56.5305233034 54.4640223153 52.7677165887 50.8656287667 48.9880773313 47.486804265 46.7054000849 46.7631973274 47.5170493491 48.5003134832 49.3460688303 49.7900379023 49.4414481518 48.8776876279 48.2326661021 47.2094222501 46.3766691192 46.0168983038 46.2331651019 46.8905175471 48.6317196557 49.5221622969 50.0035634782 49.9992279709 48.8759118064 48.3187897709 47.8372527536 47.6282765447 49.4855295703 50.178369162 51.0992226957 52.009472812 52.6643072657 52.525089901 52.1220248589 51.1266231088 49.6451873562 49.430272197 47.2118987999 46.0074608325 46.3417573731 46.8948495217 48.2959917583 50.1612295151 52.025958797 51.9444335832 52.5616310708 52.3588655991 51.3278174415 49.6053495486 47.6796797803 45.507964419 43.7380983839 45.6615780414 45.6982687594 43.4035857118 44.898014769 46.548961585 47.9035287743 48.6176589712 48.5269089191 47.6672798366 49.1314416426 47.2354224883 45.5899813314 44.6404320353 44.6369044723 45.5608789679 47.1512021249 48.6151797244 50.3160683064 51.5463696406 55.9493629905 55.7851105037 54.6890716541 52.7995731199 50.3723447728 47.7618430155 46.7347759279 42.5014729529 41.7270876765 41.7713684661 42.4158627236 43.2483668604 43.8111474596 43.7863289805 43.1333998291 42.1056472005 41.1300399422 40.6179466509 40.8171495362 41.3742505228 42.9525354964 44.9923728014 47.3185089272 49.7828505336
3190.52172133 3086.44406846 2984.84914714 2899.63563198 2850.92444585 2858.22875467 2926.46972134 3036.95367817 3157.22199278 3260.86054712 3337.15958132 3337.79845089 3366.64442561 3384.85991198 3396.86634497 3403.83060858 3403.64347867 3391.61262875 3361.5148085 3306.82578477 3222.83127443 3098.13386868 2981.39886913 2890.08130351 2821.11020551 2860.80640714 2941.73751269 3028.68160984 3096.76100006 3106.28744547 3109.14151449 3082.0448397 3057.65566125 2961.92697758 2815.30509793 2613.20275091 2434.97394382 2219.32184545 2105.22926547 2172.48380986 2321.47253202 2459.36470395 2547.04660539 2575.77781497 2476.04518649 2421.8236777 2279.75221561 2178.81543987 2020.14223593 1865.23813248 1694.44098534 1509.29985715 1419.11819179 1397.89514118 1425.20709965 1442.78579658 1424.29203229 1342.32629308 1208.82595068 1056.99820497 950.712698741 911.244932256 929.18489924 969.165474024 1001.34987324 995.636264648 980.57755044 950.857479486 912.268840701 787.389195552 738.500006745 682.002081159 513.636590548 455.220382803 392.17557423 333.548769415 292.720522035 279.800144872 293.222396344 304.689273242 318.006861119 308.820830231 300.077834884 284.09400556 264.866954396 247.006088419 234.347857959 223.736007513 222.778352917 222.672619857 220.887019898 199.688007157 190.207724481 179.91544974 162.368226626 151.746458278 136.46597144 122.304802347 118.024398596 114.246754458 110.553366275 105.056993529 100.742491655 96.0938661784 85.9258452038 79.2443514003 76.7395553214 74.8732060847 73.7531547176 73.3318142243 73.3405158081 73.3870960335 73.167573207 72.1907593999 71.1466446611 66.882824043 65.1217713702 63.7936911133 62.6104615501 61.5562449599 60.2887603024 59.3891629701 58.5980253485 57.2724892634 56.1130703856 54.6500972929 52.2387753592 50.2805707794 48.2897977575 46.6528901171 45.8093150979 45.9562576286 46.9052320354 48.1409935086 49.1884330146 49.7362139235 49.3906965873 48.6954490905 47.7827614474 46.4338970501 45.320769788 44.855724129 45.2035573682 46.6796076658 48.2219283897 49.6276895488 50.6170802367 51.1109423454 51.187056792 50.2001017672 49.9941774545 49.9154848684 52.2092712885 52.7296802708 53.3563338584 53.8984585265 54.1422395944 53.8916999053 52.6691079044 51.1280840516 50.5867942726 47.926326925 45.1211699707 43.9373478158 43.3105381637 44.1000950369 46.0603210982 48.6623400428 52.6569512052 55.1198691768 53.2720752066 53.6487896043 53.1742625595 52.2409546082 50.6411651566 48.9475132173 52.2912461703 51.2190473984 51.1872050684 51.94438111 47.9246193704 48.9907239841 49.6972814272 49.7273959328 48.9182709569 52.9557219348 47.6706415703 44.8742909357 42.5133728318 41.181652958 41.2160427515 42.57050126 44.857739099 47.1889857969 49.665865609 51.6002815978 56.7173552224 57.2272064612 56.764386904 55.4890448194 53.6552664993 51.5838055146 51.3595141759 46.570036746 45.7432883846 45.4379006225 45.44702065 45.4160262599 44.9662262021 43.860720317 42.1462374954 40.1850646553 38.5245206095 37.6598159764 37.583374763 38.7625264964 40.7235606095 43.2031823311 45.9598160186 48.8091501362
3212.55337613 3104.10105806 2996.96573444 2905.95547319 2853.32058263 2861.54569963 2937.46319414 3061.40192857 3197.94152288 3318.10273734 3409.83039375 3474.0624468 3462.896219 3489.13256494 3506.4617264 3517.17627841 3521.28639756 3517.00866442 3501.38202973 3470.81077418 3421.95817102 3337.85097559 3264.29508115 3200.90499843 3171.87063637 3128.71353264 3171.37465168 3225.19890684 3392.75515241 3430.97429137 3278.21537784 3259.63893004 3251.10181015 3173.55094809 3052.62644484 2985.91201699 2777.67197474 2600.57753814 2520.90925317 2477.57113233 2565.19308399 2656.21594682 2714.68950803 2728.32955948 2608.37075654 2543.81062276 2380.89732133 2251.87762309 2054.20587129 1854.26929687 1635.25427239 1423.36082842 1312.69971713 1302.17187885 1357.37197876 1421.48734539 1432.05256367 1364.74468763 1223.17993453 1079.78810494 968.504911925 925.857912816 940.021281855 981.854519 1016.80695148 1013.09225832 999.444871171 969.906971347 930.630166032 801.408389647 752.224074179 672.768546079 526.143068509 467.605928779 404.139485792 344.813279071 303.126672915 289.292795624 301.710271428 309.02981725 320.904051237 309.824169041 298.988019135 280.384051638 258.296097907 237.990469646 224.176883156 217.542318016 218.487631333 220.681669092 221.067886927 202.499909279 193.887486345 184.475749756 166.975403391 151.524125328 130.793717708 124.952133339 119.984337573 115.517771368 111.230381898 105.178591872 100.635949047 95.9440027115 81.7848999047 79.0176776853 76.7219893032 75.0217572688 73.9856110501 73.5415646389 73.4331098333 73.3213949983 72.9683210967 70.1985414575 68.884945767 66.5218251787 64.9359660225 63.6839308212 62.5468161635 61.5049302445 60.1714475316 58.7824297213 58.0633910648 57.1020692688 55.9467264512 54.5238652187 52.7840917196 50.2662937968 48.319022536 46.6794682408 45.8162399355 45.9716456648 46.9688186348 48.2680496637 49.3650669911 50.2327953974 50.1155525925 48.7611107768 47.6607026658 46.0564431755 44.7077452048 44.1444343499 44.5931341142 46.2277446464 48.1553835569 49.9618754498 51.3513594742 52.246937566 52.7165322203 52.9033015073 52.0205993052 54.4604341028 54.7784354259 55.1826566554 55.5812714606 55.8198007521 55.7108972572 55.0669611187 53.4080678975 51.3627702694 50.1291998012 46.7458460842 43.8160848215 41.4050174024 40.6113942307 41.6488506922 44.1798399612 47.5106745797 52.1880468931 55.4214368882 57.7218655138 55.141854486 55.2219715614 54.8743677058 53.8183923015 59.1698490137 57.8231309217 57.0050998672 56.8897026158 57.1696076768 58.0604275601 51.5850782622 51.6281082693 50.9633403627 55.8354779074 52.4965682957 46.3275817604 42.5900768243 39.4606520858 37.7151482254 37.8050582765 39.6513128758 42.7066997799 45.9458086037 49.2160518182 55.4434021824 57.6850447414 58.8340948576 58.9668081116 58.2621510552 56.9671599258 57.5716943654 55.832583322 50.4615596805 49.5196403298 48.8239948994 48.1829028929 47.2950234303 45.8529231066 43.6932036093 40.9446210638 38.0797282566 35.7772470786 34.6283798954 34.7459009781 36.2506495332 38.6758358587 41.651033132 44.8668771913 48.1078877976
3254.20282139 3158.59981385 3056.4982386 2971.09722067 2923.88270971 2936.1851572 3014.20400462 3139.00389737 3276.67236818 3399.20926235 3494.60775843 3563.29156792 3610.95058741 3587.29984357 3608.28315896 3622.81726959 3632.39416068 3637.38876705 3637.3609494 3630.85668105 3614.82864438 3585.34623134 3527.34454862 3483.22987136 3452.62900498 3448.14796053 3398.14872863 3427.54970237 3591.13979354 3622.07045908 3637.7670884 3455.17355931 3469.91757448 3563.08069045 3472.83306238 3345.96947477 3195.03837108 3055.40809133 2969.90473473 2955.50424415 2865.61484279 2899.45955752 2917.53188865 2905.87091916 2757.29378074 2799.55077615 2680.37860137 2311.89170673 2118.84830389 1886.5023188 1633.73544446 1395.48491648 1269.33511949 1262.1797641 1339.30748221 1428.14098878 1461.26716317 1412.96585337 1288.45103287 1158.38883739 1053.92167883 1007.92202143 992.792628769 1022.46382633 1032.90984138 1034.08459569 1014.96037668 981.283148188 939.619206893 809.025552063 763.053560076 689.474309192 631.662621742 492.845764576 434.3818675 379.52541357 340.087763564 324.586519508 331.457347672 322.689005379 329.475224203 314.390121979 301.289116774 279.764047789 255.941982907 234.210266082 219.626209794 214.630317476 216.47769654 219.814216006 221.310858504 203.735583068 195.732308008 180.590661799 162.503686294 154.22594905 134.690985035 126.533401713 121.156907119 116.2659959 111.614870844 107.026368946 100.574852134 91.338931153 87.5136745882 78.8904923279 76.8019747354 75.2527767887 74.2600819789 73.7236424522 73.4177997891 73.0881128325 72.5772950764 69.5032619042 68.3205137118 66.9578461737 64.5925814518 63.4475969829 62.3834434348 61.3832516294 60.4213701403 58.6960052252 58.0149102063 57.0892540043 56.0096344829 54.7166121393 53.1658625842 51.371697481 49.4861622156 47.6249473545 46.8268200978 46.9205335936 47.7973567012 48.9394179543 50.2083792131 50.7382457296 50.5799739382 49.2958398712 48.0642708753 46.4004899679 44.9793916998 44.3776383898 44.8599324852 46.6619995615 48.7494471977 50.7476681175 52.3630333183 53.5182688281 54.2657930598 54.7174851818 54.4719190883 56.8378887087 57.201041323 57.5401378664 57.7824851507 57.7998119902 57.4269586703 56.4865437512 56.944310331 52.0686101593 50.3597320176 46.4169072643 42.8695878433 40.0301066503 39.0988672198 40.3367322349 43.3211208835 47.2165675041 52.472069518 56.295165086 59.1603905091 60.9442905316 57.4746691429 57.6576815436 57.0935637204 64.1821256111 63.3006811403 62.6964300105 62.4924521808 62.3320440725 62.5916444228 62.5828155053 61.6971955268 59.9121187981 56.8753452821 52.601306192 45.6021214424 41.0297767067 37.197790263 35.0652800744 35.2095153039 37.5202028981 43.4081387611 45.318068632 49.2731591111 56.16575344 59.00221762 60.6830586827 61.3145818942 61.0870644787 62.7862895258 61.4885153249 60.0222994749 54.0722564171 52.9787345696 51.9003267729 50.6632020738 49.0133303761 46.7038908825 43.6322160942 39.9929373479 36.3506175078 33.5035290809 32.351956781 32.4585514636 34.3074210377 37.190278747 40.632211468 44.262872739 47.8434555459
3330.9862308 3240.41274003 3160.65041507 3090.94931909 3057.22332466 3076.17798627 3151.28283734 3265.70811375 3390.74391008 3502.47889623 3590.37705798 3654.74664261 3700.66419019 3733.67609973 3701.47716036 3718.73338135 3732.8519915 3745.3675525 3757.42504498 3768.98259156 3776.89784063 3773.98835375 3739.50076392 3707.80975552 3678.97120412 3667.61289227 3746.94039944 3754.26402106 3786.00677942 3813.95380701 3834.37626664 3845.98603329 3856.53932603 3838.82856405 3799.97692218 3730.97158345 3630.88686686 3517.04980897 3419.63407851 3359.76457686 3186.21354874 3166.06269053 3143.41650562 3104.23896899 3062.45517447 2969.54863379 2837.39598513 2621.44213712 2232.77311612 1987.84982369 1725.29766534 1488.02786095 1343.1358163 1332.95931759 1414.90570897 1483.21818911 1521.07450667 1470.39171924 1383.47801824 1274.81186473 1182.91364975 1133.35948454 1127.31197871 1069.02885961 1070.83651071 1056.63218085 1025.38372966 982.759672124 936.135869758 807.392829727 744.925126106 704.572410249 658.184819977 526.48880355 476.612485224 429.134503313 393.326369918 375.458953841 374.298784925 342.497374571 372.490969432 320.916237921 305.533565911 284.143403072 259.377443272 237.831476437 220.833268107 216.869655386 218.182401493 221.010316065 222.190228186 198.466253637 189.963356257 181.2747087 163.063410967 155.157529698 135.348479732 129.326019205 121.595191397 116.510019487 111.687208548 106.998621464 102.378628292 91.2693970162 87.6215960622 78.6646814697 76.7149957183 75.2409070037 74.22117807 73.5461670065 73.036726341 72.5217759701 69.9284320134 68.5797258484 67.3907045109 66.146575212 65.1821038502 63.1116899684 62.1401109187 61.2042969585 59.9352018533 58.8110265832 58.0329685793 57.1867825236 56.2340541044 55.1347765705 53.8581998466 52.4155862883 50.9200269872 49.633733228 48.5344825156 48.534566964 49.1932691139 50.3484320812 51.1450958104 51.5380281109 52.1792292524 51.3241202084 49.3974248038 47.5923680171 46.3204029072 45.7778085483 46.6617220884 48.1887573507 50.1679474157 52.1148518449 53.7576999449 55.0142493069 55.9137223294 56.5344354636 56.4225879265 59.1102090957 59.52711471 59.8446616186 60.0015117998 59.8889025503 59.3617319225 60.6106786196 58.6411899557 55.7455902466 51.6456572044 47.8761242038 43.6808097683 40.6442447078 39.6430382276 40.9615930245 44.1352567462 49.206703433 53.887120772 58.0022895406 61.1983614955 63.3692516501 60.9729322351 60.5962968009 69.4927640174 69.1216906117 68.6191165246 68.1829411552 67.8972412667 67.3642708952 67.097091642 66.4366811307 64.8324245018 62.3530457395 58.6566315577 53.7477478502 46.0741958 40.9617104364 36.6637207021 34.2642684093 34.4368613378 37.0516309562 43.3474591133 45.7943909577 53.2416110365 57.6208457473 60.8359579567 62.8750935364 63.8613921707 66.7475902534 66.2232594257 65.2201183171 63.9321391499 57.4283000701 56.1835453574 54.7787376149 53.0608036465 50.819038686 47.8592653019 44.1274528863 39.8613686707 35.6784593154 32.7090282101 30.9310056098 31.3769995809 33.478778475 36.6919404242 40.4618509937 44.3737508248 48.1743859589
3429.14456222 3355.33612942 3288.68783561 3247.47315897 3230.20396505 3255.69365209 3324.13764491 3421.33048865 3525.08701853 3617.04330643 3689.2474701 3742.64841652 3782.15965622 3812.67535334 3784.03198493 3802.9587575 3819.83017802 3836.03481216 3853.08779846 3871.67449949 3889.24405326 3898.32993416 3891.49852982 3860.2383084 3842.23054555 3839.60009364 3927.14532736 3938.78745675 3970.08984336 3998.53460552 4024.09823097 4114.02880237 4084.50276602 4105.58855452 4117.25806909 4100.62320302 4039.34330597 3938.44303762 3825.91462343 3730.35088398 3662.31494544 3435.4207914 3379.61037144 3339.60608829 3264.27846094 3162.56900157 3026.02778019 2807.14807448 2579.45274889 2167.62840726 1905.48738041 1691.37381387 1548.47584917 1518.97658802 1570.32053854 1642.75000216 1680.65537867 1570.81552369 1499.13593399 1408.61399038 1326.99003865 1272.18931969 1245.28912362 1133.07052754 1111.29990409 1076.0530912 1026.91409267 970.151829788 914.858754836 843.978551298 739.854355621 711.814607369 680.662841251 561.943953571 522.139450014 482.661752746 450.471034363 430.11811494 420.988383373 401.206464203 341.983157559 330.018832153 312.860361371 291.592690062 268.949117867 248.714648231 229.275718162 223.725974091 223.187577445 223.981596189 219.220462455 196.306708618 188.245808748 180.150540149 161.884940387 153.862038338 134.873919943 129.045883274 123.725974549 116.281644412 111.43213963 106.742291243 97.1738390403 91.0709434361 81.448001926 79.1072233207 77.1441399678 74.7552530026 73.6276315363 72.794393823 72.1315066543 69.3430109075 68.7412597968 68.0661785217 66.5430999237 65.4767998083 64.6781462582 63.8705133217 61.8383015166 60.6035023644 59.8619973432 58.7846381116 58.0780136112 57.3306220139 56.5249373762 55.6423414553 54.6674388578 53.6081391381 52.5352396498 51.6129116414 51.0551483653 50.3830987025 51.1868793125 51.8787422198 52.4351643287 53.5371451659 53.4038470972 52.7373376669 51.6093460855 49.4802055531 48.5290403004 48.1394585856 49.3898162097 50.6601672774 52.3363442531 54.0404628358 55.5441638497 56.7631642643 57.7016572874 61.0842839222 61.8921468172 61.3346097659 61.8097113384 62.1434986574 62.2820824017 62.1329526682 61.571181146 62.9321588949 60.9964054446 58.1905948224 54.402559955 50.6635248898 46.6276324144 43.6963692017 42.7108029854 43.946521608 46.9656343441 52.1094968695 56.6436043517 60.7029859493 63.9581671963 66.3048969038 67.7841870818 78.6507292963 73.9772212777 74.0059616505 73.794390332 73.4857588801 73.1354298977 72.3131107912 71.6463785678 70.5080248054 68.3992848552 65.4873119878 61.4542741015 56.3103898545 50.3542959327 42.9846148102 38.6031943339 36.1440592485 36.300938815 40.3108619054 45.7647549556 47.7493642624 55.56030722 60.0023802907 63.3142144358 73.9211057879 75.3282006468 69.9246065472 69.6262222502 68.8087728185 67.6241952344 60.6069758901 59.2433113112 57.605565368 55.5647781638 52.9521438612 49.6216578833 45.5584348051 41.018892258 37.5190259704 33.6160669178 31.6150171114 32.0588750426 34.22302871 37.5287634676 41.3892241832 49.1545600637 54.026256106
3540.94288267 3485.21647021 3438.46777166 3409.03009518 3415.08147474 3444.06855108 3502.90083821 3579.87293729 3658.67351731 3726.34645402 3778.17405056 3816.80300932 3847.87841038 3875.82459521 3902.01018061 3874.36189666 3893.07331197 3909.14761215 3923.08621538 3935.50110539 3945.7235766 3951.2513618 3951.26615356 3942.15537811 3949.14410449 4040.81973801 4156.2553644 4206.80817371 4141.14578647 4170.53246644 4198.54111808 4291.07953707 4285.01326657 4337.21222811 4390.47064622 4414.95781055 4379.57789895 4283.37424732 4159.37628542 4043.39022433 3951.36074704 3692.17593784 3615.60915446 3564.26157067 3480.99385715 3377.778128 3246.31107239 3036.7913135 2828.42439945 2588.22876696 2180.01500138 1986.85386605 1841.97670592 1788.92108517 1796.86296415 1824.1691878 1831.49624987 1698.50662299 1631.16880927 1549.21565101 1470.74847281 1407.15404617 1336.33079637 1195.8370613 1148.51916092 1088.63952578 1016.65644416 940.052641923 870.895091139 804.841425905 718.075973842 705.053923022 692.313132492 671.959327324 563.900937231 532.203216718 503.463518917 481.303166364 465.845973724 434.249621917 356.601384306 341.220153534 322.715024181 301.936751673 280.943058127 262.457052547 240.03608028 233.555366687 225.513554513 222.822357164 199.640505474 192.394329935 184.776832735 165.737269264 158.73384567 152.37348788 133.470030924 128.017610254 122.92010166 118.061247821 113.355093602 100.770664786 96.8184943113 91.6119541135 80.706872698 78.3427676637 76.2952441659 74.5995923585 72.3940802807 71.3978162141 68.2605165788 67.8394120115 67.4262258403 66.9777486527 65.654705206 64.7703750696 64.1314225754 63.4468641547 62.337496632 60.4401195648 59.7652719046 59.0750780261 58.1098053929 57.4541490577 56.7812520534 56.0946680974 55.3944376223 54.6833645703 53.990795834 53.3971509575 53.0173229771 52.929927221 53.0419948926 53.4293001675 53.7961919094 54.9493193211 54.8827537084 54.4555755741 53.7217913752 53.1018204097 51.2112682769 52.2792338127 52.7093838673 53.6968092633 55.0012027959 56.3703472238 58.9404675227 60.1206497549 61.3036982282 63.1832755472 64.0551310001 64.7870077555 64.0861791422 64.4698658062 64.6516798298 64.5547306506 68.0785179905 65.7049712194 64.0113253573 61.5603611478 58.2180062848 57.0542898902 51.5808240318 49.0185305504 48.1184260204 49.1237296959 52.8720142218 56.6803800708 60.7037242344 64.3995026829 67.4660149306 69.7889402405 81.4406457703 83.3634426676 84.2321060663 78.8929558852 78.893545578 78.6803886397 78.2884537965 77.2629218212 76.3268827214 79.9644556693 77.6257520227 69.4233395458 65.3865641725 60.4172110612 54.7911293405 47.2605533131 43.2060983147 40.9142494322 42.8742180219 45.8751487155 50.7774696368 54.9377022943 59.2409536989 71.077224123 74.9449986835 77.5121065671 78.90621687 73.2274331137 73.0283833496 72.3009688388 71.1631871468 63.6811614559 62.2492240208 60.4891223664 58.2992347744 55.5521151844 52.1464064156 48.0975371393 45.5818248247 40.68981273 36.9084359772 34.3931367744 34.7337592535 38.1948318853 42.0945402384 46.7017857484 51.4926765929 56.1481411608
3786.6593682 3736.27122536 3589.55258411 3574.74805903 3580.14132964 3618.69900486 3664.95608214 3720.10981568 3772.36486885 3813.36593875 3842.12094835 3864.41327348 3887.95278315 3916.79944216 3949.26947261 3979.99958987 3955.23658693 3969.95420638 3975.89677373 3973.27358764 3964.51997322 3956.53086987 3961.32640502 4009.16433438 4077.21372977 4151.54081942 4293.13679207 4355.34012721 4399.19365621 4327.3467146 4408.73870311 4438.74464941 4444.26549809 4511.00017994 4586.41934515 4633.72816538 4613.04317496 4523.15831863 4402.38719278 4288.07301872 4194.96154832 4120.55158148 3868.48697603 3791.6542013 3708.4558468 3611.32950318 3453.89053589 3303.2695843 3124.28005022 2920.28081037 2688.83772983 2323.18892421 2189.30699097 2108.03916876 2069.40863684 2047.82914836 2017.97707216 1851.88801583 1777.73147163 1693.66167871 1610.18718445 1533.54532841 1436.2089613 1254.66522364 1181.43448095 1095.07969522 996.573060852 894.671468882 792.647512406 736.950740677 677.872450827 682.068947856 690.555826143 690.656297812 623.007199058 574.446187215 549.349855241 526.493486986 485.787576933 466.321861718 371.975827458 353.795920019 334.112290184 313.58428988 293.666178797 276.149864637 250.042878341 235.075686831 228.8790689 223.248585954 193.964360934 186.700145088 179.561790889 161.262021841 155.297483984 149.822924035 131.353753227 126.40716644 121.638300478 116.987072512 106.680576048 102.651855159 96.2584652693 92.4326298873 79.7718818847 77.2744249 75.0034514657 73.0221247609 71.4085083309 66.9427577593 66.4616535321 66.194750804 66.0327735212 65.8532267076 64.7772101813 64.0691905153 63.5714735984 62.6036780525 62.0697903844 61.4988462512 59.6390025856 59.0050673406 58.0967381996 57.5019992183 56.9151428974 56.3650196801 55.8727491918 55.4415036757 55.0667199866 54.7630982456 54.5739445271 54.5403406681 54.6368728884 54.9141881485 55.1903936153 56.4672353306 56.5063320136 56.3274734972 55.9723552222 56.7179399109 55.9049944445 55.7217156899 56.142084242 56.8942875475 59.113023591 60.2295000527 61.3173443647 62.3118271876 63.4280649927 64.19905813 66.2095601479 67.0017000828 67.6687454732 66.8360602431 67.1139081315 67.1461418656 71.1122553723 70.1662883727 67.5849970623 69.8908643475 66.9870844371 63.2920798088 57.9938814068 55.9466284496 55.1647190653 55.8544771968 59.4940073469 62.513768582 65.8084393799 68.9420868199 71.6459729255 73.7928060378 86.2815022506 88.3415259452 89.4031569475 89.9524004626 83.9900318232 83.8482093924 83.4381304592 82.2877608697 86.7586057735 85.0439985019 82.6419389074 79.4223088368 75.3155013469 65.9067287744 60.9828838436 53.4608634056 50.0345938517 51.6598440969 51.649914616 53.9841545905 57.901490616 66.2274186145 71.7576020683 76.0852132189 79.3674280179 81.5629507921 82.7499831201 76.6501574202 76.4397806898 75.721432639 74.5862021919 66.6905514089 65.2427996497 63.4654451352 61.2862072934 58.6171316826 55.3958011458 54.671433431 50.0729794342 45.6867293299 42.2672707496 40.9748770524 41.1842297576 43.2268898373 46.5639331324 50.6042848238 54.8816242389 59.0973841084
3917.81713605 3882.04912496 3855.62540412 3842.15891263 3775.66381041 3796.0483349 3825.19163558 3831.57059882 3855.26491209 3866.67736943 3869.36737975 3874.48363821 3893.78388552 3930.65554094 3977.91219663 4023.51502116 4056.91516224 4027.39164326 4027.30116402 4011.81821242 3987.49419022 3970.19774874 3982.49191635 4061.18420018 4163.99563931 4331.1699304 4427.84608204 4492.87780208 4532.8107344 4558.4141998 4628.50775542 4557.14150525 4593.5316796 4618.41047516 4687.19981159 4732.89076799 4720.11973588 4650.1757783 4557.23631705 4470.25624352 4397.96527382 4336.51431876 4261.01248332 4185.87658873 4102.99996723 4009.21536687 3901.04439315 3596.37393325 3452.71555952 3263.40876943 3068.08117839 2708.73661579 2565.77452953 2453.38050261 2368.98090664 2299.54037755 2230.34923585 2026.58852184 1936.66331345 1841.58146854 1746.27787751 1622.64407342 1529.3655403 1431.08766771 1214.14306668 1102.04627112 976.528313571 833.610538264 725.603938166 658.382458416 627.67366597 649.568994923 680.265427805 701.008339488 651.106352395 639.064962627 588.524499341 576.333480028 520.389135711 498.234965436 387.465520521 366.928659572 345.983838145 325.1112537 305.256903184 272.271717886 258.92661115 239.149362738 229.387161978 220.647274623 186.405304021 179.070896454 160.947234246 155.557313004 150.812256127 146.404155407 128.741795372 124.379792892 119.993115621 115.588485994 105.765968972 101.825420103 95.9817577035 92.1309742048 80.787101039 76.0274296467 73.4140254366 71.0081610377 66.6334777444 65.6581651502 64.4836352817 64.4438967022 64.6086034853 64.6208585865 64.4480469819 63.2687946445 62.898267229 62.2318416064 61.7643295163 61.2547238859 60.6996127224 58.8935566043 58.0245485384 57.4431057595 56.8680033936 56.3611488927 55.9824480216 55.7548631235 55.6523930011 55.6316638757 55.6720341244 56.1042045703 57.8849507833 56.2605864807 57.7119366688 57.9911766062 58.1581395677 58.2094615146 58.1796061878 59.4696416333 60.4142587709 60.6587821178 60.6679572611 61.2649960674 61.9964343143 62.8090980228 63.6543276187 64.7220680631 65.5482442031 66.2969735879 68.3387400417 69.1915467582 69.9396168479 69.2340201482 69.648476834 74.5257249252 74.3308626332 73.7570801487 76.4366976259 74.9027408579 72.9186669256 70.1909525444 67.9843013637 63.648520543 62.9816969782 63.3399792798 66.8606794174 69.0608257883 71.5775538916 74.0833918185 76.3469984797 89.1797951658 91.8692967719 93.5669310791 94.7173357926 95.3806638118 95.6195841485 89.0537188879 88.644090382 92.6107219274 92.1501735489 90.412438512 88.1032830928 85.1657951788 81.5941386715 77.4764164836 73.0518162751 60.9362952729 64.1698362789 62.1806128162 61.993861179 63.5297409933 70.2962412883 74.6402671998 78.4656016029 81.7542792455 84.2682291688 85.9321186251 86.7715717885 80.1506256125 79.8398769623 79.0637045819 77.8924731169 69.632860688 68.2084220424 66.493336665 64.4448379299 62.0102450474 63.1022939866 59.4260867761 55.539027036 52.7707633465 49.7589279577 48.1023888225 48.0697491942 49.5495596285 52.1621293256 55.4559208106 59.0485731014 62.6756048214
4043.74558378 4018.84914013 4000.91482211 3991.3650359 3989.94505887 3993.65699491 3934.16044745 3937.28070276 3926.05794518 3887.4654834 3860.40942021 3847.42849517 3866.92256458 3920.68437004 3992.41776954 4060.91545796 4110.96096866 4135.24516375 4092.03026357 4075.34518079 4051.04510908 4039.22695977 4064.074711 4171.88280272 4391.96820061 4516.62854669 4601.32166594 4649.40306257 4677.6605596 4698.14613689 4720.73776785 4739.76632809 4676.1645867 4678.24893695 4716.52322869 4741.31715454 4734.98450947 4700.51982747 4656.45956648 4615.43238874 4577.99401302 4600.08547942 4477.86354009 4411.14399818 4337.53659736 4258.78516208 4174.7537655 3977.16893894 3836.90608818 3708.08799925 3480.39270687 3316.65892635 2958.20966007 2811.63683179 2682.32966607 2566.88435073 2458.17188001 2216.39498322 2104.73944032 1992.64385683 1847.8197147 1735.13866929 1620.59684961 1498.92551141 1254.09176834 1120.71115931 955.886382592 809.709949899 681.325912215 602.024289138 593.426417363 625.63167657 669.348739865 667.272225818 676.197759874 671.792868616 658.377782321 614.279166084 592.030934459 526.635584771 402.569288243 379.903122264 357.467187089 335.565203256 296.28753364 278.79929967 254.615292521 240.793959705 226.310401328 214.312698362 176.715655559 157.895979973 152.683050626 148.688788971 145.418458723 142.303376659 138.933112088 122.093043089 118.087054504 108.489895976 104.657020339 100.826921616 95.0345484519 91.1710469546 80.4949504157 77.3065845664 72.3689831779 68.8228761048 64.5867627235 63.3285446508 62.913247449 63.270439914 63.1375342475 63.2830534133 63.5267427523 62.7730847389 62.4564342981 61.8261808 61.4035483673 60.9519108214 60.4581361127 59.8840620874 57.9035558618 57.2842747093 56.6291200393 56.0443167744 55.6626001086 55.5665267151 55.7241729717 56.0211757646 57.3836241368 57.8860574915 59.0751948196 59.5958919314 60.0552510904 59.4406392264 59.7377275971 59.9847720628 60.2138004421 61.8889146839 62.9475207394 64.8738370511 63.4878984948 63.9475920479 64.4780228356 65.0949032875 65.793054865 66.7958635841 67.5934073938 68.3515816293 70.4212808382 71.3440998394 72.1820308017 74.3440582149 77.17695405 77.5161592901 77.6243511073 82.8077328643 82.1115435711 79.9881860925 82.4248729569 80.8650960771 76.9357206831 75.8842220821 70.8099216726 73.369104472 74.297170643 75.7891279322 77.6171150377 79.5473455807 92.2346170565 94.792834149 97.345495626 98.9954997244 100.169534639 100.886996261 101.176908165 101.063081054 93.9392449792 108.764704629 107.453763099 95.9755990537 93.8330299882 91.2433300026 88.2535620934 84.9730044919 81.5972903152 78.4278248764 74.5485061086 72.983063864 72.6001970552 80.4823074521 82.5500464007 82.901608765 85.4451284569 87.6713468021 89.3665134295 90.4303943721 83.6654954192 83.6574289268 83.1810537112 82.2925152896 81.0466803535 72.4680964792 71.0814195345 69.4683520773 67.6145050698 72.8587999543 69.8311691597 66.5720488422 63.2285048119 59.5088439298 57.0915677444 55.6575385521 55.4271478379 56.3698324688 58.2554155497 60.7736935148 63.6356148096 65.5925749991
4162.73305821 4145.86642898 4133.36159736 4124.99363821 4118.84917838 4110.65810202 4093.66515032 4059.77239303 3964.20552107 3930.72142737 3851.62561188 3811.14449948 3831.40726582 3907.49446474 4008.15206736 4102.59969603 4172.47702381 4211.69895306 4304.39161083 4288.16327786 4265.4872557 4264.32544734 4347.26705718 4437.67331674 4549.46530697 4639.06160088 4686.85737225 4705.73770047 4723.49355896 4752.83297442 4791.16894455 4821.17597171 4802.50124868 4732.06202194 4739.26969405 4743.29396124 4744.86899757 4747.93510563 4754.86215871 4761.62520741 4813.03598217 4798.2876183 4693.2656013 4632.46838883 4565.95545921 4501.37429201 4442.42185802 4283.74868273 4186.42655285 4097.37966773 3898.33607276 3738.18993668 3996.99288171 3844.11205052 2998.45166024 2838.52346637 2691.22347264 2503.24433927 2361.21918875 2145.86276198 1979.0160025 1847.99309561 1714.75915779 1574.57462907 1308.77520305 1162.0578204 985.86868657 829.895917082 692.65127456 606.995949905 597.514857717 630.992934711 684.97608158 689.016257803 704.180979506 704.223709893 669.017501713 649.370373911 625.976089723 600.25720268 416.965616399 392.234026682 368.048570006 366.88175258 302.667563836 273.513792767 255.047788343 237.389373257 220.478119051 203.019586724 165.831252175 147.113698923 142.951130085 140.665579401 139.254454862 137.730052348 135.48448288 119.693040291 110.726463008 107.058351357 103.344609963 99.6541783048 94.0190788461 90.249260478 79.6705629936 76.2461761132 70.9331851866 67.3056584941 62.6826055656 61.0936720555 60.7154134158 61.4476777347 61.9897657646 62.6166907562 63.0325083815 62.3299545916 61.9962263204 61.3505840159 60.9458687636 60.5569775014 60.1538907961 59.656384118 58.7624636909 57.0838374778 56.2646186353 55.4729393033 54.9610722107 54.9330306895 55.3686269306 56.8123177765 57.775806385 59.2214435818 60.0332470671 60.7003621713 61.2550114137 61.7266314369 61.1720378921 61.5696404692 63.9292199337 64.3219771021 66.5449512141 66.8530931015 67.2131380748 65.9548446089 66.3868760078 66.9399233954 67.8447123944 68.6672163907 69.5185781745 70.3391085005 72.4442559538 73.4478957674 76.7443572115 81.8498756877 82.5687658615 80.4543084694 86.4985875481 86.5449357531 86.3680791779 88.6952831725 88.0626001967 87.3168855995 86.5512803535 83.4223867633 83.1351070241 80.764033928 81.2877496519 82.2719844593 86.0054038603 95.7189696783 98.2168548054 100.555037224 102.982755621 104.572973429 105.740690963 106.477551952 106.789031491 106.683450274 115.684153934 114.883679472 113.582024372 111.794465306 99.6228830429 97.3376781325 94.8421763449 92.258861817 89.7424741493 87.4740689953 84.241140801 82.9961108363 90.3493739822 90.6746461469 91.6955322805 90.7027074503 92.1554154093 93.443051476 94.3808577046 94.8581231541 87.3724625701 87.0832405856 86.3988640712 85.3537620848 83.990946299 75.1310178805 83.1289736126 80.9806272588 78.6963313866 76.3044364572 73.8231876528 71.2806384387 68.0127721946 65.7708110331 63.9347981676 62.7642844928 62.4332931894 62.9660532284 64.2478670979 66.0875286205 68.2831699525 69.6346127465
4274.57027566 4264.11701844 4255.80813765 4248.32226129 4238.721392 4222.00071407 4191.1060255 4138.10593729 4057.78695475 3959.53578394 3857.72615646 3806.23270012 3843.41690545 3961.52587472 4117.63599027 4263.07865114 4373.61777803 4442.70719373 4475.00441876 4505.88570061 4508.45747258 4527.78295585 4560.91503305 4626.30782543 4693.52432389 4727.746587 4720.22398904 4701.59608948 4716.50171352 4773.42549542 4846.84802972 4903.81635252 4929.06807951 4894.95842277 4809.63529782 4808.54376441 4821.72409285 4853.80893324 4898.80904953 4987.85841768 5012.67592335 5008.08802357 4975.86964966 4848.99267721 4782.57627298 4727.62456186 5159.63734949 5124.13872466 5087.28488425 4950.98405949 4865.14683377 4149.02959531 4398.52281373 4228.03522666 4060.82857333 3902.50755973 2919.60994265 2702.53536264 3244.60376289 3073.64418097 2110.8602819 1963.37097935 1815.0255098 1661.87694361 1472.92546217 1284.07759782 1054.75309114 904.061074366 773.53122896 690.784112476 676.631909444 682.702266637 695.624574568 725.365512731 739.994407165 739.827737331 703.080703142 681.938740107 656.34000021 627.957585805 597.693267672 456.234979469 404.47777768 368.90169242 343.296776663 275.486691302 253.456988081 231.481099774 209.743935805 189.34497047 151.253811508 134.674323171 131.677469674 131.57745574 132.556618477 132.977457745 120.746438483 112.385055906 109.058517012 105.417747361 101.76448283 98.2413345965 92.919774898 89.4306928887 79.2144978186 75.7188131448 71.5792117889 65.1072108897 61.8438586416 59.5314966018 59.1797746768 60.1539364839 61.1944794611 62.2298585318 62.7027954438 62.6233681512 61.4734169875 60.7378963358 60.3136989066 60.0022146592 59.750506993 59.4133479224 58.6203030571 57.7269403975 55.9487014736 54.8767916565 54.1451331577 54.1367579576 55.2112661397 56.6422909851 58.0718732392 59.8384222299 60.8716898842 61.6649857485 62.295984699 62.8307169528 62.4149973514 64.8904263713 65.3641470631 65.8001224294 67.5350528549 67.8963368036 68.1029202477 68.5229375249 67.621832906 68.2708861543 69.3285547389 70.3188162988 71.3224620865 72.2653873951 73.1039686695 77.9200734121 78.8876586643 84.2312770952 85.0898058143 91.6266610351 89.5916054073 89.9565512199 90.1765616463 92.8230100947 92.6963690421 92.4992017928 92.2623465195 89.5888360558 89.4916747714 89.450693373 89.8458908291 90.6346154933 91.7369006459 101.764535497 104.113158118 106.347106813 108.699567385 110.25091087 111.408890143 112.150005955 112.46515947 123.853223051 128.683063971 127.66680345 119.639197457 117.853559165 115.663380241 103.16013607 100.960391813 98.8145732278 96.8532215987 102.567672369 100.99560821 99.7083814917 99.0837358933 99.0018518018 99.3695977626 97.5279384223 98.1913331038 98.757863773 99.0745667043 99.0366343903 90.9150021899 90.3391895443 89.4248385408 88.1884145794 89.4414302474 87.5621678371 85.497207138 83.3278533016 81.1389271212 79.0020791206 76.9604136253 75.0285707402 72.4962313034 70.9459506114 69.6685307183 68.8165197985 68.5182734937 68.8246648683 69.6965639228 71.030265508 71.5657827317 73.571458279
4265.33947462 4375.10288649 4371.26985927 4366.29236853 4356.83899821 4337.80296407 4302.41850634 4243.47644171 4156.95758145 4049.68769871 3952.38696048 3903.48978409 3943.97850465 4063.31553296 4215.65308981 4365.98024282 4483.97828441 4567.10303461 4619.95753425 4679.34969672 4706.81792206 4741.07679927 4767.87323922 4804.46647012 4823.92874797 4799.65964507 4735.95510348 4684.0029647 4705.01848179 4798.41264772 4913.47927646 5003.00515903 5050.99382559 5565.83881156 5021.04020476 4946.03998234 4975.11976841 5029.48842345 5143.02537013 5206.22464897 5240.16145459 5232.76973957 5777.74138973 5057.087944 5538.73942959 5491.79375663 5352.42217443 5329.37209342 5313.04163052 5225.68652668 5165.95824649 4904.43153312 4741.6106979 4560.05668832 4377.16065761 4200.7156981 4030.9188241 3815.88326697 3493.24653358 3303.11661565 2242.96526274 2161.27646882 1998.87121454 1833.79052445 1663.95191005 1386.41063546 1230.29467019 1021.18984701 908.103982496 834.920541735 814.117515421 774.749189374 759.230267768 778.526375505 785.627050626 756.468644686 738.489271627 713.861171368 684.971451298 653.41793994 607.633935478 571.32212513 407.474723102 379.233385552 350.874201159 276.898806278 251.300788921 224.857049648 197.846453512 171.955890885 135.375587497 126.147681178 119.257131638 121.907630442 125.84609227 128.506397317 124.405268367 110.714571247 107.298395695 103.490448291 99.7807619509 96.4295025204 93.3950822871 88.6620774482 79.1838517307 75.8813264339 68.9996230208 65.3000106007 61.7956565826 59.4454718062 58.9789898912 60.0561212986 61.6781037438 62.2171092286 62.5540739807 62.2320902748 60.7448233644 59.8879121345 59.3855186157 59.1729480261 59.1704881685 59.1355555752 60.0474295834 57.7804411506 56.4452199463 54.6742915825 53.7979523441 53.78809042 54.9869665212 56.800601365 58.5697175494 60.5467866307 61.6910750319 62.5265757124 63.1761004406 65.477944077 67.5635651916 68.0907197311 68.4189932779 68.2568541799 68.1214628696 68.0642382537 68.0282976694 68.4551986103 69.4374553772 70.8584568185 70.5120524947 71.8107690767 73.0591517614 74.1725920831 78.7640393944 79.9031311676 85.3677518517 86.4399890946 93.222097349 94.0655140456 94.7039451859 92.9187948424 93.3617332082 95.9704416745 96.0361047547 96.0819965341 96.1486890357 96.3012350186 94.2457654315 94.4346753608 94.9797919251 95.8499923427 96.9759471509 107.446532106 109.844388677 114.187713411 114.448088853 115.997959206 117.158054392 117.901049406 129.835819919 129.842737604 134.756675185 133.667814695 125.577777908 123.690319946 121.385842728 119.802054104 117.013424813 104.25947919 102.471610484 108.19950183 106.781817424 105.679113555 105.151508441 105.033557271 105.215445592 103.083586638 103.311243004 103.415230592 103.280030675 102.826301767 94.1906725349 93.345363905 92.1976272729 93.5168111843 91.6824061225 89.5899385891 87.3172829811 84.9783482329 82.7109740348 80.6476088678 78.8764663434 76.6787427775 75.5676511107 74.6574943182 73.9504032945 73.5030205424 73.3932979019 73.6746597716 74.3503011041 75.3756806289 75.5791193499 77.2393861425
4357.73419874 4479.87319718 4481.70978019 4481.94063814 4477.45107044 4463.69690338 4434.88581176 4385.15351362 4311.87628244 4222.24605659 4140.63093139 4110.51471896 4147.82332286 4249.14923392 4379.40975383 4506.09466409 4624.33544827 4713.12885356 4780.48748569 4832.9713185 4908.61774539 4953.31509359 4980.90417797 4990.45193211 4976.09807552 4913.93494567 4819.44083482 4754.22720841 4782.44588816 4896.96777028 5032.41652899 5141.08243559 5797.98149297 5855.98652751 5868.66970703 5876.76847148 5796.51808622 5843.29810269 5918.21416432 5941.59545411 5952.03358039 5955.11778967 6334.50562857 6375.65983007 5690.97532852 5636.10350452 5496.11925439 5468.17847567 5454.86136783 5407.81833143 5371.08098656 5292.96331729 5011.45766985 4830.21052305 4644.23377311 4461.58138488 4282.84609604 4173.16017331 3731.28507412 3611.79449954 3270.5386553 2287.481685 2117.59605475 1948.09692509 1685.13407294 1534.23442509 1361.81481418 1233.42556712 1061.92219816 999.289826016 913.84764671 897.87617091 908.107750437 915.348365321 913.608657719 800.026114843 775.074824824 745.017958088 711.709054375 676.418849565 626.812856681 564.461575114 425.086042266 394.968547977 364.301406446 326.035125784 250.420032476 219.992911069 187.919652837 156.304375092 125.753447631 108.78747266 107.322588176 113.044131044 120.16626251 121.643990658 122.365425794 112.435378027 105.425365829 101.165258501 97.19745019 93.9674711532 91.4837367916 81.5226957252 79.4914774751 76.6784340569 70.2821871259 66.7488491686 63.4211221667 61.1030526959 60.6135440159 61.1632340589 62.4444912611 62.5809329307 62.5607632987 61.83843735 60.624114496 59.2456585824 58.0207819428 57.9260444627 58.3067842784 60.0112216364 60.1823678423 59.5216876317 57.9416004417 56.0947393513 54.598672208 54.5584733375 55.7998841895 58.6973951471 60.8796245887 63.0134147901 64.1438213239 64.781582771 65.4657566951 66.1034268082 68.2254889203 68.8178518852 69.1053833006 68.9623953226 68.2629470687 67.672985274 67.3386519304 67.8422192768 69.2426058675 71.2310485427 71.5782164025 73.2884214824 74.8365003368 78.0468028384 80.6513086537 87.0982568268 88.2977143834 89.3788138068 95.2316086963 96.1957541973 96.9199952416 97.3862486126 98.5185262015 98.041931036 97.9440684236 97.906459593 98.0722000789 98.5560373167 100.270668662 101.657244806 99.0403567029 100.313875448 101.746035116 114.897556222 117.522359845 119.900231606 120.219224413 121.804101003 122.981730945 135.267123681 135.813134816 135.80945874 140.740414407 139.547109224 137.725679732 130.204963918 127.561078271 124.504296414 121.202692376 117.890394035 114.854479642 111.123608802 109.505235434 108.532404401 108.339012376 108.629933726 109.145512812 107.288137407 107.43826172 107.330568273 106.902877171 106.128320701 97.1155345919 107.750253717 97.3766880425 95.6325579078 93.5571159028 91.1726981006 88.5561302728 85.8528848218 83.2698674104 81.0348560928 79.3246740002 77.592323583 77.0159395187 76.7560947127 76.6897959009 76.7691890714 77.0119836848 77.4582300277 78.133267492 77.8319750955 79.1023015972 80.5426035962
4444.08197609 4457.62045835 4587.45301428 4595.70744768 4600.90561651 4599.61533069 4587.5105366 4560.26530227 4515.984264 4459.79269506 4408.46618462 4387.2233464 4423.01726546 4494.15826372 4589.58101372 4689.33814999 4790.44418449 4878.37258567 4954.99310243 5108.21249691 5275.08491223 5320.29163494 5332.42428263 5332.73295385 5292.81450172 5124.70537749 5036.32475344 5234.0380821 5293.56707527 5503.59831237 5762.99884252 5988.40576668 6104.16443861 6178.96048424 6206.82855259 6211.603138 6182.98363585 6120.23906357 6074.54884982 6029.78820643 6003.80347256 6232.43637829 6339.18799462 6440.77400486 6468.91706692 6385.75977244 5597.6225606 5544.8565963 5513.08073147 5489.10137933 5473.54565238 5421.17009086 5323.12080643 5191.95727751 4860.88129325 4684.3128011 4569.85278592 4388.46133978 4075.13286788 3816.14105076 3589.01515461 3352.70567209 2939.03653305 2699.50278032 1800.77624018 1652.77659753 1516.42333232 1369.83315138 1303.46591372 1240.61004774 1134.91447587 1015.6540687 1005.59690233 992.932058761 965.574422924 845.41925153 811.343758682 774.399425784 735.830865628 684.851468426 625.3240024 583.856651929 435.287676506 403.644335043 371.452399005 337.598052541 257.7485585 224.139898917 187.466442421 150.053406313 114.719088616 99.1096532344 99.7218433762 108.917785955 115.037922753 120.355989039 121.247442939 111.130318395 106.57877318 98.3722440652 93.8441654273 90.5953412558 88.5393721928 84.8983780548 83.5939858543 81.3459257431 72.1741018043 70.2211226967 66.0431466593 64.1198509278 63.4688895317 64.1176982092 65.0659874654 65.0428196468 64.6494791763 62.1173384159 60.1908507927 57.599886969 56.4900183724 57.0316534232 58.2239569263 59.4593110116 60.4187499423 60.5447945553 60.4226304409 58.8910884909 57.7395076349 57.4290957508 58.7297178641 60.6226266798 63.8548845237 64.0742964239 64.7923623779 65.1400838914 65.689447732 66.3617165231 68.5721871582 69.3541253335 69.7110632889 69.4354190142 68.4412528795 67.5076491766 66.8466060565 67.4789440639 69.3258515813 71.8847429482 74.5981646729 76.8712636093 78.7821957386 84.5862298288 84.4857804982 88.6752427787 89.8759211584 95.6355035447 96.9488753579 98.0362180242 98.8033123122 99.1795593703 99.9443933671 99.1483228777 98.5408765619 98.1150203245 98.2224510288 99.0812397011 101.30559401 103.665421477 106.339150749 104.225537445 116.727851949 120.032041045 123.004998293 128.212797037 126.0374786 196.38515526 140.113055706 141.216054086 141.777696561 213.69762206 146.659014237 145.347825253 143.318011927 198.436362453 132.352366013 128.614733853 124.415562996 120.013861775 115.803831857 111.421048951 109.230485149 108.344975149 108.771078371 109.965519575 111.349848802 110.271001731 110.65304132 110.524317824 109.908392616 112.904832421 111.530493387 109.797508527 99.3347484275 97.4135155437 95.1001298432 92.3705626286 89.2791546769 85.9958132165 82.8162803157 80.1167030547 77.7233006102 76.8841355308 76.842869781 77.3182275488 78.0198073633 78.7692833644 79.5144966559 80.278204223 81.1029214241 80.903505716 82.1166016352 83.4441960868
4492.81188456 4755.26707758 4768.49612752 4782.74373723 4723.89894657 4740.29489385 4752.03305913 4756.05405116 4749.93716024 4734.13868539 4714.93512569 4704.63820071 4715.44146858 4764.25665092 4822.11909417 4892.60768909 5142.89883435 5234.30834534 5319.49082546 5397.879643 5503.86298809 5566.06849081 5615.16075585 5615.71064241 5602.47434746 5552.84098806 5860.6615259 5809.23375277 5861.23767203 6011.59190964 6198.93760181 6373.24161746 6469.12190024 6535.9140868 6554.81234632 6578.26103542 6484.17031575 6357.35643841 6435.64224237 6144.79785293 6025.9228485 6227.64404942 6574.25359625 6932.98780369 7124.14633065 7052.06120975 6637.86601225 5590.65152651 5603.84191357 5502.90571264 5500.41785827 5484.3419596 5430.25068889 5332.14828391 5206.11671389 4929.02245279 4760.85598507 4582.23729934 4227.34424879 4003.11443033 3769.05632832 3525.01850246 3271.13825413 2897.17542898 2642.30269761 1762.19330515 1618.14432531 1496.09115518 1400.93205927 1335.36877166 1280.21703613 1177.13142844 1159.58706129 1140.14287457 1080.84780615 950.96942379 911.272543516 869.713081669 762.497668568 701.535148552 638.538127478 594.818397472 444.749472688 412.235294651 379.547264925 345.524467762 263.975507676 230.154631964 192.66958572 153.788901061 117.784672819 99.9293283212 100.545018976 109.647749316 120.310374829 123.416494289 123.357906373 110.252689117 104.445381269 96.9559837901 89.6533275904 86.1874496963 83.5142226753 83.6254711818 83.6371487795 82.6351803019 77.4828223292 73.2260755515 69.1847093775 67.4952824151 66.6486136272 66.8389495132 67.016975159 67.714262901 65.0966374388 62.968079463 59.1447260684 56.3475784261 54.7291910699 54.7268244758 56.6918570764 60.1365793619 62.3180289843 62.7031198065 62.5554186731 61.8325608268 61.2582256355 60.7666847567 61.6902715549 64.5452094517 65.6080169727 64.9510785104 65.0008755467 64.9088092835 65.3063498515 66.1311465247 68.5666855728 69.7540462879 70.3897844742 70.2224130956 70.1126158297 68.2706428279 67.6194086571 68.308604574 70.4262964612 73.319519431 76.3362136203 78.8265595318 80.8308061711 86.3111988612 87.4428167097 89.9451347437 91.1316778484 96.8375605718 98.3733453678 99.6414012281 100.467051123 100.71065299 102.085466857 100.572471748 98.3590383632 97.3570384009 97.3310730498 98.6357669972 101.613088208 105.152644711 108.978113202 112.550582794 126.340360628 130.498760868 133.977491588 136.821301399 203.717834692 204.013688604 207.50682891 147.140392297 147.728225017 221.58917535 152.543455108 151.134762026 148.903929832 205.098316393 196.237873679 132.479032821 127.110185255 121.226830746 115.352603339 110.226066125 106.944904645 105.797179255 107.106554871 109.650901501 112.348747845 112.380533525 113.177706997 116.663037857 116.015120274 114.767477642 113.130393321 111.218360501 100.873749903 98.8666316257 96.3860130025 93.3243680977 89.680366483 85.6314502064 81.5791252453 78.1127532987 75.5128345074 74.7851207331 75.3340671523 76.6769850929 78.2887489405 79.8289245331 81.1748982286 82.3426501158 82.2179774138 83.4181755343 84.6554158449 85.9477466117
4704.82649277 4587.98916351 4855.22112365 4880.2751044 4908.77510332 4940.2645988 4973.77291776 5007.3864835 4989.09744546 5013.71137328 5022.92586581 5017.98638645 5009.96224795 5013.56089641 5191.32781142 5256.47389219 5337.3682369 5426.66079363 5518.94688064 5611.44907909 5781.74008956 5862.75501065 5937.65492297 6625.1268424 6636.00832996 6620.09277915 6592.94692496 6465.59387252 6503.57845651 6591.1078171 6702.17989565 6816.39835667 6907.09260531 7529.54875009 7537.66827271 7503.15675354 7301.04954361 6968.84315815 6475.60169903 6153.07827883 5897.31307197 6069.84662475 6538.63964538 7021.84657928 7297.35728067 7260.96425467 6837.0215396 6324.36180533 5826.65709546 5615.8587693 5628.80220794 5788.83235174 5946.19656704 6034.14889367 5399.09816637 5273.96362483 5123.44559917 4719.95688432 4751.57252765 4177.91233727 3939.37024923 3689.73872762 3429.02984127 3046.12930582 2776.31235889 1919.84165302 1755.45809189 1553.23168716 1437.49516616 1379.58260944 1333.19373979 1260.91695734 1211.02180017 1158.49586456 1128.69941968 988.837171601 939.951290195 886.338075102 838.286914808 712.333111687 667.096515574 602.503230951 453.241662716 420.412677337 388.162846225 355.539973924 320.952484263 243.18936235 208.158007129 171.66708137 137.120071633 114.134406042 112.11276789 118.804154058 126.61402863 130.820658599 129.803499771 114.42474803 106.532700229 93.9954889793 86.8013612113 81.7511303374 80.65087172 81.9707302395 83.3750413112 80.7555503705 79.6595916872 76.0321428732 74.1483116648 70.5875313558 69.5764400794 70.2004404239 69.7414892882 69.2840775196 67.6596746356 64.8124246352 59.7441907383 55.5562073508 53.3367187958 53.6471207674 56.6392277763 61.259456544 64.5591928232 65.9913913546 64.8356057691 64.8013802953 64.6958147422 64.8964663363 68.6628585739 67.0498271221 67.0922500906 66.4228804207 64.5413010988 63.8715940356 64.1694447996 65.3727567433 68.25241043 70.0921925934 71.2355038289 73.0621639517 72.0877167124 70.4072361959 70.0617145928 71.0166695475 72.8321071552 75.7115266136 78.7045752258 84.9595349637 86.5873422512 87.7946270006 88.6338598988 90.7341785983 92.8173656158 97.6160556832 99.5236626497 101.095497932 102.071049347 102.248035207 103.250886481 101.158512109 98.7176039771 96.8571361436 96.7396753209 98.676074469 102.361562552 107.062656389 112.025480602 126.243184656 131.17405847 135.811965236 139.559846131 142.53023128 210.714184663 211.253641837 214.867149803 153.017690126 229.338916791 229.013972966 227.233046366 156.971508883 219.056370394 211.962564319 202.371304885 136.610442063 130.018909093 122.527974976 114.789641471 107.92412561 103.504240844 102.701239391 104.793566036 108.867531009 113.024315608 114.164063073 118.392657229 118.509787572 117.50004984 115.82173263 113.858984754 111.818207187 101.892881618 99.9741821871 97.5027074608 94.2394872287 90.0872000905 85.2068245789 80.1122050598 75.3732235201 72.6550754541 71.9804001886 73.1703741548 75.4686303133 78.0530550617 80.4049504178 82.3463185908 83.9079651041 84.1431781507 85.4775173694 86.7731456242 88.0749452136
4759.8670955 4863.4788009 4898.06585659 4938.65247967 5006.54071607 5056.93592629 5115.66260326 5181.16552898 5247.79480837 5301.14721068 5329.92867441 5325.90891469 5302.22344621 5283.93619189 5376.40065387 5445.75394011 5522.45629711 5615.11487575 5717.05019706 5905.33648097 6010.43148914 6120.37692428 6236.12357172 7018.74974387 7101.70928237 7168.98259898 7215.6250019 7243.61443467 7268.30456128 7172.98278491 7219.65793296 7283.02223461 7720.79053396 7992.29674992 8031.28076346 7913.14954725 7667.19178818 7274.66367197 6986.54682538 6388.28882331 6112.65262427 6290.11741061 6781.05050476 7295.03128026 7604.08427968 7605.72382871 7216.52476319 6757.12824931 6288.93847033 6080.88938899 6148.46926756 6011.37180838 6142.78417466 6211.99737257 5519.13040105 6008.63890777 6114.80194127 5107.26880746 4911.57542563 4692.5166599 4168.87196283 3920.42343914 3540.77769205 3191.37075306 2202.66866997 2012.61401682 1818.54557129 1614.34015772 1452.406832 1336.54717497 1282.48102828 1253.14568322 1264.07569523 1194.4419226 1163.08270032 1101.73612305 1049.6228334 899.109450732 846.86411328 717.384540735 670.950754097 607.474760731 460.401934934 427.446012355 396.103196459 365.944088274 335.591698279 290.394585027 255.716871982 217.891789997 166.824215069 137.907329476 133.671702678 133.51089561 136.249703367 136.472990323 132.684300751 124.810996419 106.512937415 93.0880751892 83.6314078369 79.1526526375 78.7287853799 80.9364611511 83.3834425942 81.9212984689 81.5744920393 80.606280789 79.4197723761 74.9980362449 73.5870391737 72.7912664544 72.4006821935 71.1536099696 69.2936761284 66.3803680383 62.5740678195 57.9228761755 55.0871328517 55.6270168504 59.206750754 63.7407889004 66.5481582329 68.2210848496 69.2952136348 67.6327622243 67.8096662397 70.3564311092 71.9728405059 71.6199377738 70.3620704492 67.9456269736 64.1292394172 62.2924530798 62.596043557 65.0192476083 67.9506160052 72.4879309864 74.3816364431 75.0560045806 74.8165525147 74.3006558001 73.5850074014 74.6549275452 79.0721825116 82.1390285398 85.0533508223 87.0766686153 88.0927666512 90.4450283681 91.0183609124 92.1161571934 95.4492279303 97.9760867867 100.465915508 102.511518382 103.790166745 104.074972051 105.101036609 102.831514922 100.162949618 98.209835225 97.9795736933 100.400717775 104.787681869 115.978728732 123.960030993 131.336921308 136.783233918 141.648172097 145.463150995 210.836539949 217.154537354 217.962254578 221.69534703 234.970868516 236.08761577 235.797691132 234.076707088 162.885255941 226.159185759 219.180091966 209.490955108 196.464625311 134.012234565 125.18958362 137.59033112 117.357813904 103.892625211 101.017520486 104.371143262 110.305859994 116.317835016 118.730171345 120.347257584 119.974665892 118.222391144 115.817410439 113.383459206 111.262125217 102.191961755 100.645077415 98.4990232397 95.3278751551 90.904235899 85.3571592793 79.3088534428 73.7113405122 70.3858809837 69.7118558036 71.4676667501 74.6077910181 78.0134466053 81.008558828 83.3864931787 84.1290005831 85.739226399 87.1673539149 88.5138427607 89.843138497
4869.08183112 4903.2508368 4944.23846549 4993.73299108 5053.63065627 5125.73777304 5210.96068609 5307.36927637 5415.14699835 5493.60111868 5535.46485205 5527.78681894 5489.17247878 5455.34446671 5586.19438304 5650.92264577 5692.25860918 5795.05044252 5909.51328859 6105.9409757 6230.6693807 6368.98661754 7237.6712055 7382.35421934 7529.96942204 7666.95717706 7768.40611312 7814.38882414 7817.12314309 7869.38101547 7861.76962707 8254.69660751 8833.85217618 8899.18512466 8883.76756953 8388.69812223 8150.33903682 7773.53378673 7612.52457489 7075.70726844 6828.09745927 6961.03445074 7365.01359497 7804.76382054 8082.76043613 8133.37357713 7892.20204115 7502.84593011 6991.24093309 6782.25491516 6774.69106475 6339.17429578 6392.03309165 6399.35151854 6342.86718141 6357.0737688 6247.62121322 6099.08305036 5052.75919527 4831.51867206 4299.70264244 4050.21373327 3676.16578891 3405.76826971 3110.91981263 2118.2317729 1890.55171841 1642.70625204 1434.67928175 1283.75203645 1220.15733107 1227.7935346 1260.8366825 1269.66132415 1170.40724975 1117.87506817 1057.88878031 900.776064332 845.704690854 715.89159405 669.897896567 519.585924743 484.984319611 432.453228835 401.68872495 374.164904374 343.996784252 318.149546828 282.513878015 253.02768359 209.134214725 164.903145325 156.463698287 149.624522611 146.942445791 143.06995237 136.689561368 121.409201542 108.408337691 97.1588855976 85.6928484399 80.5044848269 79.8291047702 82.6834189232 83.9963008648 83.3118160669 84.5930495579 82.9746734158 82.2016543826 81.2720305465 76.1412852748 75.2029233038 74.7333823364 73.5213640849 73.5591050465 70.8417572666 67.3260786331 62.7314667137 60.9354209821 61.2188464623 63.9286146191 67.4420248061 71.8770229449 73.6658688226 75.1205741426 75.8756130953 73.4751448307 75.2985577394 74.992505313 74.0099642771 71.9282572104 68.4908018607 64.238679761 61.4908080898 61.9602083652 65.5493128531 69.872027955 73.6009133939 76.1166003055 77.4460097771 77.9288461672 78.0971134775 79.4940962525 80.5789219394 85.3597242949 87.5817507111 90.899363998 91.4036531994 90.1427362447 89.6575027191 89.7877010391 91.0306411568 95.8313053738 99.5606155447 101.370720665 104.046384987 105.789068335 106.405064267 107.92078219 106.011714814 103.738242998 102.185693233 110.967324782 104.897018424 126.569242678 122.168925255 130.313695935 137.793906524 178.976248392 148.097210554 151.712940929 216.490438251 222.756444779 233.379985588 238.086086804 240.83831873 241.974115683 241.66273627 239.994444819 237.003644622 232.808006674 226.550350192 217.65775742 205.280933142 189.360642888 168.625623374 145.951620498 125.080704405 111.351960834 108.358581965 116.547568296 113.596519825 120.015522601 121.654564058 122.54108847 121.040765776 117.969787239 114.373468092 111.214166327 102.356035929 101.438566456 100.675014256 99.3256814849 96.7145360507 92.4722234526 86.7115922217 79.7560439931 73.9934760703 70.2499874328 69.5028355683 71.5112512472 75.0535874475 78.8270665277 82.0633507826 84.5532826634 85.4518162045 87.0804851463 88.5177424533 116.699391698 119.798077316
4768.57106594 4927.36269265 4972.20879788 5027.64577814 5096.40029432 5180.98264477 5282.51950063 5398.22149917 5516.89387405 5614.88527186 5662.5911679 5674.56981649 5654.25742351 5654.69854615 5695.07324867 5775.08239176 5884.62286071 6057.47854443 6563.5191282 6718.0109441 6849.83978229 6991.30180132 7547.62027513 8003.7068823 8138.84951863 8260.32250096 8381.4806571 8422.60051026 8449.52376526 8503.18465983 8622.45353486 9269.57176577 9281.86372343 9372.54932671 9386.1208676 9363.96553112 9293.24833562 8943.41818482 8534.43962124 8149.83651186 7876.30092839 7947.86119671 8221.2726607 8536.26042249 8770.49321072 8771.92394121 8582.43861152 8276.07808096 8117.95922868 7770.03564296 7660.5818497 7623.84852146 6623.52602058 6524.62243523 6423.78893504 6429.07112631 6327.77368024 6192.1765141 5172.31571562 4946.90075989 4409.1622125 4049.23286891 3800.37344774 3540.38919228 3252.46483366 2919.91942532 2517.13857629 1713.57784679 1467.87344266 1288.74206049 1214.16399295 1229.71444299 1270.17647489 1291.05546589 1191.1499549 1132.27753036 1064.17372693 888.659425205 832.466541791 707.153369578 664.084128098 523.358512867 487.602397391 446.807833806 413.878968134 383.726180025 353.130374757 334.852461262 306.930082112 263.805435221 241.015796298 199.96930265 177.40351953 168.077318674 156.949616871 149.741598519 133.85807779 124.709849355 115.216896855 102.389833041 92.4944041079 86.3450621836 85.4908021204 84.420882177 86.4900819619 87.9848572757 88.5755037776 88.5871760267 84.6933248893 84.1641446788 81.971559774 80.8702663336 80.2735911272 78.0726907694 76.5428919723 74.535256827 72.1779815935 69.7407609329 68.1081302263 68.3109795254 69.894255996 73.444871323 75.7519851934 76.9198300741 78.2338714274 81.7286130746 82.0862399809 79.553156728 80.5975863779 79.0424322204 76.1817370798 72.1966671358 67.3876667493 64.076894996 64.3557229469 68.6150864426 73.4532099578 77.8797423452 80.8942934735 82.7060993453 83.6588062859 86.4663556709 83.7546273741 84.7917175466 89.7366371217 91.0407221418 93.2807090013 92.3129932857 91.0764416348 88.3696286716 88.1934948109 89.8118034893 94.9106992207 99.6814450059 104.13099367 107.678637056 110.027247155 112.268011172 111.712498547 110.59883962 109.216254912 125.209450727 126.170359285 136.141414227 146.288864976 158.210248409 169.756354879 178.801257372 186.365225368 192.274763042 197.060247613 220.805812757 227.116696192 269.726263148 242.865133813 245.720650004 246.758385897 246.219489274 244.422279682 241.666483637 238.232635348 233.345201529 226.280982267 215.958683135 201.979343582 183.270104592 162.499623664 161.256912304 130.793492893 127.428234087 149.782631349 168.317767093 155.49547104 163.590358208 125.010090606 121.631193744 118.400967026 112.833205937 108.442877698 106.240776117 106.178892358 99.7843732534 99.8340936715 98.371063078 94.9004760445 89.5720570621 82.7696012216 77.0455283982 73.2392916256 72.3270507808 74.0909749785 77.3475497505 80.8111752196 83.7201202741 91.4089284281 107.759771789 111.201806624 114.339218623 117.426608713 120.587621106
4774.67870054 4822.35246056 4980.16723265 5037.83054791 5111.19253976 5203.21375137 5314.6336458 5440.96177367 5567.91933059 5668.62176908 5713.35875145 5718.67395724 5694.80142339 5713.96596652 5778.5221835 5883.33414047 6386.65083062 6553.40162454 6726.53577937 6865.77705041 7022.57433657 7170.9605986 8055.57681801 8205.16992119 8344.18209772 8452.49976175 8528.56063877 8548.80222755 8595.79316124 8890.86948967 9114.46590935 9602.70941756 9807.81558549 9928.52230536 10336.3237956 9857.76136613 10273.6584957 10110.7889108 9874.85970466 9637.03539172 9418.09277293 9453.14137007 9243.18897524 9467.23988487 9578.23896689 9549.99803689 9376.86044597 9299.99596687 8978.42567598 8534.20891012 8254.88690951 7980.00539012 7686.63693571 6782.67004198 6642.1043049 6391.60599506 6332.48836915 6235.68619642 5528.97500653 5033.6385591 4695.94007879 4369.30395861 3902.47851389 3667.54991182 3407.31212536 3296.03168226 2700.98502586 2280.05438311 1589.03680448 1395.39578604 1287.94734126 1289.93618967 1311.83022466 1316.0964695 1193.91658255 1119.07789437 1035.62773984 958.625687463 805.280884546 761.044949866 661.152665429 534.330958221 496.725200783 456.912208484 409.437877358 381.905942784 355.49334434 344.091924359 314.145438468 287.643405653 240.496941467 220.428398565 204.874350742 180.700967407 166.418537848 157.032759182 138.041846969 129.76336596 121.100841332 111.158690144 100.228023821 96.1451839769 92.8300163807 88.7557641658 89.858525213 90.6983478256 91.0058669286 91.0120991419 90.5906539538 91.4154200097 90.7941258857 86.4114927733 82.8923905109 80.7224006846 79.5598040726 78.1852630778 76.7646907517 75.7236643017 74.4656499946 74.5847575614 75.3330791065 78.0532405538 79.5382058454 82.8025030113 83.8432627604 84.7375239163 85.087766716 84.9565831234 83.6429831615 82.2369536047 79.819802931 76.786098875 73.2310313101 70.7372688196 71.4034138211 75.3636659791 79.6550953556 83.6204295171 84.1955670538 86.1388973481 89.9971937097 91.0456412883 91.9134509188 92.8504043815 93.8398079939 98.6491272678 97.3911964008 94.6533110992 91.1444878481 88.0935288064 87.6634914964 90.5829904001 95.3196646533 100.866023185 105.969779806 110.08202142 112.98727481 115.954313834 120.278207091 148.253550476 145.665647446 144.487721682 146.202425657 155.061320633 162.819897016 172.155339287 180.895431685 232.823497505 240.220272544 247.058608186 254.668730691 260.760124904 264.489099127 272.069569082 246.549494675 249.536922321 250.218678306 248.988493745 246.564708288 249.721817617 246.788232558 243.453831439 238.925214899 231.694742912 216.812777597 201.957751173 217.695763211 198.600642956 183.512692394 178.89911481 184.782813943 196.725894543 169.547194363 172.849860662 169.165776378 123.5460917 115.477376339 107.231659939 101.100178669 98.7634804651 100.217842844 103.697796688 106.767934541 100.187383059 98.0374213763 108.203745293 87.6900449125 82.5713083367 79.016204905 77.8539086464 78.9150554475 92.9175305738 98.3973141542 103.085805633 105.762119789 108.735264903 111.414233076 114.175675759 117.209070548 120.542218224
4768.4224605 4813.31503133 4866.33903867 5022.7240602 5096.02535638 5190.47495047 5305.95461045 5435.51197885 5561.88827001 5657.94315974 5699.69220373 5729.43098584 5777.67414479 5877.70839774 6135.51473696 6329.16511601 6519.94758874 6695.84871448 6852.39380913 7008.57440954 7138.48201108 7978.28212555 8175.00790638 8333.82799736 8463.35490155 8534.8211688 8549.4689355 8555.03607781 8710.87861204 9010.09111312 9777.82863543 9911.09114179 10136.8706963 10237.6265795 10578.3027705 10617.4458575 10670.91905 10730.5484322 10748.4330394 10730.8858416 10735.4552124 10692.5797449 10812.6712421 10480.2107045 10520.2808263 10451.6004148 10489.4374079 10179.8939357 9792.25764779 9252.00991005 8738.63117461 8084.62990694 7493.20427073 7027.26834039 6333.05149468 6355.55362991 6432.51310637 6451.28157382 5586.47816235 5342.70665596 4976.09682362 4674.31708041 4168.29115339 3963.76331863 3751.78004769 3487.06231703 3144.96154993 2724.95858767 1939.11991367 1593.18554452 1435.40558421 1394.16016478 1381.18591994 1346.25139863 1190.32432445 1092.16459442 986.062602366 893.879422354 760.777305213 729.017215732 706.415668284 600.256650884 498.742996657 453.882745267 402.546881467 371.27942249 354.349637153 349.565528908 328.083158892 310.370388566 289.050371468 268.463551798 213.0821263 198.616234085 176.143666904 165.860907865 142.736946593 134.610080865 126.671361543 117.60948658 106.885753549 103.378964834 101.659662713 95.8782740491 93.1961181728 93.3943665716 94.4443898202 95.8636792093 95.4712769549 93.8871887258 93.3347469159 88.7182233174 92.1809791966 87.1631862343 82.2859294045 81.2554498601 80.2608024954 79.636862539 78.7023992489 78.7596637487 79.1703022866 81.5286154998 82.6951523456 85.635138311 86.5190813175 87.3647440053 87.7210234215 87.64560965 86.5263348377 85.4343671454 83.7046917894 81.9474122945 80.0053534279 78.5919094167 79.196763975 82.2823803513 85.1472206622 88.1072727868 90.649158172 95.7356975441 97.4509689335 95.5906903975 96.5443947161 101.905410767 103.364412483 102.74257814 100.875027375 97.6023186313 94.4071104238 90.885535729 90.247727742 93.2744003512 98.5088953669 104.39137159 112.951684783 117.856558255 121.395833823 124.991150287 161.038976025 161.24990346 160.987435077 161.535796588 163.878593441 172.849048398 178.526062514 185.002052419 190.512943635 236.171942967 238.274238217 241.619474621 248.022740159 296.041823646 311.907196201 281.54414928 339.981406 291.817916603 302.684342196 254.665343862 250.300719503 246.379770569 244.14861733 243.530195425 243.193961334 283.647622003 275.615179491 265.490382565 251.273309391 237.648815943 226.131806496 221.206281307 222.815682895 227.748253743 185.360121129 183.429367389 174.381448012 159.289646916 139.089603446 100.985508803 92.5970292393 89.9898086464 93.2881743891 99.7908924286 105.942560642 109.298652356 121.236456152 117.306561643 111.529745655 105.110388423 100.192147018 98.0784366797 98.8681562655 101.359105619 104.092027596 105.18614866 106.835259411 108.28774483 110.086747401 112.556246992 115.741195221 124.878878666
4751.51500428 4790.79003138 4836.56175017 4894.14086953 4970.2675342 5142.90778982 5258.39545897 5387.32847306 5510.33375908 5603.0043411 5649.96593617 5771.50962016 5843.51561311 6058.75312239 6251.49637965 6458.10433188 6656.78121541 6832.74975102 6979.80151137 7102.7228288 7839.09478839 8009.31034647 8565.61334628 8407.05300721 8541.59969124 8751.4886276 8632.58823312 8623.40777314 8833.3985995 9217.9783914 10089.3606926 10495.9285819 10411.6284589 10398.2792591 10710.7150233 10530.6147809 10730.8089161 11071.5149616 11407.5305887 11663.9026361 11852.7293066 12130.0977045 12276.0156488 12139.5112711 11900.9672507 11807.8717434 11471.3887843 11098.6029726 10690.2407663 9839.28407301 9024.78943525 7999.88731228 7034.57845741 6313.52068426 5876.49583238 5951.2684841 6225.68767184 6388.87537356 6356.49714582 5375.29064061 4929.48164929 4580.89475834 4317.45006977 4151.26729814 4028.67842146 3867.53585119 3379.00993106 3040.78288017 2212.51058138 1982.83347329 1777.24462854 1539.66175658 1465.46097872 1378.60753821 1186.73063731 1057.69767855 917.754970277 804.930929448 690.900768104 674.734978072 674.874431146 598.879237801 559.957869464 455.175001655 398.445973483 361.683905891 344.862994705 342.832019011 334.444189127 317.80845101 296.471831274 275.465204824 218.680132674 203.434850342 179.688347252 169.060733779 149.778268964 138.555998847 130.9456947 121.986376098 110.909288678 107.183711408 104.890356448 98.7714358479 98.9149201224 96.622848553 98.0409244975 97.9639760863 97.545942982 101.516623633 95.5598148754 95.486976397 94.6138775313 89.370455348 90.9273876763 89.1869776939 86.462848551 81.4558801704 81.5041861015 81.5799713317 82.6848897168 84.2277866495 86.5858828991 87.8594595974 88.6642403622 89.4748775035 89.8749470448 89.9030755136 94.3143214912 88.067744098 86.7427487574 85.8421216296 85.1316769919 84.7582417952 86.8351554485 88.4623832167 90.5439224059 92.8116089717 94.9050061487 100.243076501 101.955729721 103.24706972 106.983001092 107.903704849 108.28784523 107.569004778 105.735112435 102.733753965 100.568912558 98.8955140737 98.5576825017 101.617745221 106.831256013 112.193889028 117.792845146 122.523908862 126.204534174 168.574494579 172.042400823 174.115461238 175.605652356 177.35162489 179.940845388 190.708102153 194.690773945 195.450311126 237.448027407 233.494242173 229.539061015 229.289553082 262.322135552 279.519558346 301.28459269 325.695086979 338.22707831 341.37001516 300.088677414 289.46633309 280.641255555 269.864342938 265.76803976 269.075389903 278.024186078 287.659889102 337.645279116 288.592054934 283.953947678 274.989328713 266.882365807 261.792179432 259.75329358 258.588257556 254.769014199 241.91136134 181.816322196 161.862434073 136.331968541 109.777900434 89.9633012925 83.2552886423 88.2321653105 97.4858259988 106.345966305 123.374814318 126.216953846 125.503118443 121.839625421 117.075897396 112.887911798 114.942843784 113.983624233 113.891335919 113.63989807 112.795191391 111.775960699 111.478252561 106.466139423 108.99456978 128.183551335 134.747762727
4726.8502792 4758.37659485 4793.39290384 4838.1807813 4901.66009844 4991.95719857 5177.69858482 5306.6859657 5430.22628211 5527.88400733 5591.54170006 5828.83274151 5924.12273011 6190.75421134 6388.00047476 6596.28273635 6792.50134453 6958.57752744 7085.37429401 7178.3850175 7754.05571718 7928.03673742 8525.69977552 8798.30743616 8945.48552312 8961.32722394 8904.78848384 8948.31328588 9194.75155792 10001.1631783 10538.4600609 10869.2117723 10889.3824043 10560.7982429 10277.0054183 10065.584428 10442.745631 11156.6639252 11897.9738887 12489.0881699 13029.4597894 13316.9558705 13508.4114208 13638.8426991 13284.390887 13135.0687163 12846.7918706 12394.5073784 11558.993998 10733.2385801 9455.37924999 8053.75982271 6614.10741349 5554.08949046 5270.33616367 5508.74794837 6035.70141178 6390.01187962 6358.6229012 5879.22405951 4827.95774079 4395.46176372 4103.28595884 3988.52087321 3977.74526004 3945.11369711 3809.83274956 3318.68680221 2926.1027981 2166.66486465 1999.2735272 1874.46528676 1558.67767944 1420.77920965 1185.59232976 1025.03873569 856.119393677 707.994730898 612.02051452 613.264522601 642.144733032 600.608208503 569.379000276 505.88534656 405.390829743 364.550134536 345.532494439 343.270532802 334.983588814 318.034118571 296.314319755 275.259147714 221.263226896 204.318355078 180.609560648 170.332761195 152.027547682 144.469838374 136.947606181 129.302249306 112.188487244 107.28249556 104.034829088 99.1009298346 99.529152653 99.2277266119 99.5861663014 99.6022768422 99.2055816976 103.462133168 97.4368702504 97.4953260556 96.689903779 95.454493723 92.9333759619 90.8793038487 87.4323105284 83.7615873304 80.9351987676 80.2420932981 82.3880897183 85.1890980523 88.7414019592 89.5022551922 90.1133879716 90.8301212426 91.3623035237 91.6242452364 96.0621279972 94.1858030231 89.4349339356 87.1725505521 87.1355426235 91.3891562144 90.9979475395 93.205225653 95.3219791398 97.3672028724 102.793725143 104.832620974 106.498431758 114.883041802 114.68157496 119.102214415 114.312765285 117.691774974 115.980503953 113.242523884 112.265556862 110.001093132 108.928962192 111.153356728 118.325178767 123.670748983 129.004689481 128.206039093 136.696838097 178.668705344 183.278646405 186.681379026 189.361112501 191.791276836 194.240062947 204.387693329 205.886265417 283.173252931 237.445414969 225.617216562 214.86785922 210.952377835 235.181035061 258.906035963 289.276292784 323.509733236 341.714506634 341.772164938 329.666646266 306.074687534 262.002494875 245.269667892 240.029325254 248.152152703 266.144073894 286.867892092 348.164942393 361.577397337 365.61666327 308.902819508 303.977101751 299.03904503 294.343551513 288.559340866 279.292481944 260.953815036 193.166313367 170.374706285 142.111397252 112.859639709 90.9113256528 84.6325768422 92.4439712971 108.539408783 124.828872326 136.686950432 141.752245215 134.325661852 132.076286738 134.075804726 129.928325867 126.204521992 122.872868384 119.355153562 115.128239277 110.387509982 106.240237004 104.12958927 107.403163059 114.955653854 121.939745267 130.287941971
4485.57468714 4671.24534358 4700.85240301 4733.60639516 4819.08071978 4895.84314933 5005.99778844 5138.76276509 5338.12718919 5707.79956114 5801.89343191 5900.03376751 6023.51725424 6182.45599318 6529.26253882 6731.67637645 6916.75817647 7063.44447463 7159.45686041 7212.24956556 7443.38838735 7991.05268247 8385.07396231 8797.62954563 9110.00988709 9271.98415891 9345.76208002 9480.90149265 9760.54312673 10672.8608166 11123.7699131 11330.0545395 11142.2835555 10515.4573882 9839.72286588 9554.62656476 10124.3927169 11256.3532975 12430.1953367 13476.8648039 14128.8306902 14545.500049 14793.9466697 15164.4207803 14516.7596268 14339.8036232 14014.7957487 13589.689154 12629.9909118 11687.4302188 10230.2333317 8440.46111533 6490.38742719 5167.01777774 4847.65382417 5473.77919025 6054.93639741 6491.21762379 6451.94254567 5883.31070174 4743.63684271 4201.82837565 3855.18732177 3777.78336261 3876.33085577 3970.92722077 3948.15501298 3438.32021224 2594.70376676 2371.84736623 2185.82395316 2026.12573628 1643.83406835 1383.33846176 1197.16298117 1013.07402125 817.340088108 647.07143974 558.406213589 569.273645434 619.082851389 603.661644577 580.352813791 528.245776257 423.736875273 383.138025484 353.631020207 347.615413926 340.117384472 311.249386487 288.666961281 268.048943498 216.688405464 204.278906126 179.255933757 160.488465439 153.056144111 145.882522568 138.377184834 129.886500711 115.598214545 107.288943705 98.9577496759 96.8905945076 100.535734922 103.488604131 100.577566976 100.771805744 102.277532013 104.872422144 104.982336852 99.0846045568 98.3415916267 97.1877788541 97.5847584822 94.8805604877 92.7241202836 85.8805753795 79.8385927073 79.3500808798 84.3064964828 89.9822577669 93.5108513644 91.2195818 90.4923541472 90.9324013723 91.8559083432 97.7490296982 97.4403076693 94.8420882518 91.4144279879 87.9137486644 87.279387006 91.3024822131 97.281055296 101.769511107 106.148129449 107.851648837 114.829680541 116.879259251 118.430511288 119.53906242 123.403627705 124.170388553 128.818402192 123.811263004 123.057287563 121.574680256 122.362020529 121.188893657 121.102497972 124.853263594 127.957204371 131.953479912 136.245510604 145.225318808 143.189938774 189.248950023 194.653658222 198.973671331 202.418882163 205.167742121 207.226718936 216.457174826 259.44890192 288.798956216 264.423903069 234.521143216 199.089567308 196.721321207 208.488757447 240.114984342 280.335077073 322.116265651 344.693314101 344.432953845 330.18117369 295.910585066 256.124586502 216.903753401 209.365400218 222.837990601 251.321640932 349.795035613 394.653798187 425.000195291 398.752044316 403.910961937 337.848558235 333.322084212 326.915488822 318.009240038 305.16777022 283.568353615 209.547537808 186.521816439 158.99608343 130.996917554 116.032429932 108.274818335 119.724839794 142.61532207 166.56654336 145.538276184 151.440938448 187.648217581 185.410372649 145.106408421 140.504842307 135.252801489 129.226589365 122.000061611 113.437410828 104.399150451 96.9125820086 97.6771853864 98.4620917911 104.885855736 114.392910044 125.247989687
4482.09373534 4539.19493488 4583.36025963 4682.4620446 4710.30012064 4766.05547025 4873.77297134 4998.05223501 5468.43792475 5620.37925128 5827.31089044 5963.86619512 6116.18752132 6292.61362995 6660.44900094 6853.17130744 7021.02163006 7140.78724138 7198.19066344 7205.66037948 7284.7347212 7690.12939162 8218.38341629 8800.19803241 9311.25275052 9636.52526066 9866.26060524 10114.6876374 11048.9794735 11502.6062582 11958.9801841 12057.5728935 11715.2180123 11072.0721834 10068.7395155 9721.88200032 10435.704609 11864.0843701 13338.9972464 14612.5083803 15405.6760247 15897.0975644 16412.4599218 16513.9727248 16483.4559384 16225.9375414 15413.3033668 15032.1020119 14209.327808 12857.2546601 11303.8464669 9381.73607545 7371.20742167 5828.81520786 5436.10660909 5839.16362725 6562.32810275 6814.59405514 6686.74540121 6015.79022509 4772.2514697 4142.40966831 3741.33024055 3672.82504351 3834.87793684 4011.10209991 3997.67037708 3622.50612441 2752.22550579 2534.98679241 2339.29895357 2157.93151175 1720.43922711 1439.15447989 1266.69783592 1049.67369975 848.055795143 670.08686917 574.567012091 592.736755059 635.023790504 623.084815182 604.934963014 558.96423911 449.212827209 409.471943278 367.82918234 352.00322896 334.809998027 312.578415674 250.056417452 232.419536001 208.073024011 198.709505028 178.233194234 159.718705585 152.89542963 146.404861326 139.463230789 130.694743548 119.058341039 103.560352104 95.0067890801 94.4618712385 98.4887109752 103.252086176 106.197288512 107.278970136 102.992999834 105.577678826 110.003646372 106.174686571 105.860839305 106.093517601 104.162345573 101.601326726 99.5650807412 92.8032226206 84.3487457431 83.9558344441 90.2955341444 100.760076523 102.330782214 92.8223802132 90.7998926616 90.3575562535 95.3259312117 98.1035133697 99.1011049478 97.6937860059 93.0642899207 85.1112939121 85.824765889 93.9864340538 103.931807838 110.253301416 115.223149176 116.932319445 119.453258551 121.390373897 122.867880178 123.959667371 127.971844666 134.383763205 134.065888504 133.259428884 129.926598807 131.733594482 131.540785573 131.173315881 131.263980782 134.705712621 136.990074256 144.925356572 148.649396603 152.379868891 197.231855369 208.04715625 206.087278693 211.077433749 215.050017 217.957760034 219.602468107 279.046286614 271.359817626 297.796350471 266.766808614 229.216451757 195.79041505 181.361676793 195.219011303 233.288358181 285.905713625 329.008737871 354.646359408 356.923665094 333.669365325 290.424529414 239.41790194 198.669440096 186.660712818 210.613858912 281.303533266 349.092247048 407.932406148 449.253888458 428.667045728 438.985590659 441.43217206 365.652978451 358.180969976 347.329496588 393.729079984 309.516638689 230.7337939 232.464721145 204.913613665 177.473081643 156.723384698 149.263601028 156.349283426 172.482166524 190.099544094 202.88487929 200.962196009 202.649827717 199.932993855 155.469715332 149.884014307 142.803305252 133.963498893 122.970239634 109.946055349 100.990691314 88.5475916363 82.480023143 85.0962117023 94.2444814963 106.9847061 120.773057062
4433.94418862 4514.68511835 4575.8326194 4640.67612654 4651.81451407 4682.17597835 4749.05901883 5133.60479876 5323.89140423 5505.45553046 5678.10545248 5923.66022214 6120.18318011 6387.11315574 6591.1731552 6957.853986 7107.055646 7454.3381954 7353.65076114 7218.35040012 7197.1068488 7533.21487764 8179.80496651 8883.76211972 9537.36934418 10022.2486198 10420.6259825 11582.3017563 11917.0415442 12471.0306702 12827.9547463 12944.9977717 12683.3347834 12262.5904137 11469.7716949 11257.5511591 12104.0082544 13429.6646152 15035.2748902 16202.6214435 16973.2267706 17648.8007356 17874.6563584 17946.5006505 17835.4076801 17709.7795008 17327.4007974 16470.9985196 15729.2298163 14667.9958574 13004.7341936 11175.7130855 9244.77559474 7779.853415 7140.59833566 7036.26999037 7423.95876841 7573.54804414 7225.91276403 6351.54049566 5471.77831168 4348.06948057 3926.28135494 3830.9435719 3969.67386598 4088.82949307 4131.81239007 3753.23396511 2872.52969987 2666.19545798 2468.67182092 2276.97342031 1704.56984991 1546.75172211 1346.95595119 1158.32693435 969.282765328 805.094989796 711.46468858 712.432727623 720.818523509 660.834324988 638.880480892 594.26457679 475.243477005 433.737807084 380.100048915 352.727392555 323.764669699 292.096108552 228.860374058 206.108633294 196.053007739 186.48672897 175.072697175 161.515395427 151.282020112 145.722168137 140.381667097 132.955938508 121.246430036 105.866612032 95.2418379638 94.5583666899 100.848144566 107.749618165 111.314400162 111.956308507 113.662257637 114.533186737 111.793026978 112.078622024 110.077243773 104.660996476 103.212895664 102.720732481 104.186146021 101.762021934 95.2470693384 95.2709850394 99.1786518 107.211370852 104.764140382 98.5570859317 88.2881972969 86.3374945768 92.7281573399 107.16992806 111.632865476 106.024921475 98.7112324421 91.7358702249 92.5715504394 102.642491891 112.9821509 115.56282153 120.034670199 121.542602574 123.819462035 125.613262926 127.006209862 134.202162388 137.941529996 137.903364734 138.5987123 138.315218679 139.017840172 138.345867486 138.423059211 138.857261974 142.851309745 147.045813908 149.488148186 152.591544316 156.0442613 159.539169344 210.892580366 218.553336515 223.251038395 228.928049474 227.500965021 230.609743946 288.766095019 294.536853634 340.696090051 317.95262766 281.8017001 242.782804238 208.459040835 193.714900359 208.708748962 251.178425813 303.29662472 348.722829167 419.152795047 420.691107081 390.01187439 302.27718835 245.973179729 200.434773105 186.852087317 222.153670747 292.486923721 370.98999163 433.495432316 479.922405155 511.974064719 473.818156248 477.731096239 475.042571233 465.443216963 450.639979683 467.102957538 404.308670339 342.505141958 262.498982409 240.757558766 219.986611711 204.158589803 197.006744865 199.241706184 207.75519831 216.890516826 224.80126386 228.891485063 254.658183878 214.375757089 165.563449346 158.758300617 149.889224392 138.538423489 124.268089961 113.273217471 93.3345614562 77.2678146997 70.2306050837 74.1203606634 86.1312881097 102.017638589 118.475856179
4417.88806205 4515.08595161 4591.24297126 4631.05486872 4639.66248697 4651.1202604 4695.30076447 5059.22756906 5258.28397836 5456.34578207 5651.85512916 5850.40324551 6159.59888205 6371.81351214 6590.08629912 6977.45320358 7559.56011229 7547.49735413 7438.67620242 7303.0509485 7370.5219816 7722.93793936 8438.38471032 9216.77527392 9950.91965382 10553.5999658 11121.0919413 12375.3346303 12992.5630717 13509.8184735 13859.2786505 14127.1345916 14144.6237085 14330.4695936 14057.3128208 14240.8194311 15210.3590101 16488.8272264 17821.8907877 18751.8181748 19176.9581869 19466.2192986 19625.9320459 19612.636198 19514.1565283 19132.8390149 18811.9525797 18078.9765467 17524.8872972 16702.9120663 15292.194054 13694.2041058 11996.1244104 10527.2979875 9505.16969808 8708.16934564 8603.49495117 8289.57733159 7798.03922628 7068.63255081 6000.27531385 5213.77998642 4394.41692871 4245.76477408 4239.02200204 4303.00325083 4300.96854134 3491.67767855 3319.6132189 2778.59326228 2582.99770862 2411.80190496 1790.7631406 1638.17266682 1470.97247452 1313.2593753 1131.56278866 999.307926335 913.379175638 885.630287808 831.049040385 743.328875771 682.688066556 632.285445904 549.162985276 436.920309343 397.297103451 355.549388269 308.856622948 265.283095043 227.641211775 192.414303765 177.932186775 179.897032303 176.963646416 158.306187551 147.549422269 142.687867476 140.154820541 140.295859707 127.524897727 114.718162527 105.576851939 103.944568762 109.038533686 111.07787708 111.551397548 109.157780847 108.924923516 110.438685712 113.646135679 111.24593522 107.82234043 102.558510813 98.721688012 104.363553917 112.678203112 110.299951697 112.639212049 107.298427381 114.035943657 115.019044561 109.140910762 103.057891335 86.3626304682 82.3036444042 93.6860548994 109.593315694 116.785157229 113.291643414 109.495409617 105.818048854 110.018670832 117.464170059 124.125341281 126.037390781 129.459920262 127.218464052 127.768964582 129.446482123 136.896342104 137.738152953 141.378704372 141.446709255 142.031988439 142.166752445 142.921658811 143.405186251 145.274672743 146.585295066 148.138206807 152.508050312 155.767020551 159.368973246 163.057686069 211.873294352 220.606992368 228.745158723 234.018888303 243.759971499 248.65026522 312.3610668 315.785519677 372.355575207 362.091450421 342.807390207 314.110284717 279.835457605 249.093137523 237.605262099 252.246393461 292.370607627 339.960907633 424.685668676 454.446269185 455.677928359 427.138516186 373.509006029 309.229350625 241.900487791 244.043524385 276.402748637 342.332916002 415.729709965 478.154791002 521.132293494 548.640702413 562.624769776 552.683748472 550.633331835 498.439873539 521.489033453 499.319311739 434.233852022 371.914013649 292.10796558 275.203805186 259.877964646 248.012882751 241.179212084 239.663222515 271.538620633 277.413648869 247.160979216 275.146566652 273.109324204 236.667942287 193.080737033 184.770127222 173.560143478 157.307827873 136.46569668 114.818188238 92.0921601298 74.4286774949 65.9679726575 70.6192995624 84.3648112227 102.0891119 120.022637892
4376.71603546 4487.74689935 4578.52064342 4628.41440833 4628.1367733 4635.11608099 4658.85571211 4720.24690236 5212.35189288 5414.25974817 5622.18556286 5838.32030607 6065.53326853 6303.81927817 7090.44054491 7300.38551181 7613.16615089 7715.66291118 7655.12571204 7882.57375605 7911.98347597 8254.32395685 8915.56616071 9753.16470785 10480.8207546 11154.5470811 11784.4347833 13231.9405504 13860.4495177 14482.7187926 15076.0503919 15602.9548724 16469.9543834 16821.8202549 17260.5638877 18121.0780031 19138.1957121 20100.6316924 20803.8049949 21205.1483379 21209.3527661 21216.159762 21207.2019654 21097.5131203 20954.3421468 20584.7652228 20340.7072024 19790.8953544 19520.9304022 19060.8493313 18218.801769 16731.9567528 15062.4564351 13468.4938817 12257.0635079 10678.0499741 10060.4481305 9195.09038516 8495.17718236 7704.41137127 6668.0066621 5374.72282071 4973.5998462 4695.03753298 4612.56275655 4568.84793795 4480.31476871 4344.72135857 3450.10046129 2900.50688149 2703.99127105 2505.16663669 2187.93984299 1723.57880887 1584.55489821 1456.10920331 1303.95188624 1201.25632012 1120.27988235 1020.68529552 962.084502762 829.75854249 768.510415104 686.527889831 590.680086394 453.228113565 405.486887378 353.682647893 301.411141174 244.112026813 178.588239361 162.545023436 168.103439793 174.492806763 174.338700569 162.916077743 144.077806816 137.8827508 139.796802824 142.076974015 138.091237282 126.753135525 120.632722961 118.427469238 118.436527529 118.805341689 114.351825198 106.250893215 101.336329981 104.978397685 111.72451455 118.785995884 110.522170004 96.6128556036 91.6337306151 101.718056218 113.829204435 122.567426515 129.222731784 132.522024846 139.782344501 131.084505834 123.392287322 113.279202976 100.059690798 96.542360384 107.279709108 123.021677962 124.886927638 126.665760708 126.729025892 124.743771223 124.80384434 128.917395057 129.858660642 129.465645856 131.837904377 135.105276091 136.867544905 138.616774556 139.785569186 142.989226289 143.991673788 143.984538783 144.856035923 144.800229328 144.979665116 144.789243339 145.566747052 147.336068147 150.431521529 156.233809616 161.004536089 165.637748278 169.914203365 220.580128212 229.835671494 238.490194467 250.077708665 260.261897807 269.899619201 326.099684096 328.980184742 337.11209896 386.088902703 373.797022628 354.445961518 333.57866411 313.479914335 303.991599305 317.94898458 353.430680018 435.813160513 478.194018371 503.601244098 505.514147894 519.901240511 440.097095749 389.75704004 375.048026946 345.448071984 371.96153372 423.838172409 481.571520957 531.217399908 565.316519021 587.554521279 598.499872411 586.587164369 583.107251947 572.796312915 551.642283325 528.037744297 460.186237999 435.087951727 354.983038148 302.828116411 290.68754707 281.48225766 275.369055013 303.190546713 303.728507283 305.345569348 296.915596433 295.177249092 290.573812419 250.154512693 203.895722402 194.792080875 194.867795225 178.487068972 157.695498462 132.796666192 106.55892847 84.9106509351 75.6484119193 78.3780640483 91.6583156225 108.929016623 126.444382509
4297.96525397 4413.51110206 4510.29916036 4566.85777754 4571.84084777 4542.41772756 4746.87313911 4853.20708179 4993.73550986 5373.9902413 5586.42316236 5814.30621895 6057.29076438 6312.6848759 6774.39998412 7387.88653847 7733.00304784 7947.27235079 7975.00711695 8552.85339584 8674.98212581 9014.43476281 9545.59078782 10321.467985 11009.9879413 11699.8579123 12385.3555458 13936.4935548 14707.4719263 15454.7758267 16236.1024421 17065.6889196 18078.1144855 19641.9216397 20812.8498927 22148.0135528 23390.0914998 24070.8609183 24155.4164894 23868.8623325 23334.5993201 22998.9332225 22807.7421911 22644.2348108 22334.5865501 22026.3963519 21839.5350976 21499.2343285 21591.4644953 21603.5462854 21135.7603487 19959.0120012 18138.6508143 16252.5030013 14543.3287244 12430.7596469 11356.6040006 10112.852454 9223.10664233 8364.82670257 7301.9544744 5905.40882021 5394.94072722 5112.55738031 4927.04625608 4785.23696115 4630.41121311 4454.90582767 3547.7564547 3347.71075941 2793.94533706 2470.36294274 2276.53743038 2092.53935054 1684.20192847 1577.67307635 1490.69156035 1325.35282334 1254.64871754 1180.04066842 1012.11890291 907.401919527 800.940115028 725.19918415 652.072423747 474.517530721 420.639806466 366.442746576 307.412278306 240.603543835 173.785635032 146.580521329 162.77768358 185.458429289 176.508761809 162.153604295 138.039164894 129.590981477 135.554655903 144.587891902 147.459270858 143.358721776 134.179258364 131.224841355 127.423808896 123.531036621 113.877399744 99.464286137 90.6720836185 97.5073655438 113.790613971 120.813314196 113.088168404 96.8527088441 88.3457842778 100.781653616 123.821663771 138.442038854 142.360813166 152.276770399 150.709194372 149.392870619 134.755717614 129.516267464 123.599039393 122.352121349 126.581424977 136.574566906 141.785411468 150.056646352 144.750527972 136.391895566 137.217398205 134.240929873 130.266067914 129.749738494 131.815668669 136.382678558 140.132442071 141.029163488 145.761862893 148.803287448 150.455972521 151.900845384 151.434440908 150.400605018 147.778483299 144.98739446 144.326786166 146.817580984 151.88705344 159.646696454 166.236047022 172.102279598 177.053936624 237.7690659 247.544173457 256.613195146 264.953597724 270.246624941 280.688737612 338.163275211 348.636819773 353.007627334 408.822601089 405.5321829 401.671050524 391.038961283 383.026692408 384.33107687 399.515703805 430.995419716 509.779830585 543.982358086 565.412261726 613.028422354 596.596932172 564.519583356 529.893422335 500.246968366 492.806505359 483.1934937 516.901196574 554.369483556 587.311046592 609.85632088 625.227812298 632.184813892 617.929774723 612.507908457 626.237790644 607.407548136 582.62799325 552.243906847 452.732963382 371.809014059 353.503010876 308.300526881 300.711365489 325.287971893 325.140127228 326.235630932 326.969135807 316.531452146 312.694209239 306.194472921 263.709401416 254.392213181 218.08380235 205.757549616 190.360866868 171.525852212 149.619447379 125.970713417 107.869355067 99.3007418531 102.652023913 115.378135932 132.76695541 151.034589309
4177.92549897 4286.83969213 4378.60356766 4435.58607771 4449.28307685 4433.68309744 4419.45182196 4809.51337911 4939.31482168 5103.12219392 5440.91221735 5677.99892244 6033.17949567 6308.56240571 7330.97229519 7594.34722057 7823.28264111 8172.30466364 8294.83081011 8411.60490409 9331.72349628 9671.08843177 10272.6102918 10875.9360585 11676.7285024 12386.1877392 13075.8137559 14739.3018474 15589.2681334 16487.7462158 17436.2608169 18536.159101 19961.6654778 22061.741759 24005.3294565 26093.0128805 27729.7584795 28241.8065383 27580.6698707 26626.2338419 25383.2501747 24862.1093749 24374.9665009 24111.7497443 23749.6830367 23471.5007035 23396.4627079 23058.6477641 23551.2386803 24134.0205751 24102.2431376 23013.0849923 20998.8440226 18531.22138 16396.2686776 13866.6265593 12448.9514953 10937.7079482 9888.74921054 8950.42905767 7998.66961149 6493.13520587 5739.93894429 5384.06838414 5119.26524821 4913.78258154 4725.28089601 3829.10312834 3644.50311479 3099.399413 2896.00798931 2557.91988425 2356.5910325 2164.88031421 1764.97835164 1669.10109716 1604.20688161 1484.12678424 1415.15998358 1318.31281083 1118.15751548 985.197080996 849.474344336 758.341147366 675.611145222 488.295541775 431.441028144 376.977907873 321.429445405 261.760674906 193.064129986 167.826780745 179.340295032 190.867515993 191.374769882 171.91646419 147.445751524 135.295373529 142.647809733 151.251133781 159.905981166 153.942983666 145.59740723 147.397581679 152.580730705 140.749280124 126.738871162 106.672130507 94.263153065 103.117612693 121.345089244 128.179081459 130.099524511 111.873468157 108.331193769 117.950330196 137.177627179 149.416849531 155.855319834 162.022880713 159.869338404 158.748257239 152.524737077 142.915006182 141.129724829 141.180893372 146.109265803 155.382186336 158.565311209 159.618886789 154.124075359 151.360089257 149.115584505 139.397092768 128.804558994 126.517145467 133.518265947 140.662419259 145.021447305 148.755493029 144.739477334 147.007084313 149.723785872 156.641925419 158.012959046 156.090117557 149.28495707 145.750179661 145.098655515 149.171937296 158.172887618 167.892614297 179.46273028 187.230182772 234.305042308 244.904186531 254.762649247 264.200965866 277.580513869 285.680308449 290.33976458 353.67848277 358.263770663 416.523105875 423.180499897 431.597552747 440.856101809 444.428200502 449.299182786 459.319161369 556.434571509 507.323755691 590.012951476 618.65661197 637.663873132 692.342640769 683.298498509 663.021053843 641.07658347 620.489867167 612.300804786 617.644379625 599.3395831 616.765437217 658.896872802 676.197967854 656.879415113 661.054810775 645.228789242 662.518313506 647.959216982 627.213807853 600.101499033 565.682058126 523.575672368 378.632160156 353.35873208 334.96321444 325.481012299 327.253040316 333.492765342 339.289792045 333.542523592 331.884631558 344.502011816 337.19451238 274.814548069 265.053967355 228.112071105 216.565272939 202.95092111 187.245588565 168.138680456 151.321133285 137.4661396 130.320317567 131.721810871 140.36390039 153.212953379 167.491662191
4023.5145015 4118.92104726 4199.53243508 4253.70776954 4277.63750063 4282.38951891 4573.97158934 4658.46911724 4861.73332915 5141.95207958 5354.63073587 5600.45146003 5876.80637958 6180.45016696 6729.83865283 7662.41057598 7952.70026432 8210.98351141 8581.84149677 8767.5063472 9774.99852832 10049.2688121 10730.6472959 11466.5453606 12148.8871064 12882.7202934 14432.3623068 15290.9678014 16197.0527788 17186.2204754 18334.1410066 19599.5302067 21451.1630804 23552.3926356 26636.940828 29536.0317738 31716.253338 32048.8404202 30659.2748246 28666.5410184 26983.967326 26152.9973419 25807.625713 25649.2249081 25254.7589865 24811.9429359 24564.0353752 24301.4833387 25123.8829675 26265.5417152 26726.9342413 25598.6480304 23065.9935685 20226.3165252 17712.3323972 14890.5797355 13242.7516255 11905.7097155 10625.2117963 9297.99221087 8374.78350673 6761.03467768 5921.62661201 5483.1220794 5155.53106491 4923.09789048 4746.59301444 3938.67760372 3736.65253008 3185.94419075 2863.90377338 2654.09802587 2449.28337327 2225.74957069 1826.60720631 1726.67580062 1676.17595889 1612.96188154 1549.49304077 1415.49419253 1182.66693206 1039.79572985 920.656698778 782.129971904 692.700733462 501.164027458 443.302107131 391.090847491 343.640139245 297.689849606 260.103079634 220.732026884 209.963313478 210.034727907 205.454623139 190.43794215 172.383509906 158.452748272 161.819818485 168.442846354 170.482562782 170.692485354 167.117652534 168.335104942 164.317925164 157.792280043 142.351420459 128.536568923 120.397883686 135.088557827 142.176593677 149.929864872 149.563267047 148.325580264 138.79700623 144.648673696 153.885764935 160.285013734 170.648230779 169.544083339 166.740057704 165.621809129 161.935417927 153.51870636 147.843013059 149.698767616 158.796935668 163.830013754 166.416942032 167.018642111 161.526788445 161.990884933 156.485181354 146.241454985 135.061981324 132.385300109 141.003656009 149.645361274 153.613624431 146.41755 142.412967758 143.274824145 150.05447017 156.536376631 160.163552768 159.851986724 156.39313238 152.445646692 152.031984829 158.640992963 168.273082058 178.190077179 188.114474812 196.035491227 241.187355383 250.992219036 260.661848632 270.481958087 284.494911927 293.150938847 303.734727826 357.774322745 361.611210682 415.793394183 427.610477978 450.350054503 468.882938678 487.74634217 506.74340643 610.323982677 644.648348406 674.499240081 768.945086685 799.030694004 814.263895035 818.51261617 868.635172093 847.524916511 744.140314543 723.385677968 706.163509685 693.307313429 680.524624155 676.446837059 680.905859621 694.335386155 709.19839766 718.357069595 715.383523042 680.151918193 663.232781408 640.956873167 612.777013052 575.484612992 525.384670997 422.791932364 340.986011534 313.293819698 304.530337844 314.775517518 331.840963225 345.653552861 352.700293162 359.271823283 354.782731373 346.651268336 283.69655239 273.678527296 236.62269752 225.828802547 213.951997313 201.367589232 186.871906801 175.251861676 165.808113191 160.577418079 160.790064396 166.037220126 174.727674727 185.105016489
3756.99181181 3849.42331182 3928.51542491 3986.68833753 4024.02520373 4387.06181136 4448.54083539 4538.21543623 4665.00235352 4888.53506892 5093.34772044 5501.06601105 5793.45017935 6121.82540193 6722.97862221 7705.23593356 8062.27281526 8425.53705193 8689.4728824 9020.69512768 9852.65142494 10230.0558996 10972.9811115 11785.3697629 12478.0904807 13254.8967237 14885.0236595 15772.3024058 16706.9490504 17782.5110588 18904.2185584 20286.012665 22245.0376286 24674.7646374 28225.9802045 31778.2269507 34443.0757546 34758.4730513 32701.395162 30047.9736665 28106.2991807 27220.7593682 27186.2631277 27303.7459213 27041.4884942 26329.258279 25564.4523848 25363.1495726 25946.7460566 27447.396903 28211.2375693 26959.8493068 24137.6369252 21018.5519464 18334.4034123 15306.5856072 13576.3715352 12178.558451 10989.9395852 9594.03707956 8600.06031322 6902.85465353 6209.2359958 5427.08983237 5031.39489617 4802.94174851 4209.17920355 4040.59475412 3428.75181133 3175.22123759 2948.92688447 2728.30873151 2521.73625176 2303.47692006 1880.25219573 1757.92812341 1709.40671466 1696.85562041 1637.9508677 1486.83187484 1231.15613452 1064.32220775 934.134944838 801.061802397 628.154973461 549.613276854 454.053549224 402.361716595 357.21547194 326.946820376 282.124341696 266.601512589 247.459675084 231.408693624 221.848673545 210.873099506 195.552469554 182.257645723 182.331265294 183.253064353 183.193920503 180.616769702 183.935120388 178.667510579 175.765478514 171.995663698 161.395232289 155.241997813 160.369068915 168.340906401 177.355381472 185.548337852 182.824884779 176.738259059 169.21404535 167.761624561 166.597909875 164.867348604 174.350331494 174.10729489 172.716633776 169.20544068 166.543663003 159.693293871 143.404726858 151.839812009 163.011438904 168.745092336 170.902752401 171.59651559 169.448677691 166.713168137 163.870440677 158.012164207 151.304315191 148.851083955 153.42009471 156.828868474 155.94011467 145.595019184 136.448589349 138.46824237 147.91243125 157.593276775 163.50050605 165.214845386 164.013625168 165.122114196 167.135080587 172.419024401 188.933970153 190.937928258 198.859985174 237.960840356 246.59993998 255.085505408 264.567335163 278.747209321 289.989335786 303.011247814 358.93833439 360.429220871 355.942583342 359.197116805 414.94656147 450.478139318 485.106166957 521.672799417 639.760731093 679.96329158 783.387098577 759.846165781 863.411783938 893.717940416 914.544881334 978.907612649 970.997524121 951.248448637 837.374237973 807.349113548 771.52320023 731.880165026 694.660002891 667.550685998 666.973371355 687.548644588 713.577748194 729.22954266 727.257744157 689.990331434 669.111987058 645.71048396 619.715909663 584.588988936 530.989923536 419.737122811 348.895261058 294.415873904 278.708796352 299.051145023 328.491689885 361.356108861 365.957955773 366.505303216 360.85861845 351.818946948 289.71251134 252.180854174 242.726060268 232.077073318 221.054579463 208.568089517 199.897653235 192.680435137 187.310277373 184.478861943 184.796803533 188.257028568 194.189671345 201.646590336
3563.12957395 3646.52970107 3722.98315123 3787.48064821 3840.94545223 3887.6737157 4297.82779201 4392.18976021 4524.75813565 4756.5100987 4971.98065175 5226.9394692 5522.07425193 6038.65631204 6677.62770898 7160.7350377 8136.16559445 8559.86142918 8858.75440082 9067.25249909 9653.15062633 10206.9611168 11072.4003707 11910.7706224 12796.9889678 13659.1775769 14490.9072365 16196.8121228 17130.421653 18175.747769 19261.4370076 20572.243488 22295.7094895 24796.2381129 28037.7554203 31963.8951927 34756.4466771 35078.7823651 32948.371189 30292.3817787 28592.5027258 28000.80971 28656.160926 29340.3989828 29132.436627 27966.7792932 26329.4963483 25519.7896101 25741.1927954 27034.794021 27716.3450977 26441.3283589 23648.631814 20615.3635532 18054.8324025 15296.7455052 13668.2477817 12328.4595426 11165.7964768 9757.49979058 8715.43523835 6971.55411939 6146.2975209 5256.1784009 4787.48173852 4581.93052148 4284.71359648 4061.92484372 3529.06913135 3234.58928818 3002.43144535 2803.8252058 2612.60824662 2387.5310071 1956.91781562 1793.15365211 1703.90882144 1716.71505556 1657.45670869 1488.18604314 1233.16079456 1048.85006642 923.01640689 796.303624574 633.692779887 567.507733133 470.848025697 406.325979271 359.728536014 330.980539435 307.9667234 294.549212057 279.382489402 257.898255759 237.274801686 225.662225143 209.451063773 200.608449725 194.496593956 193.429963771 191.797289395 188.57403629 196.782658731 199.068577233 192.790651975 183.23687961 181.081436281 184.566423757 185.884043848 194.912087976 214.271033617 217.753685118 218.279389742 211.326169795 198.323283348 183.987685052 163.893353495 162.729539749 173.669860719 180.61775343 172.87601742 169.818936681 183.687766694 175.503704117 162.049215904 167.321535968 182.339800388 173.716190894 169.923822912 173.338158496 174.969643624 164.369476553 166.356639399 168.067720731 167.140186406 174.520348795 167.316333444 168.671999611 162.229961967 149.542236715 138.957380023 141.054983934 152.149422823 162.050544295 168.834460357 171.888786917 184.41214102 178.544156719 190.273525003 195.415445914 203.340808563 212.302950742 240.031226315 247.751049971 253.565426899 261.331822894 272.264095022 281.307603936 298.131177545 310.542832773 356.920124954 351.245632816 342.509663347 337.551798719 386.779397291 428.706099733 483.437875427 541.440136659 685.45971898 743.977819952 861.575833563 912.074704016 966.114261736 998.785576767 1021.21384261 1089.67559909 1074.48672357 1052.58617544 1014.527806 879.33453099 816.117941077 738.836429037 662.024104529 611.408526137 612.600625277 655.314400143 706.220942503 735.167540543 733.490287018 689.777278259 660.098964379 634.67508242 615.990624124 592.86913901 547.490341027 435.098704538 353.719784215 288.901544935 275.027302572 302.275239784 342.037981282 370.036756582 372.859810247 369.795862173 361.293335079 300.180457884 292.153296087 255.771311477 245.884957539 234.229323832 222.390754922 210.759839217 204.305369079 200.814633036 199.530254125 199.868992021 201.726663991 205.132168958 223.207174923 230.199496801
3175.74545449 3455.41680798 3540.75844635 3623.32145697 3701.26035675 3771.30743951 3875.46249966 4236.63813183 4371.66672589 4610.20100969 4838.82094609 5103.33817874 5403.19648359 5925.01368173 6414.13205061 6908.86404251 8009.75871898 8642.93233108 8964.71111465 9101.67792094 9215.7704422 9853.95070523 10816.417769 12082.3745696 13159.9732586 14112.3823919 14956.4424674 15769.4972295 17493.9261225 18481.4608245 19486.2679443 20615.3645271 22022.1510809 24066.8579571 26725.5640745 30062.3132394 32392.4584509 32753.0919269 31215.2096401 29289.924532 28270.6330862 28514.1475935 30126.6151327 31620.6422288 31480.1739296 29551.7582882 27041.6007469 25406.8653833 24835.7863286 25286.858005 25443.0716436 24209.8865196 21890.483202 19389.3481443 16565.6984879 14904.5662528 13514.8984229 12318.426882 11237.9158552 9868.61829618 8822.01394756 7074.9752944 6134.44199791 5121.31168866 4558.94700416 4366.09207722 4299.22104347 4123.07437239 3566.115414 3240.20441899 3024.04431501 2878.01715761 2730.40769472 2504.07474967 2227.48852321 1838.32578397 1700.43278397 1664.35919248 1582.90644696 1352.19457068 1154.75123918 1008.04719932 888.779168858 780.639628486 636.162474421 575.145732651 506.870752393 416.846538068 355.929883429 313.593894277 311.901270579 306.767369577 292.208070035 269.124738227 256.465914885 235.936546592 213.53064798 201.575785808 196.04770725 197.214831218 195.798442485 202.01272783 205.561625447 210.777640607 209.091221386 202.54358427 192.262786166 191.193333361 217.062082776 225.367294869 234.260981837 250.106159118 238.352945934 230.689178145 220.917063131 198.78442308 158.044016291 154.516009736 191.825963439 186.731713218 164.825535251 153.598365819 185.33745107 196.978653075 196.023456235 197.307139062 186.78038377 157.716648023 166.411592918 182.651467991 173.379005519 153.897389945 165.134315866 183.519581195 190.07331465 190.984554855 192.53075874 180.937738438 174.445429332 173.451786136 155.694076178 156.023377634 171.058576024 182.046653561 189.9729905 194.038822244 195.741508305 199.46987224 204.986444573 209.461806779 215.689952589 224.692007012 244.593312053 247.112561562 249.433483486 256.47232289 269.246349366 289.062821254 305.169177792 314.700164138 354.277888139 338.360538751 316.284493956 319.404077254 338.129272161 396.28783461 475.526654085 633.988898418 725.438047413 806.633017973 936.97142811 997.639144751 1055.61213372 1093.13148964 1179.51024683 1191.48683475 1272.51218569 1245.4501953 1193.09075511 1036.24011707 924.331899717 780.740086234 631.602181188 537.72135105 547.216466926 613.757654032 743.825391696 744.278760135 737.418443929 677.36405107 628.417956069 596.622640921 591.322328889 594.186697236 574.274776371 514.18061202 426.485818735 356.136336199 325.953805388 355.255226805 367.858510861 386.444169182 378.086635773 366.149313753 352.659044299 296.295708895 290.17887656 256.829179725 246.251635402 231.964306081 215.160772274 203.813477494 198.395598552 198.753318374 202.456222557 207.175329552 223.215471699 229.183333771 235.339882734 241.810729947
2993.87856042 3096.58765629 3215.85777013 3496.87498095 3615.57716422 3720.07650494 3794.56582468 3877.83197549 3942.69351903 4464.21102386 4707.95336578 4978.75297685 5269.6787081 5601.44334048 6249.73384089 6780.53594283 7971.86312486 8544.88879404 8976.06601557 9104.9354225 9118.31207156 9493.55443312 10864.8619737 12244.8083399 13697.8919393 14705.1970376 15495.7404259 16223.4269905 17865.1307 18764.8278993 19714.4004285 20637.7175592 21703.4298758 22872.1269102 24630.3269399 27117.9502029 28778.5865156 29274.7662884 28555.335533 27698.1723045 27519.1910386 28689.8775693 30891.1584575 33047.0689211 32939.2349535 30405.0657756 27200.8370387 24921.9989949 23819.2861829 23107.0066335 22631.7414624 21369.8022965 19555.6207882 17695.8019539 15482.4519174 14247.8544728 13234.2326341 12218.9794541 11231.2999165 9937.32167189 8178.85834543 7294.46777045 6324.21848147 5214.74139034 4581.97376674 4363.31068184 4302.78625444 4105.98545835 3754.44205449 3199.54508173 3025.22837967 2961.48448349 2862.47509654 2641.26046569 2341.33845983 1850.28792059 1690.31474462 1587.60954964 1460.87603269 1213.12338587 1038.68495054 924.015223846 863.637370163 771.620116428 649.446476303 591.631832424 539.703680489 454.959063553 380.047829391 319.457079496 316.002496055 312.339214913 289.001004143 272.002830263 260.568896063 250.710137024 229.058154551 204.079326953 196.795618324 203.232005997 205.306284913 202.951565526 205.278070235 212.683233323 212.240998019 199.286267478 184.3958129 192.331492636 220.018868854 242.427971449 250.206277035 266.500297077 267.400403138 248.844583123 248.200585266 230.802323652 208.007304148 196.322157888 218.200452681 214.172258052 190.93978825 180.90552686 217.745952399 240.581284408 236.811225247 234.830823102 213.038696541 175.575830675 185.603494631 205.065729947 187.387991875 164.645838946 179.85738977 200.843434807 204.681896556 227.404463035 219.976786809 217.017066707 212.192704606 199.132931712 195.510498414 202.157799131 207.870108085 215.330628874 221.355440307 212.498597439 215.144383361 215.13656551 217.11972932 220.60538083 225.071775549 231.961118691 250.504667773 243.872392231 242.847052119 251.253851141 267.943702551 289.35215706 309.015766717 363.159568428 357.950761388 329.786531398 302.80581437 274.224442411 297.255645056 374.077580969 533.789526397 665.161276531 779.833806325 891.367050398 1035.70585876 1104.8578627 1146.18793877 1189.3496202 1280.28848389 1296.85453 1385.1450409 1359.28253852 1303.38510567 1206.28259968 995.983389031 851.781951268 631.704096209 487.691625258 502.160250337 628.924564189 761.636584977 825.946322843 801.972819011 682.877820556 571.696784451 524.590286223 544.027371148 590.887151394 615.151522752 588.709791154 527.015380814 448.575483502 427.830563264 439.284588996 405.853888837 403.461033683 386.26904211 354.6255536 334.152673717 326.590635492 294.731871538 291.820011128 278.508590323 247.542460118 203.478421719 187.27179504 182.069028054 187.548693392 198.092109126 217.824620037 228.09116076 236.38524315 243.537808985 263.072996257
2813.10690479 2927.36590277 3076.98035857 3264.7591793 3477.73127727 3740.65431137 3835.63506246 3875.78653477 3899.19891592 4336.95708175 4597.49978319 4872.41728979 5138.62751416 5488.51770291 5866.50376619 6473.08805661 7170.32337362 8339.0310507 8910.86865774 9128.01210639 9184.76469184 9636.93923199 11201.3896289 12923.4555969 14372.2405372 15539.2372926 16162.0144251 16692.348801 17439.3353112 19069.1484557 20090.1346979 20971.3042578 21436.7103532 21903.5001868 22752.8148448 24354.5765192 25441.6421181 26019.9462494 25928.1446185 25791.3770039 26285.2341598 27426.4312302 29851.8471633 31954.4017753 31815.4586708 29262.0018458 26159.7152933 23770.3518518 21889.9567748 20932.6382306 20037.9898988 18831.8357362 16796.6183936 15409.2576715 14442.1113116 13661.9818609 12876.0094692 12094.4024724 10890.9159709 9227.64739631 8504.76595801 7681.52665759 6745.02647842 5612.82354162 4894.93742525 4609.80855894 4280.9900569 4031.79095552 3662.41444701 3141.13917468 3022.14660704 3030.83269939 2964.28470697 2709.4158221 2374.27253568 1884.30792809 1671.99471665 1510.05451531 1338.04022614 1075.10182529 905.057491284 813.221912569 798.147894995 757.837618447 652.661735548 603.082660342 564.616603575 521.313133388 413.202270727 354.719031147 335.875613615 322.752883948 290.231569589 265.663175475 254.837422205 254.980602813 246.137712137 223.852557763 216.17646936 219.188045588 220.822032736 206.857859797 200.48490868 214.43003039 222.502674999 215.726309492 184.440853359 197.035615619 236.196894752 263.225580547 272.649739359 278.11072604 278.66069955 281.966198201 263.700153429 263.542977862 260.504087879 260.869264301 267.276097214 260.365946108 261.016772137 253.595203465 273.002417743 279.039891712 277.562505359 264.955536188 261.985077665 247.446407098 246.90873084 251.246937848 237.89843281 228.357492743 217.140397501 240.748942871 248.007487282 249.504606573 248.69271258 245.196883619 231.822957144 234.615985155 232.87924919 229.76519293 230.530308232 232.923128282 235.482776244 223.80738373 225.809092221 227.53379517 238.321694647 229.388356156 240.363088297 242.833798898 241.134380109 240.953519412 238.026889282 247.744257887 269.844152174 295.962397659 315.950354047 373.196331157 368.641084473 342.703151457 305.759030573 271.300860258 298.579553816 391.441816438 568.66242078 717.040653749 849.355727519 964.413369729 1116.00427951 1190.56185317 1252.80040437 1307.31129801 1341.65022193 1406.43288091 1515.23703568 1487.06311248 1438.99388419 1347.14952642 1196.74310337 984.492299365 751.824773851 604.025985094 614.92778257 770.921341625 835.900348377 879.947346079 843.817126845 681.568345059 531.81391773 446.518562781 481.776826704 576.448029935 647.572773755 659.254215061 628.474069681 558.544465175 533.638386931 522.192620176 461.358266157 419.327579602 372.271536814 322.004280238 288.316784078 265.758019967 279.111151376 286.385406401 275.191120267 243.109688364 203.457034555 164.77302235 162.378084993 177.136044705 206.231735733 229.362774494 246.703909768 259.447174917 281.479127894 291.793137129
2622.12492573 2741.22768211 2915.87002468 3159.18577745 3461.52749297 3756.8972363 3922.82235158 3899.80214862 3827.22298895 4154.44041906 4421.98261492 4855.28390344 5089.01385735 5294.22804423 5583.13738122 6130.01453575 7202.46717235 7997.73319007 8750.55514624 9209.34744733 9501.15611313 10179.3961899 12021.1807001 13841.5793316 15489.7095581 16521.219491 16900.3468823 17108.2714145 17602.2146909 18693.5701699 20568.5232404 21616.0692825 21807.1752814 21542.2189198 21502.2889409 21802.9720655 22874.467835 23400.1657772 23594.1009227 23834.6761467 24296.5564652 25320.7998718 27040.2818889 28284.9031396 28055.5696416 26192.980984 24070.9222093 21533.9807018 19959.4205441 18915.7249738 17912.7989957 16826.4973392 15066.9044371 14162.6043567 13681.5418851 13293.5532366 12670.9014188 11891.6176518 10063.1984028 9485.8196839 8955.77469151 8167.36460166 7263.53641518 6112.76912411 5383.8638667 4542.95257747 4270.45389413 3945.64492449 3576.0934882 3085.42931181 3001.40696518 3022.19307136 2955.00354938 2688.28521602 2181.96736873 1874.17679652 1649.30552828 1465.19760884 1191.27511779 1006.90763494 823.89588976 735.983573324 756.67952692 708.733298796 645.951982556 595.504941068 582.530183743 559.521911898 464.09015975 408.307284171 358.432331763 332.36569694 292.302821527 259.821634758 245.231893639 255.989913552 257.138907845 251.875515103 244.100417718 237.169629806 223.80923604 193.832719132 185.637421568 214.712129203 242.615241844 244.980647788 233.90095709 245.411782489 267.550516336 274.016179075 286.288869708 291.090363738 293.433543954 294.325576485 273.001251378 262.71092589 293.657772535 314.883309742 322.186934232 317.509084918 304.279112509 300.963324312 300.777914151 309.734443153 308.565600184 295.325303694 284.12896303 285.226652767 287.041070137 284.563956534 275.86446915 273.28972935 280.216884103 280.694441153 284.108822085 285.174612418 263.397966273 259.104690457 256.909916379 250.893414559 250.216277552 247.71762011 247.058325079 247.318336665 247.928484878 234.266281271 235.435676617 253.39715998 246.996599939 247.485879048 253.25852828 254.753253561 261.188675332 248.76218111 246.3197796 258.359669114 282.517594586 305.213597871 335.7835819 398.972272766 398.878009128 377.057910222 359.699613256 336.789358134 370.984606074 509.096813625 662.519844006 812.687440534 938.221241015 1054.07832491 1136.42545114 1279.40691865 1344.97939458 1404.05390335 1445.25751681 1587.26465991 1641.86981657 1628.6892728 1601.91286657 1536.20725963 1415.16651404 1292.69316876 1075.22672154 900.465410814 904.89743754 986.60195936 1071.71421908 990.593707781 910.419077266 747.564691275 550.762615498 444.990588689 489.33590545 637.318710629 712.855139882 739.852055193 690.765012915 662.261884543 631.053932711 598.751193 513.743041755 447.028508385 357.214870372 275.797700702 230.599458577 243.040790471 261.520990455 284.214561897 278.077504084 241.775324694 196.985503244 152.474710011 143.801896831 167.69863059 201.50723671 229.228304382 256.972847719 271.510937674 283.203376773 294.005856199
2295.12642957 2519.76793165 2645.572195 2927.10352087 3308.01001488 3705.84579452 3932.79967983 3880.80357489 3784.56603136 3814.93940832 4386.9985276 4760.06929141 5039.06159522 5150.42463467 5304.07559464 5690.9081823 6326.51913414 7765.96769817 8498.72365244 9260.63883664 9864.9027974 10821.7757083 12918.6791572 14957.4535766 16909.6982865 17983.7625244 17883.7759346 17402.607224 17563.8404742 19179.5245027 20930.8528929 22397.937151 22484.1400955 21535.4032687 20582.1256371 20238.6876873 20286.450229 21267.0440798 21500.1376508 21807.4796622 21879.5740231 22607.1825615 23230.1414794 23733.2328695 23425.592894 22339.5975736 20490.8056991 19181.9904452 18133.7778002 17175.3643312 16297.1769137 14702.9833824 14063.5236412 13581.4830102 13451.0229672 13166.6348878 12502.632048 11574.7217122 10050.2826642 9727.51436145 9485.20552522 8904.24647385 7968.31076193 6929.95904265 5830.61313838 4690.61240609 4255.57821485 3870.31614297 3501.41013144 3000.12088985 2874.4771558 2857.02056344 2756.16639287 2516.57254832 2054.86858556 1798.90736681 1603.50985352 1415.2939547 1174.82766883 1010.6141248 843.809464968 757.412129644 768.124918075 728.003535157 647.441992062 596.471364682 583.371431827 561.038402551 483.004011969 432.339372513 395.27631353 351.896055763 314.655055638 285.661387083 269.527161545 273.771959609 279.778335268 277.879265031 265.304695267 260.950703654 247.815158931 219.823660033 215.598182707 246.945667857 284.214207799 301.857279154 319.986900258 307.034622324 299.487097069 263.659236357 285.94193634 300.42985331 267.713904305 286.419080947 301.596842206 293.467165503 336.618478637 359.41143125 360.771634432 362.173720976 344.02936356 310.232244656 309.270784671 320.651697019 307.800271412 313.404437953 299.387291471 304.936803161 317.421442467 307.027315179 317.525951183 289.554776235 288.531365462 308.115206026 298.20256351 297.895301354 275.503474643 269.216301976 270.646559028 261.140611164 254.329700422 261.568644985 257.010652451 257.758852507 264.173437994 253.964735668 261.362648938 261.977444478 265.499108071 260.469465623 264.910325353 261.522783065 255.293429734 265.901720642 266.936905015 278.712648181 300.500734531 328.561489908 398.331545737 424.519103256 435.979040678 433.62228053 454.410024756 458.177614598 552.608878576 662.91999704 802.591880442 956.155527443 1070.38915654 1154.57176763 1229.57025173 1369.68988259 1446.66629398 1608.26305213 1660.5148684 1701.29905216 1769.52424168 1777.54949887 1783.58403404 1845.3997309 1761.54652731 1623.91170125 1449.45568702 1307.26191139 1246.38337431 1250.57397656 1263.91341912 1139.94891927 1037.65677049 889.06361137 710.920823329 618.975367044 655.557210953 768.232701876 818.825426593 854.865332116 791.646826614 762.148889145 722.242492576 672.924323368 609.148813282 471.78431105 355.571624287 247.505364028 188.368898323 211.0231505 276.332014141 322.977050673 295.482777262 266.306890481 211.336803215 162.162510709 154.176148978 177.851748016 210.173033411 241.823465205 258.504730893 270.285988242 281.225494134 292.799930617
1927.01312964 2174.62372371 2364.12971254 2620.60260446 2993.97214038 3396.38550231 3644.00299749 3644.49392611 3558.02729664 3899.48327479 4223.39152365 4684.9294891 5035.77079851 5106.83746341 5158.37580213 5432.18400826 5971.05190379 7395.35690102 8200.30033617 8976.59100878 10041.0352784 11199.7187758 12903.1053467 15182.3988811 17649.7367688 19078.9554725 18619.8191876 17544.5990195 17224.2178554 18184.9805096 20407.119177 22099.8614136 22193.2977228 20808.1361552 19389.1983388 18608.4454619 18366.0737929 18621.7548581 19367.0266057 19450.0056543 19533.1154092 19570.2244433 19694.8212428 19590.2798115 19220.8171723 18176.5794599 17587.3240007 16960.0446649 16315.5955414 15493.2200608 14119.6570996 13680.3048456 13433.0028215 13436.1780399 13524.2842991 13156.9251039 12269.5466497 11296.0488205 10214.2340161 10111.9074479 10222.2140613 9734.45080593 8618.452189 7379.01383813 5504.68382906 4767.41383159 4133.15555448 3700.67755409 3327.1748667 2805.22019623 2673.32028023 2576.04273315 2442.15757763 2250.12451691 1859.62809445 1693.93279752 1536.29490026 1399.84520392 1188.51111582 1065.96347437 934.903194163 856.579483466 820.162209006 739.804872937 664.244202211 616.34746139 579.884966068 551.3282362 503.963203669 448.937621496 416.671075031 372.762380169 336.667674236 320.202079288 313.109176549 311.015432767 307.631937193 296.995413918 297.513654539 298.605051931 291.111772038 270.151676145 275.766347177 309.9345294 321.556974163 343.522160897 370.179352162 364.934278633 328.285462253 276.188989598 309.86568893 332.599647352 295.162179026 322.350651536 356.426193975 371.779161212 378.795901657 371.885608436 383.606427369 381.535861675 376.23499122 378.950313613 380.844167019 359.55114913 312.097686632 362.75576648 374.884699978 355.406233286 316.630804398 324.399145713 335.890349226 305.670798685 306.13118182 327.028984913 321.290885795 302.519689724 304.056640472 297.815123212 284.541652581 255.16394359 251.985095407 262.708492396 272.374597869 278.592814728 271.077320121 272.170674904 268.802824861 282.9087878 273.89962088 271.53732411 269.421501715 267.578275549 263.486041285 283.913750472 289.611102675 302.081064081 337.612188778 364.644670903 397.901302303 455.011660331 479.736220392 513.580580937 532.903653218 663.589078755 736.527172046 846.265170792 971.446816129 1106.4069018 1192.36006274 1271.39656166 1337.04936934 1466.41745517 1531.64612163 1697.96372591 1756.09718579 1809.14656745 1928.9361808 2020.13482717 2047.75646869 2063.41382592 2039.84417511 1966.72525724 1823.65344628 1657.67144556 1559.87160372 1508.4069021 1472.61266381 1366.67325314 1233.21755553 1123.47892549 988.6332775 924.414744023 935.926359708 992.887733274 1041.67490155 997.047504138 962.3660465 863.489160316 813.401560915 765.54424028 700.32385267 532.528312615 414.994474534 294.851831465 227.981804754 244.697901523 307.072997232 321.527468012 329.738560105 299.727864237 253.924626655 206.662088176 197.402712009 210.804267525 235.874646479 248.842723337 255.663901352 262.762246766 273.519129032 268.526328421
1763.28909307 1814.13989325 1935.27062671 2230.55795402 2539.23062289 2886.40268334 3134.97471615 3229.0990649 3269.62862878 3415.59408408 3820.05499898 4589.41377776 4983.62613971 5090.81220377 5097.20793612 5268.0102357 5692.69691279 7068.2053479 7877.34596291 8729.05776904 9938.98144616 11095.4031925 12735.0237458 14761.762071 17108.4030357 18609.8135989 18153.9108466 16961.504492 16408.0200189 16989.1543904 18284.1763438 19856.943225 19911.7489694 18786.0143528 17572.2040222 16853.1312427 16588.5255975 16355.8136193 16605.667914 16984.5994075 17103.3102702 17098.8230763 16816.595849 16352.5413388 15465.8419533 15316.6374955 15266.2140815 15096.7326685 14573.1359753 13371.5461712 13078.5599737 12897.2145655 12926.6891086 13128.3918465 13218.9663548 12749.4508821 11807.6591032 10894.803677 10106.4274573 10437.5642177 10859.3481664 10275.9942288 8498.16187207 6886.84812662 5682.34641533 4559.17389732 3990.24926498 3525.50627302 2815.11290273 2605.11495192 2422.23569553 2261.63844869 2105.51794607 1769.80900857 1670.72946805 1578.52648265 1384.53793036 1303.31027675 1232.31726256 1142.29064479 1037.36063801 953.812830229 886.855578568 773.380671699 687.446297267 609.920475861 577.402717413 549.060855354 493.161002808 463.393459055 438.379066905 399.862669259 362.312115642 337.965911814 332.873081739 329.41902273 323.288223716 321.744552286 328.728015946 318.999858462 318.81075506 319.190634961 332.605035079 353.888722241 375.564840324 410.373445342 415.169839297 419.178512325 409.837993553 391.313261685 388.171920098 395.55304845 408.406985552 430.129434836 432.358544576 422.765930719 400.268670705 374.49493223 410.969262261 379.744227692 397.779910386 461.040321793 452.853032686 458.531532108 455.216334815 463.867218338 449.997870541 418.301848675 328.641279858 337.143038204 371.003937956 363.790298585 354.36346852 338.951549408 304.845802425 306.858320013 332.055606371 329.630025893 299.8432486 271.508404791 261.797267944 275.730157932 286.502588915 291.751667995 294.703216902 286.931649521 288.169000045 286.522995732 276.208279161 272.130878972 269.364486933 269.461474773 268.761156215 307.31452462 318.078317251 339.333622038 360.799095895 392.045316087 421.374276611 452.426627115 542.767425027 580.823817955 639.933439797 768.601957186 908.167333037 1026.71884266 1165.83632419 1255.66866512 1318.15921896 1368.07917318 1417.86388714 1545.90103843 1722.44225072 1795.94587378 1844.92357311 1995.71124559 2043.44182666 2127.80415568 2187.76770274 2255.863547 2277.80678059 2217.35007686 2092.12250121 1950.37103539 1811.87459303 1735.31259862 1677.91604542 1577.02891967 1454.46882366 1375.40824572 1293.69819281 1261.45737347 1250.19713301 1246.33108375 1233.75187798 1138.98098528 1034.8625971 984.340702733 924.563009208 867.026325492 743.516473912 640.238696535 522.026893483 420.500455828 360.716257011 362.673429353 399.483019446 383.727939658 372.171760262 345.227254977 308.719723817 262.525033505 256.235741145 254.683922002 253.266786262 246.248176632 240.071550114 243.584017119 257.73741541 261.565222778
1636.8456821 1658.74586402 1687.80969948 1799.80286086 1996.88802553 2383.54423319 2617.86924075 2776.50303387 2910.05380855 3109.04551263 3427.03406918 4194.67442662 4678.60257226 4841.77060487 4860.7530707 4955.26201726 5259.48128766 5974.61387796 7314.72522992 8221.66723511 9434.02353109 10512.8809248 11806.7694307 13385.1266558 15038.859733 16128.4293147 15872.38334 15523.4912943 15127.4722919 15310.4918488 15930.6625038 16337.3608545 16653.481896 15901.4076564 15231.8257393 14906.8781007 14841.9411316 14645.0597408 14910.480346 14522.199996 15242.0139817 14798.1634312 14763.9345103 14188.4835183 13484.243316 13521.0579999 13707.3606015 12971.5818154 12726.5204702 12339.9624676 12190.6622814 12109.2713996 12167.1609124 12319.0790524 12257.0815406 11809.9093645 10429.5465504 9763.77220091 9679.93450475 10136.2437224 10502.2051196 9737.33761564 8069.44798071 6496.44073298 5052.84190612 4261.74130621 3674.86010962 2864.81233722 2581.39399251 2378.41728189 2171.31077627 1972.1912171 1620.45890233 1563.30745822 1536.78490724 1417.18470292 1358.01350475 1304.06554266 1273.76033243 1230.44822245 1143.43116726 1030.57819147 887.820440564 818.051370544 669.440926309 616.577985213 567.797473753 527.88635521 497.414873726 466.08621802 444.951491559 414.460433507 390.46543945 351.1329993 334.014827156 335.587807606 336.548830801 338.162421429 338.08510733 338.846724091 333.447420215 324.855493984 348.978875904 383.686693396 434.418178894 470.403101077 453.333878142 463.856648732 481.258842369 468.775392891 475.995686871 470.697808263 477.985938083 492.478735929 494.621573921 511.756103618 509.896812407 496.301941899 519.116987144 489.820354839 530.30420875 577.61916859 576.460370319 546.526367995 507.007934182 509.901521832 512.571804221 498.058481608 473.09388864 458.170770596 460.459230017 454.436394504 428.313386255 362.906950645 284.029125478 290.72804365 348.58491445 350.899119695 337.865239941 311.462696612 295.597773115 294.625805309 301.76418176 291.019506464 294.972998322 286.23003973 290.316327429 288.442182907 275.452857167 266.864980322 261.952143194 264.526128965 276.936120984 311.976193659 335.833759692 356.327298834 400.20654958 411.693468242 442.421198611 543.888421547 591.10202271 656.806289986 722.577326125 898.847817734 1018.81898673 1191.89603951 1324.53252172 1396.98913563 1429.44660115 1453.65400715 1487.70412069 1702.33660509 1788.70708192 1869.2842438 2012.11908531 2066.53129586 2155.96296862 2211.66364614 2285.90557985 2371.52338693 2420.34171655 2373.15656847 2255.31870351 2114.04108127 2011.89525111 1938.34807814 1878.25632391 1759.24889992 1651.84685267 1596.7100384 1581.0631979 1581.39835638 1556.13788778 1498.72569306 1425.65205851 1280.93491445 1166.85027815 1099.80186376 1031.4821432 962.583114856 840.498275437 774.422146916 688.178566176 589.197664592 535.29505765 509.895976309 513.637794525 469.077653408 451.649174203 421.990103147 338.098613175 321.802216015 301.067603217 281.720078559 256.321481908 225.419239018 204.829632842 209.416284202 223.329686984 252.09123805
1556.09513926 1592.38991761 1606.44857325 1633.70686776 1721.8072635 1865.81542085 2020.2177327 2262.46740346 2424.3922497 2628.47295927 2971.37266626 3290.03166538 3750.77788326 4298.46473218 4416.22468277 4579.33797686 4889.51238529 5649.66014782 6246.46311665 7608.09967062 8739.79021817 9732.65836701 10660.3527696 11636.5307244 12549.5020109 13177.9882006 13268.3996915 13033.3246156 13556.6782544 13607.2037332 13804.2054739 13552.2611261 13229.2532151 13108.8847508 12914.0476713 13049.3756869 13241.8190034 13115.9932299 12946.2321982 13013.4208868 12928.858959 12717.9332921 12907.9748987 12880.1269487 12779.0430628 12812.578583 12430.3066559 12151.7349258 11901.3051138 11629.3201537 11560.038398 11477.0400394 11366.0706647 11288.397597 11076.8663061 9959.41348491 9386.83101157 8909.81952312 8577.93104603 8491.96489955 8736.92112631 8059.07329258 6775.09317816 5291.29606966 4402.02192939 3754.48372942 3309.14489647 2541.83921055 2293.98808048 2138.29335749 1961.58233652 1756.37489431 1484.83982653 1457.13047072 1459.58274747 1386.69636368 1334.62308826 1315.54671281 1323.35003835 1304.11928611 1215.68126281 1039.24608182 925.75052435 808.764575272 700.068132593 635.557229864 563.957398485 488.723885383 479.100259835 469.436169147 448.560254353 431.072744861 416.568743067 381.007827494 356.207100011 350.278555654 339.861735011 332.878779009 337.528777652 349.982576865 336.774072279 325.098200185 377.851322722 442.955026947 464.221387032 497.613990152 507.025719186 503.022503684 494.61359387 512.735768481 541.325568371 526.714658307 514.817754309 502.576513528 528.756222304 514.320469564 548.366042758 631.601836573 653.401755388 657.273760482 620.484079338 626.122865534 640.179819502 620.065058588 579.614476257 593.036378012 586.265009316 495.877171337 566.030440079 568.798007551 583.72877439 567.015970853 534.051079695 452.290849115 376.297741926 360.041993717 393.962626269 409.500091629 389.416432266 359.964183147 342.188236571 330.374977117 295.296638941 272.464850146 274.190206854 293.039249022 292.083282462 284.421180299 273.369279805 263.491650255 251.162921122 260.671416782 273.125062947 288.869130271 351.27643191 390.523405769 416.393389432 426.978550228 485.769889288 562.620551663 618.881931014 687.346982274 771.966876919 973.191095728 1116.31401587 1278.28207357 1450.06958274 1518.94295818 1522.98157347 1562.88113887 1607.38164842 1740.19462416 1840.6580302 1930.97593575 2061.46456789 2107.33173307 2155.21984096 2244.61150213 2325.73641118 2404.30015 2448.15947365 2413.18311999 2328.5543717 2238.31102307 2152.48244674 2102.22457036 2053.74086829 1923.60988308 1810.89037916 1791.36136181 1834.06335676 1863.66014332 1833.08955265 1725.05358829 1593.2000052 1366.57483287 1266.86745891 1202.17814588 1113.11336263 1045.39083293 936.497283496 894.549365141 840.015771359 787.165675565 718.26311965 664.913738455 622.165001205 544.193106646 510.398515081 474.052084629 421.138022701 388.961411396 334.318862856 298.819932927 250.492890554 196.367603944 157.75910807 170.371893476 203.355261575 245.463211158
1483.13447191 1561.72687961 1603.62105135 1559.83996546 1538.38775835 1578.12869946 1597.95977886 1710.98829148 2043.60432784 2210.29172742 2393.91704091 2650.63280235 2988.71841605 3108.05715627 3771.16869709 4045.82935179 4452.59298644 5200.15568138 5769.0773064 7021.08204407 8057.24118311 8896.71418078 9536.27322817 10072.971812 10477.313217 10820.1712465 11104.2544543 11284.8612948 11327.0031 11361.1475393 12012.2866914 11758.9206778 11338.9205377 10823.9741187 11152.3178229 11609.9157636 11732.0887183 11797.5149192 11631.0098993 11675.3966687 11602.8945756 11516.1565257 11851.1183001 12203.2167992 12637.5277619 12477.3161764 11800.6525773 11273.494989 11116.3624862 11339.8927288 11505.9031946 11306.2445245 10825.8323486 10388.8802992 9848.81845624 8642.19241481 8283.95657316 7838.55827485 7271.55838038 6623.69081439 6384.15701395 5757.35221892 4747.89903593 4080.01917987 3589.83090752 3182.11236402 2473.78296839 2236.74744194 2058.46181091 1887.03705245 1740.17688287 1614.95818618 1439.37882621 1438.73224829 1407.71244287 1359.36443765 1319.49996018 1312.13246808 1344.81796567 1330.80357457 1198.96912773 1056.58517502 937.943975655 843.185639915 746.039609952 662.415094474 579.825419622 495.929720529 476.464426971 474.99087805 449.367201117 428.080147676 428.828676244 415.775365376 390.194458103 379.250553855 358.649004453 324.214186849 339.49696534 371.579890979 383.324860168 387.262606573 437.850085054 484.97857252 503.545405695 529.881466398 523.907850669 523.372156585 566.14534439 573.918135729 575.177976362 513.001108541 564.517447433 604.342222248 626.129886464 587.122903238 678.675539356 745.640576761 767.446596028 770.331072775 696.573524872 709.387806454 675.664108774 635.883482166 744.031243317 744.031241742 732.212621 746.235252742 784.883242213 762.011548025 718.254843973 698.090974919 684.375712767 633.316202371 559.690613473 507.363025519 499.014834732 494.884274552 480.681827693 432.329076979 402.648040495 352.73220005 289.324379882 250.944940235 257.192545861 289.20684512 313.008446607 301.403240888 287.145667012 257.366616181 239.596651338 256.426294265 286.639118977 329.002110823 383.712047136 427.453691269 455.44338243 465.183047949 496.424289898 542.54751149 627.888575986 699.604703506 790.067549889 914.827771034 1162.59628855 1346.1536228 1527.06688039 1596.4210174 1577.59933194 1584.44666242 1633.13097885 1732.32171986 1894.1530981 1997.48674449 2107.53381899 2138.15492625 2175.79030687 2261.38098935 2320.94191415 2377.49477338 2405.32197768 2387.44146807 2349.79517594 2290.86660171 2256.12554334 2233.03519042 2195.84305461 2076.75939175 2026.2746673 1930.08704096 2001.26685648 2082.50082726 2051.57893518 1896.10443033 1678.51409413 1530.57920492 1359.28529152 1271.62870572 1196.29624168 1127.55760032 1019.13757297 999.855356363 987.071152585 950.601748332 866.496968562 753.263006054 684.610443863 612.993002562 576.285466192 531.858769319 462.229870124 425.334526256 385.461935899 325.737975071 262.301693533 182.798175221 129.920258086 149.853755765 205.071691404 266.596482878
1352.03743819 1426.31561593 1446.1730661 1359.20733244 1250.92910582 1239.8927931 1304.81863275 1402.65878044 1513.44746661 1622.19149722 1718.93567231 2088.64472954 2107.59053665 2349.40073441 2529.38038481 3379.7765718 3931.7465845 4716.8509802 5276.02991774 5759.0948043 7201.67998713 8117.83714019 8624.09271933 8967.72878345 9064.82536793 9293.02167613 9624.4426872 10001.616527 10185.0838054 10224.4008846 10266.39785 10253.5397651 10421.1096639 10148.76497 10224.6806628 10325.0472456 10488.7822118 10205.1094602 10152.1567372 10449.75109 9365.51632882 9382.04654604 9967.16123931 10723.0326264 11353.0729207 11214.1659393 10387.1357231 9906.16429802 10602.3916378 11095.4314806 11846.9733034 11085.4775224 9447.2866993 8699.77523543 7980.92707973 6674.03624517 6210.33260718 5594.81353052 5261.1600454 4902.04805061 4337.50875709 3685.77078706 3076.77849447 2904.30457835 2792.80406287 2611.29683271 2058.14674341 1936.22012662 1812.99555969 1686.89968847 1590.24459672 1276.69783124 1353.24580637 1384.02203714 1341.7307279 1288.65641277 1255.64419476 1257.51629351 1283.91590664 1238.27380168 1130.37875046 1019.97247937 944.25094571 847.144249393 796.105967917 746.351560293 662.496562396 582.634769559 527.810139825 503.639772871 465.307088637 440.129801909 436.986422096 433.405829003 408.868088183 399.109942843 382.460648332 365.375341973 374.481238924 398.384026143 429.925033191 462.383962195 503.232334968 486.045187433 492.172164255 549.563598886 544.353353865 558.036292705 650.309339427 684.528902969 688.048610378 649.693620007 677.431323714 719.928618027 774.32481438 810.680282683 784.295512706 806.145158687 832.581911739 780.797328566 869.169022659 887.84544086 898.993151828 926.305373174 960.221016034 949.188171031 921.002544934 939.562966124 932.813499529 857.773186642 827.896551544 793.151073313 806.146495019 770.039423035 708.834754647 626.436078329 608.50750989 580.230148812 531.418471026 483.229399104 453.361928198 387.178435961 327.829724491 276.334701991 280.421474409 314.414011209 341.211929244 334.816344786 321.27579284 290.218061177 268.112249702 280.159248233 327.329025756 363.065338113 409.810995527 438.311152818 464.607628594 471.708062944 510.304301372 521.321785393 564.175283446 689.570878408 775.560850325 896.398421597 1147.56368559 1334.58906267 1521.76105173 1594.60122166 1576.43241977 1586.35447765 1645.28916439 1806.44809267 1944.40787562 2061.46986379 2145.12808688 2156.58943002 2182.9030472 2230.02921812 2315.42914711 2355.02574885 2374.77422365 2374.65728463 2349.30165576 2354.89192433 2357.38264648 2359.93761625 2339.17782274 2213.52792775 2128.51822354 2065.23873066 2072.43177344 2168.34397036 2146.06293792 1971.09354135 1735.59886839 1569.40783263 1410.78613464 1330.08533793 1252.63129363 1131.67865382 1080.19503697 1078.47934725 1092.85453292 1070.98815078 990.655471335 860.326160423 770.074108511 682.789839418 619.819080546 537.895006607 496.992349705 456.921266279 430.212435472 355.714695261 298.650427118 227.851963289 177.537839343 187.599929785 240.949018099 291.033601084
1093.74381996 1119.75268252 1077.25893144 978.454672169 899.332901138 940.28604087 1043.07178916 1146.13898559 1246.07871179 1338.32789793 1408.61117832 1489.53822089 1425.83123564 1674.83401237 1901.91974649 2786.28852477 3434.51314548 4139.16097363 4675.20826189 5218.25666282 5978.37269479 6547.42101552 7420.61323079 8297.66627522 8488.12766494 8563.53444919 8776.25346736 9099.9487788 9320.10089232 9488.77289177 9568.23182523 9684.13560551 9812.16606518 10013.9058523 9874.32215692 9338.26906024 8438.65685149 8530.29986017 8394.55659624 8307.57118489 8346.22724218 8162.52200872 8117.16622134 8765.06199573 9465.95229781 9313.71031739 9021.6584529 8861.16435567 9263.2882149 10221.0862838 10959.7395727 10165.550735 8472.35865102 6991.20822721 6144.71419526 5599.39620591 5141.79203248 4379.9035111 3994.62439824 3484.90347543 2861.65806219 2138.33947008 1779.995452 1992.32083308 1861.00246102 1816.83850529 1713.1614566 1618.09652582 1581.30031782 1383.16331241 1330.42546741 1164.52562536 1217.19729834 1241.93885635 1235.44207991 1204.84385105 1183.24594261 1193.45342352 1139.7478559 1114.13434418 1044.49940417 995.825386321 955.166747237 879.831865113 834.668009938 820.831450837 780.704109692 684.372735563 599.226696596 556.154817383 496.695360125 468.679417007 451.440433255 443.885849804 429.260799101 421.710729862 418.225295195 417.033751808 429.680026037 465.093887137 491.64264426 545.408597613 547.257337276 528.175545445 547.353660889 614.500722443 662.620657968 709.150412107 758.339929633 782.951676549 810.629691631 816.513662094 850.36235417 908.978808335 986.975083769 982.79178336 960.749492394 953.056950912 998.297875828 1001.9484223 1107.35315226 1105.45884806 1082.52955806 1065.17381425 1054.22143526 1047.41492385 1035.44786706 974.157928904 968.446068186 956.663467259 922.344158557 878.681077287 860.677944421 867.195605955 809.433061447 736.138685655 672.710238822 639.862560028 605.616741093 539.996184827 501.876274259 458.165876267 409.814867013 367.585899402 355.634599983 372.080156025 371.335573853 371.604264064 361.44991269 340.815121983 329.165042086 341.980031145 364.938096378 386.444025679 395.259056962 446.887000452 470.376820359 500.599899581 508.334588934 513.987670625 547.553622122 660.014432037 731.69265469 834.147993889 1088.54052687 1250.24336847 1422.35821306 1501.63672291 1513.45773062 1573.95323002 1650.00747388 1775.63828608 1967.49002002 2089.18553254 2154.77584452 2157.74024606 2184.36782792 2235.5938298 2323.85934288 2365.95967465 2397.56650391 2382.57070517 2391.89544648 2425.85815475 2457.17898563 2490.6263754 2448.96192047 2355.71808316 2221.41529021 2105.83415442 2089.93402669 2108.54722666 2078.40023892 1895.52447267 1702.53155677 1567.80383638 1451.6592129 1388.5024665 1306.28202679 1176.01463764 1125.70354449 1120.7245483 1153.82079022 1143.16463373 1032.91676316 908.463733665 808.408929419 742.744557347 651.139325326 569.056079729 526.307627839 484.512133841 458.530745902 414.30995218 350.898689828 310.007528863 274.962268774 274.396571764 298.992554131 329.312703046
878.901888084 852.366460282 761.829343882 611.232800656 564.481117417 684.488071048 837.61676368 940.236488521 1018.85810293 1112.11700096 1196.14920412 1210.74332487 1158.37537075 1117.85974749 1391.82469419 1911.48088437 2960.1209405 3460.74456929 4217.47209345 4700.33538986 5251.2831029 5889.5095553 6577.02288559 7546.12026233 8337.24488537 8446.11623696 8479.64468481 8691.47926418 8920.26959841 9088.45362958 9095.57746252 9144.29579791 9233.69838652 9417.16012348 9189.08302061 8366.15914147 7832.86866411 7490.51660188 7320.92548264 7075.94529459 6645.71011492 6906.35865994 7029.85414381 7361.73318848 7527.04386372 7649.47094769 6644.20109515 6656.09854737 6855.25946812 7561.5677874 7917.55571736 7504.36266863 6346.87247788 5523.86607204 4944.51807859 4544.0560167 3781.28620574 3445.61160275 3089.25326115 2633.27620902 1994.19012783 1325.72899852 1149.46011588 1433.90251948 1393.65240213 1338.78824003 1255.20223874 1204.30058304 1259.87206688 1008.59146145 1029.32987634 1056.05223162 1088.36550696 1114.70367935 1117.78050465 1108.94341423 1049.91634855 1050.64014357 1050.27730501 1031.47517468 998.528017685 982.244919347 951.828095688 903.846385149 875.711679966 886.945403328 868.729759006 751.863116276 651.034185588 591.245517224 530.838673402 483.275450425 438.406454475 427.835324235 442.063363174 430.663333562 411.798973644 427.873124991 460.570212711 502.095479777 537.2964327 593.078395922 620.125934784 644.362454496 670.668598379 710.110692415 774.886264062 796.963851726 783.123248662 827.00864429 869.309353493 891.321957168 1027.27739497 1090.36596523 1137.80682135 1222.41682712 1348.13398853 1235.35163467 1213.57078033 1222.45620288 1247.63766631 1229.60264575 1227.67620888 1164.43570748 1146.74271331 1089.64330001 1108.94911071 1132.74914354 1048.37101803 953.599975007 954.342927736 932.306528646 892.060354863 876.202372964 858.639114486 815.669531526 735.825861194 674.727062665 636.087814297 593.683237077 561.78146313 534.447885214 492.361036053 455.926520943 429.334925397 424.999392066 432.97137522 427.388122542 401.417595248 390.602903377 399.473055136 386.783792821 392.055013969 400.939381722 412.235860261 457.803548096 480.884322495 481.118422769 501.623746433 501.399516065 525.995921192 558.93149205 672.22354762 764.231809865 962.641600275 1102.63955789 1229.60959889 1326.18695222 1416.37698054 1464.35636486 1639.40133191 1769.61117221 1925.98216154 2080.615025 2154.74532685 2172.2520672 2211.30334332 2271.24508397 2321.2680908 2402.09184229 2414.10867783 2433.97266164 2447.52235699 2491.43646768 2534.26475762 2587.08602831 2586.96164503 2473.24017254 2297.44560174 2133.99333996 2057.16997091 1985.29327857 1922.84607675 1798.85728817 1636.94488822 1558.4477104 1508.75548215 1465.42652887 1360.89217587 1257.879725 1141.73890008 1144.23500074 1153.02996916 1136.38595179 1049.99908151 907.938846388 843.556900106 759.611154085 677.967365763 633.019258986 551.355389619 526.787319377 479.723334891 433.084727351 387.90137815 377.893935305 350.605856721 345.478899796 352.930665698 367.185477841
691.423730213 662.466322383 598.522894117 479.003892443 430.163742579 547.921362072 715.102048245 780.818858999 821.485989303 915.778595559 1044.59264451 1115.35570638 1099.81932856 1059.03456383 1289.1008205 1680.42825999 2114.48147153 2936.10829473 3314.12751717 3975.30047521 4416.42745953 4800.9285554 5409.1430044 6549.79530841 7731.25340461 8056.81929607 8172.7558233 8400.63539294 8822.93548785 9248.11498442 9108.56960193 8707.89533501 8579.28470189 8401.61268393 7840.10964857 7733.07075762 7418.55043152 7394.45712002 6915.95264321 6485.89091304 6389.21349849 6570.61451804 6448.24596647 6063.67959828 5508.22552425 5157.92334352 4952.8428203 4857.84424431 5077.67587206 5067.50567642 4733.43762002 4235.91377581 3809.22826723 3913.33204338 3355.28377742 3133.44244745 2915.40965129 2650.11873815 2357.29872387 2072.21689039 1724.69195152 1241.03996165 1165.73633686 1203.63306215 1220.77081452 1137.33986933 1066.25304208 1058.2532448 872.841672134 942.389196507 1000.92038612 1013.39119421 987.669571319 966.766905629 956.714374185 972.263037215 972.426793351 977.575815277 995.726607953 995.674736892 982.051387689 981.012401729 959.510980637 910.306213078 876.074501323 889.124998081 867.113698869 777.283553878 692.901199879 620.077653302 568.664591101 526.076657411 458.420842394 441.211723239 457.607179226 451.032682658 435.673615296 467.394125618 502.928142991 539.12594201 583.528683635 632.89600152 689.532052836 705.906754138 741.144061863 798.136137659 857.520514342 914.002454374 899.891498291 942.589975753 998.705143516 1176.22709852 1265.83843321 1228.60758065 1318.41867522 1339.74522767 1373.18444895 1351.16149282 1389.30456047 1337.53572355 1300.0509512 1299.71901299 1292.16419322 1339.95087327 1298.39801825 1276.17905073 1282.57233029 1223.75673447 1150.00159836 1044.10046312 1018.73717412 1015.71567943 969.876976175 929.934051211 895.272090408 844.255234283 753.625009412 717.574782898 673.975249011 630.764867226 603.259027423 586.358663599 557.089022347 520.16811447 504.421810025 497.685461603 491.367363648 473.6293224 462.780734346 463.46289887 432.931620548 412.649308897 390.814016511 395.584409503 413.470133036 432.078749185 482.429757177 498.137842542 495.811577019 517.549353097 501.819096846 529.484714105 548.963525623 649.919727274 728.802859726 944.087636106 1060.44858256 1172.83459419 1252.99768676 1399.06276824 1610.94183839 1752.60775525 1891.24233977 2022.12931122 2129.09621272 2227.21991201 2274.87642033 2327.76256994 2375.04489009 2462.23144551 2469.77770713 2485.48316474 2508.43416358 2534.41332751 2571.95096084 2606.92244115 2615.57976336 2515.26767007 2290.04567485 2118.60261354 2028.50997685 1861.18008695 1778.55967521 1654.75575453 1567.43489061 1555.63849996 1563.73959376 1523.36792027 1392.29097028 1224.22633781 1165.29459287 1126.45191111 1118.51833761 1091.12477977 1021.26735495 946.912653506 869.896838378 806.954472364 694.611227355 652.857075589 622.706880502 574.972304466 515.153034199 436.963871014 383.687715613 380.01156593 380.94673933 384.061484054 387.998893247 386.865543853
451.504447478 445.370320081 457.598612973 458.010198642 484.366616326 547.870075099 654.157815358 657.646262461 615.941897994 687.99007462 832.640068521 978.404193425 1098.54027413 1147.34336258 1436.03890404 1840.49661287 2181.48440578 2412.60228849 2607.69247899 3595.30479402 3827.42249949 4066.83695108 4352.92962771 5123.96635437 6212.69947023 6798.03423448 7025.5890711 7496.69936299 8496.13781102 9070.29629709 8706.17694332 7886.17306247 7434.05707549 7228.95875799 7112.26802923 6980.50228038 7188.40343607 7340.68883094 6792.81007183 6069.82722916 6011.19182733 6362.87562315 6074.82581597 5216.39946624 4538.98378077 4041.71313293 3806.69796722 3629.79789832 3257.7424352 2893.4745008 2190.96339492 1777.09354658 2017.31273499 2082.70344276 2400.19125205 2304.59851503 2136.22481694 1928.0039635 1716.15114055 1591.53685498 1281.87211948 1096.5863112 1113.31341308 1109.37797974 1070.57372664 1008.75504373 954.517289001 895.782874745 862.124784034 906.890685309 991.663623732 1003.51818195 939.715142995 908.182391176 890.553142338 909.878278716 904.659408731 926.459318127 939.225439617 969.108175294 969.82245614 962.805631072 942.857318513 907.503920908 865.539026788 850.17832603 807.019319579 749.308212072 702.458096525 641.297939872 611.851269985 594.181969143 555.525991175 499.015508351 494.135257644 491.042025706 497.18330732 527.65088787 538.385256877 575.965849269 614.111153862 643.748585015 703.607505166 718.740294014 800.20526629 874.35931483 939.375167309 1007.98110125 1016.34745802 1057.01945222 1133.89733545 1261.09186621 1312.82465686 1340.73546843 1404.91006585 1396.44277416 1408.73373291 1413.82232005 1423.43927201 1443.4597179 1450.64178846 1454.09923114 1534.5956813 1493.3682667 1462.27083405 1380.19594143 1325.24128025 1288.73675802 1250.79074998 1209.52619323 1147.42646625 1106.51651911 1026.04801545 960.705322374 876.800473403 789.779769119 734.05262857 719.082441954 689.668272621 643.636876682 615.248538445 612.358511747 597.140729189 573.594959744 546.283173028 534.469730589 526.091953753 531.2602756 517.943664294 493.96883751 462.178611284 410.624495841 371.873848398 381.771342427 412.451762018 440.817983734 479.040705533 486.167496078 480.426738793 495.530084199 507.995354296 505.009300667 495.578112133 540.329164264 669.762800694 800.675845332 919.582679703 1049.47892138 1149.76735931 1250.08969894 1556.28189793 1698.5513754 1862.68247123 2021.38953147 2135.02447327 2342.01878368 2392.46869268 2423.99047496 2447.79315492 2438.83364135 2455.71354346 2542.62217391 2552.21118058 2573.24772304 2588.37690201 2594.76488662 2575.39434936 2462.79776238 2245.3338561 2070.04511751 1926.53208535 1758.63945575 1608.64268934 1532.60897154 1511.27289925 1526.6184693 1552.27311266 1503.08360093 1361.2305155 1194.08007844 1149.48457491 1100.64486137 1082.62872513 1021.40433151 956.82477916 886.034386648 841.063645001 789.548303358 752.310545417 720.051001905 675.160652249 596.868709642 530.742755939 442.211016982 377.160251445 377.319283927 412.890240005 430.399571744 410.179460234 419.650669333
310.114064648 292.717038392 340.757771537 404.921587634 440.742931966 470.116119864 496.360601314 545.017507437 561.920523502 615.27150223 746.634034178 939.166666818 1087.41757843 1225.48245057 1449.71941425 2006.88027574 2332.53618013 2472.08168076 2548.65856572 2916.0964981 3323.69382232 3458.279395 3507.10721437 4175.97160535 5156.37819081 5843.43241604 6231.67059545 6741.23998606 6864.78395219 7256.16888909 7008.65376825 6456.7040234 6100.29979743 5924.93269132 5905.83071591 5943.78466751 6292.09597306 6567.80357573 6173.21697025 5523.27308637 5269.84233956 5258.97182941 4615.54593276 4017.53284372 3304.30533558 3006.70183534 2826.20955642 2453.98946136 2277.93960839 1921.43091737 1111.14328857 656.265789514 912.472682888 1165.65329116 1107.60459364 985.091224526 1173.68201155 1032.12674895 860.470671756 627.280913151 750.589789657 900.72149235 953.59538064 964.435011583 955.631321051 831.160683269 921.083072238 883.770444718 822.093312822 837.932734126 883.360075451 884.996271956 834.6128594 842.440396282 832.75280141 837.987322435 859.085188868 877.099492844 908.746781756 921.473219229 930.284535268 932.247043128 914.212919525 894.846180727 870.04464969 810.118733532 772.782825939 723.469337936 705.119347885 671.899782264 632.474026008 641.879610996 612.434989221 549.543828966 521.508188707 521.369679654 524.898804894 542.337816923 547.657849901 585.848249782 602.652193687 619.494756603 705.081192649 779.208378332 859.632971173 914.635823363 930.895950144 1009.4173548 1056.43034993 1162.29342102 1210.91483969 1249.49192871 1305.04630796 1371.6465721 1419.67915503 1441.30252636 1469.9510455 1499.12353852 1591.92202404 1641.8699135 1563.71391978 1578.03017435 1554.7917941 1518.04198667 1541.34893028 1481.34023065 1391.52210736 1341.2322047 1280.65803599 1275.34929902 1231.37462422 1165.96649351 1115.67397037 1011.25865989 876.32430939 729.395772667 685.239010448 717.062747452 717.330791499 670.338600534 620.931804957 615.465374633 622.10260929 596.911742558 579.074213527 571.835658637 572.284437905 556.379754868 544.677976864 522.626106804 490.097179081 447.368474434 384.760749003 404.751652408 461.315319248 477.557983113 443.579237281 435.71424339 455.459941959 476.172720638 487.136295181 470.786670672 438.268113907 433.219288401 506.981761956 691.362299079 812.751245808 946.671563562 1054.45712636 1279.03011418 1415.39733015 1586.6793762 1774.99252325 2058.95629954 2269.86464039 2542.78905606 2583.85942217 2563.70836188 2498.12741088 2503.76352657 2512.098683 2536.25441033 2614.78432651 2637.54304475 2622.6414918 2622.59422327 2529.83855459 2420.2577497 2189.13538225 2004.03254962 1854.86146304 1686.11308304 1485.65585908 1442.35941392 1407.3703228 1417.48425079 1402.72260733 1364.39696181 1263.79732506 1173.98367969 1115.39370312 1069.49646069 993.017320943 973.26043648 906.114271307 822.110232459 780.443378836 786.970642896 758.990796462 711.839405582 661.150180986 618.598357161 575.794855288 500.573321891 440.035230887 427.621799503 439.039337575 412.372033162 409.131458993 416.249707999
208.76610861 160.253740595 204.746757011 275.327804417 321.759505285 355.86932718 407.802559836 507.498097144 539.494358005 546.40692425 577.166682592 672.340347268 901.24421804 1217.4376305 1374.64052027 1881.05790053 2406.39455763 2575.61647117 2463.86644712 2614.24323893 3127.19462634 3401.21914967 3433.06944959 3606.54144758 3939.8454919 4375.30066039 4979.48878211 5243.08823248 5689.35540249 5704.93097504 5515.30689555 5341.23226222 5254.06078975 5029.04066216 4995.49049968 5106.90444668 5192.51492099 5208.44642949 4959.59073284 4731.21557169 4289.92359368 3677.49868978 3084.48553979 2354.59313212 2124.03776281 2108.04510701 1878.02838194 1705.02589751 1599.88353835 1221.07184241 891.187168034 725.262316992 833.854509888 898.295572944 761.112636502 668.531116325 637.446021832 530.169680406 303.941579351 370.211073629 354.404990988 661.98193106 489.109221872 543.972293789 602.482328663 682.965565055 751.33195406 741.112989521 735.2923119 742.443457858 741.793689156 748.684646281 757.115972575 762.335311925 774.019652639 782.438629027 827.408150937 830.043141829 870.774080059 914.750372786 923.647955605 909.053850872 907.037061108 877.545787344 857.073197381 815.800680404 764.507949129 716.106391751 706.662958977 683.058046104 646.445500641 630.597614233 602.850697999 556.384235105 538.729886899 534.14153488 536.108463776 547.28302155 569.987758292 610.441439512 625.489028103 654.952721804 748.533104087 816.518613645 899.735392979 943.536495168 969.709962092 1051.29391187 1116.13666148 1197.22137978 1221.2323921 1234.16082494 1310.28048723 1387.26216281 1488.44319519 1535.63143489 1505.67496146 1540.4138389 1604.04459393 1638.71580232 1598.86704313 1687.37026397 1536.39614764 1489.33182353 1491.59496007 1508.26087802 1443.57929254 1473.49302274 1459.43388748 1359.41855692 1277.81635806 1193.83158466 1138.84265629 1050.55776523 940.898756469 807.363360778 742.333360343 779.331879722 750.278177154 710.674852116 667.804611309 640.294674337 631.630537312 609.294028535 579.748596797 580.646594836 585.287767678 569.687016032 558.534638854 546.750848297 537.992012543 518.789567109 483.171324326 486.020286965 508.701910809 502.443045333 426.132369234 404.011838901 422.080313107 476.905620911 478.345648804 457.046995746 414.949791566 406.170662664 452.105993122 623.500835042 744.059712753 861.875174274 966.27988805 1074.08915961 1219.99685831 1519.24429184 1751.3408776 2081.37480872 2457.37509011 2830.4026481 2850.18137106 2702.39880106 2595.92362801 2581.94915868 2589.06091766 2611.87016592 2657.16155687 2737.70873688 2781.64976263 2729.18407538 2620.56598281 2346.90916498 2129.27785989 1927.47154761 1682.80297701 1540.36942893 1362.08051039 1292.4757717 1270.31412428 1247.64181438 1191.06734125 1179.48830846 1137.42789205 1094.67798429 1061.07297094 1032.62126647 1012.12192787 960.590760228 888.239303764 797.757931795 741.068252204 767.078461991 775.54903148 705.076575125 631.303539677 615.60647697 606.753852367 560.272971388 516.512050963 487.84676427 459.010162289 407.34833729 374.8692327 396.236954712
171.260938988 149.358420123 179.434321131 225.199328478 258.446297426 284.540599617 317.311775737 352.674007053 413.77271619 450.70390078 500.889268953 595.43143759 819.505676498 1006.94532078 1268.19854755 1693.14233757 2261.87317076 2475.48254152 2335.47139245 2427.27321258 2701.43136144 3205.49877296 3305.74684511 3379.33078453 3508.5537426 3690.68763381 3963.63231958 4195.90688145 4690.96078403 4802.18063689 4857.23191932 4842.85288726 4594.31942335 4520.53315948 4468.88115958 4468.12134798 4395.31149538 4285.21037272 3821.14462429 3512.49386946 3067.29990479 2648.92060679 2054.16889519 1396.738765 1168.16105785 1389.85541481 1135.74694683 989.888336062 948.133923168 889.460178131 870.653229398 824.661502002 790.231425104 660.60228942 469.426612536 308.120282528 299.344808248 281.330889967 291.520454624 291.166304528 311.483646155 329.193552628 382.14536973 429.044561359 464.247185241 495.965275037 536.831240814 571.223548998 593.002129511 594.864155603 612.188801493 643.940636317 719.451371547 776.588634874 744.601949704 760.211665858 798.921576617 806.062351879 870.766007006 941.102033628 925.87919725 892.012013761 877.293847761 876.588652176 860.283228987 840.704721376 799.995786865 763.338644161 733.36460356 698.795016447 662.173959965 603.164509268 569.003227287 538.93130592 534.348865451 525.895125987 525.913265033 544.438487635 583.811952218 624.5653978 685.916925996 729.027892494 778.245683188 853.948151014 931.691225044 1020.59890433 1027.2801997 1078.07682192 1146.45148295 1222.67497594 1265.7124395 1244.76611701 1281.29755666 1330.86225399 1485.16959795 1624.83472575 1502.52684583 1620.45410747 1535.29492053 1458.51281433 1466.13872696 1453.66085829 1404.36365912 1425.65031257 1453.64102075 1539.56410214 1453.4236403 1480.92147188 1475.60997792 1360.53112676 1281.38599075 1217.44990534 1162.78026105 1112.9098566 1071.99235623 965.870665578 865.670428753 830.456930658 774.901824069 741.181507095 698.961691295 661.947205843 624.657997063 580.976735945 565.961425694 578.743188358 610.607821328 586.79374848 543.259820243 562.139282829 609.827734897 635.387921781 609.895367264 577.444632086 565.220169571 528.821689253 434.364557195 388.750453828 426.815330376 474.797227114 486.424893472 456.851759928 434.992672333 435.537020618 465.4761244 506.874737708 697.453980944 795.778541807 884.114585166 984.014785456 1125.25765647 1413.97327514 1667.86371637 2090.44573453 2715.76880434 3268.38484338 3186.80947762 2853.18166021 2675.18036497 2658.91691608 2708.35415957 2717.35836651 2755.23005808 2843.13772795 3024.38194767 3040.76648987 2749.88274454 2335.94087758 2003.75414 1729.57512451 1558.30137319 1300.05552032 1203.55732071 1164.6720078 1127.50500356 1073.63244188 1014.5537005 988.739272541 988.597715549 1006.47243217 950.990126478 944.910393661 1004.21174115 994.450404847 938.31023586 859.176809076 800.228215601 811.954430778 801.783685497 735.644152587 651.920002571 634.359589781 645.373006265 605.418326059 571.225284002 531.449604287 469.705755557 378.304923759 335.228469065 382.263737208
171.64744212 162.712182836 173.201841757 180.58988351 197.131478645 212.297633421 187.985726363 224.284776718 267.269855296 343.279347895 416.780338686 509.115145427 601.048335055 851.871316631 1027.12067745 1283.87403765 1670.05920715 1835.37091057 1989.55391187 2064.06173921 2333.98610934 2507.23878049 2963.13547755 3035.78054201 3093.22416149 3142.02808553 3287.39153732 3587.16705166 3838.07624461 4271.14364921 4745.56653155 4607.61683954 4239.26380899 4078.89158258 4315.7888025 4376.41013228 3796.83241994 3381.07668274 2764.49568231 2336.36336907 2046.20870619 1700.92588605 1359.47641685 1055.92324024 995.900162421 891.43516573 776.539403585 783.511909415 781.443218211 572.039398565 748.790602011 381.014936878 637.962849023 526.386208654 296.04579126 306.711008712 274.717409793 259.311985038 263.802568411 280.811745402 268.700196232 264.599236601 281.074971077 297.311198711 318.055886354 317.337225526 361.289724765 428.528725918 453.380378837 506.863843852 527.60930063 563.434907833 651.324469022 741.346058736 709.976370308 756.959564853 837.008550223 796.767578522 822.364535398 885.684849862 887.424097154 881.633656054 877.465814612 880.180503761 874.462113945 858.889832335 834.913867935 824.778719321 778.148379501 712.391110713 655.416403644 602.575659198 553.883504394 529.554351488 533.500287148 529.205957539 525.804478239 544.783786609 580.803205849 630.848777995 718.358811197 774.44712827 787.547540599 861.698065634 927.93796551 1050.05642649 1048.4769654 1123.8255754 1144.57207897 1280.89065109 1309.00550051 1211.11326268 1192.9801459 1242.83936438 1265.23197778 1335.90337874 1312.90772879 1390.87185258 1283.16523749 1251.30176895 1250.03978315 1330.6859674 1323.84867299 1332.04037595 1349.71225638 1349.30308457 1322.67692532 1324.29112532 1288.46064715 1270.4389738 1235.16039854 1216.25976108 1169.68034345 1191.04120132 1234.6068049 1143.85027574 975.243963131 887.29233468 825.935146612 780.220713238 726.260310208 696.489735644 629.771713901 536.605562457 532.548907906 615.087226575 637.993619822 583.861677985 505.243348093 558.985879617 659.678969889 708.585247805 701.771303612 688.715512512 666.950492319 624.15246794 522.150567766 458.4930453 478.439098315 490.096646853 491.707837066 458.312922932 463.037829646 472.259364676 483.29662123 485.146417223 600.699196984 667.27794741 736.03116116 890.261653819 1015.64839483 1260.73699065 1451.74101352 1848.75555821 2604.62567927 3366.54106166 3221.33999035 2735.98321055 2649.87694993 2768.74791193 2885.12337073 2818.23260868 2693.89241831 2877.23356265 3278.5373383 3381.00471271 2883.1459988 2321.6629347 1888.46642284 1582.83082568 1414.47475572 1168.2622464 1079.34514643 1021.70850965 996.373905926 933.210545362 909.760483952 916.008177205 940.046714449 899.277724768 913.790678714 925.332830502 988.336988041 1023.721578 1001.17041147 960.889728515 920.218501937 914.667576132 881.798383042 806.296340045 750.768788535 729.752319522 721.104816729 669.002857848 635.67895812 584.154418375 528.136470752 450.548266495 390.061837498 423.723764539
157.71951128 144.240068344 121.434624209 106.854604275 136.186545252 139.128146104 121.534165961 86.9634882323 122.983661907 253.471545703 347.575742232 416.019496971 489.974901349 583.303648078 753.737627387 834.888976064 1052.49960065 1239.94735976 1363.68732399 1443.22984343 1668.63134698 2114.68692422 2298.92097323 2587.54208197 2762.58046595 2807.12143852 2891.80361462 2986.75827966 3052.83234453 3334.8592206 3728.8353922 3782.25363208 3453.00188595 3485.73662916 4004.09075282 3986.96444244 3109.85321268 2494.08869137 2164.21517789 1746.40027493 1532.25275213 1254.10120855 849.817706235 759.2592394 776.718071955 711.673002697 637.099110866 566.631699201 572.075397644 436.476976515 342.559847618 289.678676256 240.060161731 226.584610624 242.039765167 239.821827185 211.692830863 218.280081716 219.145000156 224.696740354 213.500187853 195.365032151 207.831673942 229.928026661 217.441816044 172.720789375 211.361198915 319.989271783 380.772153769 432.096846672 449.492944291 455.050825486 482.836783166 573.896089949 619.548964486 673.109925808 739.54317601 736.737601658 759.812461916 805.171101135 844.263452708 875.956543454 884.673313434 886.778956255 896.98010364 874.047859628 856.461449884 859.403870294 803.413113011 732.402952327 672.915709361 607.270899225 575.90561923 542.454496343 534.486978916 529.040698469 539.936954342 553.037039933 577.275011445 608.496334565 655.82424483 738.17963212 795.165758682 893.102319392 883.130965244 951.945796311 1057.59009799 1237.81927242 1147.19919677 1139.18434565 1144.52165898 1201.75999678 1172.57346056 1182.57000599 1233.43321157 1042.18088616 1055.6608016 1047.76431126 1060.53541416 1053.21077146 1070.99181611 1140.77947291 1153.76369522 1191.11504664 1185.09539297 1114.52807991 1146.84237353 1171.73307731 1245.94344767 1229.76530072 1237.48902199 1245.09412043 1162.2534452 1209.3640716 1313.51153068 1191.69355687 1004.7872867 883.041305044 827.569593134 796.908126729 746.682117102 709.721933541 665.871726853 593.3392829 591.289783572 673.56381393 699.930705473 650.313945269 579.027309022 634.828197168 768.684393701 829.720370754 829.207949371 845.856905557 781.391646765 723.727256417 647.267206325 608.336520574 559.485316743 531.98014116 516.952905055 487.464775541 442.206989984 438.659556523 451.407808971 444.053199579 452.526970516 574.110330917 639.479038804 712.233653835 864.090460146 1055.048688 1169.08164779 1392.65594371 1946.44981912 2522.22033606 2617.52030229 2459.25776635 2587.71929979 3047.3936188 3326.30398607 3042.49529495 2708.15723248 2766.64948181 3152.27445629 3242.75959154 2670.8839021 2009.5708903 1636.77645532 1389.51391246 1144.20706286 1033.32176365 957.285984382 921.128967348 889.004934284 900.645609675 902.692302643 865.439440672 872.039201537 859.441783372 873.731365106 902.692039441 1015.53967691 1058.23868639 1063.81201258 1046.97661575 1035.79039924 1021.39328022 981.51642396 917.110400305 854.290210454 820.434602472 761.813754054 727.158596303 682.634726605 618.074459303 573.722449987 519.729175495 494.198587104 487.566884399
134.969529769 114.794361434 83.1783873579 58.3252093906 77.3760833588 101.681445472 94.515230498 70.8468394865 94.2950729241 210.753553746 280.803904403 337.782608195 390.191046504 456.342228123 482.167630965 499.550642252 591.86658229 819.765728786 998.698818651 1138.12550131 1280.09871524 1575.91658163 1913.90593939 2487.42099688 2762.94517113 2388.88773362 2474.88556976 2675.17667589 2806.6634416 2757.49135541 2785.59329094 2732.69963116 2520.7061792 2464.12015566 2587.56623545 2288.87009978 1792.47351082 1556.09594972 1451.79180955 1270.16742692 1096.41409316 698.656156035 432.007851867 374.75659063 334.742610079 347.402150228 335.353167623 304.724297498 247.313926459 242.911134856 232.096052121 183.948746951 162.853152058 152.220753068 148.512458253 141.099070284 145.112878734 143.509560159 132.076849313 129.543357153 149.397973968 137.441461732 140.925579059 193.110691156 179.967456097 150.641633447 182.658797455 285.269286762 326.610357736 373.873336847 382.855195604 375.260392035 364.285850945 453.936818724 521.456893217 553.897276998 585.740791315 624.427471671 682.264529504 733.664075505 805.943671313 905.62522025 909.580449383 892.452553 936.352683196 913.522230885 853.794368761 833.224060617 780.318666236 714.107806412 669.323264475 609.816871673 589.622824628 547.095121992 525.625184667 510.965623647 526.39143089 557.653222083 567.918560766 590.217941497 610.752261477 687.584267168 742.032179846 797.242557704 811.113853076 850.18588634 929.758119003 1033.85611266 993.593184022 915.734461286 917.124722477 1060.43648827 1027.40514472 927.983977669 908.427321759 807.311860172 802.032084928 812.96297049 923.517424895 909.4636061 982.890150325 871.422172433 900.628413798 898.141267908 847.662794359 904.146734005 925.070326331 971.864179659 1071.57989433 1118.73719574 1215.07877786 1254.76126576 1101.64009252 1098.02102251 1136.32946997 1033.66845544 911.213526977 845.984821147 823.020496443 780.006528614 767.080433069 741.122752246 710.318083373 708.780499649 720.251988929 765.356987926 816.744286437 803.621794618 816.50119005 855.170421299 895.805070888 918.323806756 936.712470001 918.43395327 852.346056895 809.290600708 784.541994549 743.583658277 654.319048561 582.769738926 537.576037004 497.891913601 444.326662533 439.202477432 429.415159996 446.721246545 451.451410252 475.456290817 604.358805938 657.139743508 731.54620367 837.919044892 934.265822899 979.425823242 1304.78381783 1664.82048034 1839.30588606 2044.64341985 2428.47494925 3270.03655899 3779.16434239 3153.26936162 2585.51857438 2444.71946531 2574.40571441 2479.29376489 2076.74534582 1578.24293797 1254.19703813 1123.4081491 962.144252502 866.534270079 801.014472005 781.01831186 770.715369933 786.693583727 817.0043926 793.925335821 818.700179938 831.076922946 850.959860929 888.99945394 1014.73435038 1061.33229146 1090.0752785 1100.36222622 1128.01377371 1170.6688571 1108.31442545 1050.37476465 948.865854086 866.151892421 816.06525267 764.949743778 705.178461762 642.822874213 587.500169417 554.394339725 537.284193518 516.774609379
84.4315165627 77.8643801064 69.938666285 63.3119045751 75.6589884154 92.2921873619 99.1923242245 96.1607200064 109.299564567 126.09850922 156.860494132 251.612913027 279.454971088 332.096473088 375.816903749 355.538769926 381.548238994 559.802905094 782.926129729 904.940436242 1024.31291728 1187.7294471 1497.79511916 2064.85151648 2377.45139001 2127.97497198 2060.41159392 2386.63577132 2688.09965731 2241.71900988 1893.60994558 1750.00734406 1571.40150264 1497.9826669 1308.80108078 780.942447234 613.850510137 874.516557912 719.757835794 617.361012846 525.425649701 355.578835169 205.800581404 145.044998397 214.922905377 230.145286046 208.150223567 160.552278177 80.1522262339 128.62950269 130.612672422 119.534291119 106.912802958 84.095030822 55.2292110014 62.2978838568 79.7853837133 88.1607407634 96.1293473351 103.410547501 117.689002725 123.581928097 132.429024811 165.978383001 196.42180435 208.68964685 230.138926684 270.2950053 293.505466915 319.994083443 313.118007813 360.623987625 388.082384137 435.315915796 463.133702826 484.515960382 479.992775184 554.674663712 619.243126139 671.381900893 744.271261304 839.009248812 861.54822065 874.083281843 942.07716967 914.30285784 850.81004713 805.94366531 750.436811822 693.066159892 678.184278995 609.391041352 594.422540667 552.517016063 507.853774188 492.042233498 489.430972112 517.380902715 539.617058209 584.606946997 604.072584932 642.702639982 690.459936041 735.739664648 751.523963501 759.000033928 764.055216493 769.477602216 742.946419022 668.712520238 641.682227508 573.406418742 624.078769808 637.917146885 654.710187797 730.751938682 669.345483414 719.341912618 626.641838464 658.772517511 588.288196825 574.689499608 617.694019038 662.819148226 784.422214135 809.26137718 900.502859929 872.032452586 883.083576239 885.529378095 952.343999177 965.363489548 938.690961167 924.791738702 911.117154691 864.955691555 824.033759661 810.004329499 811.101678998 781.856841093 763.598416599 758.345573513 741.533392223 783.381020232 812.389218642 854.690506785 908.556728131 955.835235147 973.314502035 994.663980742 997.354964938 1011.32031239 997.622939568 976.512656689 902.866068099 860.779558102 843.904622419 805.042964401 678.790808376 601.973223049 535.988282701 504.221314872 438.663176931 431.737416928 422.426573834 447.141889145 450.644998376 471.832003309 586.586783958 618.74887813 649.257747063 763.551462116 867.643834135 914.077263085 1054.03785695 1225.0213639 1374.0332667 1553.06970442 1987.85421733 2632.25401232 3050.02459828 2636.56103789 2152.0820787 1956.3527512 1902.42634962 1798.89591429 1522.36288673 1170.6016447 982.168659332 953.118525636 855.194693788 758.275113042 730.508581355 726.34906021 661.37996686 675.286888862 690.865678326 692.657992285 746.464763105 819.294852602 842.149678529 854.809312619 970.452930454 1084.73651184 1101.45808537 1126.41216187 1251.97931311 1285.50137493 1270.51646135 1174.20737002 1089.20537685 888.337011382 809.95990323 801.43834763 704.024108564 676.456202635 610.757266981 559.419377809 540.472176237 522.287224994
64.8380920135 60.9965683883 63.0192525433 69.9351433619 78.2311151245 88.3403930531 94.2880870066 102.511591488 117.15066019 122.533769661 140.318517173 212.746297374 205.109800995 238.051650527 329.527921938 370.91683495 412.662422056 523.2378838 577.28076138 648.049078426 723.047966079 859.207705627 1023.73831624 1177.70760939 1400.44192126 1401.68670532 1534.51526333 1685.60290311 1664.54060737 1357.89170291 1210.5525135 1138.74618227 1062.83827551 963.775495206 773.432824641 392.838644046 341.805894035 592.757633982 533.787682856 476.124610676 401.253426287 297.668816727 238.712686384 206.527425189 193.018969131 159.158063211 129.187757533 138.480890487 95.558382477 81.7827882929 65.932610019 61.9262189828 59.7262387398 40.6879732285 28.0528788346 40.6581247908 54.675102069 61.8251720404 71.4934424702 81.9709230251 92.0113057459 109.07913045 122.967278277 163.24770819 194.028544725 240.77119034 254.050341925 242.162527198 261.740410938 316.648945957 269.506369137 355.612250554 414.756248021 438.279697472 433.442359923 477.177256409 489.305784271 547.009675747 580.704441002 618.399556886 654.339891551 700.294606758 759.167278063 807.297173717 837.690220291 844.850477966 826.16664472 798.471682623 746.127813276 694.886071439 682.955023022 614.570886506 567.961079425 517.738508177 492.014459517 478.665608284 471.829746779 478.934394958 502.001929831 547.924968722 603.539145172 625.604815027 643.403583985 683.046858166 720.316876317 755.056792134 704.699583686 699.380445897 581.275580555 522.943702989 489.544867035 458.714073585 435.123033018 408.964323277 388.668241028 444.914513996 474.917174372 411.756506812 392.107930818 402.100777871 449.816804168 508.097003098 545.493189952 538.837535858 556.814031999 589.996630643 592.143327738 580.124222763 647.326694033 680.989224543 660.684314908 675.824062028 745.751113972 778.784076388 804.388103633 793.858279474 791.85504368 786.375626802 776.115850058 780.480578131 774.778399448 755.403545228 743.550597742 804.706875007 873.85507339 942.65403509 978.507546832 1026.15991459 1028.42375951 1008.99532532 1029.92683526 1065.32220659 1043.65036241 1036.32916281 976.683904458 888.342259876 852.647138839 818.179291696 742.899719638 616.144908654 531.084156021 495.191207328 431.218493939 423.874015023 404.067399716 423.582337587 441.024696376 459.224331888 517.751904057 594.816783888 623.023421016 685.219942826 764.597068469 799.869084537 888.455541173 954.2619452 1041.13382731 1162.99342642 1326.71209546 1584.92802062 1755.03224047 1763.60253738 1525.08077954 1419.35991579 1384.42295505 1278.79546607 1118.42879771 970.708916103 909.99035643 884.033379215 771.328919522 695.411688868 706.780652512 690.568609684 596.382064745 542.069617075 570.711165196 593.713988276 690.91414362 808.938397988 849.411494108 833.377855841 936.698415537 1057.16601822 1123.01293191 1206.4116014 1388.44180362 1440.96613486 1468.05572079 1391.03364559 1334.43700858 1113.57321735 939.286308728 796.983321425 703.860184269 678.598945199 612.071022278 555.289373189 520.088726721 505.989664862
36.85931812 27.9962446997 36.5372219035 50.7588153829 65.0301603565 78.1161773894 85.6872900024 101.770670497 115.28294878 119.370011656 132.138602817 171.892564809 178.686796645 190.518981924 254.026075173 306.529803177 426.590079054 466.599847755 483.040154121 546.842685475 595.835564001 678.563146633 761.947501023 814.519994879 905.316742837 964.189828585 968.791999583 950.500678471 744.136412337 576.332094636 663.558090363 628.674108817 678.986961125 494.845097166 523.990560152 560.868376704 591.85020923 576.700592827 294.436474358 325.202882451 350.763660703 200.525664002 325.697658147 266.70189657 219.847969421 148.084114224 112.643295982 134.197137476 100.327280153 60.5654375579 40.7822339095 38.9884764885 33.8290757124 39.939410843 38.229544624 34.5746598655 33.4667274988 38.6132239781 49.018528696 54.576121996 55.0474180633 68.3180499486 105.881547815 189.130379177 232.61465463 291.690586785 282.379198935 287.478164067 317.775760848 362.111703144 385.672413055 426.686014942 450.451467097 462.376130042 466.560202787 492.493028507 518.737217389 554.095878941 553.584946741 581.289622389 605.718802477 623.285438194 647.913281312 725.880836124 788.730178622 840.466354752 819.618483186 809.462004564 810.291076463 752.421235884 686.753856928 614.072297361 547.683456502 499.097654369 484.095691833 462.241277438 452.664035706 439.085464929 460.891353638 471.496884054 540.111086529 588.722203406 608.113137051 621.422660261 635.524167584 648.194287089 601.881225197 532.302495815 502.615895096 438.617355739 438.557231598 355.347469269 336.484593729 336.286888564 320.613746891 274.980796556 273.49281413 282.890821082 309.030195409 334.190607588 329.599842259 347.381837152 337.95586372 304.24526932 352.016627967 378.49105907 367.030129237 393.141864375 487.16644916 522.975855959 579.706268968 599.436986806 661.090124815 686.660344881 720.981126647 758.315591577 772.679577543 756.604172454 788.216807129 789.581887184 756.51972521 768.127841185 788.786298606 865.271774522 943.143554244 987.644514787 1017.49320875 1060.65220825 1077.00156059 1070.95735435 1100.33377249 1100.96739278 1013.36084329 1035.12206474 1033.95508107 937.944264338 861.051734325 772.755740897 676.386426151 582.084404725 525.738946658 491.179682655 437.921419638 383.656261894 380.173837244 390.547403736 412.870921835 422.966472037 466.011812446 498.757338051 501.336986626 518.130934977 635.504806992 668.448565058 691.588745078 770.682420334 831.384705944 893.33594981 959.167812643 930.855369286 971.472647922 1063.49180888 1069.44685549 1038.04889179 1030.27489558 958.78254653 886.475253142 840.986276739 805.06128588 786.549273716 703.784029862 617.991371208 612.846032459 508.747363097 423.866887688 374.37571085 402.406883057 413.162693385 491.562640707 649.778395454 735.969890216 740.994277363 862.09760472 1037.08773111 1187.30505937 1393.61158432 1664.22588947 1683.09888013 1596.39516056 1591.37577666 1667.68407995 1397.37330102 1090.30963209 873.918553617 721.451651743 655.016743852 597.499539583 549.811775563 514.281750246 497.88839354
21.4489963322 9.33448186671 16.806045794 33.3858637265 47.0920815493 58.3720767527 68.5770164701 77.0192742926 98.0737059703 118.265454834 142.268191906 176.227149273 192.222755689 212.268741652 252.028473717 289.288112963 343.309163641 449.068234662 470.223684642 518.74385099 594.041781247 586.975547119 680.355361185 652.557235263 579.483021297 670.240599305 691.502079585 671.467367113 484.849028337 331.272916152 445.433570836 332.511309209 361.822371482 272.214249554 344.507378606 649.997070158 718.811651719 721.508732374 446.20218711 479.100738544 477.227080296 356.796159736 443.105052939 364.362810039 259.129306463 197.602656541 146.263612999 144.009127201 125.709640282 89.6703552326 70.1550347588 45.2582188157 39.3607718191 39.1740529652 36.6586108912 27.6125534026 21.0955007219 28.7454377041 33.8060122675 42.8016338667 38.9420142656 49.1247711426 122.48705493 204.635154866 266.638953964 312.121909144 380.182685968 404.767615663 421.850455064 461.732972773 465.623042321 451.349260819 478.760526414 459.78244447 491.229205042 511.141820997 514.55256555 535.294462398 538.054161115 549.855403526 575.215945424 590.194772802 599.55765063 649.248729078 729.647907561 862.284026078 804.98874663 828.597482098 910.702812703 803.955873086 706.961857476 610.915806468 541.546726232 464.529160983 427.924476896 432.181852789 420.829013884 430.980113107 447.194513423 455.618612402 493.708512519 532.36122485 592.08168709 577.737588186 600.387531556 544.601122084 449.57805082 363.002562357 330.529668933 312.844417081 230.97809181 218.464486708 189.578669768 216.378015928 202.815904324 193.093239467 205.771488704 192.061539696 197.996200321 187.063627284 174.514922092 204.908575626 212.641109136 217.059280338 251.546186462 263.71639488 337.387242919 372.161031117 423.394955668 435.73434576 504.428933798 565.016797854 639.484189869 684.769507061 671.884528752 693.677808104 698.879186905 726.855910525 775.536016695 770.184917993 745.630283954 772.387982413 836.177403455 916.755972168 1006.67458536 1010.0299313 1044.04242485 1042.59894382 1110.09155973 1162.26484472 1212.22224378 1216.57881667 1131.2172488 1132.15304976 1119.74839397 1022.76634795 867.645152379 703.891491156 549.816171333 564.730453451 489.489368058 459.893352522 424.562186255 361.543387287 365.059471739 366.213439817 370.256279907 364.909547545 402.977256258 404.99303772 401.097418153 431.269816767 466.230534697 535.238003233 665.869340846 631.013008676 710.28401641 722.220036318 738.751558474 816.094970672 782.824134216 676.617766966 728.752167025 776.941804264 733.478471279 707.731523467 652.031900911 538.014408702 579.466606628 603.677738438 572.527604738 438.551184958 398.672681043 314.504220756 238.743091176 227.885492673 244.134239794 282.561198162 293.672977958 361.068928847 529.160281003 620.41511023 702.390206342 974.029239923 1179.25135323 1518.97012283 1887.98894838 1863.09081851 1674.89579142 1620.5323461 1695.75579617 1486.94804658 1195.10156522 921.67437159 734.976669699 606.629397125 584.48098244 550.366974316 532.327737267 494.961548875
25.5483998935 14.4283574391 19.8942923453 33.6749621784 42.0102363353 52.1020061134 52.8635605295 52.3445752131 67.1047510859 110.707516274 144.075280482 173.155832449 211.861701224 224.412506267 246.148104843 272.529989166 283.739413787 325.630683938 367.042884428 405.329645887 435.147163345 405.81392155 425.219813049 466.391270308 438.692204126 475.222627674 498.592695365 484.651896906 500.492434908 496.939767348 479.759065862 358.150809546 420.034315573 528.204313769 658.477172136 798.265257484 987.527576751 967.65905081 924.672910034 991.228680605 917.712770879 687.862396733 588.152335178 534.011902467 397.255094248 250.647896982 113.201788839 159.835686633 115.707201802 117.543559083 101.912008394 81.2149176894 42.4080293637 40.7535838657 38.2082814094 35.3382930255 30.2734861008 30.7361113778 23.0145024216 48.0316273626 78.2686181171 119.633559149 188.492578186 236.019909667 304.509975434 385.47898463 407.582943796 426.580197231 530.945868668 580.411221571 579.547913739 516.251790478 538.769857158 520.160453783 532.630565198 527.162707198 517.159433148 510.610448116 476.372778509 479.342847186 496.775209944 583.192919839 557.756799275 604.123660044 631.343845002 686.923760284 710.228843608 758.382118955 814.464962979 746.881029907 689.2865451 623.389979464 561.294722583 459.019592634 394.955214936 419.147197067 374.652121656 411.574319364 432.00289105 454.528809585 466.784221029 482.904156264 502.746586475 497.758344608 452.030328032 380.46034854 351.423102037 284.108787999 236.283257159 203.881901742 190.55409054 180.157113286 156.510260711 125.150459449 118.423970817 125.331578055 141.183958389 121.787167776 133.861988785 134.959990563 148.831475891 153.931980369 163.289372138 190.687771927 209.905129277 225.848405008 260.257524483 304.243797605 361.235568971 378.962329886 437.11704952 460.785712228 541.836912492 591.018737522 580.529682373 604.836241594 631.398896245 629.969532667 651.90035518 681.026773628 682.028469098 720.135120466 792.434193908 908.340844793 970.856173941 1009.01657737 1072.14588287 1153.091472 1232.95951391 1266.34807906 1321.42516416 1378.26267815 1435.23651419 1337.62666851 1200.15181478 1090.60443794 943.708343073 774.111008899 582.100231952 583.737262355 475.153239818 446.192007585 425.274089923 382.250180971 357.934576107 334.664469267 340.296755233 331.201251003 324.890624006 342.571937928 354.512818448 370.231741247 399.486291629 425.704123553 497.587816338 545.133973337 638.602868085 623.713495162 610.528618792 628.133182206 515.985769727 418.721856065 431.620012225 474.810148957 475.171314434 437.271618556 360.038033372 262.610259545 341.042831045 355.133913243 375.2257748 343.49935107 271.421585054 177.759825257 105.356019947 118.662341425 175.530546363 172.272392006 118.300061909 164.060431612 357.071326547 478.183719676 598.287957597 832.398042475 1109.15003307 1426.99135521 1761.41571568 1758.55596055 1654.09069539 1597.91567847 1497.30203138 1345.09399111 1183.01396998 958.687507036 844.270077948 676.255730236 592.815934185 525.285770787 502.447203206 449.054469139
43.4721504555 34.1809241331 32.3882112416 30.1493074594 33.6001387689 43.4937542038 43.2316582936 23.2295757081 48.0521271993 117.599426826 204.248132636 220.204209973 207.334839436 230.492947967 236.031307077 255.191655714 253.989341977 256.011175331 255.905799726 254.454531451 227.872195167 268.216666056 301.703853825 350.955609267 395.949309953 426.356805827 449.443743721 441.50732871 560.354458481 651.253396762 672.239346113 787.714318071 830.918872595 971.176725699 811.531711108 937.00507291 1108.75931103 1073.22691343 1006.00115078 1374.44185241 1412.98044828 1097.61533679 505.276098857 489.723201211 447.808955483 357.170811228 294.073261263 256.999503879 168.662769037 159.777724969 175.607649901 131.213954651 57.9458540594 57.1760347565 32.3796100037 37.4210971542 51.0557232916 49.4857219227 54.2750014547 79.8589727683 125.198086121 197.200926069 178.486156174 221.746371151 333.428216746 385.425300175 445.777577087 481.637532171 615.48570331 660.023331458 679.778963861 677.085801523 655.622488816 608.435902473 546.886216859 534.506656443 505.403284392 481.333418433 420.340111081 399.332792643 418.003805698 490.274606899 493.828356749 548.036382585 575.894729725 551.815232283 583.145327161 637.916023808 685.731235575 697.644636798 669.014700967 650.985828825 611.119078327 582.659029815 519.484243738 467.579961999 423.764815378 413.97106616 409.185754264 426.487713322 446.346452838 451.882886829 436.427663074 417.951363954 385.500869366 355.232552909 285.539746247 265.307614823 205.375906594 170.875944044 149.362516551 121.603947123 110.058666953 98.829379945 115.090884248 104.989584333 110.823229249 108.784243442 152.183061203 122.748102031 181.950412209 167.348049244 167.626286862 159.385208275 146.555838157 140.036711346 195.253651084 233.646883012 232.361072452 282.606396583 365.227151467 411.246908125 415.292435654 426.89818292 509.241543821 527.852486379 554.875002202 547.81434403 552.640435177 577.257557412 616.250950961 675.255424647 740.578093669 880.772610739 929.438547009 990.672026266 1084.33022932 1312.47595495 1425.95968568 1360.34635807 1423.76665142 1528.32862367 1793.19909347 1512.82763106 1266.73330364 1175.72576974 1103.8346237 996.76393557 771.089708433 625.352777523 537.438214692 497.442378199 437.702618182 395.846848417 320.304648764 293.728025261 301.74108832 296.240295962 284.895875493 298.482802597 330.288357682 330.003556862 367.284334818 370.49811757 371.450131296 405.963725742 403.348139631 382.972451788 392.29354324 379.215269266 278.905223141 245.584103986 278.514183289 297.51163275 324.364400292 305.665778428 235.38626422 78.3835766068 198.290949838 285.825411325 300.262454245 253.366574269 190.640724394 145.911462687 97.0404248816 104.47674209 135.966683217 136.250343136 102.508364043 130.375736639 216.672702693 385.261220858 495.226265683 635.788321921 936.709494399 1250.6939382 1476.18439451 1553.54274037 1601.38926457 1594.17006476 1467.17014093 1253.40146367 1156.05375975 993.733490099 917.66441327 834.844599329 585.037884733 458.651312524 420.048217513 409.100795611
57.8108544519 50.8192137906 37.8948170124 20.0132164364 20.4138301804 45.2189622503 75.6791484691 48.1892459965 77.5488969963 154.298146625 237.768084951 238.969242286 222.548632955 247.635796642 266.266625436 248.219766859 241.162854002 223.468314396 204.101376424 193.883155315 186.776682894 199.136467883 206.116418287 227.964099598 335.642141285 424.087142417 473.391027415 555.881715071 731.207076897 807.446650073 1066.99462044 799.649405432 977.254120027 1105.74368159 1155.61520372 1239.08182476 809.534275403 1453.87731063 1557.61910156 1921.7114854 1714.37337238 1481.56671491 893.417462937 691.384859347 546.131466557 327.355922311 473.384222586 502.921802323 418.537783497 188.841463275 237.554301851 149.295193501 132.169468446 122.757743576 98.6645520374 71.3451102804 88.0725080005 76.0722749023 66.5210351623 102.078304538 159.775725655 221.231474515 220.564749432 304.539594701 324.362478388 329.612064403 580.498966166 700.289484305 679.631578266 673.211984861 745.428222181 755.71001636 753.207703014 725.572392798 673.760340386 541.7509759 450.095465745 379.350569141 359.700589445 345.657116853 335.89404732 344.952070284 366.503192956 410.154419463 405.845002539 445.69677104 492.747724145 549.4521626 618.706735117 685.051079331 662.649488332 677.407694738 658.995371323 618.736696372 600.695174909 552.821594315 457.6389607 406.212891193 393.054160968 395.165261836 414.393602635 410.342859234 418.238506533 395.026276977 388.907756035 296.240844988 218.728699937 157.433630645 141.956702353 107.789822752 77.9216478224 94.9413379481 86.7267037587 122.076927514 169.940529013 146.678851621 196.788375211 165.513092216 230.988301033 192.7171821 237.200166091 168.977158315 186.390847252 149.034167293 168.745278858 157.986972236 168.495445874 204.889023257 209.051919981 270.370791836 330.037084088 390.566241972 396.491012338 410.215108975 473.186662631 511.830385415 513.349537352 510.502536538 526.681071769 533.385208969 580.576098047 628.585192466 680.317571557 805.861085756 922.882230604 990.747282617 1105.59243947 1196.31017247 1326.60517878 1488.94492183 1605.94130768 1449.29954199 1585.24467733 1388.38570165 1341.83881341 1198.22454344 1262.10574469 1233.39791566 854.362434193 671.425889911 568.376591932 478.937207249 452.869095047 413.872613811 337.052874355 306.708579048 273.054728906 270.694195421 244.398270093 237.38449646 258.124620967 265.756201948 288.294520554 276.403527852 296.299200104 303.09758997 289.000424019 272.229731986 296.84831713 295.679938429 296.927497157 287.828620972 199.630293224 241.296724119 239.263326018 224.636515862 309.473173055 236.062507158 276.908757649 256.542713904 220.181942989 200.988441642 140.366457718 94.1040658625 106.937368998 101.799246551 101.384024713 128.179572057 130.942524223 149.235972751 189.399755019 247.185897382 347.720392419 481.338419613 801.487221016 1192.85209779 1371.14930696 1453.41810595 1611.92916441 1661.99041283 1589.32320004 1343.03899686 1174.18004953 1022.86793767 804.27260783 670.612241813 480.326747625 409.023252547 386.852342331 373.055008027
68.2727647414 61.3887505082 51.5144378146 32.7950937146 34.304523433 84.1082638769 110.818252049 127.359917875 152.646979574 153.96071277 219.397371394 254.936944458 156.993415805 270.128700728 319.240623738 270.806148555 220.629391656 190.733364577 172.555579769 168.64996848 143.537037813 164.518672474 186.436708647 232.848939263 304.422740266 413.834788745 478.330775271 834.994216198 794.017669549 1085.47939052 1027.21153234 1379.91825913 1457.48237263 943.33541007 1973.41467249 2246.52658264 2387.99629274 2367.79600793 2318.33542056 2311.04349321 2120.41158871 1819.75223971 1643.66783659 1127.05428795 847.542125904 730.70944771 700.36592848 735.833563453 689.729894187 508.760735878 431.25676103 315.773531731 254.87538108 214.002200849 161.511749871 70.9402319035 99.6382037926 93.9824288858 61.5598709471 129.982149169 163.997782979 180.015888704 298.98660223 463.221007672 569.263455571 633.92707513 740.53003909 848.054534547 911.609770321 904.666433601 865.330956101 827.384375292 810.213436103 733.611600387 645.011111261 512.777726588 425.77628962 374.06505524 333.694108537 330.300703324 298.574568853 286.165589604 294.377745728 322.110211482 368.58480462 409.799124563 435.890099977 479.115950435 524.859178108 591.216324831 642.014711094 687.855922728 683.971433193 656.604378184 652.300734323 595.426104865 600.808000526 549.267242983 483.353441712 420.18053332 406.560148184 373.656784974 372.847464999 333.670832328 271.00445818 243.641785381 179.390916751 116.466210504 101.224132888 127.382567186 187.300871381 134.710832307 201.575256981 161.251801415 171.436843962 303.935965875 362.585220265 373.085331669 621.471074034 868.46568073 240.274850586 504.56067583 407.626657163 218.868569976 273.637667198 265.470443533 189.668774538 229.601414173 300.574048875 335.795353966 306.625967511 397.640502827 443.243857159 477.651624469 501.860195382 495.200889175 518.141973166 498.368609703 496.657397555 505.87936665 594.435833039 581.588789438 644.642046844 659.372040364 757.793417791 878.303801985 1037.53555826 960.163738869 1065.82792994 1261.76351632 1371.34484313 1118.29723012 1115.783392 1180.93923242 1506.23445045 1186.71842128 1086.26831125 979.944214532 813.489843915 705.81693181 651.634166926 503.207884444 466.847249161 413.590292833 416.58969324 377.273718927 278.771617032 277.418909231 257.982772116 239.814849929 229.727551493 231.563094929 231.829371443 241.49196453 248.585841517 246.762158289 271.507400709 289.229724478 269.082057291 270.856434863 328.028428468 337.258756208 276.059009191 318.170503329 289.743123745 285.171750578 465.339150642 466.3810291 380.761111574 176.983152153 70.2287397927 159.794076352 91.6260086068 31.6589577146 67.5440056686 88.0127086469 107.823168584 110.110180018 121.719562075 140.100921252 147.727168848 232.764214212 270.053730561 393.590547112 596.131046438 1124.90456841 1350.59968883 1523.23321043 1784.08875336 1841.02126611 1789.94005719 1781.32638922 1318.81477461 933.5303924 645.546320669 456.525064985 426.932561596 369.935177595 343.089064822 312.199979756
95.3534653367 78.8485043278 67.6786199506 59.4938651004 67.5041637286 104.938963894 169.747526293 186.068946612 204.174146341 112.477960499 233.859158433 342.820282295 280.675587664 405.515431696 502.860531654 361.671654403 278.753458932 236.282644892 172.353408769 114.590661354 113.039960118 103.47939059 143.135041878 228.222909161 308.086868 429.678173016 639.034022747 678.470141451 1221.23569255 1574.61284289 1591.50645207 2207.70109891 2478.86492293 2965.21807821 3036.77948283 3063.15956479 3406.19650587 2986.20131435 2734.68532431 2243.71471281 2073.64417993 1797.48297704 1483.30973593 1204.29675054 941.984345945 837.023283115 821.077437373 903.927627428 963.021378388 979.647354505 922.518331998 755.098431875 196.442464399 323.884748747 167.632542829 229.131591846 114.547587717 138.248739859 160.659399222 134.031266938 173.226179147 227.8099855 441.34875071 605.294397285 791.817246668 941.493370798 895.808056439 915.11140325 1116.7042227 1085.3133488 953.889271862 965.422728155 799.718881101 640.652184031 504.626488638 470.599906991 444.577947572 350.079831637 279.582545374 242.608531339 239.543997831 253.395159967 262.598578111 273.995334883 321.545402376 374.938500391 415.528623696 457.501001111 489.814214027 544.074898412 593.454474676 675.880596421 689.228106319 707.909601872 757.605218487 761.56669475 760.868625587 714.301680727 612.989051058 496.726339765 461.492770626 406.325704115 348.047122943 319.289603496 258.060707985 205.643229727 190.334656877 227.98435929 222.425685651 253.6421124 276.565810376 232.037186922 383.707709822 390.800297506 640.899135087 676.231183412 1229.68148398 2019.16070408 2450.22123888 2105.00685672 1879.42207845 1660.68229562 921.876280122 435.834990507 409.215236417 364.62036736 343.75498377 345.269692388 396.33583253 425.487205601 456.309533961 462.057490654 491.015565201 498.273777969 495.520015885 482.814035209 493.709823117 457.236236112 424.827595527 434.197085289 465.508703887 490.089330812 495.856046975 507.607174011 566.598453261 617.538276629 614.913321005 708.289922427 738.070739641 710.905121951 740.945814476 723.351477645 697.865785317 758.742776203 847.192816871 839.013599688 752.222656164 739.647232301 804.857628907 684.753479881 698.424514843 565.510312727 507.372663654 486.719240335 473.271913642 458.322831138 416.172498761 372.243888331 309.656830499 232.414125097 201.36565937 202.041804809 200.062056312 220.396849707 250.704747711 265.696533738 278.46968805 296.87919595 330.182650053 343.329949488 367.577460754 418.374514468 456.216634454 520.106767153 586.6662372 727.179835237 736.166492359 664.384287814 548.290452654 295.881177467 134.7227392 188.059979971 140.288573372 82.3489681803 83.7099171797 98.0855720619 111.128079891 108.797686289 123.727611732 129.705727001 152.499417274 219.217030203 257.533195164 342.075443566 402.400174067 738.55003404 1186.81671171 1684.58453493 2223.81293433 2057.43289143 1887.9884643 2094.32082382 1283.02541851 731.143033009 529.047980394 323.603221199 311.07675099 271.260259134 246.026642621 227.074539007
89.2512100606 85.2771941494 64.967155299 55.0566721102 100.710991249 125.644274421 185.461563636 223.104344593 308.985303427 330.633601811 451.910048984 618.629826474 622.075670678 537.230178689 591.496802626 513.977472507 324.99623872 268.82651945 170.04229902 125.576274308 115.178937474 95.1194133344 127.699660237 164.992453556 230.154280292 456.447650053 823.249998209 1261.57482639 1755.80381585 2431.77095752 3614.83533374 3189.27073629 3155.53661187 3318.50416169 2969.8776146 3308.78929799 2807.59208836 2652.48163749 2432.21151086 2034.66170099 1853.53171352 1541.82088031 1362.90727286 1131.87316013 953.453840797 887.993589912 808.348088785 884.528724406 1013.74790006 1283.78650387 1482.26953139 1336.98435632 1196.73484062 763.37308977 534.261789895 458.607813334 300.080898125 275.255202423 260.605555581 254.543898231 314.530496421 463.503659392 664.328825744 735.675301463 792.265775799 927.692341475 963.329508517 956.658111661 957.926268633 868.540651483 1004.60862172 825.977343663 615.570374189 538.64388046 469.175541621 404.08121911 337.477914202 274.548804751 246.574859788 231.761875162 221.794751162 218.36230939 228.844706175 232.376179326 274.358848022 315.41509817 362.968421318 430.119465193 458.637483228 513.367841977 572.842091794 728.813766445 669.102610677 719.543793521 788.70574347 907.265065684 863.462685796 833.088196752 756.007342629 574.084755543 554.932520649 482.472705122 412.18495977 361.707651268 337.499204872 293.479717421 288.601543791 357.434418997 388.404247678 341.100157892 315.167155448 766.789877155 1126.46025969 1634.06582649 1676.62906574 2549.00625825 3336.30992136 4195.77987805 3539.69690331 3822.37788964 2649.48267765 1830.02232045 1228.22763863 864.704942714 539.043330097 422.152923943 421.541325279 440.480853308 456.373446858 490.932645568 486.94416224 512.607941382 513.845523014 529.820430726 495.577957696 466.97776534 404.913738415 386.373850386 377.192768632 354.167938669 319.109998843 365.860942314 386.37448848 428.631223213 477.705961215 500.403954893 556.85378677 586.538987479 604.612652502 586.821312886 507.287748667 450.488313724 425.033712599 398.703504655 412.323253749 506.290227136 522.273480595 473.933664115 509.560578896 525.008458775 521.536696208 532.998976907 547.994674622 513.953424356 501.550328518 490.181273814 440.730915392 416.860643816 342.068454823 282.553366345 241.903962126 217.253022937 225.212543851 244.621375927 261.672155489 291.870905057 303.549525513 311.165289915 340.124835351 371.556350639 415.102615338 470.698366551 516.120235914 647.045299188 791.606718926 1116.63455487 957.198504296 833.261793458 767.093259632 688.924282968 478.711041644 319.499575213 197.453330304 147.063310945 83.6000051581 101.862157863 117.756500779 119.147862899 100.790205196 119.597311166 125.149066279 137.305140046 159.498711475 246.654783218 298.897122265 556.822321912 1046.83011206 1541.94161314 2095.96095069 1946.15294595 1592.30111891 1329.7489202 790.349790887 549.479645615 408.285314648 287.203535075 249.98865808 196.820821838 176.249043698 165.861595207
64.6522809414 78.0092487299 88.8748658794 84.1849129992 128.170165379 139.7059019 207.26893854 231.594229152 292.768720837 356.57691369 628.936106403 840.357282429 957.567716443 716.545064074 750.682858344 512.417923281 508.139852171 302.407323083 167.147643534 150.150897818 103.677756523 115.429678828 109.451581298 187.740955068 363.096516068 496.175004281 843.819568283 1395.89809576 2451.37090837 2994.62874215 2953.75078189 3063.01338119 3565.6654382 3066.72658056 2374.9292038 2300.577855 1958.95376883 1879.32310368 2037.51309693 1843.03379664 1566.60996458 1520.30994111 1120.43338204 885.028324958 811.081901785 717.567047143 680.66843511 770.765685116 989.946017599 1564.99508603 1832.97888953 2043.80246427 1403.10362881 1005.10290716 748.038842701 417.90613058 412.176577811 330.291727996 314.039820882 308.301197012 392.923361008 494.430129058 554.991813786 675.9972519 687.885304958 683.002697521 829.05632576 712.985486268 597.251666807 548.906574919 537.37302895 479.887875919 501.802671882 437.886515844 387.993076435 311.343010717 264.096562991 248.216421565 236.695146135 225.112512113 215.964431657 186.782348302 193.230292226 230.458916871 262.344443598 305.433001716 374.63654782 400.635133182 454.077420985 507.788946138 522.369810545 528.22316699 706.672560414 737.782653796 821.437676871 776.269006109 831.336889084 862.509314047 860.766848263 691.642327937 550.37546765 524.069332526 457.832910843 462.317465087 437.981580378 401.772684567 333.915960087 554.843013372 340.057279606 1039.59757408 1378.79646319 1192.85044533 2336.52782037 3619.50627817 4941.95182496 8207.58097135 9038.29296873 9631.27255128 9384.09461616 5762.27017249 3786.96491509 2293.60136059 1384.87612573 1065.94625844 705.324090957 561.136369632 433.202083174 483.693756289 488.171467394 512.633887138 528.872085169 535.282028659 534.859442854 501.545507783 462.895548137 448.553695885 393.413849511 375.815329536 342.818358532 309.810836077 336.835937146 344.87176843 337.217997592 381.050068199 417.106975983 431.416048486 443.218519548 460.161359691 457.734369191 402.240791103 363.744370555 349.617270704 356.975313262 358.496874406 365.092483555 342.616182497 362.1340735 393.909816434 432.677128851 437.92685846 489.668282415 549.555027907 559.704892656 581.615579223 612.838465244 603.567874673 549.927185987 422.695497713 381.331740003 301.955084108 274.766540888 245.707386352 247.21526528 258.67224014 278.384484551 288.847882984 295.836394471 314.083877412 298.509443542 326.413694579 390.221630661 442.847999041 669.46512516 742.974006209 864.460005583 899.718477295 939.463326544 1001.18396794 890.111530229 1001.64632163 611.003434947 396.698053806 241.391660985 160.217155783 96.3870377894 118.814687188 111.705783051 127.060583204 143.685629591 118.557167324 119.340164603 104.009976409 105.650292459 133.172977193 149.932387469 386.374780941 879.662087385 1341.11104494 1640.92516646 1543.74720135 1286.80954143 935.222919463 558.313185997 492.318460132 373.15032789 273.525206515 192.773505553 165.233156203 152.531160484 148.190744297
82.5610191701 110.118332864 155.710066062 173.421430832 169.695174692 111.883052068 188.681465935 141.450936735 354.416056417 569.038045038 832.186129403 1010.07755556 1355.37775818 1310.73634261 1168.33246278 978.479372712 831.019855112 475.701574504 375.894698445 252.271887721 181.200478825 190.558863499 164.206171324 209.11510924 268.361706917 459.875593437 692.764187747 1335.1501027 2117.79745453 2045.82224094 1667.50548252 1583.65155475 1492.21508763 1542.65942041 1835.37811052 1401.19657446 1628.62174253 1604.37002872 1084.26321893 1003.83771039 732.313511492 481.16569014 436.696329101 330.886592627 351.437844649 421.145000124 485.307304108 678.782276025 886.363129589 1094.35551047 1467.21172922 1899.05936571 1713.97858968 1699.43682515 1158.82945105 901.650202786 591.010536392 400.031226935 342.631310718 372.833553963 438.779291238 488.469323604 601.301288706 592.695509279 503.709181201 382.867996944 251.130458337 333.966371484 301.932127952 360.449271063 291.520111264 284.627918846 273.429009253 282.715695063 204.280654104 230.881121282 214.57026462 245.8487923 249.799850515 215.437733289 211.164568773 237.233221982 224.034290781 225.255649662 224.48725547 320.507712935 378.006565998 394.160780621 383.969588968 382.692131008 379.279549505 384.801463037 430.234613464 473.043442735 549.257359204 809.508582119 834.036992881 704.723409548 774.559721298 750.478713378 767.519945297 606.217628284 538.408784931 503.6122607 478.736310535 462.177606812 661.693070431 992.576240408 1757.66740437 1783.63070851 2395.22775114 3285.79727025 3680.92257824 5208.81535391 6922.51613489 7769.97205412 7683.79961446 6063.24455339 5445.59903521 5083.45842763 4084.45811267 1891.80897484 1050.06427642 810.881243162 675.024528086 642.148937049 581.67055194 575.276103133 559.022049917 563.507421554 537.524661562 553.915721772 559.328507842 561.948567178 530.136395444 492.907013261 493.186655638 443.97369369 396.74173393 371.754753578 343.034013844 340.546160831 315.261386055 353.31848836 371.687830776 396.004527473 409.067115515 408.428863066 357.744443981 320.854983545 247.610196305 266.368791835 244.14023637 285.191379958 327.664263228 343.760595383 374.92873094 399.20141647 415.754434331 403.110491805 434.038658579 446.09169368 511.614092558 618.644816803 636.171284395 704.653189185 705.062488387 616.490553052 490.784606349 399.803260571 307.352553175 283.910211851 279.100535916 292.377110944 307.548878254 304.214512774 278.937172781 266.118132695 256.438396907 252.276195774 264.53277222 347.116053221 492.538881326 633.298306238 731.652998894 675.622492987 769.846365224 861.481843408 785.799381196 713.890051806 494.254923873 359.279390551 273.756685217 237.916623905 193.479488314 190.264267362 193.063496453 196.093432578 209.699023959 163.091164491 158.36724302 107.76185634 79.7209724442 79.7154571831 211.342595554 480.443732118 735.829453389 989.551699988 1529.47365589 1391.09974612 1015.6317017 783.010156126 641.982789734 398.646069521 270.359749301 170.204492709 161.224884414 148.631716649 132.445849282 106.538246835
182.007674546 180.172310603 204.900180866 226.809988056 232.856318784 248.661340258 286.444523929 318.90676251 418.061643036 547.242960346 712.931496478 946.092637257 1095.92433611 1530.94393964 1561.65304283 1330.95646509 882.492945315 675.300573933 400.066889296 308.857635305 311.534769947 238.446262405 316.75962826 252.158510984 280.088485076 350.435606325 528.803184124 913.841377633 1300.00961509 1185.01006837 983.649391139 860.908139757 793.728895576 614.211152405 510.480992518 454.282028599 326.789244502 314.617706155 260.059430739 265.199016079 325.465740582 347.689238506 395.761086611 427.627736839 236.048841755 266.440802075 256.190432555 311.473541642 481.045580434 698.67534464 967.866605311 1742.93347673 2036.42205 1455.46441054 1413.37484949 868.787057263 657.592965701 503.899139878 397.316342797 403.54910231 440.033658252 477.076283425 493.178037598 396.716262827 280.93980259 242.047923697 209.762640385 182.418608341 195.651487821 172.443002375 162.93236251 219.269162673 202.926035876 218.784925036 301.98389446 292.338864748 297.510525181 236.423459126 258.953411599 306.405370498 294.203440319 291.471787635 269.895002876 275.521703667 320.373734368 358.31820584 382.471942081 375.225045989 355.472255149 312.986083666 302.171305615 250.45914004 233.638463836 270.608917636 325.630167335 427.617250897 534.181215654 572.494115892 636.614343024 639.145323461 648.173569089 614.77540262 557.693535886 520.636632214 478.678647882 550.215555367 1055.61904286 1137.00912379 1314.54676731 1832.21478641 2179.42686222 2180.74473607 3149.20902627 3003.09939565 2819.39903603 2478.11045139 1540.68549927 2497.91705605 2216.76808217 1330.76752865 1295.85812065 1013.8977955 756.933359104 592.340566975 653.889792875 639.325474766 654.58500964 655.34337345 591.274832066 590.630672967 586.198717876 586.672202704 575.182367022 589.102006031 600.406669577 610.755689219 572.388546906 536.666991685 470.728999801 435.675262989 414.954547957 373.375681838 361.797981915 339.713783705 354.882286766 390.90518774 402.006208493 393.036510373 340.534638581 289.606166287 269.116025977 230.113604042 261.959160126 252.283653026 290.478348944 434.554706008 482.221354115 404.706519164 402.110973989 430.931592958 394.668574426 436.955719487 447.796083777 481.880057142 570.000014888 657.114862269 756.394467071 784.256451751 704.265027265 495.96441665 374.621211656 351.174790197 328.174177658 333.087858485 321.700326811 293.503332769 265.02384752 246.16233224 218.196032239 216.891559474 232.84284338 256.566138878 281.646259319 375.883898609 494.178064871 545.492500979 586.393852185 595.58968747 604.138929875 541.937098479 347.11666244 337.084286996 285.433928217 231.224738947 192.000150817 192.242252031 215.643923539 285.659036878 342.030005307 251.776959461 184.849543991 109.834273775 120.583246993 102.713609547 339.882147639 501.390584917 995.180569316 1400.00587276 1524.59322304 1398.36418214 1014.16289658 657.985252759 463.508708129 294.811893742 239.828078183 206.876954661 174.852066318 115.655096266 117.207566537 120.947048443
219.536154091 197.685507357 226.494590954 207.932506474 244.323356858 346.541348212 414.152822475 405.80626227 414.764881482 465.854016776 567.404895421 673.083772855 743.535944384 1015.16719978 1262.51966347 1211.13807983 881.476918104 703.79971188 443.995459424 410.996956892 476.79494275 708.402284201 560.487189941 427.152772079 373.915269943 405.616698518 550.458976594 683.794841125 603.966329115 464.384604622 392.444755682 371.24934288 436.682519847 428.88078564 363.487177413 324.970006478 296.892775142 299.14569442 270.467029033 289.905434955 396.969068268 593.96099937 718.977168397 822.253856242 768.281136541 540.709673488 366.540517696 295.596809006 318.859368255 454.20786849 617.414980958 574.887912385 694.081097191 662.62471721 586.446047062 465.514806869 358.425820005 322.159852278 318.450983182 320.592340994 334.153057466 352.959104787 291.748630319 266.496061691 234.879649227 201.77986759 214.980957423 182.402176625 223.819673887 221.73763622 213.867748689 217.620355908 238.256449808 360.487519475 396.846850621 404.385240094 397.655658192 411.63748906 429.069340566 376.866944452 393.157254515 394.368346083 357.046937537 297.976732178 301.632805912 386.151519155 444.915041489 371.895616425 292.516985626 248.122990675 218.995168959 174.201570498 242.563008433 229.478508651 219.063013053 285.788011796 336.981030654 372.051393036 456.093545117 504.287666313 560.005678895 589.126580653 559.113698431 519.057612606 475.853200506 510.201982181 579.646622493 644.906381949 705.03507919 791.336022571 660.158429349 586.957249138 566.33337162 530.215464587 710.787196241 273.252352208 495.368290834 562.118940536 423.314497741 346.658489188 290.535552742 366.351759 371.249332583 412.222868549 432.236992594 545.178891862 656.699223323 720.034574295 762.745720303 731.685682846 662.380909144 594.776042937 589.910845899 581.486145743 551.53608498 558.259734903 570.485456104 546.118418092 538.929329977 526.761803326 487.815368663 460.409992549 413.431258982 385.454485224 383.274221186 397.116534776 403.629722341 403.329659537 391.814313038 323.249729287 283.815081635 271.999801939 313.165806084 347.180813525 482.193160321 581.974313308 596.870708935 558.042543748 500.327084457 490.349408 495.526807273 504.679255148 485.558599327 465.38982436 499.78589799 545.093316694 615.935659135 761.795981469 772.344905362 617.235746503 426.399596564 351.491942064 326.294776976 296.361982326 281.315837354 242.986940837 223.402040983 168.033280593 162.216465212 170.604125067 192.598782191 250.296800203 261.557921996 264.283088637 283.039267071 320.397642254 405.02245073 424.948183779 479.598870861 523.803506133 455.118360152 325.929507175 236.582369938 181.707894649 168.447316451 192.614376037 252.533683922 428.743118387 541.859247786 696.941543388 614.921330558 526.322056555 188.225928711 315.453645567 289.564142155 602.067609548 1534.70991889 1777.37365532 1496.0588645 810.925338309 294.825714583 192.874116734 229.148219403 314.768709108 303.207440259 233.449027023 202.123387151 182.727828472 151.592926907 113.712590372
219.702594338 262.172782842 317.821530175 353.329427528 436.509482539 451.702462195 487.010270759 460.505964544 436.050130329 369.854400448 375.652619494 415.78809707 509.632473885 557.709895414 565.424865154 643.609944745 745.438905647 483.734437951 399.19536025 381.575449394 561.300886641 866.479378004 919.62733897 732.125253216 357.572090925 365.680830326 477.793006666 498.767627703 317.329958629 290.33813644 326.483193657 364.441445298 452.812793636 463.070732185 521.604105452 534.93288485 542.925747522 510.232283612 678.395896661 660.874685144 491.652118775 684.541806452 923.272172309 803.310621168 716.674830754 688.933890417 456.462412361 317.050238942 282.613058042 275.242889496 263.010268023 241.82097842 284.014448313 269.570311102 222.559050451 267.986980928 211.745823479 214.336939983 221.03279556 249.426383577 250.8624703 256.977871293 262.852943456 295.048846082 185.408115978 219.377452211 299.805578951 389.86583462 408.344049047 373.737186562 343.598453617 335.318128619 362.647771782 426.995760223 534.658778764 459.150633563 426.868396185 489.81997513 513.064012424 495.003173539 472.138650321 462.21161396 430.976105151 376.337865004 352.093131873 392.857695238 396.544751467 367.673186914 294.235022579 326.642739512 423.852561933 449.50949205 345.645723351 400.438525402 380.726265634 338.320028121 288.980319772 279.25320428 296.654568439 372.949490517 428.545566588 460.364518747 538.666102961 488.190160509 403.041540981 428.086300044 437.443331487 422.525483984 427.717654744 561.59927198 586.670681341 480.241540352 496.201524521 856.218832142 639.398886592 579.399706399 492.800656472 418.444409706 425.846726574 288.57216954 402.531136878 438.239792134 421.991557424 451.721095378 444.774873832 495.702199673 631.082759941 810.347270934 782.39523713 697.598665799 587.619254719 553.704450612 464.746289071 440.748555851 478.006140942 485.722699384 492.529875756 518.588842104 519.255996153 518.981507072 622.153712627 514.946487891 363.302928691 357.81719298 365.369506816 388.605020298 373.569126862 417.521269604 391.008222586 318.91135893 264.53095141 333.155510324 366.427138998 469.068679145 514.696226203 590.863984604 604.55467244 549.125264585 529.099107273 532.295943073 550.758307375 585.144250293 525.925341983 470.566522296 431.993052971 398.807435436 477.06999863 553.995254789 632.53877949 616.686544405 365.392574117 261.721300307 250.535527544 239.00275573 237.739184491 199.987139791 181.663979081 192.587849683 181.777838041 221.961905362 274.190487525 307.151282889 281.118647443 199.937901981 169.420588509 176.511433919 239.653444905 372.264725007 470.013762417 507.118647973 475.970077915 332.071216231 128.303924088 133.676683409 136.315048335 171.054582072 277.761565847 482.900161054 948.103121525 1206.69578363 1420.99381322 794.703676786 651.991546583 797.155798603 1145.81237823 1740.26970637 1778.3728588 1557.36729176 825.47986903 249.327204106 77.5692702527 75.9252805614 238.181215771 627.793780627 409.112596334 359.070689804 331.005453637 250.386346772 197.79710126 171.27418442
280.912524891 328.4898712 374.898306171 441.673289872 579.152300447 748.127034381 773.705980171 648.157406729 444.438525087 329.085485146 316.768130352 340.909040164 261.96890965 275.721831273 356.800046046 308.335697293 383.554080399 414.8525451 300.197525422 310.549209477 361.120678163 423.372725327 548.419991003 358.404874646 266.82886045 292.396680894 401.943496953 403.854091304 334.458761935 302.679085632 533.328399713 604.213221043 628.403952887 586.194072149 661.775796966 727.177208922 767.529766501 1189.20124556 1458.25741012 1304.89058842 799.598938722 632.364714438 777.731333474 543.052194506 541.326661711 657.638537079 325.427546895 259.161712115 304.780012658 305.772802109 270.457715927 238.201814747 272.663483229 291.571347582 124.085816934 210.432350866 161.357037184 141.377414283 252.876810094 214.696695431 197.585113293 200.627673064 303.142498522 371.968118393 317.680305482 330.544591818 495.296125693 506.886745553 511.664557019 536.974395379 583.647184838 457.096919475 381.917786743 417.224840094 402.046017219 401.223240722 403.821237198 530.198778264 556.483296448 380.896499034 281.364909729 340.047730199 316.058352473 284.348135482 327.723735894 262.218393635 341.02487413 328.983968704 255.155448395 382.852475983 622.336275146 644.177788778 614.812817983 476.009871819 489.833208075 413.484486189 351.412838634 245.925649026 249.694750474 320.141561422 334.026302049 290.279351216 297.365132264 244.134801981 238.16983362 306.223230135 383.145296923 289.017536026 364.960137059 568.772979465 529.94808401 507.188760613 792.222354314 1104.8218139 1269.10137388 825.131330659 806.366575567 1191.93476542 1516.7697655 1430.28229578 1196.27828157 894.031626795 646.107271102 514.453268656 409.836910805 497.261745347 500.511551143 678.664641912 620.882677911 408.37397619 496.28780872 460.18118351 487.375505187 450.44103654 492.051808065 493.075362259 375.687572153 465.02753533 437.457450678 396.991250208 560.228814646 379.542097045 281.855368785 326.987473875 316.887905061 333.330388245 289.678302781 258.620547903 414.298177417 277.712636526 268.612311072 363.195842546 383.899931249 513.030374723 569.236436194 537.451471108 562.306215882 489.044349521 475.137913256 474.654827721 527.190458967 587.396910329 576.977498794 589.919037237 391.029816725 299.35771531 294.748180002 270.844782031 336.200154835 367.483841399 264.768062153 186.539892847 151.220160609 213.682862692 292.926583015 116.133996246 271.961433502 268.325894102 170.47146917 214.728848395 324.784356002 188.349015395 162.748098621 168.007034187 191.828003832 165.960809012 142.419448256 244.654536448 581.111021881 574.325230699 391.488232403 356.23491431 251.665664657 180.749432447 227.104030542 162.468070352 93.0479574383 332.931883891 479.479529356 1509.54999552 1208.19790278 804.413920194 901.754913001 489.869766645 552.552727983 2332.78056498 1907.34557582 1456.66591528 578.1081673 302.915354402 95.0817111408 82.4552124754 283.137088615 1375.22386189 1478.97454368 759.386556114 537.50170061 302.765596067 235.814357689 180.159752063
342.186058232 349.37268719 398.774500132 496.814335286 598.485410501 727.03263979 981.637698414 724.966327406 491.796210708 274.681648737 272.911148232 365.025472848 437.465357684 352.089336859 443.110822945 395.495949828 399.487255185 442.329496532 358.384019519 310.59133626 306.944815105 234.4439722 288.640664072 561.988797121 265.637466905 244.164238841 477.627042749 471.941710027 511.707434023 557.130768098 669.958286733 755.947396719 554.002977454 398.558681324 501.416452848 507.719654926 380.518226923 332.707093729 377.561234863 480.718673493 209.147911478 461.113051234 783.413226741 448.334492741 432.55463269 469.525470617 351.672981373 216.486326415 306.827190817 248.423031766 328.987377331 693.273240403 499.691424582 438.010094852 342.043837556 296.094385506 292.319482279 243.842031993 350.630651809 341.315626732 245.224045417 279.57132988 456.847013868 278.420232127 253.682596576 306.76817883 437.431791021 359.657846979 243.566249379 223.517149431 342.507212322 329.008577883 352.371375348 285.547744527 271.973300594 317.498895813 380.253390158 462.216397429 445.923019625 274.162687612 163.77552871 224.603419904 330.652674356 298.596575881 406.533365114 304.371495223 237.87414687 301.892000898 357.808663887 458.884825581 361.915277104 290.571271465 279.950716669 250.854155079 296.151727226 432.492440577 400.530959702 253.763275803 348.245006393 496.888906443 483.223741182 273.517962949 293.253060311 222.588152656 166.174373528 281.707868821 601.236458484 761.579677169 516.186039279 308.126225807 351.083993581 290.323368354 287.959815395 293.702860127 315.89079051 196.050552922 256.750071238 251.969775932 236.187989624 368.533791262 158.639584536 351.121530655 415.185906652 554.980369164 406.299239354 483.280838064 511.871048538 428.117229805 395.260710659 362.485512053 481.953137367 388.472504124 584.801563726 614.055256267 968.131068578 950.388365291 491.367397937 486.561281873 423.533398925 490.107715305 482.78853191 350.635105286 311.946680815 277.17303596 287.498978861 342.9745574 343.934139741 770.121661089 452.548489728 219.955316854 353.082174023 395.050728866 318.831461017 299.542621951 433.95751186 359.692220802 502.882373031 488.100957789 353.141972746 303.37619232 260.768212981 349.269663855 280.828634264 349.890608249 263.57299164 270.611631035 397.865792991 352.347887557 240.925360646 445.04876276 264.310010252 133.090826106 200.425436077 321.866174341 279.238484736 272.195199386 226.895790143 260.795317333 181.690608762 139.932841188 104.138416693 107.283953384 71.0197076384 118.983202434 111.249926932 178.90207572 156.841473979 158.792846412 113.919599105 162.704286745 113.11904859 198.19628269 130.747326776 182.12069467 338.947500215 197.23030758 119.424259069 75.8560546261 75.4345214242 155.185686343 80.443002022 165.371523906 169.443329118 180.708687774 86.2537402251 310.298485158 174.494854163 96.3627042405 302.206430181 667.27454065 347.26235142 59.0678701727 648.115315634 3475.62705201 1705.07699828 1356.20875668 609.404305707 462.277561131 290.086484105 204.143469137
